stdX3.0/luts/look_vd16CC.cube
TITLE "Generated by Foundry::LUT"
LUT_3D_SIZE 5
DOMAIN_MIN 0.000000 0.000000 0.000000
DOMAIN_MAX 0.903226 0.903226 0.903226
0.000000 0.000000 0.000000
0.513668 0.000000 0.000000
0.702886 0.000000 0.000000
0.797568 0.000000 0.000000
0.849944 0.000000 0.000000
0.000000 0.473069 0.000000
0.513668 0.473069 0.000000
0.702886 0.473069 0.000000
0.797568 0.473069 0.000000
0.849944 0.473069 0.000000
0.000000 0.672916 0.000000
0.513668 0.672916 0.000000
0.702886 0.672916 0.000000
0.797568 0.672916 0.000000
0.849944 0.672916 0.000000
0.000000 0.775580 0.000000
0.513668 0.775580 0.000000
0.702886 0.775580 0.000000
0.797568 0.775580 0.000000
0.849944 0.775580 0.000000
0.000000 0.833035 0.000000
0.513668 0.833035 0.000000
0.702886 0.833035 0.000000
0.797568 0.833035 0.000000
0.849944 0.833035 0.000000
0.000000 0.000000 0.539652
0.513668 0.000000 0.539652
0.702886 0.000000 0.539652
0.797568 0.000000 0.539652
0.849944 0.000000 0.539652
0.000000 0.473069 0.539652
0.513668 0.473069 0.539652
0.702886 0.473069 0.539652
0.797568 0.473069 0.539652
0.849944 0.473069 0.539652
0.000000 0.672916 0.539652
0.513668 0.672916 0.539652
0.702886 0.672916 0.539652
0.797568 0.672916 0.539652
0.849944 0.672916 0.539652
0.000000 0.775580 0.539652
0.513668 0.775580 0.539652
0.702886 0.775580 0.539652
0.797568 0.775580 0.539652
0.849944 0.775580 0.539652
0.000000 0.833035 0.539652
0.513668 0.833035 0.539652
0.702886 0.833035 0.539652
0.797568 0.833035 0.539652
0.849944 0.833035 0.539652
0.000000 0.000000 0.721484
0.513668 0.000000 0.721484
0.702886 0.000000 0.721484
0.797568 0.000000 0.721484
0.849944 0.000000 0.721484
0.000000 0.473069 0.721484
0.513668 0.473069 0.721484
0.702886 0.473069 0.721484
0.797568 0.473069 0.721484
0.849944 0.473069 0.721484
0.000000 0.672916 0.721484
0.513668 0.672916 0.721484
0.702886 0.672916 0.721484
0.797568 0.672916 0.721484
0.849944 0.672916 0.721484
0.000000 0.775580 0.721484
0.513668 0.775580 0.721484
0.702886 0.775580 0.721484
0.797568 0.775580 0.721484
0.849944 0.775580 0.721484
0.000000 0.833035 0.721484
0.513668 0.833035 0.721484
0.702886 0.833035 0.721484
0.797568 0.833035 0.721484
0.849944 0.833035 0.721484
0.000000 0.000000 0.811043
0.513668 0.000000 0.811043
0.702886 0.000000 0.811043
0.797568 0.000000 0.811043
0.849944 0.000000 0.811043
0.000000 0.473069 0.811043
0.513668 0.473069 0.811043
0.702886 0.473069 0.811043
0.797568 0.473069 0.811043
0.849944 0.473069 0.811043
0.000000 0.672916 0.811043
0.513668 0.672916 0.811043
0.702886 0.672916 0.811043
0.797568 0.672916 0.811043
0.849944 0.672916 0.811043
0.000000 0.775580 0.811043
0.513668 0.775580 0.811043
0.702886 0.775580 0.811043
0.797568 0.775580 0.811043
0.849944 0.775580 0.811043
0.000000 0.833035 0.811043
0.513668 0.833035 0.811043
0.702886 0.833035 0.811043
0.797568 0.833035 0.811043
0.849944 0.833035 0.811043
0.000000 0.000000 0.860242
0.513668 0.000000 0.860242
0.702886 0.000000 0.860242
0.797568 0.000000 0.860242
0.849944 0.000000 0.860242
0.000000 0.473069 0.860242
0.513668 0.473069 0.860242
0.702886 0.473069 0.860242
0.797568 0.473069 0.860242
0.849944 0.473069 0.860242
0.000000 0.672916 0.860242
0.513668 0.672916 0.860242
0.702886 0.672916 0.860242
0.797568 0.672916 0.860242
0.849944 0.672916 0.860242
0.000000 0.775580 0.860242
0.513668 0.775580 0.860242
0.702886 0.775580 0.860242
0.797568 0.775580 0.860242
0.849944 0.775580 0.860242
0.000000 0.833035 0.860242
0.513668 0.833035 0.860242
0.702886 0.833035 0.860242
0.797568 0.833035 0.860242
0.849944 0.833035 0.860242
