stdX3.0/luts/look_vd16CC.cube
TITLE "Generated by Foundry::LUT"
LUT_3D_SIZE 32
0.000000 0.000000 0.000000
0.108781 0.000000 0.000000
0.205492 0.000000 0.000000
0.288332 0.000000 0.000000
0.359782 0.000000 0.000000
0.420062 0.000000 0.000000
0.470493 0.000000 0.000000
0.513668 0.000000 0.000000
0.551182 0.000000 0.000000
0.584119 0.000000 0.000000
0.613294 0.000000 0.000000
0.639325 0.000000 0.000000
0.662694 0.000000 0.000000
0.683774 0.000000 0.000000
0.702886 0.000000 0.000000
0.720258 0.000000 0.000000
0.736112 0.000000 0.000000
0.750608 0.000000 0.000000
0.763884 0.000000 0.000000
0.776076 0.000000 0.000000
0.787268 0.000000 0.000000
0.797568 0.000000 0.000000
0.807043 0.000000 0.000000
0.815772 0.000000 0.000000
0.823798 0.000000 0.000000
0.831183 0.000000 0.000000
0.837981 0.000000 0.000000
0.844214 0.000000 0.000000
0.849944 0.000000 0.000000
0.855300 0.000000 0.000000
0.860358 0.000000 0.000000
0.865142 0.000000 0.000000
0.000000 0.082694 0.000000
0.108781 0.082694 0.000000
0.205492 0.082694 0.000000
0.288332 0.082694 0.000000
0.359782 0.082694 0.000000
0.420062 0.082694 0.000000
0.470493 0.082694 0.000000
0.513668 0.082694 0.000000
0.551182 0.082694 0.000000
0.584119 0.082694 0.000000
0.613294 0.082694 0.000000
0.639325 0.082694 0.000000
0.662694 0.082694 0.000000
0.683774 0.082694 0.000000
0.702886 0.082694 0.000000
0.720258 0.082694 0.000000
0.736112 0.082694 0.000000
0.750608 0.082694 0.000000
0.763884 0.082694 0.000000
0.776076 0.082694 0.000000
0.787268 0.082694 0.000000
0.797568 0.082694 0.000000
0.807043 0.082694 0.000000
0.815772 0.082694 0.000000
0.823798 0.082694 0.000000
0.831183 0.082694 0.000000
0.837981 0.082694 0.000000
0.844214 0.082694 0.000000
0.849944 0.082694 0.000000
0.855300 0.082694 0.000000
0.860358 0.082694 0.000000
0.865142 0.082694 0.000000
0.000000 0.168989 0.000000
0.108781 0.168989 0.000000
0.205492 0.168989 0.000000
0.288332 0.168989 0.000000
0.359782 0.168989 0.000000
0.420062 0.168989 0.000000
0.470493 0.168989 0.000000
0.513668 0.168989 0.000000
0.551182 0.168989 0.000000
0.584119 0.168989 0.000000
0.613294 0.168989 0.000000
0.639325 0.168989 0.000000
0.662694 0.168989 0.000000
0.683774 0.168989 0.000000
0.702886 0.168989 0.000000
0.720258 0.168989 0.000000
0.736112 0.168989 0.000000
0.750608 0.168989 0.000000
0.763884 0.168989 0.000000
0.776076 0.168989 0.000000
0.787268 0.168989 0.000000
0.797568 0.168989 0.000000
0.807043 0.168989 0.000000
0.815772 0.168989 0.000000
0.823798 0.168989 0.000000
0.831183 0.168989 0.000000
0.837981 0.168989 0.000000
0.844214 0.168989 0.000000
0.849944 0.168989 0.000000
0.855300 0.168989 0.000000
0.860358 0.168989 0.000000
0.865142 0.168989 0.000000
0.000000 0.247251 0.000000
0.108781 0.247251 0.000000
0.205492 0.247251 0.000000
0.288332 0.247251 0.000000
0.359782 0.247251 0.000000
0.420062 0.247251 0.000000
0.470493 0.247251 0.000000
0.513668 0.247251 0.000000
0.551182 0.247251 0.000000
0.584119 0.247251 0.000000
0.613294 0.247251 0.000000
0.639325 0.247251 0.000000
0.662694 0.247251 0.000000
0.683774 0.247251 0.000000
0.702886 0.247251 0.000000
0.720258 0.247251 0.000000
0.736112 0.247251 0.000000
0.750608 0.247251 0.000000
0.763884 0.247251 0.000000
0.776076 0.247251 0.000000
0.787268 0.247251 0.000000
0.797568 0.247251 0.000000
0.807043 0.247251 0.000000
0.815772 0.247251 0.000000
0.823798 0.247251 0.000000
0.831183 0.247251 0.000000
0.837981 0.247251 0.000000
0.844214 0.247251 0.000000
0.849944 0.247251 0.000000
0.855300 0.247251 0.000000
0.860358 0.247251 0.000000
0.865142 0.247251 0.000000
0.000000 0.317079 0.000000
0.108781 0.317079 0.000000
0.205492 0.317079 0.000000
0.288332 0.317079 0.000000
0.359782 0.317079 0.000000
0.420062 0.317079 0.000000
0.470493 0.317079 0.000000
0.513668 0.317079 0.000000
0.551182 0.317079 0.000000
0.584119 0.317079 0.000000
0.613294 0.317079 0.000000
0.639325 0.317079 0.000000
0.662694 0.317079 0.000000
0.683774 0.317079 0.000000
0.702886 0.317079 0.000000
0.720258 0.317079 0.000000
0.736112 0.317079 0.000000
0.750608 0.317079 0.000000
0.763884 0.317079 0.000000
0.776076 0.317079 0.000000
0.787268 0.317079 0.000000
0.797568 0.317079 0.000000
0.807043 0.317079 0.000000
0.815772 0.317079 0.000000
0.823798 0.317079 0.000000
0.831183 0.317079 0.000000
0.837981 0.317079 0.000000
0.844214 0.317079 0.000000
0.849944 0.317079 0.000000
0.855300 0.317079 0.000000
0.860358 0.317079 0.000000
0.865142 0.317079 0.000000
0.000000 0.377361 0.000000
0.108781 0.377361 0.000000
0.205492 0.377361 0.000000
0.288332 0.377361 0.000000
0.359782 0.377361 0.000000
0.420062 0.377361 0.000000
0.470493 0.377361 0.000000
0.513668 0.377361 0.000000
0.551182 0.377361 0.000000
0.584119 0.377361 0.000000
0.613294 0.377361 0.000000
0.639325 0.377361 0.000000
0.662694 0.377361 0.000000
0.683774 0.377361 0.000000
0.702886 0.377361 0.000000
0.720258 0.377361 0.000000
0.736112 0.377361 0.000000
0.750608 0.377361 0.000000
0.763884 0.377361 0.000000
0.776076 0.377361 0.000000
0.787268 0.377361 0.000000
0.797568 0.377361 0.000000
0.807043 0.377361 0.000000
0.815772 0.377361 0.000000
0.823798 0.377361 0.000000
0.831183 0.377361 0.000000
0.837981 0.377361 0.000000
0.844214 0.377361 0.000000
0.849944 0.377361 0.000000
0.855300 0.377361 0.000000
0.860358 0.377361 0.000000
0.865142 0.377361 0.000000
0.000000 0.428630 0.000000
0.108781 0.428630 0.000000
0.205492 0.428630 0.000000
0.288332 0.428630 0.000000
0.359782 0.428630 0.000000
0.420062 0.428630 0.000000
0.470493 0.428630 0.000000
0.513668 0.428630 0.000000
0.551182 0.428630 0.000000
0.584119 0.428630 0.000000
0.613294 0.428630 0.000000
0.639325 0.428630 0.000000
0.662694 0.428630 0.000000
0.683774 0.428630 0.000000
0.702886 0.428630 0.000000
0.720258 0.428630 0.000000
0.736112 0.428630 0.000000
0.750608 0.428630 0.000000
0.763884 0.428630 0.000000
0.776076 0.428630 0.000000
0.787268 0.428630 0.000000
0.797568 0.428630 0.000000
0.807043 0.428630 0.000000
0.815772 0.428630 0.000000
0.823798 0.428630 0.000000
0.831183 0.428630 0.000000
0.837981 0.428630 0.000000
0.844214 0.428630 0.000000
0.849944 0.428630 0.000000
0.855300 0.428630 0.000000
0.860358 0.428630 0.000000
0.865142 0.428630 0.000000
0.000000 0.473069 0.000000
0.108781 0.473069 0.000000
0.205492 0.473069 0.000000
0.288332 0.473069 0.000000
0.359782 0.473069 0.000000
0.420062 0.473069 0.000000
0.470493 0.473069 0.000000
0.513668 0.473069 0.000000
0.551182 0.473069 0.000000
0.584119 0.473069 0.000000
0.613294 0.473069 0.000000
0.639325 0.473069 0.000000
0.662694 0.473069 0.000000
0.683774 0.473069 0.000000
0.702886 0.473069 0.000000
0.720258 0.473069 0.000000
0.736112 0.473069 0.000000
0.750608 0.473069 0.000000
0.763884 0.473069 0.000000
0.776076 0.473069 0.000000
0.787268 0.473069 0.000000
0.797568 0.473069 0.000000
0.807043 0.473069 0.000000
0.815772 0.473069 0.000000
0.823798 0.473069 0.000000
0.831183 0.473069 0.000000
0.837981 0.473069 0.000000
0.844214 0.473069 0.000000
0.849944 0.473069 0.000000
0.855300 0.473069 0.000000
0.860358 0.473069 0.000000
0.865142 0.473069 0.000000
0.000000 0.512060 0.000000
0.108781 0.512060 0.000000
0.205492 0.512060 0.000000
0.288332 0.512060 0.000000
0.359782 0.512060 0.000000
0.420062 0.512060 0.000000
0.470493 0.512060 0.000000
0.513668 0.512060 0.000000
0.551182 0.512060 0.000000
0.584119 0.512060 0.000000
0.613294 0.512060 0.000000
0.639325 0.512060 0.000000
0.662694 0.512060 0.000000
0.683774 0.512060 0.000000
0.702886 0.512060 0.000000
0.720258 0.512060 0.000000
0.736112 0.512060 0.000000
0.750608 0.512060 0.000000
0.763884 0.512060 0.000000
0.776076 0.512060 0.000000
0.787268 0.512060 0.000000
0.797568 0.512060 0.000000
0.807043 0.512060 0.000000
0.815772 0.512060 0.000000
0.823798 0.512060 0.000000
0.831183 0.512060 0.000000
0.837981 0.512060 0.000000
0.844214 0.512060 0.000000
0.849944 0.512060 0.000000
0.855300 0.512060 0.000000
0.860358 0.512060 0.000000
0.865142 0.512060 0.000000
0.000000 0.546565 0.000000
0.108781 0.546565 0.000000
0.205492 0.546565 0.000000
0.288332 0.546565 0.000000
0.359782 0.546565 0.000000
0.420062 0.546565 0.000000
0.470493 0.546565 0.000000
0.513668 0.546565 0.000000
0.551182 0.546565 0.000000
0.584119 0.546565 0.000000
0.613294 0.546565 0.000000
0.639325 0.546565 0.000000
0.662694 0.546565 0.000000
0.683774 0.546565 0.000000
0.702886 0.546565 0.000000
0.720258 0.546565 0.000000
0.736112 0.546565 0.000000
0.750608 0.546565 0.000000
0.763884 0.546565 0.000000
0.776076 0.546565 0.000000
0.787268 0.546565 0.000000
0.797568 0.546565 0.000000
0.807043 0.546565 0.000000
0.815772 0.546565 0.000000
0.823798 0.546565 0.000000
0.831183 0.546565 0.000000
0.837981 0.546565 0.000000
0.844214 0.546565 0.000000
0.849944 0.546565 0.000000
0.855300 0.546565 0.000000
0.860358 0.546565 0.000000
0.865142 0.546565 0.000000
0.000000 0.577331 0.000000
0.108781 0.577331 0.000000
0.205492 0.577331 0.000000
0.288332 0.577331 0.000000
0.359782 0.577331 0.000000
0.420062 0.577331 0.000000
0.470493 0.577331 0.000000
0.513668 0.577331 0.000000
0.551182 0.577331 0.000000
0.584119 0.577331 0.000000
0.613294 0.577331 0.000000
0.639325 0.577331 0.000000
0.662694 0.577331 0.000000
0.683774 0.577331 0.000000
0.702886 0.577331 0.000000
0.720258 0.577331 0.000000
0.736112 0.577331 0.000000
0.750608 0.577331 0.000000
0.763884 0.577331 0.000000
0.776076 0.577331 0.000000
0.787268 0.577331 0.000000
0.797568 0.577331 0.000000
0.807043 0.577331 0.000000
0.815772 0.577331 0.000000
0.823798 0.577331 0.000000
0.831183 0.577331 0.000000
0.837981 0.577331 0.000000
0.844214 0.577331 0.000000
0.849944 0.577331 0.000000
0.855300 0.577331 0.000000
0.860358 0.577331 0.000000
0.865142 0.577331 0.000000
0.000000 0.604937 0.000000
0.108781 0.604937 0.000000
0.205492 0.604937 0.000000
0.288332 0.604937 0.000000
0.359782 0.604937 0.000000
0.420062 0.604937 0.000000
0.470493 0.604937 0.000000
0.513668 0.604937 0.000000
0.551182 0.604937 0.000000
0.584119 0.604937 0.000000
0.613294 0.604937 0.000000
0.639325 0.604937 0.000000
0.662694 0.604937 0.000000
0.683774 0.604937 0.000000
0.702886 0.604937 0.000000
0.720258 0.604937 0.000000
0.736112 0.604937 0.000000
0.750608 0.604937 0.000000
0.763884 0.604937 0.000000
0.776076 0.604937 0.000000
0.787268 0.604937 0.000000
0.797568 0.604937 0.000000
0.807043 0.604937 0.000000
0.815772 0.604937 0.000000
0.823798 0.604937 0.000000
0.831183 0.604937 0.000000
0.837981 0.604937 0.000000
0.844214 0.604937 0.000000
0.849944 0.604937 0.000000
0.855300 0.604937 0.000000
0.860358 0.604937 0.000000
0.865142 0.604937 0.000000
0.000000 0.629837 0.000000
0.108781 0.629837 0.000000
0.205492 0.629837 0.000000
0.288332 0.629837 0.000000
0.359782 0.629837 0.000000
0.420062 0.629837 0.000000
0.470493 0.629837 0.000000
0.513668 0.629837 0.000000
0.551182 0.629837 0.000000
0.584119 0.629837 0.000000
0.613294 0.629837 0.000000
0.639325 0.629837 0.000000
0.662694 0.629837 0.000000
0.683774 0.629837 0.000000
0.702886 0.629837 0.000000
0.720258 0.629837 0.000000
0.736112 0.629837 0.000000
0.750608 0.629837 0.000000
0.763884 0.629837 0.000000
0.776076 0.629837 0.000000
0.787268 0.629837 0.000000
0.797568 0.629837 0.000000
0.807043 0.629837 0.000000
0.815772 0.629837 0.000000
0.823798 0.629837 0.000000
0.831183 0.629837 0.000000
0.837981 0.629837 0.000000
0.844214 0.629837 0.000000
0.849944 0.629837 0.000000
0.855300 0.629837 0.000000
0.860358 0.629837 0.000000
0.865142 0.629837 0.000000
0.000000 0.652392 0.000000
0.108781 0.652392 0.000000
0.205492 0.652392 0.000000
0.288332 0.652392 0.000000
0.359782 0.652392 0.000000
0.420062 0.652392 0.000000
0.470493 0.652392 0.000000
0.513668 0.652392 0.000000
0.551182 0.652392 0.000000
0.584119 0.652392 0.000000
0.613294 0.652392 0.000000
0.639325 0.652392 0.000000
0.662694 0.652392 0.000000
0.683774 0.652392 0.000000
0.702886 0.652392 0.000000
0.720258 0.652392 0.000000
0.736112 0.652392 0.000000
0.750608 0.652392 0.000000
0.763884 0.652392 0.000000
0.776076 0.652392 0.000000
0.787268 0.652392 0.000000
0.797568 0.652392 0.000000
0.807043 0.652392 0.000000
0.815772 0.652392 0.000000
0.823798 0.652392 0.000000
0.831183 0.652392 0.000000
0.837981 0.652392 0.000000
0.844214 0.652392 0.000000
0.849944 0.652392 0.000000
0.855300 0.652392 0.000000
0.860358 0.652392 0.000000
0.865142 0.652392 0.000000
0.000000 0.672916 0.000000
0.108781 0.672916 0.000000
0.205492 0.672916 0.000000
0.288332 0.672916 0.000000
0.359782 0.672916 0.000000
0.420062 0.672916 0.000000
0.470493 0.672916 0.000000
0.513668 0.672916 0.000000
0.551182 0.672916 0.000000
0.584119 0.672916 0.000000
0.613294 0.672916 0.000000
0.639325 0.672916 0.000000
0.662694 0.672916 0.000000
0.683774 0.672916 0.000000
0.702886 0.672916 0.000000
0.720258 0.672916 0.000000
0.736112 0.672916 0.000000
0.750608 0.672916 0.000000
0.763884 0.672916 0.000000
0.776076 0.672916 0.000000
0.787268 0.672916 0.000000
0.797568 0.672916 0.000000
0.807043 0.672916 0.000000
0.815772 0.672916 0.000000
0.823798 0.672916 0.000000
0.831183 0.672916 0.000000
0.837981 0.672916 0.000000
0.844214 0.672916 0.000000
0.849944 0.672916 0.000000
0.855300 0.672916 0.000000
0.860358 0.672916 0.000000
0.865142 0.672916 0.000000
0.000000 0.691631 0.000000
0.108781 0.691631 0.000000
0.205492 0.691631 0.000000
0.288332 0.691631 0.000000
0.359782 0.691631 0.000000
0.420062 0.691631 0.000000
0.470493 0.691631 0.000000
0.513668 0.691631 0.000000
0.551182 0.691631 0.000000
0.584119 0.691631 0.000000
0.613294 0.691631 0.000000
0.639325 0.691631 0.000000
0.662694 0.691631 0.000000
0.683774 0.691631 0.000000
0.702886 0.691631 0.000000
0.720258 0.691631 0.000000
0.736112 0.691631 0.000000
0.750608 0.691631 0.000000
0.763884 0.691631 0.000000
0.776076 0.691631 0.000000
0.787268 0.691631 0.000000
0.797568 0.691631 0.000000
0.807043 0.691631 0.000000
0.815772 0.691631 0.000000
0.823798 0.691631 0.000000
0.831183 0.691631 0.000000
0.837981 0.691631 0.000000
0.844214 0.691631 0.000000
0.849944 0.691631 0.000000
0.855300 0.691631 0.000000
0.860358 0.691631 0.000000
0.865142 0.691631 0.000000
0.000000 0.708760 0.000000
0.108781 0.708760 0.000000
0.205492 0.708760 0.000000
0.288332 0.708760 0.000000
0.359782 0.708760 0.000000
0.420062 0.708760 0.000000
0.470493 0.708760 0.000000
0.513668 0.708760 0.000000
0.551182 0.708760 0.000000
0.584119 0.708760 0.000000
0.613294 0.708760 0.000000
0.639325 0.708760 0.000000
0.662694 0.708760 0.000000
0.683774 0.708760 0.000000
0.702886 0.708760 0.000000
0.720258 0.708760 0.000000
0.736112 0.708760 0.000000
0.750608 0.708760 0.000000
0.763884 0.708760 0.000000
0.776076 0.708760 0.000000
0.787268 0.708760 0.000000
0.797568 0.708760 0.000000
0.807043 0.708760 0.000000
0.815772 0.708760 0.000000
0.823798 0.708760 0.000000
0.831183 0.708760 0.000000
0.837981 0.708760 0.000000
0.844214 0.708760 0.000000
0.849944 0.708760 0.000000
0.855300 0.708760 0.000000
0.860358 0.708760 0.000000
0.865142 0.708760 0.000000
0.000000 0.724461 0.000000
0.108781 0.724461 0.000000
0.205492 0.724461 0.000000
0.288332 0.724461 0.000000
0.359782 0.724461 0.000000
0.420062 0.724461 0.000000
0.470493 0.724461 0.000000
0.513668 0.724461 0.000000
0.551182 0.724461 0.000000
0.584119 0.724461 0.000000
0.613294 0.724461 0.000000
0.639325 0.724461 0.000000
0.662694 0.724461 0.000000
0.683774 0.724461 0.000000
0.702886 0.724461 0.000000
0.720258 0.724461 0.000000
0.736112 0.724461 0.000000
0.750608 0.724461 0.000000
0.763884 0.724461 0.000000
0.776076 0.724461 0.000000
0.787268 0.724461 0.000000
0.797568 0.724461 0.000000
0.807043 0.724461 0.000000
0.815772 0.724461 0.000000
0.823798 0.724461 0.000000
0.831183 0.724461 0.000000
0.837981 0.724461 0.000000
0.844214 0.724461 0.000000
0.849944 0.724461 0.000000
0.855300 0.724461 0.000000
0.860358 0.724461 0.000000
0.865142 0.724461 0.000000
0.000000 0.738873 0.000000
0.108781 0.738873 0.000000
0.205492 0.738873 0.000000
0.288332 0.738873 0.000000
0.359782 0.738873 0.000000
0.420062 0.738873 0.000000
0.470493 0.738873 0.000000
0.513668 0.738873 0.000000
0.551182 0.738873 0.000000
0.584119 0.738873 0.000000
0.613294 0.738873 0.000000
0.639325 0.738873 0.000000
0.662694 0.738873 0.000000
0.683774 0.738873 0.000000
0.702886 0.738873 0.000000
0.720258 0.738873 0.000000
0.736112 0.738873 0.000000
0.750608 0.738873 0.000000
0.763884 0.738873 0.000000
0.776076 0.738873 0.000000
0.787268 0.738873 0.000000
0.797568 0.738873 0.000000
0.807043 0.738873 0.000000
0.815772 0.738873 0.000000
0.823798 0.738873 0.000000
0.831183 0.738873 0.000000
0.837981 0.738873 0.000000
0.844214 0.738873 0.000000
0.849944 0.738873 0.000000
0.855300 0.738873 0.000000
0.860358 0.738873 0.000000
0.865142 0.738873 0.000000
0.000000 0.752136 0.000000
0.108781 0.752136 0.000000
0.205492 0.752136 0.000000
0.288332 0.752136 0.000000
0.359782 0.752136 0.000000
0.420062 0.752136 0.000000
0.470493 0.752136 0.000000
0.513668 0.752136 0.000000
0.551182 0.752136 0.000000
0.584119 0.752136 0.000000
0.613294 0.752136 0.000000
0.639325 0.752136 0.000000
0.662694 0.752136 0.000000
0.683774 0.752136 0.000000
0.702886 0.752136 0.000000
0.720258 0.752136 0.000000
0.736112 0.752136 0.000000
0.750608 0.752136 0.000000
0.763884 0.752136 0.000000
0.776076 0.752136 0.000000
0.787268 0.752136 0.000000
0.797568 0.752136 0.000000
0.807043 0.752136 0.000000
0.815772 0.752136 0.000000
0.823798 0.752136 0.000000
0.831183 0.752136 0.000000
0.837981 0.752136 0.000000
0.844214 0.752136 0.000000
0.849944 0.752136 0.000000
0.855300 0.752136 0.000000
0.860358 0.752136 0.000000
0.865142 0.752136 0.000000
0.000000 0.764335 0.000000
0.108781 0.764335 0.000000
0.205492 0.764335 0.000000
0.288332 0.764335 0.000000
0.359782 0.764335 0.000000
0.420062 0.764335 0.000000
0.470493 0.764335 0.000000
0.513668 0.764335 0.000000
0.551182 0.764335 0.000000
0.584119 0.764335 0.000000
0.613294 0.764335 0.000000
0.639325 0.764335 0.000000
0.662694 0.764335 0.000000
0.683774 0.764335 0.000000
0.702886 0.764335 0.000000
0.720258 0.764335 0.000000
0.736112 0.764335 0.000000
0.750608 0.764335 0.000000
0.763884 0.764335 0.000000
0.776076 0.764335 0.000000
0.787268 0.764335 0.000000
0.797568 0.764335 0.000000
0.807043 0.764335 0.000000
0.815772 0.764335 0.000000
0.823798 0.764335 0.000000
0.831183 0.764335 0.000000
0.837981 0.764335 0.000000
0.844214 0.764335 0.000000
0.849944 0.764335 0.000000
0.855300 0.764335 0.000000
0.860358 0.764335 0.000000
0.865142 0.764335 0.000000
0.000000 0.775580 0.000000
0.108781 0.775580 0.000000
0.205492 0.775580 0.000000
0.288332 0.775580 0.000000
0.359782 0.775580 0.000000
0.420062 0.775580 0.000000
0.470493 0.775580 0.000000
0.513668 0.775580 0.000000
0.551182 0.775580 0.000000
0.584119 0.775580 0.000000
0.613294 0.775580 0.000000
0.639325 0.775580 0.000000
0.662694 0.775580 0.000000
0.683774 0.775580 0.000000
0.702886 0.775580 0.000000
0.720258 0.775580 0.000000
0.736112 0.775580 0.000000
0.750608 0.775580 0.000000
0.763884 0.775580 0.000000
0.776076 0.775580 0.000000
0.787268 0.775580 0.000000
0.797568 0.775580 0.000000
0.807043 0.775580 0.000000
0.815772 0.775580 0.000000
0.823798 0.775580 0.000000
0.831183 0.775580 0.000000
0.837981 0.775580 0.000000
0.844214 0.775580 0.000000
0.849944 0.775580 0.000000
0.855300 0.775580 0.000000
0.860358 0.775580 0.000000
0.865142 0.775580 0.000000
0.000000 0.785941 0.000000
0.108781 0.785941 0.000000
0.205492 0.785941 0.000000
0.288332 0.785941 0.000000
0.359782 0.785941 0.000000
0.420062 0.785941 0.000000
0.470493 0.785941 0.000000
0.513668 0.785941 0.000000
0.551182 0.785941 0.000000
0.584119 0.785941 0.000000
0.613294 0.785941 0.000000
0.639325 0.785941 0.000000
0.662694 0.785941 0.000000
0.683774 0.785941 0.000000
0.702886 0.785941 0.000000
0.720258 0.785941 0.000000
0.736112 0.785941 0.000000
0.750608 0.785941 0.000000
0.763884 0.785941 0.000000
0.776076 0.785941 0.000000
0.787268 0.785941 0.000000
0.797568 0.785941 0.000000
0.807043 0.785941 0.000000
0.815772 0.785941 0.000000
0.823798 0.785941 0.000000
0.831183 0.785941 0.000000
0.837981 0.785941 0.000000
0.844214 0.785941 0.000000
0.849944 0.785941 0.000000
0.855300 0.785941 0.000000
0.860358 0.785941 0.000000
0.865142 0.785941 0.000000
0.000000 0.795498 0.000000
0.108781 0.795498 0.000000
0.205492 0.795498 0.000000
0.288332 0.795498 0.000000
0.359782 0.795498 0.000000
0.420062 0.795498 0.000000
0.470493 0.795498 0.000000
0.513668 0.795498 0.000000
0.551182 0.795498 0.000000
0.584119 0.795498 0.000000
0.613294 0.795498 0.000000
0.639325 0.795498 0.000000
0.662694 0.795498 0.000000
0.683774 0.795498 0.000000
0.702886 0.795498 0.000000
0.720258 0.795498 0.000000
0.736112 0.795498 0.000000
0.750608 0.795498 0.000000
0.763884 0.795498 0.000000
0.776076 0.795498 0.000000
0.787268 0.795498 0.000000
0.797568 0.795498 0.000000
0.807043 0.795498 0.000000
0.815772 0.795498 0.000000
0.823798 0.795498 0.000000
0.831183 0.795498 0.000000
0.837981 0.795498 0.000000
0.844214 0.795498 0.000000
0.849944 0.795498 0.000000
0.855300 0.795498 0.000000
0.860358 0.795498 0.000000
0.865142 0.795498 0.000000
0.000000 0.804297 0.000000
0.108781 0.804297 0.000000
0.205492 0.804297 0.000000
0.288332 0.804297 0.000000
0.359782 0.804297 0.000000
0.420062 0.804297 0.000000
0.470493 0.804297 0.000000
0.513668 0.804297 0.000000
0.551182 0.804297 0.000000
0.584119 0.804297 0.000000
0.613294 0.804297 0.000000
0.639325 0.804297 0.000000
0.662694 0.804297 0.000000
0.683774 0.804297 0.000000
0.702886 0.804297 0.000000
0.720258 0.804297 0.000000
0.736112 0.804297 0.000000
0.750608 0.804297 0.000000
0.763884 0.804297 0.000000
0.776076 0.804297 0.000000
0.787268 0.804297 0.000000
0.797568 0.804297 0.000000
0.807043 0.804297 0.000000
0.815772 0.804297 0.000000
0.823798 0.804297 0.000000
0.831183 0.804297 0.000000
0.837981 0.804297 0.000000
0.844214 0.804297 0.000000
0.849944 0.804297 0.000000
0.855300 0.804297 0.000000
0.860358 0.804297 0.000000
0.865142 0.804297 0.000000
0.000000 0.812403 0.000000
0.108781 0.812403 0.000000
0.205492 0.812403 0.000000
0.288332 0.812403 0.000000
0.359782 0.812403 0.000000
0.420062 0.812403 0.000000
0.470493 0.812403 0.000000
0.513668 0.812403 0.000000
0.551182 0.812403 0.000000
0.584119 0.812403 0.000000
0.613294 0.812403 0.000000
0.639325 0.812403 0.000000
0.662694 0.812403 0.000000
0.683774 0.812403 0.000000
0.702886 0.812403 0.000000
0.720258 0.812403 0.000000
0.736112 0.812403 0.000000
0.750608 0.812403 0.000000
0.763884 0.812403 0.000000
0.776076 0.812403 0.000000
0.787268 0.812403 0.000000
0.797568 0.812403 0.000000
0.807043 0.812403 0.000000
0.815772 0.812403 0.000000
0.823798 0.812403 0.000000
0.831183 0.812403 0.000000
0.837981 0.812403 0.000000
0.844214 0.812403 0.000000
0.849944 0.812403 0.000000
0.855300 0.812403 0.000000
0.860358 0.812403 0.000000
0.865142 0.812403 0.000000
0.000000 0.819872 0.000000
0.108781 0.819872 0.000000
0.205492 0.819872 0.000000
0.288332 0.819872 0.000000
0.359782 0.819872 0.000000
0.420062 0.819872 0.000000
0.470493 0.819872 0.000000
0.513668 0.819872 0.000000
0.551182 0.819872 0.000000
0.584119 0.819872 0.000000
0.613294 0.819872 0.000000
0.639325 0.819872 0.000000
0.662694 0.819872 0.000000
0.683774 0.819872 0.000000
0.702886 0.819872 0.000000
0.720258 0.819872 0.000000
0.736112 0.819872 0.000000
0.750608 0.819872 0.000000
0.763884 0.819872 0.000000
0.776076 0.819872 0.000000
0.787268 0.819872 0.000000
0.797568 0.819872 0.000000
0.807043 0.819872 0.000000
0.815772 0.819872 0.000000
0.823798 0.819872 0.000000
0.831183 0.819872 0.000000
0.837981 0.819872 0.000000
0.844214 0.819872 0.000000
0.849944 0.819872 0.000000
0.855300 0.819872 0.000000
0.860358 0.819872 0.000000
0.865142 0.819872 0.000000
0.000000 0.826728 0.000000
0.108781 0.826728 0.000000
0.205492 0.826728 0.000000
0.288332 0.826728 0.000000
0.359782 0.826728 0.000000
0.420062 0.826728 0.000000
0.470493 0.826728 0.000000
0.513668 0.826728 0.000000
0.551182 0.826728 0.000000
0.584119 0.826728 0.000000
0.613294 0.826728 0.000000
0.639325 0.826728 0.000000
0.662694 0.826728 0.000000
0.683774 0.826728 0.000000
0.702886 0.826728 0.000000
0.720258 0.826728 0.000000
0.736112 0.826728 0.000000
0.750608 0.826728 0.000000
0.763884 0.826728 0.000000
0.776076 0.826728 0.000000
0.787268 0.826728 0.000000
0.797568 0.826728 0.000000
0.807043 0.826728 0.000000
