stdX3.0/luts/look_vd16CC.cube
TITLE "Generated by Foundry::LUT"
LUT_3D_SIZE 8
DOMAIN_MIN 0.000000 0.000000 0.000000
DOMAIN_MAX 0.903226 0.903226 0.903226
0.000000 0.000000 0.000000
0.359782 0.000000 0.000000
0.551182 0.000000 0.000000
0.662694 0.000000 0.000000
0.736112 0.000000 0.000000
0.787268 0.000000 0.000000
0.823798 0.000000 0.000000
0.849944 0.000000 0.000000
0.000000 0.317079 0.000000
0.359782 0.317079 0.000000
0.551182 0.317079 0.000000
0.662694 0.317079 0.000000
0.736112 0.317079 0.000000
0.787268 0.317079 0.000000
0.823798 0.317079 0.000000
0.849944 0.317079 0.000000
0.000000 0.512060 0.000000
0.359782 0.512060 0.000000
0.551182 0.512060 0.000000
0.662694 0.512060 0.000000
0.736112 0.512060 0.000000
0.787268 0.512060 0.000000
0.823798 0.512060 0.000000
0.849944 0.512060 0.000000
0.000000 0.629837 0.000000
0.359782 0.629837 0.000000
0.551182 0.629837 0.000000
0.662694 0.629837 0.000000
0.736112 0.629837 0.000000
0.787268 0.629837 0.000000
0.823798 0.629837 0.000000
0.849944 0.629837 0.000000
0.000000 0.708760 0.000000
0.359782 0.708760 0.000000
0.551182 0.708760 0.000000
0.662694 0.708760 0.000000
0.736112 0.708760 0.000000
0.787268 0.708760 0.000000
0.823798 0.708760 0.000000
0.849944 0.708760 0.000000
0.000000 0.764335 0.000000
0.359782 0.764335 0.000000
0.551182 0.764335 0.000000
0.662694 0.764335 0.000000
0.736112 0.764335 0.000000
0.787268 0.764335 0.000000
0.823798 0.764335 0.000000
0.849944 0.764335 0.000000
0.000000 0.804297 0.000000
0.359782 0.804297 0.000000
0.551182 0.804297 0.000000
0.662694 0.804297 0.000000
0.736112 0.804297 0.000000
0.787268 0.804297 0.000000
0.823798 0.804297 0.000000
0.849944 0.804297 0.000000
0.000000 0.833035 0.000000
0.359782 0.833035 0.000000
0.551182 0.833035 0.000000
0.662694 0.833035 0.000000
0.736112 0.833035 0.000000
0.787268 0.833035 0.000000
0.823798 0.833035 0.000000
0.849944 0.833035 0.000000
0.000000 0.000000 0.388084
0.359782 0.000000 0.388084
0.551182 0.000000 0.388084
0.662694 0.000000 0.388084
0.736112 0.000000 0.388084
0.787268 0.000000 0.388084
0.823798 0.000000 0.388084
0.849944 0.000000 0.388084
0.000000 0.317079 0.388084
0.359782 0.317079 0.388084
0.551182 0.317079 0.388084
0.662694 0.317079 0.388084
0.736112 0.317079 0.388084
0.787268 0.317079 0.388084
0.823798 0.317079 0.388084
0.849944 0.317079 0.388084
0.000000 0.512060 0.388084
0.359782 0.512060 0.388084
0.551182 0.512060 0.388084
0.662694 0.512060 0.388084
0.736112 0.512060 0.388084
0.787268 0.512060 0.388084
0.823798 0.512060 0.388084
0.849944 0.512060 0.388084
0.000000 0.629837 0.388084
0.359782 0.629837 0.388084
0.551182 0.629837 0.388084
0.662694 0.629837 0.388084
0.736112 0.629837 0.388084
0.787268 0.629837 0.388084
0.823798 0.629837 0.388084
0.849944 0.629837 0.388084
0.000000 0.708760 0.388084
0.359782 0.708760 0.388084
0.551182 0.708760 0.388084
0.662694 0.708760 0.388084
0.736112 0.708760 0.388084
0.787268 0.708760 0.388084
0.823798 0.708760 0.388084
0.849944 0.708760 0.388084
0.000000 0.764335 0.388084
0.359782 0.764335 0.388084
0.551182 0.764335 0.388084
0.662694 0.764335 0.388084
0.736112 0.764335 0.388084
0.787268 0.764335 0.388084
0.823798 0.764335 0.388084
0.849944 0.764335 0.388084
0.000000 0.804297 0.388084
0.359782 0.804297 0.388084
0.551182 0.804297 0.388084
0.662694 0.804297 0.388084
0.736112 0.804297 0.388084
0.787268 0.804297 0.388084
0.823798 0.804297 0.388084
0.849944 0.804297 0.388084
0.000000 0.833035 0.388084
0.359782 0.833035 0.388084
0.551182 0.833035 0.388084
0.662694 0.833035 0.388084
0.736112 0.833035 0.388084
0.787268 0.833035 0.388084
0.823798 0.833035 0.388084
0.849944 0.833035 0.388084
0.000000 0.000000 0.576048
0.359782 0.000000 0.576048
0.551182 0.000000 0.576048
0.662694 0.000000 0.576048
0.736112 0.000000 0.576048
0.787268 0.000000 0.576048
0.823798 0.000000 0.576048
0.849944 0.000000 0.576048
0.000000 0.317079 0.576048
0.359782 0.317079 0.576048
0.551182 0.317079 0.576048
0.662694 0.317079 0.576048
0.736112 0.317079 0.576048
0.787268 0.317079 0.576048
0.823798 0.317079 0.576048
0.849944 0.317079 0.576048
0.000000 0.512060 0.576048
0.359782 0.512060 0.576048
0.551182 0.512060 0.576048
0.662694 0.512060 0.576048
0.736112 0.512060 0.576048
0.787268 0.512060 0.576048
0.823798 0.512060 0.576048
0.849944 0.512060 0.576048
0.000000 0.629837 0.576048
0.359782 0.629837 0.576048
0.551182 0.629837 0.576048
0.662694 0.629837 0.576048
0.736112 0.629837 0.576048
0.787268 0.629837 0.576048
0.823798 0.629837 0.576048
0.849944 0.629837 0.576048
0.000000 0.708760 0.576048
0.359782 0.708760 0.576048
0.551182 0.708760 0.576048
0.662694 0.708760 0.576048
0.736112 0.708760 0.576048
0.787268 0.708760 0.576048
0.823798 0.708760 0.576048
0.849944 0.708760 0.576048
0.000000 0.764335 0.576048
0.359782 0.764335 0.576048
0.551182 0.764335 0.576048
0.662694 0.764335 0.576048
0.736112 0.764335 0.576048
0.787268 0.764335 0.576048
0.823798 0.764335 0.576048
0.849944 0.764335 0.576048
0.000000 0.804297 0.576048
0.359782 0.804297 0.576048
0.551182 0.804297 0.576048
0.662694 0.804297 0.576048
0.736112 0.804297 0.576048
0.787268 0.804297 0.576048
0.823798 0.804297 0.576048
0.849944 0.804297 0.576048
0.000000 0.833035 0.576048
0.359782 0.833035 0.576048
0.551182 0.833035 0.576048
0.662694 0.833035 0.576048
0.736112 0.833035 0.576048
0.787268 0.833035 0.576048
0.823798 0.833035 0.576048
0.849944 0.833035 0.576048
0.000000 0.000000 0.683202
0.359782 0.000000 0.683202
0.551182 0.000000 0.683202
0.662694 0.000000 0.683202
0.736112 0.000000 0.683202
0.787268 0.000000 0.683202
0.823798 0.000000 0.683202
0.849944 0.000000 0.683202
0.000000 0.317079 0.683202
0.359782 0.317079 0.683202
0.551182 0.317079 0.683202
0.662694 0.317079 0.683202
0.736112 0.317079 0.683202
0.787268 0.317079 0.683202
0.823798 0.317079 0.683202
0.849944 0.317079 0.683202
0.000000 0.512060 0.683202
0.359782 0.512060 0.683202
0.551182 0.512060 0.683202
0.662694 0.512060 0.683202
0.736112 0.512060 0.683202
0.787268 0.512060 0.683202
0.823798 0.512060 0.683202
0.849944 0.512060 0.683202
0.000000 0.629837 0.683202
0.359782 0.629837 0.683202
0.551182 0.629837 0.683202
0.662694 0.629837 0.683202
0.736112 0.629837 0.683202
0.787268 0.629837 0.683202
0.823798 0.629837 0.683202
0.849944 0.629837 0.683202
0.000000 0.708760 0.683202
0.359782 0.708760 0.683202
0.551182 0.708760 0.683202
0.662694 0.708760 0.683202
0.736112 0.708760 0.683202
0.787268 0.708760 0.683202
0.823798 0.708760 0.683202
0.849944 0.708760 0.683202
0.000000 0.764335 0.683202
0.359782 0.764335 0.683202
0.551182 0.764335 0.683202
0.662694 0.764335 0.683202
0.736112 0.764335 0.683202
0.787268 0.764335 0.683202
0.823798 0.764335 0.683202
0.849944 0.764335 0.683202
0.000000 0.804297 0.683202
0.359782 0.804297 0.683202
0.551182 0.804297 0.683202
0.662694 0.804297 0.683202
0.736112 0.804297 0.683202
0.787268 0.804297 0.683202
0.823798 0.804297 0.683202
0.849944 0.804297 0.683202
0.000000 0.833035 0.683202
0.359782 0.833035 0.683202
0.551182 0.833035 0.683202
0.662694 0.833035 0.683202
0.736112 0.833035 0.683202
0.787268 0.833035 0.683202
0.823798 0.833035 0.683202
0.849944 0.833035 0.683202
0.000000 0.000000 0.753009
0.359782 0.000000 0.753009
0.551182 0.000000 0.753009
0.662694 0.000000 0.753009
0.736112 0.000000 0.753009
0.787268 0.000000 0.753009
0.823798 0.000000 0.753009
0.849944 0.000000 0.753009
0.000000 0.317079 0.753009
0.359782 0.317079 0.753009
0.551182 0.317079 0.753009
0.662694 0.317079 0.753009
0.736112 0.317079 0.753009
0.787268 0.317079 0.753009
0.823798 0.317079 0.753009
0.849944 0.317079 0.753009
0.000000 0.512060 0.753009
0.359782 0.512060 0.753009
0.551182 0.512060 0.753009
0.662694 0.512060 0.753009
0.736112 0.512060 0.753009
0.787268 0.512060 0.753009
0.823798 0.512060 0.753009
0.849944 0.512060 0.753009
0.000000 0.629837 0.753009
0.359782 0.629837 0.753009
0.551182 0.629837 0.753009
0.662694 0.629837 0.753009
0.736112 0.629837 0.753009
0.787268 0.629837 0.753009
0.823798 0.629837 0.753009
0.849944 0.629837 0.753009
0.000000 0.708760 0.753009
0.359782 0.708760 0.753009
0.551182 0.708760 0.753009
0.662694 0.708760 0.753009
0.736112 0.708760 0.753009
0.787268 0.708760 0.753009
0.823798 0.708760 0.753009
0.849944 0.708760 0.753009
0.000000 0.764335 0.753009
0.359782 0.764335 0.753009
0.551182 0.764335 0.753009
0.662694 0.764335 0.753009
0.736112 0.764335 0.753009
0.787268 0.764335 0.753009
0.823798 0.764335 0.753009
0.849944 0.764335 0.753009
0.000000 0.804297 0.753009
0.359782 0.804297 0.753009
0.551182 0.804297 0.753009
0.662694 0.804297 0.753009
0.736112 0.804297 0.753009
0.787268 0.804297 0.753009
0.823798 0.804297 0.753009
0.849944 0.804297 0.753009
0.000000 0.833035 0.753009
0.359782 0.833035 0.753009
0.551182 0.833035 0.753009
0.662694 0.833035 0.753009
0.736112 0.833035 0.753009
0.787268 0.833035 0.753009
0.823798 0.833035 0.753009
0.849944 0.833035 0.753009
0.000000 0.000000 0.801341
0.359782 0.000000 0.801341
0.551182 0.000000 0.801341
0.662694 0.000000 0.801341
0.736112 0.000000 0.801341
0.787268 0.000000 0.801341
0.823798 0.000000 0.801341
0.849944 0.000000 0.801341
0.000000 0.317079 0.801341
0.359782 0.317079 0.801341
0.551182 0.317079 0.801341
0.662694 0.317079 0.801341
0.736112 0.317079 0.801341
0.787268 0.317079 0.801341
0.823798 0.317079 0.801341
0.849944 0.317079 0.801341
0.000000 0.512060 0.801341
0.359782 0.512060 0.801341
0.551182 0.512060 0.801341
0.662694 0.512060 0.801341
0.736112 0.512060 0.801341
0.787268 0.512060 0.801341
0.823798 0.512060 0.801341
0.849944 0.512060 0.801341
0.000000 0.629837 0.801341
0.359782 0.629837 0.801341
0.551182 0.629837 0.801341
0.662694 0.629837 0.801341
0.736112 0.629837 0.801341
0.787268 0.629837 0.801341
0.823798 0.629837 0.801341
0.849944 0.629837 0.801341
0.000000 0.708760 0.801341
0.359782 0.708760 0.801341
0.551182 0.708760 0.801341
0.662694 0.708760 0.801341
0.736112 0.708760 0.801341
0.787268 0.708760 0.801341
0.823798 0.708760 0.801341
0.849944 0.708760 0.801341
0.000000 0.764335 0.801341
0.359782 0.764335 0.801341
0.551182 0.764335 0.801341
0.662694 0.764335 0.801341
0.736112 0.764335 0.801341
0.787268 0.764335 0.801341
0.823798 0.764335 0.801341
0.849944 0.764335 0.801341
0.000000 0.804297 0.801341
0.359782 0.804297 0.801341
0.551182 0.804297 0.801341
0.662694 0.804297 0.801341
0.736112 0.804297 0.801341
0.787268 0.804297 0.801341
0.823798 0.804297 0.801341
0.849944 0.804297 0.801341
0.000000 0.833035 0.801341
0.359782 0.833035 0.801341
0.551182 0.833035 0.801341
0.662694 0.833035 0.801341
0.736112 0.833035 0.801341
0.787268 0.833035 0.801341
0.823798 0.833035 0.801341
0.849944 0.833035 0.801341
0.000000 0.000000 0.835711
0.359782 0.000000 0.835711
0.551182 0.000000 0.835711
0.662694 0.000000 0.835711
0.736112 0.000000 0.835711
0.787268 0.000000 0.835711
0.823798 0.000000 0.835711
0.849944 0.000000 0.835711
0.000000 0.317079 0.835711
0.359782 0.317079 0.835711
0.551182 0.317079 0.835711
0.662694 0.317079 0.835711
0.736112 0.317079 0.835711
0.787268 0.317079 0.835711
0.823798 0.317079 0.835711
0.849944 0.317079 0.835711
0.000000 0.512060 0.835711
0.359782 0.512060 0.835711
0.551182 0.512060 0.835711
0.662694 0.512060 0.835711
0.736112 0.512060 0.835711
0.787268 0.512060 0.835711
0.823798 0.512060 0.835711
0.849944 0.512060 0.835711
0.000000 0.629837 0.835711
0.359782 0.629837 0.835711
0.551182 0.629837 0.835711
0.662694 0.629837 0.835711
0.736112 0.629837 0.835711
0.787268 0.629837 0.835711
0.823798 0.629837 0.835711
0.849944 0.629837 0.835711
0.000000 0.708760 0.835711
0.359782 0.708760 0.835711
0.551182 0.708760 0.835711
0.662694 0.708760 0.835711
0.736112 0.708760 0.835711
0.787268 0.708760 0.835711
0.823798 0.708760 0.835711
0.849944 0.708760 0.835711
0.000000 0.764335 0.835711
0.359782 0.764335 0.835711
0.551182 0.764335 0.835711
0.662694 0.764335 0.835711
0.736112 0.764335 0.835711
0.787268 0.764335 0.835711
0.823798 0.764335 0.835711
0.849944 0.764335 0.835711
0.000000 0.804297 0.835711
0.359782 0.804297 0.835711
0.551182 0.804297 0.835711
0.662694 0.804297 0.835711
0.736112 0.804297 0.835711
0.787268 0.804297 0.835711
0.823798 0.804297 0.835711
0.849944 0.804297 0.835711
0.000000 0.833035 0.835711
0.359782 0.833035 0.835711
0.551182 0.833035 0.835711
0.662694 0.833035 0.835711
0.736112 0.833035 0.835711
0.787268 0.833035 0.835711
0.823798 0.833035 0.835711
0.849944 0.833035 0.835711
0.000000 0.000000 0.860242
0.359782 0.000000 0.860242
0.551182 0.000000 0.860242
0.662694 0.000000 0.860242
0.736112 0.000000 0.860242
0.787268 0.000000 0.860242
0.823798 0.000000 0.860242
0.849944 0.000000 0.860242
0.000000 0.317079 0.860242
0.359782 0.317079 0.860242
0.551182 0.317079 0.860242
0.662694 0.317079 0.860242
0.736112 0.317079 0.860242
0.787268 0.317079 0.860242
0.823798 0.317079 0.860242
0.849944 0.317079 0.860242
0.000000 0.512060 0.860242
0.359782 0.512060 0.860242
0.551182 0.512060 0.860242
0.662694 0.512060 0.860242
0.736112 0.512060 0.860242
0.787268 0.512060 0.860242
0.823798 0.512060 0.860242
0.849944 0.512060 0.860242
0.000000 0.629837 0.860242
0.359782 0.629837 0.860242
0.551182 0.629837 0.860242
0.662694 0.629837 0.860242
0.736112 0.629837 0.860242
0.787268 0.629837 0.860242
0.823798 0.629837 0.860242
0.849944 0.629837 0.860242
0.000000 0.708760 0.860242
0.359782 0.708760 0.860242
0.551182 0.708760 0.860242
0.662694 0.708760 0.860242
0.736112 0.708760 0.860242
0.787268 0.708760 0.860242
0.823798 0.708760 0.860242
0.849944 0.708760 0.860242
0.000000 0.764335 0.860242
0.359782 0.764335 0.860242
0.551182 0.764335 0.860242
0.662694 0.764335 0.860242
0.736112 0.764335 0.860242
0.787268 0.764335 0.860242
0.823798 0.764335 0.860242
0.849944 0.764335 0.860242
0.000000 0.804297 0.860242
0.359782 0.804297 0.860242
0.551182 0.804297 0.860242
0.662694 0.804297 0.860242
0.736112 0.804297 0.860242
0.787268 0.804297 0.860242
0.823798 0.804297 0.860242
0.849944 0.804297 0.860242
0.000000 0.833035 0.860242
0.359782 0.833035 0.860242
0.551182 0.833035 0.860242
0.662694 0.833035 0.860242
0.736112 0.833035 0.860242
0.787268 0.833035 0.860242
0.823798 0.833035 0.860242
0.849944 0.833035 0.860242
