stdX3.0/luts/PSD_log2rgb.cube
TITLE "Generated by Foundry::LUT"
LUT_3D_SIZE 8
DOMAIN_MIN 0.000000 0.000000 0.000000
DOMAIN_MAX 0.903226 0.903226 0.903226
0.001577 0.001577 0.001577
0.086055 0.001577 0.001577
0.202670 0.001577 0.001577
0.375362 0.001577 0.001577
0.641325 0.001577 0.001577
1.035765 0.001577 0.001577
1.125000 0.001577 0.001577
1.125000 0.001577 0.001577
0.001577 0.086055 0.001577
0.086055 0.086055 0.001577
0.202670 0.086055 0.001577
0.375362 0.086055 0.001577
0.641325 0.086055 0.001577
1.035765 0.086055 0.001577
1.125000 0.086055 0.001577
1.125000 0.086055 0.001577
0.001577 0.202670 0.001577
0.086055 0.202670 0.001577
0.202670 0.202670 0.001577
0.375362 0.202670 0.001577
0.641325 0.202670 0.001577
1.035765 0.202670 0.001577
1.125000 0.202670 0.001577
1.125000 0.202670 0.001577
0.001577 0.375362 0.001577
0.086055 0.375362 0.001577
0.202670 0.375362 0.001577
0.375362 0.375362 0.001577
0.641325 0.375362 0.001577
1.035765 0.375362 0.001577
1.125000 0.375362 0.001577
1.125000 0.375362 0.001577
0.001577 0.641325 0.001577
0.086055 0.641325 0.001577
0.202670 0.641325 0.001577
0.375362 0.641325 0.001577
0.641325 0.641325 0.001577
1.035765 0.641325 0.001577
1.125000 0.641325 0.001577
1.125000 0.641325 0.001577
0.001577 1.035765 0.001577
0.086055 1.035765 0.001577
0.202670 1.035765 0.001577
0.375362 1.035765 0.001577
0.641325 1.035765 0.001577
1.035765 1.035765 0.001577
1.125000 1.035765 0.001577
1.125000 1.035765 0.001577
0.001577 1.125000 0.001577
0.086055 1.125000 0.001577
0.202670 1.125000 0.001577
0.375362 1.125000 0.001577
0.641325 1.125000 0.001577
1.035765 1.125000 0.001577
1.125000 1.125000 0.001577
1.125000 1.125000 0.001577
0.001577 1.125000 0.001577
0.086055 1.125000 0.001577
0.202670 1.125000 0.001577
0.375362 1.125000 0.001577
0.641325 1.125000 0.001577
1.035765 1.125000 0.001577
1.125000 1.125000 0.001577
1.125000 1.125000 0.001577
0.001577 0.001577 0.086055
0.086055 0.001577 0.086055
0.202670 0.001577 0.086055
0.375362 0.001577 0.086055
0.641325 0.001577 0.086055
1.035765 0.001577 0.086055
1.125000 0.001577 0.086055
1.125000 0.001577 0.086055
0.001577 0.086055 0.086055
0.086055 0.086055 0.086055
0.202670 0.086055 0.086055
0.375362 0.086055 0.086055
0.641325 0.086055 0.086055
1.035765 0.086055 0.086055
1.125000 0.086055 0.086055
1.125000 0.086055 0.086055
0.001577 0.202670 0.086055
0.086055 0.202670 0.086055
0.202670 0.202670 0.086055
0.375362 0.202670 0.086055
0.641325 0.202670 0.086055
1.035765 0.202670 0.086055
1.125000 0.202670 0.086055
1.125000 0.202670 0.086055
0.001577 0.375362 0.086055
0.086055 0.375362 0.086055
0.202670 0.375362 0.086055
0.375362 0.375362 0.086055
0.641325 0.375362 0.086055
1.035765 0.375362 0.086055
1.125000 0.375362 0.086055
1.125000 0.375362 0.086055
0.001577 0.641325 0.086055
0.086055 0.641325 0.086055
0.202670 0.641325 0.086055
0.375362 0.641325 0.086055
0.641325 0.641325 0.086055
1.035765 0.641325 0.086055
1.125000 0.641325 0.086055
1.125000 0.641325 0.086055
0.001577 1.035765 0.086055
0.086055 1.035765 0.086055
0.202670 1.035765 0.086055
0.375362 1.035765 0.086055
0.641325 1.035765 0.086055
1.035765 1.035765 0.086055
1.125000 1.035765 0.086055
1.125000 1.035765 0.086055
0.001577 1.125000 0.086055
0.086055 1.125000 0.086055
0.202670 1.125000 0.086055
0.375362 1.125000 0.086055
0.641325 1.125000 0.086055
1.035765 1.125000 0.086055
1.125000 1.125000 0.086055
1.125000 1.125000 0.086055
0.001577 1.125000 0.086055
0.086055 1.125000 0.086055
0.202670 1.125000 0.086055
0.375362 1.125000 0.086055
0.641325 1.125000 0.086055
1.035765 1.125000 0.086055
1.125000 1.125000 0.086055
1.125000 1.125000 0.086055
0.001577 0.001577 0.202670
0.086055 0.001577 0.202670
0.202670 0.001577 0.202670
0.375362 0.001577 0.202670
0.641325 0.001577 0.202670
1.035765 0.001577 0.202670
1.125000 0.001577 0.202670
1.125000 0.001577 0.202670
0.001577 0.086055 0.202670
0.086055 0.086055 0.202670
0.202670 0.086055 0.202670
0.375362 0.086055 0.202670
0.641325 0.086055 0.202670
1.035765 0.086055 0.202670
1.125000 0.086055 0.202670
1.125000 0.086055 0.202670
0.001577 0.202670 0.202670
0.086055 0.202670 0.202670
0.202670 0.202670 0.202670
0.375362 0.202670 0.202670
0.641325 0.202670 0.202670
1.035765 0.202670 0.202670
1.125000 0.202670 0.202670
1.125000 0.202670 0.202670
0.001577 0.375362 0.202670
0.086055 0.375362 0.202670
0.202670 0.375362 0.202670
0.375362 0.375362 0.202670
0.641325 0.375362 0.202670
1.035765 0.375362 0.202670
1.125000 0.375362 0.202670
1.125000 0.375362 0.202670
0.001577 0.641325 0.202670
0.086055 0.641325 0.202670
0.202670 0.641325 0.202670
0.375362 0.641325 0.202670
0.641325 0.641325 0.202670
1.035765 0.641325 0.202670
1.125000 0.641325 0.202670
1.125000 0.641325 0.202670
0.001577 1.035765 0.202670
0.086055 1.035765 0.202670
0.202670 1.035765 0.202670
0.375362 1.035765 0.202670
0.641325 1.035765 0.202670
1.035765 1.035765 0.202670
1.125000 1.035765 0.202670
1.125000 1.035765 0.202670
0.001577 1.125000 0.202670
0.086055 1.125000 0.202670
0.202670 1.125000 0.202670
0.375362 1.125000 0.202670
0.641325 1.125000 0.202670
1.035765 1.125000 0.202670
1.125000 1.125000 0.202670
1.125000 1.125000 0.202670
0.001577 1.125000 0.202670
0.086055 1.125000 0.202670
0.202670 1.125000 0.202670
0.375362 1.125000 0.202670
0.641325 1.125000 0.202670
1.035765 1.125000 0.202670
1.125000 1.125000 0.202670
1.125000 1.125000 0.202670
0.001577 0.001577 0.375362
0.086055 0.001577 0.375362
0.202670 0.001577 0.375362
0.375362 0.001577 0.375362
0.641325 0.001577 0.375362
1.035765 0.001577 0.375362
1.125000 0.001577 0.375362
1.125000 0.001577 0.375362
0.001577 0.086055 0.375362
0.086055 0.086055 0.375362
0.202670 0.086055 0.375362
0.375362 0.086055 0.375362
0.641325 0.086055 0.375362
1.035765 0.086055 0.375362
1.125000 0.086055 0.375362
1.125000 0.086055 0.375362
0.001577 0.202670 0.375362
0.086055 0.202670 0.375362
0.202670 0.202670 0.375362
0.375362 0.202670 0.375362
0.641325 0.202670 0.375362
1.035765 0.202670 0.375362
1.125000 0.202670 0.375362
1.125000 0.202670 0.375362
0.001577 0.375362 0.375362
0.086055 0.375362 0.375362
0.202670 0.375362 0.375362
0.375362 0.375362 0.375362
0.641325 0.375362 0.375362
1.035765 0.375362 0.375362
1.125000 0.375362 0.375362
1.125000 0.375362 0.375362
0.001577 0.641325 0.375362
0.086055 0.641325 0.375362
0.202670 0.641325 0.375362
0.375362 0.641325 0.375362
0.641325 0.641325 0.375362
1.035765 0.641325 0.375362
1.125000 0.641325 0.375362
1.125000 0.641325 0.375362
0.001577 1.035765 0.375362
0.086055 1.035765 0.375362
0.202670 1.035765 0.375362
0.375362 1.035765 0.375362
0.641325 1.035765 0.375362
1.035765 1.035765 0.375362
1.125000 1.035765 0.375362
1.125000 1.035765 0.375362
0.001577 1.125000 0.375362
0.086055 1.125000 0.375362
0.202670 1.125000 0.375362
0.375362 1.125000 0.375362
0.641325 1.125000 0.375362
1.035765 1.125000 0.375362
1.125000 1.125000 0.375362
1.125000 1.125000 0.375362
0.001577 1.125000 0.375362
0.086055 1.125000 0.375362
0.202670 1.125000 0.375362
0.375362 1.125000 0.375362
0.641325 1.125000 0.375362
1.035765 1.125000 0.375362
1.125000 1.125000 0.375362
1.125000 1.125000 0.375362
0.001577 0.001577 0.641325
0.086055 0.001577 0.641325
0.202670 0.001577 0.641325
0.375362 0.001577 0.641325
0.641325 0.001577 0.641325
1.035765 0.001577 0.641325
1.125000 0.001577 0.641325
1.125000 0.001577 0.641325
0.001577 0.086055 0.641325
0.086055 0.086055 0.641325
0.202670 0.086055 0.641325
0.375362 0.086055 0.641325
0.641325 0.086055 0.641325
1.035765 0.086055 0.641325
1.125000 0.086055 0.641325
1.125000 0.086055 0.641325
0.001577 0.202670 0.641325
0.086055 0.202670 0.641325
0.202670 0.202670 0.641325
0.375362 0.202670 0.641325
0.641325 0.202670 0.641325
1.035765 0.202670 0.641325
1.125000 0.202670 0.641325
1.125000 0.202670 0.641325
0.001577 0.375362 0.641325
0.086055 0.375362 0.641325
0.202670 0.375362 0.641325
0.375362 0.375362 0.641325
0.641325 0.375362 0.641325
1.035765 0.375362 0.641325
1.125000 0.375362 0.641325
1.125000 0.375362 0.641325
0.001577 0.641325 0.641325
0.086055 0.641325 0.641325
0.202670 0.641325 0.641325
0.375362 0.641325 0.641325
0.641325 0.641325 0.641325
1.035765 0.641325 0.641325
1.125000 0.641325 0.641325
1.125000 0.641325 0.641325
0.001577 1.035765 0.641325
0.086055 1.035765 0.641325
0.202670 1.035765 0.641325
0.375362 1.035765 0.641325
0.641325 1.035765 0.641325
1.035765 1.035765 0.641325
1.125000 1.035765 0.641325
1.125000 1.035765 0.641325
0.001577 1.125000 0.641325
0.086055 1.125000 0.641325
0.202670 1.125000 0.641325
0.375362 1.125000 0.641325
0.641325 1.125000 0.641325
1.035765 1.125000 0.641325
1.125000 1.125000 0.641325
1.125000 1.125000 0.641325
0.001577 1.125000 0.641325
0.086055 1.125000 0.641325
0.202670 1.125000 0.641325
0.375362 1.125000 0.641325
0.641325 1.125000 0.641325
1.035765 1.125000 0.641325
1.125000 1.125000 0.641325
1.125000 1.125000 0.641325
0.001577 0.001577 1.035765
0.086055 0.001577 1.035765
0.202670 0.001577 1.035765
0.375362 0.001577 1.035765
0.641325 0.001577 1.035765
1.035765 0.001577 1.035765
1.125000 0.001577 1.035765
1.125000 0.001577 1.035765
0.001577 0.086055 1.035765
0.086055 0.086055 1.035765
0.202670 0.086055 1.035765
0.375362 0.086055 1.035765
0.641325 0.086055 1.035765
1.035765 0.086055 1.035765
1.125000 0.086055 1.035765
1.125000 0.086055 1.035765
0.001577 0.202670 1.035765
0.086055 0.202670 1.035765
0.202670 0.202670 1.035765
0.375362 0.202670 1.035765
0.641325 0.202670 1.035765
1.035765 0.202670 1.035765
1.125000 0.202670 1.035765
1.125000 0.202670 1.035765
0.001577 0.375362 1.035765
0.086055 0.375362 1.035765
0.202670 0.375362 1.035765
0.375362 0.375362 1.035765
0.641325 0.375362 1.035765
1.035765 0.375362 1.035765
1.125000 0.375362 1.035765
1.125000 0.375362 1.035765
0.001577 0.641325 1.035765
0.086055 0.641325 1.035765
0.202670 0.641325 1.035765
0.375362 0.641325 1.035765
0.641325 0.641325 1.035765
1.035765 0.641325 1.035765
1.125000 0.641325 1.035765
1.125000 0.641325 1.035765
0.001577 1.035765 1.035765
0.086055 1.035765 1.035765
0.202670 1.035765 1.035765
0.375362 1.035765 1.035765
0.641325 1.035765 1.035765
1.035765 1.035765 1.035765
1.125000 1.035765 1.035765
1.125000 1.035765 1.035765
0.001577 1.125000 1.035765
0.086055 1.125000 1.035765
0.202670 1.125000 1.035765
0.375362 1.125000 1.035765
0.641325 1.125000 1.035765
1.035765 1.125000 1.035765
1.125000 1.125000 1.035765
1.125000 1.125000 1.035765
0.001577 1.125000 1.035765
0.086055 1.125000 1.035765
0.202670 1.125000 1.035765
0.375362 1.125000 1.035765
0.641325 1.125000 1.035765
1.035765 1.125000 1.035765
1.125000 1.125000 1.035765
1.125000 1.125000 1.035765
0.001577 0.001577 1.125000
0.086055 0.001577 1.125000
0.202670 0.001577 1.125000
0.375362 0.001577 1.125000
0.641325 0.001577 1.125000
1.035765 0.001577 1.125000
1.125000 0.001577 1.125000
1.125000 0.001577 1.125000
0.001577 0.086055 1.125000
0.086055 0.086055 1.125000
0.202670 0.086055 1.125000
0.375362 0.086055 1.125000
0.641325 0.086055 1.125000
1.035765 0.086055 1.125000
1.125000 0.086055 1.125000
1.125000 0.086055 1.125000
0.001577 0.202670 1.125000
0.086055 0.202670 1.125000
0.202670 0.202670 1.125000
0.375362 0.202670 1.125000
0.641325 0.202670 1.125000
1.035765 0.202670 1.125000
1.125000 0.202670 1.125000
1.125000 0.202670 1.125000
0.001577 0.375362 1.125000
0.086055 0.375362 1.125000
0.202670 0.375362 1.125000
0.375362 0.375362 1.125000
0.641325 0.375362 1.125000
1.035765 0.375362 1.125000
1.125000 0.375362 1.125000
1.125000 0.375362 1.125000
0.001577 0.641325 1.125000
0.086055 0.641325 1.125000
0.202670 0.641325 1.125000
0.375362 0.641325 1.125000
0.641325 0.641325 1.125000
1.035765 0.641325 1.125000
1.125000 0.641325 1.125000
1.125000 0.641325 1.125000
0.001577 1.035765 1.125000
0.086055 1.035765 1.125000
0.202670 1.035765 1.125000
0.375362 1.035765 1.125000
0.641325 1.035765 1.125000
1.035765 1.035765 1.125000
1.125000 1.035765 1.125000
1.125000 1.035765 1.125000
0.001577 1.125000 1.125000
0.086055 1.125000 1.125000
0.202670 1.125000 1.125000
0.375362 1.125000 1.125000
0.641325 1.125000 1.125000
1.035765 1.125000 1.125000
1.125000 1.125000 1.125000
1.125000 1.125000 1.125000
0.001577 1.125000 1.125000
0.086055 1.125000 1.125000
0.202670 1.125000 1.125000
0.375362 1.125000 1.125000
0.641325 1.125000 1.125000
1.035765 1.125000 1.125000
1.125000 1.125000 1.125000
1.125000 1.125000 1.125000
0.001577 0.001577 1.125000
0.086055 0.001577 1.125000
0.202670 0.001577 1.125000
0.375362 0.001577 1.125000
0.641325 0.001577 1.125000
1.035765 0.001577 1.125000
1.125000 0.001577 1.125000
1.125000 0.001577 1.125000
0.001577 0.086055 1.125000
0.086055 0.086055 1.125000
0.202670 0.086055 1.125000
0.375362 0.086055 1.125000
0.641325 0.086055 1.125000
1.035765 0.086055 1.125000
1.125000 0.086055 1.125000
1.125000 0.086055 1.125000
0.001577 0.202670 1.125000
0.086055 0.202670 1.125000
0.202670 0.202670 1.125000
0.375362 0.202670 1.125000
0.641325 0.202670 1.125000
1.035765 0.202670 1.125000
1.125000 0.202670 1.125000
1.125000 0.202670 1.125000
0.001577 0.375362 1.125000
0.086055 0.375362 1.125000
0.202670 0.375362 1.125000
0.375362 0.375362 1.125000
0.641325 0.375362 1.125000
1.035765 0.375362 1.125000
1.125000 0.375362 1.125000
1.125000 0.375362 1.125000
0.001577 0.641325 1.125000
0.086055 0.641325 1.125000
0.202670 0.641325 1.125000
0.375362 0.641325 1.125000
0.641325 0.641325 1.125000
1.035765 0.641325 1.125000
1.125000 0.641325 1.125000
1.125000 0.641325 1.125000
0.001577 1.035765 1.125000
0.086055 1.035765 1.125000
0.202670 1.035765 1.125000
0.375362 1.035765 1.125000
0.641325 1.035765 1.125000
1.035765 1.035765 1.125000
1.125000 1.035765 1.125000
1.125000 1.035765 1.125000
0.001577 1.125000 1.125000
0.086055 1.125000 1.125000
0.202670 1.125000 1.125000
0.375362 1.125000 1.125000
0.641325 1.125000 1.125000
1.035765 1.125000 1.125000
1.125000 1.125000 1.125000
1.125000 1.125000 1.125000
0.001577 1.125000 1.125000
0.086055 1.125000 1.125000
0.202670 1.125000 1.125000
0.375362 1.125000 1.125000
0.641325 1.125000 1.125000
1.035765 1.125000 1.125000
1.125000 1.125000 1.125000
1.125000 1.125000 1.125000
