stdX3.0/luts/PSD_log2rec709.cube
TITLE "Generated by Foundry::LUT"
LUT_3D_SIZE 32
0.000549 0.000549 0.000549
0.002605 0.000549 0.000549
0.009220 0.000549 0.000549
0.021329 0.000549 0.000549
0.035970 0.000549 0.000549
0.054039 0.000549 0.000549
0.077592 0.000549 0.000549
0.107413 0.000549 0.000549
0.140792 0.000549 0.000549
0.178037 0.000549 0.000549
0.219528 0.000549 0.000549
0.265971 0.000549 0.000549
0.318278 0.000549 0.000549
0.377485 0.000549 0.000549
0.444528 0.000549 0.000549
0.519354 0.000549 0.000549
0.602653 0.000549 0.000549
0.695344 0.000549 0.000549
0.798432 0.000549 0.000549
0.913016 0.000549 0.000549
1.040291 0.000549 0.000549
1.125000 0.000549 0.000549
1.125000 0.000549 0.000549
1.125000 0.000549 0.000549
1.125000 0.000549 0.000549
1.125000 0.000549 0.000549
1.125000 0.000549 0.000549
1.125000 0.000549 0.000549
1.125000 0.000549 0.000549
1.125000 0.000549 0.000549
1.125000 0.000549 0.000549
1.125000 0.000549 0.000549
0.000549 0.002605 0.000549
0.002605 0.002605 0.000549
0.009220 0.002605 0.000549
0.021329 0.002605 0.000549
0.035970 0.002605 0.000549
0.054039 0.002605 0.000549
0.077592 0.002605 0.000549
0.107413 0.002605 0.000549
0.140792 0.002605 0.000549
0.178037 0.002605 0.000549
0.219528 0.002605 0.000549
0.265971 0.002605 0.000549
0.318278 0.002605 0.000549
0.377485 0.002605 0.000549
0.444528 0.002605 0.000549
0.519354 0.002605 0.000549
0.602653 0.002605 0.000549
0.695344 0.002605 0.000549
0.798432 0.002605 0.000549
0.913016 0.002605 0.000549
1.040291 0.002605 0.000549
1.125000 0.002605 0.000549
1.125000 0.002605 0.000549
1.125000 0.002605 0.000549
1.125000 0.002605 0.000549
1.125000 0.002605 0.000549
1.125000 0.002605 0.000549
1.125000 0.002605 0.000549
1.125000 0.002605 0.000549
1.125000 0.002605 0.000549
1.125000 0.002605 0.000549
1.125000 0.002605 0.000549
0.000549 0.009220 0.000549
0.002605 0.009220 0.000549
0.009220 0.009220 0.000549
0.021329 0.009220 0.000549
0.035970 0.009220 0.000549
0.054039 0.009220 0.000549
0.077592 0.009220 0.000549
0.107413 0.009220 0.000549
0.140792 0.009220 0.000549
0.178037 0.009220 0.000549
0.219528 0.009220 0.000549
0.265971 0.009220 0.000549
0.318278 0.009220 0.000549
0.377485 0.009220 0.000549
0.444528 0.009220 0.000549
0.519354 0.009220 0.000549
0.602653 0.009220 0.000549
0.695344 0.009220 0.000549
0.798432 0.009220 0.000549
0.913016 0.009220 0.000549
1.040291 0.009220 0.000549
1.125000 0.009220 0.000549
1.125000 0.009220 0.000549
1.125000 0.009220 0.000549
1.125000 0.009220 0.000549
1.125000 0.009220 0.000549
1.125000 0.009220 0.000549
1.125000 0.009220 0.000549
1.125000 0.009220 0.000549
1.125000 0.009220 0.000549
1.125000 0.009220 0.000549
1.125000 0.009220 0.000549
0.000549 0.021329 0.000549
0.002605 0.021329 0.000549
0.009220 0.021329 0.000549
0.021329 0.021329 0.000549
0.035970 0.021329 0.000549
0.054039 0.021329 0.000549
0.077592 0.021329 0.000549
0.107413 0.021329 0.000549
0.140792 0.021329 0.000549
0.178037 0.021329 0.000549
0.219528 0.021329 0.000549
0.265971 0.021329 0.000549
0.318278 0.021329 0.000549
0.377485 0.021329 0.000549
0.444528 0.021329 0.000549
0.519354 0.021329 0.000549
0.602653 0.021329 0.000549
0.695344 0.021329 0.000549
0.798432 0.021329 0.000549
0.913016 0.021329 0.000549
1.040291 0.021329 0.000549
1.125000 0.021329 0.000549
1.125000 0.021329 0.000549
1.125000 0.021329 0.000549
1.125000 0.021329 0.000549
1.125000 0.021329 0.000549
1.125000 0.021329 0.000549
1.125000 0.021329 0.000549
1.125000 0.021329 0.000549
1.125000 0.021329 0.000549
1.125000 0.021329 0.000549
1.125000 0.021329 0.000549
0.000549 0.035970 0.000549
0.002605 0.035970 0.000549
0.009220 0.035970 0.000549
0.021329 0.035970 0.000549
0.035970 0.035970 0.000549
0.054039 0.035970 0.000549
0.077592 0.035970 0.000549
0.107413 0.035970 0.000549
0.140792 0.035970 0.000549
0.178037 0.035970 0.000549
0.219528 0.035970 0.000549
0.265971 0.035970 0.000549
0.318278 0.035970 0.000549
0.377485 0.035970 0.000549
0.444528 0.035970 0.000549
0.519354 0.035970 0.000549
0.602653 0.035970 0.000549
0.695344 0.035970 0.000549
0.798432 0.035970 0.000549
0.913016 0.035970 0.000549
1.040291 0.035970 0.000549
1.125000 0.035970 0.000549
1.125000 0.035970 0.000549
1.125000 0.035970 0.000549
1.125000 0.035970 0.000549
1.125000 0.035970 0.000549
1.125000 0.035970 0.000549
1.125000 0.035970 0.000549
1.125000 0.035970 0.000549
1.125000 0.035970 0.000549
1.125000 0.035970 0.000549
1.125000 0.035970 0.000549
0.000549 0.054039 0.000549
0.002605 0.054039 0.000549
0.009220 0.054039 0.000549
0.021329 0.054039 0.000549
0.035970 0.054039 0.000549
0.054039 0.054039 0.000549
0.077592 0.054039 0.000549
0.107413 0.054039 0.000549
0.140792 0.054039 0.000549
0.178037 0.054039 0.000549
0.219528 0.054039 0.000549
0.265971 0.054039 0.000549
0.318278 0.054039 0.000549
0.377485 0.054039 0.000549
0.444528 0.054039 0.000549
0.519354 0.054039 0.000549
0.602653 0.054039 0.000549
0.695344 0.054039 0.000549
0.798432 0.054039 0.000549
0.913016 0.054039 0.000549
1.040291 0.054039 0.000549
1.125000 0.054039 0.000549
1.125000 0.054039 0.000549
1.125000 0.054039 0.000549
1.125000 0.054039 0.000549
1.125000 0.054039 0.000549
1.125000 0.054039 0.000549
1.125000 0.054039 0.000549
1.125000 0.054039 0.000549
1.125000 0.054039 0.000549
1.125000 0.054039 0.000549
1.125000 0.054039 0.000549
0.000549 0.077592 0.000549
0.002605 0.077592 0.000549
0.009220 0.077592 0.000549
0.021329 0.077592 0.000549
0.035970 0.077592 0.000549
0.054039 0.077592 0.000549
0.077592 0.077592 0.000549
0.107413 0.077592 0.000549
0.140792 0.077592 0.000549
0.178037 0.077592 0.000549
0.219528 0.077592 0.000549
0.265971 0.077592 0.000549
0.318278 0.077592 0.000549
0.377485 0.077592 0.000549
0.444528 0.077592 0.000549
0.519354 0.077592 0.000549
0.602653 0.077592 0.000549
0.695344 0.077592 0.000549
0.798432 0.077592 0.000549
0.913016 0.077592 0.000549
1.040291 0.077592 0.000549
1.125000 0.077592 0.000549
1.125000 0.077592 0.000549
1.125000 0.077592 0.000549
1.125000 0.077592 0.000549
1.125000 0.077592 0.000549
1.125000 0.077592 0.000549
1.125000 0.077592 0.000549
1.125000 0.077592 0.000549
1.125000 0.077592 0.000549
1.125000 0.077592 0.000549
1.125000 0.077592 0.000549
0.000549 0.107413 0.000549
0.002605 0.107413 0.000549
0.009220 0.107413 0.000549
0.021329 0.107413 0.000549
0.035970 0.107413 0.000549
0.054039 0.107413 0.000549
0.077592 0.107413 0.000549
0.107413 0.107413 0.000549
0.140792 0.107413 0.000549
0.178037 0.107413 0.000549
0.219528 0.107413 0.000549
0.265971 0.107413 0.000549
0.318278 0.107413 0.000549
0.377485 0.107413 0.000549
0.444528 0.107413 0.000549
0.519354 0.107413 0.000549
0.602653 0.107413 0.000549
0.695344 0.107413 0.000549
0.798432 0.107413 0.000549
0.913016 0.107413 0.000549
1.040291 0.107413 0.000549
1.125000 0.107413 0.000549
1.125000 0.107413 0.000549
1.125000 0.107413 0.000549
1.125000 0.107413 0.000549
1.125000 0.107413 0.000549
1.125000 0.107413 0.000549
1.125000 0.107413 0.000549
1.125000 0.107413 0.000549
1.125000 0.107413 0.000549
1.125000 0.107413 0.000549
1.125000 0.107413 0.000549
0.000549 0.140792 0.000549
0.002605 0.140792 0.000549
0.009220 0.140792 0.000549
0.021329 0.140792 0.000549
0.035970 0.140792 0.000549
0.054039 0.140792 0.000549
0.077592 0.140792 0.000549
0.107413 0.140792 0.000549
0.140792 0.140792 0.000549
0.178037 0.140792 0.000549
0.219528 0.140792 0.000549
0.265971 0.140792 0.000549
0.318278 0.140792 0.000549
0.377485 0.140792 0.000549
0.444528 0.140792 0.000549
0.519354 0.140792 0.000549
0.602653 0.140792 0.000549
0.695344 0.140792 0.000549
0.798432 0.140792 0.000549
0.913016 0.140792 0.000549
1.040291 0.140792 0.000549
1.125000 0.140792 0.000549
1.125000 0.140792 0.000549
1.125000 0.140792 0.000549
1.125000 0.140792 0.000549
1.125000 0.140792 0.000549
1.125000 0.140792 0.000549
1.125000 0.140792 0.000549
1.125000 0.140792 0.000549
1.125000 0.140792 0.000549
1.125000 0.140792 0.000549
1.125000 0.140792 0.000549
0.000549 0.178037 0.000549
0.002605 0.178037 0.000549
0.009220 0.178037 0.000549
0.021329 0.178037 0.000549
0.035970 0.178037 0.000549
0.054039 0.178037 0.000549
0.077592 0.178037 0.000549
0.107413 0.178037 0.000549
0.140792 0.178037 0.000549
0.178037 0.178037 0.000549
0.219528 0.178037 0.000549
0.265971 0.178037 0.000549
0.318278 0.178037 0.000549
0.377485 0.178037 0.000549
0.444528 0.178037 0.000549
0.519354 0.178037 0.000549
0.602653 0.178037 0.000549
0.695344 0.178037 0.000549
0.798432 0.178037 0.000549
0.913016 0.178037 0.000549
1.040291 0.178037 0.000549
1.125000 0.178037 0.000549
1.125000 0.178037 0.000549
1.125000 0.178037 0.000549
1.125000 0.178037 0.000549
1.125000 0.178037 0.000549
1.125000 0.178037 0.000549
1.125000 0.178037 0.000549
1.125000 0.178037 0.000549
1.125000 0.178037 0.000549
1.125000 0.178037 0.000549
1.125000 0.178037 0.000549
0.000549 0.219528 0.000549
0.002605 0.219528 0.000549
0.009220 0.219528 0.000549
0.021329 0.219528 0.000549
0.035970 0.219528 0.000549
0.054039 0.219528 0.000549
0.077592 0.219528 0.000549
0.107413 0.219528 0.000549
0.140792 0.219528 0.000549
0.178037 0.219528 0.000549
0.219528 0.219528 0.000549
0.265971 0.219528 0.000549
0.318278 0.219528 0.000549
0.377485 0.219528 0.000549
0.444528 0.219528 0.000549
0.519354 0.219528 0.000549
0.602653 0.219528 0.000549
0.695344 0.219528 0.000549
0.798432 0.219528 0.000549
0.913016 0.219528 0.000549
1.040291 0.219528 0.000549
1.125000 0.219528 0.000549
1.125000 0.219528 0.000549
1.125000 0.219528 0.000549
1.125000 0.219528 0.000549
1.125000 0.219528 0.000549
1.125000 0.219528 0.000549
1.125000 0.219528 0.000549
1.125000 0.219528 0.000549
1.125000 0.219528 0.000549
1.125000 0.219528 0.000549
1.125000 0.219528 0.000549
0.000549 0.265971 0.000549
0.002605 0.265971 0.000549
0.009220 0.265971 0.000549
0.021329 0.265971 0.000549
0.035970 0.265971 0.000549
0.054039 0.265971 0.000549
0.077592 0.265971 0.000549
0.107413 0.265971 0.000549
0.140792 0.265971 0.000549
0.178037 0.265971 0.000549
0.219528 0.265971 0.000549
0.265971 0.265971 0.000549
0.318278 0.265971 0.000549
0.377485 0.265971 0.000549
0.444528 0.265971 0.000549
0.519354 0.265971 0.000549
0.602653 0.265971 0.000549
0.695344 0.265971 0.000549
0.798432 0.265971 0.000549
0.913016 0.265971 0.000549
1.040291 0.265971 0.000549
1.125000 0.265971 0.000549
1.125000 0.265971 0.000549
1.125000 0.265971 0.000549
1.125000 0.265971 0.000549
1.125000 0.265971 0.000549
1.125000 0.265971 0.000549
1.125000 0.265971 0.000549
1.125000 0.265971 0.000549
1.125000 0.265971 0.000549
1.125000 0.265971 0.000549
1.125000 0.265971 0.000549
0.000549 0.318278 0.000549
0.002605 0.318278 0.000549
0.009220 0.318278 0.000549
0.021329 0.318278 0.000549
0.035970 0.318278 0.000549
0.054039 0.318278 0.000549
0.077592 0.318278 0.000549
0.107413 0.318278 0.000549
0.140792 0.318278 0.000549
0.178037 0.318278 0.000549
0.219528 0.318278 0.000549
0.265971 0.318278 0.000549
0.318278 0.318278 0.000549
0.377485 0.318278 0.000549
0.444528 0.318278 0.000549
0.519354 0.318278 0.000549
0.602653 0.318278 0.000549
0.695344 0.318278 0.000549
0.798432 0.318278 0.000549
0.913016 0.318278 0.000549
1.040291 0.318278 0.000549
1.125000 0.318278 0.000549
1.125000 0.318278 0.000549
1.125000 0.318278 0.000549
1.125000 0.318278 0.000549
1.125000 0.318278 0.000549
1.125000 0.318278 0.000549
1.125000 0.318278 0.000549
1.125000 0.318278 0.000549
1.125000 0.318278 0.000549
1.125000 0.318278 0.000549
1.125000 0.318278 0.000549
0.000549 0.377485 0.000549
0.002605 0.377485 0.000549
0.009220 0.377485 0.000549
0.021329 0.377485 0.000549
0.035970 0.377485 0.000549
0.054039 0.377485 0.000549
0.077592 0.377485 0.000549
0.107413 0.377485 0.000549
0.140792 0.377485 0.000549
0.178037 0.377485 0.000549
0.219528 0.377485 0.000549
0.265971 0.377485 0.000549
0.318278 0.377485 0.000549
0.377485 0.377485 0.000549
0.444528 0.377485 0.000549
0.519354 0.377485 0.000549
0.602653 0.377485 0.000549
0.695344 0.377485 0.000549
0.798432 0.377485 0.000549
0.913016 0.377485 0.000549
1.040291 0.377485 0.000549
1.125000 0.377485 0.000549
1.125000 0.377485 0.000549
1.125000 0.377485 0.000549
1.125000 0.377485 0.000549
1.125000 0.377485 0.000549
1.125000 0.377485 0.000549
1.125000 0.377485 0.000549
1.125000 0.377485 0.000549
1.125000 0.377485 0.000549
1.125000 0.377485 0.000549
1.125000 0.377485 0.000549
0.000549 0.444528 0.000549
0.002605 0.444528 0.000549
0.009220 0.444528 0.000549
0.021329 0.444528 0.000549
0.035970 0.444528 0.000549
0.054039 0.444528 0.000549
0.077592 0.444528 0.000549
0.107413 0.444528 0.000549
0.140792 0.444528 0.000549
0.178037 0.444528 0.000549
0.219528 0.444528 0.000549
0.265971 0.444528 0.000549
0.318278 0.444528 0.000549
0.377485 0.444528 0.000549
0.444528 0.444528 0.000549
0.519354 0.444528 0.000549
0.602653 0.444528 0.000549
0.695344 0.444528 0.000549
0.798432 0.444528 0.000549
0.913016 0.444528 0.000549
1.040291 0.444528 0.000549
1.125000 0.444528 0.000549
1.125000 0.444528 0.000549
1.125000 0.444528 0.000549
1.125000 0.444528 0.000549
1.125000 0.444528 0.000549
1.125000 0.444528 0.000549
1.125000 0.444528 0.000549
1.125000 0.444528 0.000549
1.125000 0.444528 0.000549
1.125000 0.444528 0.000549
1.125000 0.444528 0.000549
0.000549 0.519354 0.000549
0.002605 0.519354 0.000549
0.009220 0.519354 0.000549
0.021329 0.519354 0.000549
0.035970 0.519354 0.000549
0.054039 0.519354 0.000549
0.077592 0.519354 0.000549
0.107413 0.519354 0.000549
0.140792 0.519354 0.000549
0.178037 0.519354 0.000549
0.219528 0.519354 0.000549
0.265971 0.519354 0.000549
0.318278 0.519354 0.000549
0.377485 0.519354 0.000549
0.444528 0.519354 0.000549
0.519354 0.519354 0.000549
0.602653 0.519354 0.000549
0.695344 0.519354 0.000549
0.798432 0.519354 0.000549
0.913016 0.519354 0.000549
1.040291 0.519354 0.000549
1.125000 0.519354 0.000549
1.125000 0.519354 0.000549
1.125000 0.519354 0.000549
1.125000 0.519354 0.000549
1.125000 0.519354 0.000549
1.125000 0.519354 0.000549
1.125000 0.519354 0.000549
1.125000 0.519354 0.000549
1.125000 0.519354 0.000549
1.125000 0.519354 0.000549
1.125000 0.519354 0.000549
0.000549 0.602653 0.000549
0.002605 0.602653 0.000549
0.009220 0.602653 0.000549
0.021329 0.602653 0.000549
0.035970 0.602653 0.000549
0.054039 0.602653 0.000549
0.077592 0.602653 0.000549
0.107413 0.602653 0.000549
0.140792 0.602653 0.000549
0.178037 0.602653 0.000549
0.219528 0.602653 0.000549
0.265971 0.602653 0.000549
0.318278 0.602653 0.000549
0.377485 0.602653 0.000549
0.444528 0.602653 0.000549
0.519354 0.602653 0.000549
0.602653 0.602653 0.000549
0.695344 0.602653 0.000549
0.798432 0.602653 0.000549
0.913016 0.602653 0.000549
1.040291 0.602653 0.000549
1.125000 0.602653 0.000549
1.125000 0.602653 0.000549
1.125000 0.602653 0.000549
1.125000 0.602653 0.000549
1.125000 0.602653 0.000549
1.125000 0.602653 0.000549
1.125000 0.602653 0.000549
1.125000 0.602653 0.000549
1.125000 0.602653 0.000549
1.125000 0.602653 0.000549
1.125000 0.602653 0.000549
0.000549 0.695344 0.000549
0.002605 0.695344 0.000549
0.009220 0.695344 0.000549
0.021329 0.695344 0.000549
0.035970 0.695344 0.000549
0.054039 0.695344 0.000549
0.077592 0.695344 0.000549
0.107413 0.695344 0.000549
0.140792 0.695344 0.000549
0.178037 0.695344 0.000549
0.219528 0.695344 0.000549
0.265971 0.695344 0.000549
0.318278 0.695344 0.000549
0.377485 0.695344 0.000549
0.444528 0.695344 0.000549
0.519354 0.695344 0.000549
0.602653 0.695344 0.000549
0.695344 0.695344 0.000549
0.798432 0.695344 0.000549
0.913016 0.695344 0.000549
1.040291 0.695344 0.000549
1.125000 0.695344 0.000549
1.125000 0.695344 0.000549
1.125000 0.695344 0.000549
1.125000 0.695344 0.000549
1.125000 0.695344 0.000549
1.125000 0.695344 0.000549
1.125000 0.695344 0.000549
1.125000 0.695344 0.000549
1.125000 0.695344 0.000549
1.125000 0.695344 0.000549
1.125000 0.695344 0.000549
0.000549 0.798432 0.000549
0.002605 0.798432 0.000549
0.009220 0.798432 0.000549
0.021329 0.798432 0.000549
0.035970 0.798432 0.000549
0.054039 0.798432 0.000549
0.077592 0.798432 0.000549
0.107413 0.798432 0.000549
0.140792 0.798432 0.000549
0.178037 0.798432 0.000549
0.219528 0.798432 0.000549
0.265971 0.798432 0.000549
0.318278 0.798432 0.000549
0.377485 0.798432 0.000549
0.444528 0.798432 0.000549
0.519354 0.798432 0.000549
0.602653 0.798432 0.000549
0.695344 0.798432 0.000549
0.798432 0.798432 0.000549
0.913016 0.798432 0.000549
1.040291 0.798432 0.000549
1.125000 0.798432 0.000549
1.125000 0.798432 0.000549
1.125000 0.798432 0.000549
1.125000 0.798432 0.000549
1.125000 0.798432 0.000549
1.125000 0.798432 0.000549
1.125000 0.798432 0.000549
1.125000 0.798432 0.000549
1.125000 0.798432 0.000549
1.125000 0.798432 0.000549
1.125000 0.798432 0.000549
0.000549 0.913016 0.000549
0.002605 0.913016 0.000549
0.009220 0.913016 0.000549
0.021329 0.913016 0.000549
0.035970 0.913016 0.000549
0.054039 0.913016 0.000549
0.077592 0.913016 0.000549
0.107413 0.913016 0.000549
0.140792 0.913016 0.000549
0.178037 0.913016 0.000549
0.219528 0.913016 0.000549
0.265971 0.913016 0.000549
0.318278 0.913016 0.000549
0.377485 0.913016 0.000549
0.444528 0.913016 0.000549
0.519354 0.913016 0.000549
0.602653 0.913016 0.000549
0.695344 0.913016 0.000549
0.798432 0.913016 0.000549
0.913016 0.913016 0.000549
1.040291 0.913016 0.000549
1.125000 0.913016 0.000549
1.125000 0.913016 0.000549
1.125000 0.913016 0.000549
1.125000 0.913016 0.000549
1.125000 0.913016 0.000549
1.125000 0.913016 0.000549
1.125000 0.913016 0.000549
1.125000 0.913016 0.000549
1.125000 0.913016 0.000549
1.125000 0.913016 0.000549
1.125000 0.913016 0.000549
0.000549 1.040291 0.000549
0.002605 1.040291 0.000549
0.009220 1.040291 0.000549
0.021329 1.040291 0.000549
0.035970 1.040291 0.000549
0.054039 1.040291 0.000549
0.077592 1.040291 0.000549
0.107413 1.040291 0.000549
0.140792 1.040291 0.000549
0.178037 1.040291 0.000549
0.219528 1.040291 0.000549
0.265971 1.040291 0.000549
0.318278 1.040291 0.000549
0.377485 1.040291 0.000549
0.444528 1.040291 0.000549
0.519354 1.040291 0.000549
0.602653 1.040291 0.000549
0.695344 1.040291 0.000549
0.798432 1.040291 0.000549
0.913016 1.040291 0.000549
1.040291 1.040291 0.000549
1.125000 1.040291 0.000549
1.125000 1.040291 0.000549
1.125000 1.040291 0.000549
1.125000 1.040291 0.000549
1.125000 1.040291 0.000549
1.125000 1.040291 0.000549
1.125000 1.040291 0.000549
1.125000 1.040291 0.000549
1.125000 1.040291 0.000549
1.125000 1.040291 0.000549
1.125000 1.040291 0.000549
0.000549 1.125000 0.000549
0.002605 1.125000 0.000549
0.009220 1.125000 0.000549
0.021329 1.125000 0.000549
0.035970 1.125000 0.000549
0.054039 1.125000 0.000549
0.077592 1.125000 0.000549
0.107413 1.125000 0.000549
0.140792 1.125000 0.000549
0.178037 1.125000 0.000549
0.219528 1.125000 0.000549
0.265971 1.125000 0.000549
0.318278 1.125000 0.000549
0.377485 1.125000 0.000549
0.444528 1.125000 0.000549
0.519354 1.125000 0.000549
0.602653 1.125000 0.000549
0.695344 1.125000 0.000549
0.798432 1.125000 0.000549
0.913016 1.125000 0.000549
1.040291 1.125000 0.000549
1.125000 1.125000 0.000549
1.125000 1.125000 0.000549
1.125000 1.125000 0.000549
1.125000 1.125000 0.000549
1.125000 1.125000 0.000549
1.125000 1.125000 0.000549
1.125000 1.125000 0.000549
1.125000 1.125000 0.000549
1.125000 1.125000 0.000549
1.125000 1.125000 0.000549
1.125000 1.125000 0.000549
0.000549 1.125000 0.000549
0.002605 1.125000 0.000549
0.009220 1.125000 0.000549
0.021329 1.125000 0.000549
0.035970 1.125000 0.000549
0.054039 1.125000 0.000549
0.077592 1.125000 0.000549
0.107413 1.125000 0.000549
0.140792 1.125000 0.000549
0.178037 1.125000 0.000549
0.219528 1.125000 0.000549
0.265971 1.125000 0.000549
0.318278 1.125000 0.000549
0.377485 1.125000 0.000549
0.444528 1.125000 0.000549
0.519354 1.125000 0.000549
0.602653 1.125000 0.000549
0.695344 1.125000 0.000549
0.798432 1.125000 0.000549
0.913016 1.125000 0.000549
1.040291 1.125000 0.000549
1.125000 1.125000 0.000549
1.125000 1.125000 0.000549
1.125000 1.125000 0.000549
1.125000 1.125000 0.000549
1.125000 1.125000 0.000549
1.125000 1.125000 0.000549
1.125000 1.125000 0.000549
1.125000 1.125000 0.000549
1.125000 1.125000 0.000549
1.125000 1.125000 0.000549
1.125000 1.125000 0.000549
0.000549 1.125000 0.000549
0.002605 1.125000 0.000549
0.009220 1.125000 0.000549
0.021329 1.125000 0.000549
0.035970 1.125000 0.000549
0.054039 1.125000 0.000549
0.077592 1.125000 0.000549
0.107413 1.125000 0.000549
0.140792 1.125000 0.000549
0.178037 1.125000 0.000549
0.219528 1.125000 0.000549
0.265971 1.125000 0.000549
0.318278 1.125000 0.000549
0.377485 1.125000 0.000549
0.444528 1.125000 0.000549
0.519354 1.125000 0.000549
0.602653 1.125000 0.000549
0.695344 1.125000 0.000549
0.798432 1.125000 0.000549
0.913016 1.125000 0.000549
1.040291 1.125000 0.000549
1.125000 1.125000 0.000549
1.125000 1.125000 0.000549
1.125000 1.125000 0.000549
1.125000 1.125000 0.000549
1.125000 1.125000 0.000549
1.125000 1.125000 0.000549
1.125000 1.125000 0.000549
1.125000 1.125000 0.000549
1.125000 1.125000 0.000549
1.125000 1.125000 0.000549
1.125000 1.125000 0.000549
0.000549 1.125000 0.000549
0.002605 1.125000 0.000549
0.009220 1.125000 0.000549
0.021329 1.125000 0.000549
0.035970 1.125000 0.000549
0.054039 1.125000 0.000549
0.077592 1.125000 0.000549
0.107413 1.125000 0.000549
0.140792 1.125000 0.000549
0.178037 1.125000 0.000549
0.219528 1.125000 0.000549
0.265971 1.125000 0.000549
0.318278 1.125000 0.000549
0.377485 1.125000 0.000549
0.444528 1.125000 0.000549
0.519354 1.125000 0.000549
0.602653 1.125000 0.000549
0.695344 1.125000 0.000549
0.798432 1.125000 0.000549
0.913016 1.125000 0.000549
1.040291 1.125000 0.000549
1.125000 1.125000 0.000549
1.125000 1.125000 0.000549
1.125000 1.125000 0.000549
1.125000 1.125000 0.000549
1.125000 1.125000 0.000549
1.125000 1.125000 0.000549
1.125000 1.125000 0.000549
1.125000 1.125000 0.000549
1.125000 1.125000 0.000549
1.125000 1.125000 0.000549
1.125000 1.125000 0.000549
0.000549 1.125000 0.000549
0.002605 1.125000 0.000549
0.009220 1.125000 0.000549
0.021329 1.125000 0.000549
0.035970 1.125000 0.000549
0.054039 1.125000 0.000549
0.077592 1.125000 0.000549
0.107413 1.125000 0.000549
0.140792 1.125000 0.000549
0.178037 1.125000 0.000549
0.219528 1.125000 0.000549
0.265971 1.125000 0.000549
0.318278 1.125000 0.000549
0.377485 1.125000 0.000549
0.444528 1.125000 0.000549
0.519354 1.125000 0.000549
0.602653 1.125000 0.000549
0.695344 1.125000 0.000549
0.798432 1.125000 0.000549
0.913016 1.125000 0.000549
1.040291 1.125000 0.000549
1.125000 1.125000 0.000549
1.125000 1.125000 0.000549
1.125000 1.125000 0.000549
1.125000 1.125000 0.000549
1.125000 1.125000 0.000549
1.125000 1.125000 0.000549
1.125000 1.125000 0.000549
1.125000 1.125000 0.000549
1.125000 1.125000 0.000549
1.125000 1.125000 0.000549
1.125000 1.125000 0.000549
0.000549 1.125000 0.000549
0.002605 1.125000 0.000549
0.009220 1.125000 0.000549
0.021329 1.125000 0.000549
0.035970 1.125000 0.000549
0.054039 1.125000 0.000549
0.077592 1.125000 0.000549
0.107413 1.125000 0.000549
0.140792 1.125000 0.000549
0.178037 1.125000 0.000549
0.219528 1.125000 0.000549
0.265971 1.125000 0.000549
0.318278 1.125000 0.000549
0.377485 1.125000 0.000549
0.444528 1.125000 0.000549
0.519354 1.125000 0.000549
0.602653 1.125000 0.000549
0.695344 1.125000 0.000549
0.798432 1.125000 0.000549
0.913016 1.125000 0.000549
1.040291 1.125000 0.000549
1.125000 1.125000 0.000549
1.125000 1.125000 0.000549
1.125000 1.125000 0.000549
1.125000 1.125000 0.000549
1.125000 1.125000 0.000549
1.125000 1.125000 0.000549
1.125000 1.125000 0.000549
1.125000 1.125000 0.000549
1.125000 1.125000 0.000549
1.125000 1.125000 0.000549
1.125000 1.125000 0.000549
0.000549 1.125000 0.000549
0.002605 1.125000 0.000549
0.009220 1.125000 0.000549
0.021329 1.125000 0.000549
0.035970 1.125000 0.000549
0.054039 1.125000 0.000549
0.077592 1.125000 0.000549
0.107413 1.125000 0.000549
0.140792 1.125000 0.000549
0.178037 1.125000 0.000549
0.219528 1.125000 0.000549
0.265971 1.125000 0.000549
0.318278 1.125000 0.000549
0.377485 1.125000 0.000549
0.444528 1.125000 0.000549
0.519354 1.125000 0.000549
0.602653 1.125000 0.000549
0.695344 1.125000 0.000549
0.798432 1.125000 0.000549
0.913016 1.125000 0.000549
1.040291 1.125000 0.000549
1.125000 1.125000 0.000549
1.125000 1.125000 0.000549
