stdX3.0/luts/PSD_log2rgb.cube
TITLE "Generated by Foundry::LUT"
LUT_3D_SIZE 5
DOMAIN_MIN 0.000000 0.000000 0.000000
DOMAIN_MAX 0.903226 0.903226 0.903226
0.001577 0.001577 0.001577
0.169279 0.001577 0.001577
0.494701 0.001577 0.001577
1.125000 0.001577 0.001577
1.125000 0.001577 0.001577
0.001577 0.169279 0.001577
0.169279 0.169279 0.001577
0.494701 0.169279 0.001577
1.125000 0.169279 0.001577
1.125000 0.169279 0.001577
0.001577 0.494701 0.001577
0.169279 0.494701 0.001577
0.494701 0.494701 0.001577
1.125000 0.494701 0.001577
1.125000 0.494701 0.001577
0.001577 1.125000 0.001577
0.169279 1.125000 0.001577
0.494701 1.125000 0.001577
1.125000 1.125000 0.001577
1.125000 1.125000 0.001577
0.001577 1.125000 0.001577
0.169279 1.125000 0.001577
0.494701 1.125000 0.001577
1.125000 1.125000 0.001577
1.125000 1.125000 0.001577
0.001577 0.001577 0.169279
0.169279 0.001577 0.169279
0.494701 0.001577 0.169279
1.125000 0.001577 0.169279
1.125000 0.001577 0.169279
0.001577 0.169279 0.169279
0.169279 0.169279 0.169279
0.494701 0.169279 0.169279
1.125000 0.169279 0.169279
1.125000 0.169279 0.169279
0.001577 0.494701 0.169279
0.169279 0.494701 0.169279
0.494701 0.494701 0.169279
1.125000 0.494701 0.169279
1.125000 0.494701 0.169279
0.001577 1.125000 0.169279
0.169279 1.125000 0.169279
0.494701 1.125000 0.169279
1.125000 1.125000 0.169279
1.125000 1.125000 0.169279
0.001577 1.125000 0.169279
0.169279 1.125000 0.169279
0.494701 1.125000 0.169279
1.125000 1.125000 0.169279
1.125000 1.125000 0.169279
0.001577 0.001577 0.494701
0.169279 0.001577 0.494701
0.494701 0.001577 0.494701
1.125000 0.001577 0.494701
1.125000 0.001577 0.494701
0.001577 0.169279 0.494701
0.169279 0.169279 0.494701
0.494701 0.169279 0.494701
1.125000 0.169279 0.494701
1.125000 0.169279 0.494701
0.001577 0.494701 0.494701
0.169279 0.494701 0.494701
0.494701 0.494701 0.494701
1.125000 0.494701 0.494701
1.125000 0.494701 0.494701
0.001577 1.125000 0.494701
0.169279 1.125000 0.494701
0.494701 1.125000 0.494701
1.125000 1.125000 0.494701
1.125000 1.125000 0.494701
0.001577 1.125000 0.494701
0.169279 1.125000 0.494701
0.494701 1.125000 0.494701
1.125000 1.125000 0.494701
1.125000 1.125000 0.494701
0.001577 0.001577 1.125000
0.169279 0.001577 1.125000
0.494701 0.001577 1.125000
1.125000 0.001577 1.125000
1.125000 0.001577 1.125000
0.001577 0.169279 1.125000
0.169279 0.169279 1.125000
0.494701 0.169279 1.125000
1.125000 0.169279 1.125000
1.125000 0.169279 1.125000
0.001577 0.494701 1.125000
0.169279 0.494701 1.125000
0.494701 0.494701 1.125000
1.125000 0.494701 1.125000
1.125000 0.494701 1.125000
0.001577 1.125000 1.125000
0.169279 1.125000 1.125000
0.494701 1.125000 1.125000
1.125000 1.125000 1.125000
1.125000 1.125000 1.125000
0.001577 1.125000 1.125000
0.169279 1.125000 1.125000
0.494701 1.125000 1.125000
1.125000 1.125000 1.125000
1.125000 1.125000 1.125000
0.001577 0.001577 1.125000
0.169279 0.001577 1.125000
0.494701 0.001577 1.125000
1.125000 0.001577 1.125000
1.125000 0.001577 1.125000
0.001577 0.169279 1.125000
0.169279 0.169279 1.125000
0.494701 0.169279 1.125000
1.125000 0.169279 1.125000
1.125000 0.169279 1.125000
0.001577 0.494701 1.125000
0.169279 0.494701 1.125000
0.494701 0.494701 1.125000
1.125000 0.494701 1.125000
1.125000 0.494701 1.125000
0.001577 1.125000 1.125000
0.169279 1.125000 1.125000
0.494701 1.125000 1.125000
1.125000 1.125000 1.125000
1.125000 1.125000 1.125000
0.001577 1.125000 1.125000
0.169279 1.125000 1.125000
0.494701 1.125000 1.125000
1.125000 1.125000 1.125000
1.125000 1.125000 1.125000
