stdX3.0/luts/PSD_log2rgb.cube
TITLE "Generated by Foundry::LUT"
LUT_3D_SIZE 32
0.001577 0.001577 0.001577
0.007480 0.001577 0.001577
0.026472 0.001577 0.001577
0.058453 0.001577 0.001577
0.086055 0.001577 0.001577
0.112125 0.001577 0.001577
0.139314 0.001577 0.001577
0.169279 0.001577 0.001577
0.202670 0.001577 0.001577
0.239525 0.001577 0.001577
0.280153 0.001577 0.001577
0.325168 0.001577 0.001577
0.375362 0.001577 0.001577
0.431619 0.001577 0.001577
0.494701 0.001577 0.001577
0.564431 0.001577 0.001577
0.641325 0.001577 0.001577
0.726100 0.001577 0.001577
0.819530 0.001577 0.001577
0.922450 0.001577 0.001577
1.035765 0.001577 0.001577
1.125000 0.001577 0.001577
1.125000 0.001577 0.001577
1.125000 0.001577 0.001577
1.125000 0.001577 0.001577
1.125000 0.001577 0.001577
1.125000 0.001577 0.001577
1.125000 0.001577 0.001577
1.125000 0.001577 0.001577
1.125000 0.001577 0.001577
1.125000 0.001577 0.001577
1.125000 0.001577 0.001577
0.001577 0.007480 0.001577
0.007480 0.007480 0.001577
0.026472 0.007480 0.001577
0.058453 0.007480 0.001577
0.086055 0.007480 0.001577
0.112125 0.007480 0.001577
0.139314 0.007480 0.001577
0.169279 0.007480 0.001577
0.202670 0.007480 0.001577
0.239525 0.007480 0.001577
0.280153 0.007480 0.001577
0.325168 0.007480 0.001577
0.375362 0.007480 0.001577
0.431619 0.007480 0.001577
0.494701 0.007480 0.001577
0.564431 0.007480 0.001577
0.641325 0.007480 0.001577
0.726100 0.007480 0.001577
0.819530 0.007480 0.001577
0.922450 0.007480 0.001577
1.035765 0.007480 0.001577
1.125000 0.007480 0.001577
1.125000 0.007480 0.001577
1.125000 0.007480 0.001577
1.125000 0.007480 0.001577
1.125000 0.007480 0.001577
1.125000 0.007480 0.001577
1.125000 0.007480 0.001577
1.125000 0.007480 0.001577
1.125000 0.007480 0.001577
1.125000 0.007480 0.001577
1.125000 0.007480 0.001577
0.001577 0.026472 0.001577
0.007480 0.026472 0.001577
0.026472 0.026472 0.001577
0.058453 0.026472 0.001577
0.086055 0.026472 0.001577
0.112125 0.026472 0.001577
0.139314 0.026472 0.001577
0.169279 0.026472 0.001577
0.202670 0.026472 0.001577
0.239525 0.026472 0.001577
0.280153 0.026472 0.001577
0.325168 0.026472 0.001577
0.375362 0.026472 0.001577
0.431619 0.026472 0.001577
0.494701 0.026472 0.001577
0.564431 0.026472 0.001577
0.641325 0.026472 0.001577
0.726100 0.026472 0.001577
0.819530 0.026472 0.001577
0.922450 0.026472 0.001577
1.035765 0.026472 0.001577
1.125000 0.026472 0.001577
1.125000 0.026472 0.001577
1.125000 0.026472 0.001577
1.125000 0.026472 0.001577
1.125000 0.026472 0.001577
1.125000 0.026472 0.001577
1.125000 0.026472 0.001577
1.125000 0.026472 0.001577
1.125000 0.026472 0.001577
1.125000 0.026472 0.001577
1.125000 0.026472 0.001577
0.001577 0.058453 0.001577
0.007480 0.058453 0.001577
0.026472 0.058453 0.001577
0.058453 0.058453 0.001577
0.086055 0.058453 0.001577
0.112125 0.058453 0.001577
0.139314 0.058453 0.001577
0.169279 0.058453 0.001577
0.202670 0.058453 0.001577
0.239525 0.058453 0.001577
0.280153 0.058453 0.001577
0.325168 0.058453 0.001577
0.375362 0.058453 0.001577
0.431619 0.058453 0.001577
0.494701 0.058453 0.001577
0.564431 0.058453 0.001577
0.641325 0.058453 0.001577
0.726100 0.058453 0.001577
0.819530 0.058453 0.001577
0.922450 0.058453 0.001577
1.035765 0.058453 0.001577
1.125000 0.058453 0.001577
1.125000 0.058453 0.001577
1.125000 0.058453 0.001577
1.125000 0.058453 0.001577
1.125000 0.058453 0.001577
1.125000 0.058453 0.001577
1.125000 0.058453 0.001577
1.125000 0.058453 0.001577
1.125000 0.058453 0.001577
1.125000 0.058453 0.001577
1.125000 0.058453 0.001577
0.001577 0.086055 0.001577
0.007480 0.086055 0.001577
0.026472 0.086055 0.001577
0.058453 0.086055 0.001577
0.086055 0.086055 0.001577
0.112125 0.086055 0.001577
0.139314 0.086055 0.001577
0.169279 0.086055 0.001577
0.202670 0.086055 0.001577
0.239525 0.086055 0.001577
0.280153 0.086055 0.001577
0.325168 0.086055 0.001577
0.375362 0.086055 0.001577
0.431619 0.086055 0.001577
0.494701 0.086055 0.001577
0.564431 0.086055 0.001577
0.641325 0.086055 0.001577
0.726100 0.086055 0.001577
0.819530 0.086055 0.001577
0.922450 0.086055 0.001577
1.035765 0.086055 0.001577
1.125000 0.086055 0.001577
1.125000 0.086055 0.001577
1.125000 0.086055 0.001577
1.125000 0.086055 0.001577
1.125000 0.086055 0.001577
1.125000 0.086055 0.001577
1.125000 0.086055 0.001577
1.125000 0.086055 0.001577
1.125000 0.086055 0.001577
1.125000 0.086055 0.001577
1.125000 0.086055 0.001577
0.001577 0.112125 0.001577
0.007480 0.112125 0.001577
0.026472 0.112125 0.001577
0.058453 0.112125 0.001577
0.086055 0.112125 0.001577
0.112125 0.112125 0.001577
0.139314 0.112125 0.001577
0.169279 0.112125 0.001577
0.202670 0.112125 0.001577
0.239525 0.112125 0.001577
0.280153 0.112125 0.001577
0.325168 0.112125 0.001577
0.375362 0.112125 0.001577
0.431619 0.112125 0.001577
0.494701 0.112125 0.001577
0.564431 0.112125 0.001577
0.641325 0.112125 0.001577
0.726100 0.112125 0.001577
0.819530 0.112125 0.001577
0.922450 0.112125 0.001577
1.035765 0.112125 0.001577
1.125000 0.112125 0.001577
1.125000 0.112125 0.001577
1.125000 0.112125 0.001577
1.125000 0.112125 0.001577
1.125000 0.112125 0.001577
1.125000 0.112125 0.001577
1.125000 0.112125 0.001577
1.125000 0.112125 0.001577
1.125000 0.112125 0.001577
1.125000 0.112125 0.001577
1.125000 0.112125 0.001577
0.001577 0.139314 0.001577
0.007480 0.139314 0.001577
0.026472 0.139314 0.001577
0.058453 0.139314 0.001577
0.086055 0.139314 0.001577
0.112125 0.139314 0.001577
0.139314 0.139314 0.001577
0.169279 0.139314 0.001577
0.202670 0.139314 0.001577
0.239525 0.139314 0.001577
0.280153 0.139314 0.001577
0.325168 0.139314 0.001577
0.375362 0.139314 0.001577
0.431619 0.139314 0.001577
0.494701 0.139314 0.001577
0.564431 0.139314 0.001577
0.641325 0.139314 0.001577
0.726100 0.139314 0.001577
0.819530 0.139314 0.001577
0.922450 0.139314 0.001577
1.035765 0.139314 0.001577
1.125000 0.139314 0.001577
1.125000 0.139314 0.001577
1.125000 0.139314 0.001577
1.125000 0.139314 0.001577
1.125000 0.139314 0.001577
1.125000 0.139314 0.001577
1.125000 0.139314 0.001577
1.125000 0.139314 0.001577
1.125000 0.139314 0.001577
1.125000 0.139314 0.001577
1.125000 0.139314 0.001577
0.001577 0.169279 0.001577
0.007480 0.169279 0.001577
0.026472 0.169279 0.001577
0.058453 0.169279 0.001577
0.086055 0.169279 0.001577
0.112125 0.169279 0.001577
0.139314 0.169279 0.001577
0.169279 0.169279 0.001577
0.202670 0.169279 0.001577
0.239525 0.169279 0.001577
0.280153 0.169279 0.001577
0.325168 0.169279 0.001577
0.375362 0.169279 0.001577
0.431619 0.169279 0.001577
0.494701 0.169279 0.001577
0.564431 0.169279 0.001577
0.641325 0.169279 0.001577
0.726100 0.169279 0.001577
0.819530 0.169279 0.001577
0.922450 0.169279 0.001577
1.035765 0.169279 0.001577
1.125000 0.169279 0.001577
1.125000 0.169279 0.001577
1.125000 0.169279 0.001577
1.125000 0.169279 0.001577
1.125000 0.169279 0.001577
1.125000 0.169279 0.001577
1.125000 0.169279 0.001577
1.125000 0.169279 0.001577
1.125000 0.169279 0.001577
1.125000 0.169279 0.001577
1.125000 0.169279 0.001577
0.001577 0.202670 0.001577
0.007480 0.202670 0.001577
0.026472 0.202670 0.001577
0.058453 0.202670 0.001577
0.086055 0.202670 0.001577
0.112125 0.202670 0.001577
0.139314 0.202670 0.001577
0.169279 0.202670 0.001577
0.202670 0.202670 0.001577
0.239525 0.202670 0.001577
0.280153 0.202670 0.001577
0.325168 0.202670 0.001577
0.375362 0.202670 0.001577
0.431619 0.202670 0.001577
0.494701 0.202670 0.001577
0.564431 0.202670 0.001577
0.641325 0.202670 0.001577
0.726100 0.202670 0.001577
0.819530 0.202670 0.001577
0.922450 0.202670 0.001577
1.035765 0.202670 0.001577
1.125000 0.202670 0.001577
1.125000 0.202670 0.001577
1.125000 0.202670 0.001577
1.125000 0.202670 0.001577
1.125000 0.202670 0.001577
1.125000 0.202670 0.001577
1.125000 0.202670 0.001577
1.125000 0.202670 0.001577
1.125000 0.202670 0.001577
1.125000 0.202670 0.001577
1.125000 0.202670 0.001577
0.001577 0.239525 0.001577
0.007480 0.239525 0.001577
0.026472 0.239525 0.001577
0.058453 0.239525 0.001577
0.086055 0.239525 0.001577
0.112125 0.239525 0.001577
0.139314 0.239525 0.001577
0.169279 0.239525 0.001577
0.202670 0.239525 0.001577
0.239525 0.239525 0.001577
0.280153 0.239525 0.001577
0.325168 0.239525 0.001577
0.375362 0.239525 0.001577
0.431619 0.239525 0.001577
0.494701 0.239525 0.001577
0.564431 0.239525 0.001577
0.641325 0.239525 0.001577
0.726100 0.239525 0.001577
0.819530 0.239525 0.001577
0.922450 0.239525 0.001577
1.035765 0.239525 0.001577
1.125000 0.239525 0.001577
1.125000 0.239525 0.001577
1.125000 0.239525 0.001577
1.125000 0.239525 0.001577
1.125000 0.239525 0.001577
1.125000 0.239525 0.001577
1.125000 0.239525 0.001577
1.125000 0.239525 0.001577
1.125000 0.239525 0.001577
1.125000 0.239525 0.001577
1.125000 0.239525 0.001577
0.001577 0.280153 0.001577
0.007480 0.280153 0.001577
0.026472 0.280153 0.001577
0.058453 0.280153 0.001577
0.086055 0.280153 0.001577
0.112125 0.280153 0.001577
0.139314 0.280153 0.001577
0.169279 0.280153 0.001577
0.202670 0.280153 0.001577
0.239525 0.280153 0.001577
0.280153 0.280153 0.001577
0.325168 0.280153 0.001577
0.375362 0.280153 0.001577
0.431619 0.280153 0.001577
0.494701 0.280153 0.001577
0.564431 0.280153 0.001577
0.641325 0.280153 0.001577
0.726100 0.280153 0.001577
0.819530 0.280153 0.001577
0.922450 0.280153 0.001577
1.035765 0.280153 0.001577
1.125000 0.280153 0.001577
1.125000 0.280153 0.001577
1.125000 0.280153 0.001577
1.125000 0.280153 0.001577
1.125000 0.280153 0.001577
1.125000 0.280153 0.001577
1.125000 0.280153 0.001577
1.125000 0.280153 0.001577
1.125000 0.280153 0.001577
1.125000 0.280153 0.001577
1.125000 0.280153 0.001577
0.001577 0.325168 0.001577
0.007480 0.325168 0.001577
0.026472 0.325168 0.001577
0.058453 0.325168 0.001577
0.086055 0.325168 0.001577
0.112125 0.325168 0.001577
0.139314 0.325168 0.001577
0.169279 0.325168 0.001577
0.202670 0.325168 0.001577
0.239525 0.325168 0.001577
0.280153 0.325168 0.001577
0.325168 0.325168 0.001577
0.375362 0.325168 0.001577
0.431619 0.325168 0.001577
0.494701 0.325168 0.001577
0.564431 0.325168 0.001577
0.641325 0.325168 0.001577
0.726100 0.325168 0.001577
0.819530 0.325168 0.001577
0.922450 0.325168 0.001577
1.035765 0.325168 0.001577
1.125000 0.325168 0.001577
1.125000 0.325168 0.001577
1.125000 0.325168 0.001577
1.125000 0.325168 0.001577
1.125000 0.325168 0.001577
1.125000 0.325168 0.001577
1.125000 0.325168 0.001577
1.125000 0.325168 0.001577
1.125000 0.325168 0.001577
1.125000 0.325168 0.001577
1.125000 0.325168 0.001577
0.001577 0.375362 0.001577
0.007480 0.375362 0.001577
0.026472 0.375362 0.001577
0.058453 0.375362 0.001577
0.086055 0.375362 0.001577
0.112125 0.375362 0.001577
0.139314 0.375362 0.001577
0.169279 0.375362 0.001577
0.202670 0.375362 0.001577
0.239525 0.375362 0.001577
0.280153 0.375362 0.001577
0.325168 0.375362 0.001577
0.375362 0.375362 0.001577
0.431619 0.375362 0.001577
0.494701 0.375362 0.001577
0.564431 0.375362 0.001577
0.641325 0.375362 0.001577
0.726100 0.375362 0.001577
0.819530 0.375362 0.001577
0.922450 0.375362 0.001577
1.035765 0.375362 0.001577
1.125000 0.375362 0.001577
1.125000 0.375362 0.001577
1.125000 0.375362 0.001577
1.125000 0.375362 0.001577
1.125000 0.375362 0.001577
1.125000 0.375362 0.001577
1.125000 0.375362 0.001577
1.125000 0.375362 0.001577
1.125000 0.375362 0.001577
1.125000 0.375362 0.001577
1.125000 0.375362 0.001577
0.001577 0.431619 0.001577
0.007480 0.431619 0.001577
0.026472 0.431619 0.001577
0.058453 0.431619 0.001577
0.086055 0.431619 0.001577
0.112125 0.431619 0.001577
0.139314 0.431619 0.001577
0.169279 0.431619 0.001577
0.202670 0.431619 0.001577
0.239525 0.431619 0.001577
0.280153 0.431619 0.001577
0.325168 0.431619 0.001577
0.375362 0.431619 0.001577
0.431619 0.431619 0.001577
0.494701 0.431619 0.001577
0.564431 0.431619 0.001577
0.641325 0.431619 0.001577
0.726100 0.431619 0.001577
0.819530 0.431619 0.001577
0.922450 0.431619 0.001577
1.035765 0.431619 0.001577
1.125000 0.431619 0.001577
1.125000 0.431619 0.001577
1.125000 0.431619 0.001577
1.125000 0.431619 0.001577
1.125000 0.431619 0.001577
1.125000 0.431619 0.001577
1.125000 0.431619 0.001577
1.125000 0.431619 0.001577
1.125000 0.431619 0.001577
1.125000 0.431619 0.001577
1.125000 0.431619 0.001577
0.001577 0.494701 0.001577
0.007480 0.494701 0.001577
0.026472 0.494701 0.001577
0.058453 0.494701 0.001577
0.086055 0.494701 0.001577
0.112125 0.494701 0.001577
0.139314 0.494701 0.001577
0.169279 0.494701 0.001577
0.202670 0.494701 0.001577
0.239525 0.494701 0.001577
0.280153 0.494701 0.001577
0.325168 0.494701 0.001577
0.375362 0.494701 0.001577
0.431619 0.494701 0.001577
0.494701 0.494701 0.001577
0.564431 0.494701 0.001577
0.641325 0.494701 0.001577
0.726100 0.494701 0.001577
0.819530 0.494701 0.001577
0.922450 0.494701 0.001577
1.035765 0.494701 0.001577
1.125000 0.494701 0.001577
1.125000 0.494701 0.001577
1.125000 0.494701 0.001577
1.125000 0.494701 0.001577
1.125000 0.494701 0.001577
1.125000 0.494701 0.001577
1.125000 0.494701 0.001577
1.125000 0.494701 0.001577
1.125000 0.494701 0.001577
1.125000 0.494701 0.001577
1.125000 0.494701 0.001577
0.001577 0.564431 0.001577
0.007480 0.564431 0.001577
0.026472 0.564431 0.001577
0.058453 0.564431 0.001577
0.086055 0.564431 0.001577
0.112125 0.564431 0.001577
0.139314 0.564431 0.001577
0.169279 0.564431 0.001577
0.202670 0.564431 0.001577
0.239525 0.564431 0.001577
0.280153 0.564431 0.001577
0.325168 0.564431 0.001577
0.375362 0.564431 0.001577
0.431619 0.564431 0.001577
0.494701 0.564431 0.001577
0.564431 0.564431 0.001577
0.641325 0.564431 0.001577
0.726100 0.564431 0.001577
0.819530 0.564431 0.001577
0.922450 0.564431 0.001577
1.035765 0.564431 0.001577
1.125000 0.564431 0.001577
1.125000 0.564431 0.001577
1.125000 0.564431 0.001577
1.125000 0.564431 0.001577
1.125000 0.564431 0.001577
1.125000 0.564431 0.001577
1.125000 0.564431 0.001577
1.125000 0.564431 0.001577
1.125000 0.564431 0.001577
1.125000 0.564431 0.001577
1.125000 0.564431 0.001577
0.001577 0.641325 0.001577
0.007480 0.641325 0.001577
0.026472 0.641325 0.001577
0.058453 0.641325 0.001577
0.086055 0.641325 0.001577
0.112125 0.641325 0.001577
0.139314 0.641325 0.001577
0.169279 0.641325 0.001577
0.202670 0.641325 0.001577
0.239525 0.641325 0.001577
0.280153 0.641325 0.001577
0.325168 0.641325 0.001577
0.375362 0.641325 0.001577
0.431619 0.641325 0.001577
0.494701 0.641325 0.001577
0.564431 0.641325 0.001577
0.641325 0.641325 0.001577
0.726100 0.641325 0.001577
0.819530 0.641325 0.001577
0.922450 0.641325 0.001577
1.035765 0.641325 0.001577
1.125000 0.641325 0.001577
1.125000 0.641325 0.001577
1.125000 0.641325 0.001577
1.125000 0.641325 0.001577
1.125000 0.641325 0.001577
1.125000 0.641325 0.001577
1.125000 0.641325 0.001577
1.125000 0.641325 0.001577
1.125000 0.641325 0.001577
1.125000 0.641325 0.001577
1.125000 0.641325 0.001577
0.001577 0.726100 0.001577
0.007480 0.726100 0.001577
0.026472 0.726100 0.001577
0.058453 0.726100 0.001577
0.086055 0.726100 0.001577
0.112125 0.726100 0.001577
0.139314 0.726100 0.001577
0.169279 0.726100 0.001577
0.202670 0.726100 0.001577
0.239525 0.726100 0.001577
0.280153 0.726100 0.001577
0.325168 0.726100 0.001577
0.375362 0.726100 0.001577
0.431619 0.726100 0.001577
0.494701 0.726100 0.001577
0.564431 0.726100 0.001577
0.641325 0.726100 0.001577
0.726100 0.726100 0.001577
0.819530 0.726100 0.001577
0.922450 0.726100 0.001577
1.035765 0.726100 0.001577
1.125000 0.726100 0.001577
1.125000 0.726100 0.001577
1.125000 0.726100 0.001577
1.125000 0.726100 0.001577
1.125000 0.726100 0.001577
1.125000 0.726100 0.001577
1.125000 0.726100 0.001577
1.125000 0.726100 0.001577
1.125000 0.726100 0.001577
1.125000 0.726100 0.001577
1.125000 0.726100 0.001577
0.001577 0.819530 0.001577
0.007480 0.819530 0.001577
0.026472 0.819530 0.001577
0.058453 0.819530 0.001577
0.086055 0.819530 0.001577
0.112125 0.819530 0.001577
0.139314 0.819530 0.001577
0.169279 0.819530 0.001577
0.202670 0.819530 0.001577
0.239525 0.819530 0.001577
0.280153 0.819530 0.001577
0.325168 0.819530 0.001577
0.375362 0.819530 0.001577
0.431619 0.819530 0.001577
0.494701 0.819530 0.001577
0.564431 0.819530 0.001577
0.641325 0.819530 0.001577
0.726100 0.819530 0.001577
0.819530 0.819530 0.001577
0.922450 0.819530 0.001577
1.035765 0.819530 0.001577
1.125000 0.819530 0.001577
1.125000 0.819530 0.001577
1.125000 0.819530 0.001577
1.125000 0.819530 0.001577
1.125000 0.819530 0.001577
1.125000 0.819530 0.001577
1.125000 0.819530 0.001577
1.125000 0.819530 0.001577
1.125000 0.819530 0.001577
1.125000 0.819530 0.001577
1.125000 0.819530 0.001577
0.001577 0.922450 0.001577
0.007480 0.922450 0.001577
0.026472 0.922450 0.001577
0.058453 0.922450 0.001577
0.086055 0.922450 0.001577
0.112125 0.922450 0.001577
0.139314 0.922450 0.001577
0.169279 0.922450 0.001577
0.202670 0.922450 0.001577
0.239525 0.922450 0.001577
0.280153 0.922450 0.001577
0.325168 0.922450 0.001577
0.375362 0.922450 0.001577
0.431619 0.922450 0.001577
0.494701 0.922450 0.001577
0.564431 0.922450 0.001577
0.641325 0.922450 0.001577
0.726100 0.922450 0.001577
0.819530 0.922450 0.001577
0.922450 0.922450 0.001577
1.035765 0.922450 0.001577
1.125000 0.922450 0.001577
1.125000 0.922450 0.001577
1.125000 0.922450 0.001577
1.125000 0.922450 0.001577
1.125000 0.922450 0.001577
1.125000 0.922450 0.001577
1.125000 0.922450 0.001577
1.125000 0.922450 0.001577
1.125000 0.922450 0.001577
1.125000 0.922450 0.001577
1.125000 0.922450 0.001577
0.001577 1.035765 0.001577
0.007480 1.035765 0.001577
0.026472 1.035765 0.001577
0.058453 1.035765 0.001577
0.086055 1.035765 0.001577
0.112125 1.035765 0.001577
0.139314 1.035765 0.001577
0.169279 1.035765 0.001577
0.202670 1.035765 0.001577
0.239525 1.035765 0.001577
0.280153 1.035765 0.001577
0.325168 1.035765 0.001577
0.375362 1.035765 0.001577
0.431619 1.035765 0.001577
0.494701 1.035765 0.001577
0.564431 1.035765 0.001577
0.641325 1.035765 0.001577
0.726100 1.035765 0.001577
0.819530 1.035765 0.001577
0.922450 1.035765 0.001577
1.035765 1.035765 0.001577
1.125000 1.035765 0.001577
1.125000 1.035765 0.001577
1.125000 1.035765 0.001577
1.125000 1.035765 0.001577
1.125000 1.035765 0.001577
1.125000 1.035765 0.001577
1.125000 1.035765 0.001577
1.125000 1.035765 0.001577
1.125000 1.035765 0.001577
1.125000 1.035765 0.001577
1.125000 1.035765 0.001577
0.001577 1.125000 0.001577
0.007480 1.125000 0.001577
0.026472 1.125000 0.001577
0.058453 1.125000 0.001577
0.086055 1.125000 0.001577
0.112125 1.125000 0.001577
0.139314 1.125000 0.001577
0.169279 1.125000 0.001577
0.202670 1.125000 0.001577
0.239525 1.125000 0.001577
0.280153 1.125000 0.001577
0.325168 1.125000 0.001577
0.375362 1.125000 0.001577
0.431619 1.125000 0.001577
0.494701 1.125000 0.001577
0.564431 1.125000 0.001577
0.641325 1.125000 0.001577
0.726100 1.125000 0.001577
0.819530 1.125000 0.001577
0.922450 1.125000 0.001577
1.035765 1.125000 0.001577
1.125000 1.125000 0.001577
1.125000 1.125000 0.001577
1.125000 1.125000 0.001577
1.125000 1.125000 0.001577
1.125000 1.125000 0.001577
1.125000 1.125000 0.001577
1.125000 1.125000 0.001577
1.125000 1.125000 0.001577
1.125000 1.125000 0.001577
1.125000 1.125000 0.001577
1.125000 1.125000 0.001577
0.001577 1.125000 0.001577
0.007480 1.125000 0.001577
0.026472 1.125000 0.001577
0.058453 1.125000 0.001577
0.086055 1.125000 0.001577
0.112125 1.125000 0.001577
0.139314 1.125000 0.001577
0.169279 1.125000 0.001577
0.202670 1.125000 0.001577
0.239525 1.125000 0.001577
0.280153 1.125000 0.001577
0.325168 1.125000 0.001577
0.375362 1.125000 0.001577
0.431619 1.125000 0.001577
0.494701 1.125000 0.001577
0.564431 1.125000 0.001577
0.641325 1.125000 0.001577
0.726100 1.125000 0.001577
0.819530 1.125000 0.001577
0.922450 1.125000 0.001577
1.035765 1.125000 0.001577
1.125000 1.125000 0.001577
1.125000 1.125000 0.001577
1.125000 1.125000 0.001577
1.125000 1.125000 0.001577
1.125000 1.125000 0.001577
1.125000 1.125000 0.001577
1.125000 1.125000 0.001577
1.125000 1.125000 0.001577
1.125000 1.125000 0.001577
1.125000 1.125000 0.001577
1.125000 1.125000 0.001577
0.001577 1.125000 0.001577
0.007480 1.125000 0.001577
0.026472 1.125000 0.001577
0.058453 1.125000 0.001577
0.086055 1.125000 0.001577
0.112125 1.125000 0.001577
0.139314 1.125000 0.001577
0.169279 1.125000 0.001577
0.202670 1.125000 0.001577
0.239525 1.125000 0.001577
0.280153 1.125000 0.001577
0.325168 1.125000 0.001577
0.375362 1.125000 0.001577
0.431619 1.125000 0.001577
0.494701 1.125000 0.001577
0.564431 1.125000 0.001577
0.641325 1.125000 0.001577
0.726100 1.125000 0.001577
0.819530 1.125000 0.001577
0.922450 1.125000 0.001577
1.035765 1.125000 0.001577
1.125000 1.125000 0.001577
1.125000 1.125000 0.001577
1.125000 1.125000 0.001577
1.125000 1.125000 0.001577
1.125000 1.125000 0.001577
1.125000 1.125000 0.001577
1.125000 1.125000 0.001577
1.125000 1.125000 0.001577
1.125000 1.125000 0.001577
1.125000 1.125000 0.001577
1.125000 1.125000 0.001577
0.001577 1.125000 0.001577
0.007480 1.125000 0.001577
0.026472 1.125000 0.001577
0.058453 1.125000 0.001577
0.086055 1.125000 0.001577
0.112125 1.125000 0.001577
0.139314 1.125000 0.001577
0.169279 1.125000 0.001577
0.202670 1.125000 0.001577
0.239525 1.125000 0.001577
0.280153 1.125000 0.001577
0.325168 1.125000 0.001577
0.375362 1.125000 0.001577
0.431619 1.125000 0.001577
0.494701 1.125000 0.001577
0.564431 1.125000 0.001577
0.641325 1.125000 0.001577
0.726100 1.125000 0.001577
0.819530 1.125000 0.001577
0.922450 1.125000 0.001577
1.035765 1.125000 0.001577
1.125000 1.125000 0.001577
1.125000 1.125000 0.001577
1.125000 1.125000 0.001577
1.125000 1.125000 0.001577
1.125000 1.125000 0.001577
1.125000 1.125000 0.001577
1.125000 1.125000 0.001577
1.125000 1.125000 0.001577
1.125000 1.125000 0.001577
1.125000 1.125000 0.001577
1.125000 1.125000 0.001577
0.001577 1.125000 0.001577
0.007480 1.125000 0.001577
0.026472 1.125000 0.001577
0.058453 1.125000 0.001577
0.086055 1.125000 0.001577
0.112125 1.125000 0.001577
0.139314 1.125000 0.001577
0.169279 1.125000 0.001577
0.202670 1.125000 0.001577
0.239525 1.125000 0.001577
0.280153 1.125000 0.001577
0.325168 1.125000 0.001577
0.375362 1.125000 0.001577
0.431619 1.125000 0.001577
0.494701 1.125000 0.001577
0.564431 1.125000 0.001577
0.641325 1.125000 0.001577
0.726100 1.125000 0.001577
0.819530 1.125000 0.001577
0.922450 1.125000 0.001577
1.035765 1.125000 0.001577
1.125000 1.125000 0.001577
1.125000 1.125000 0.001577
1.125000 1.125000 0.001577
1.125000 1.125000 0.001577
1.125000 1.125000 0.001577
1.125000 1.125000 0.001577
1.125000 1.125000 0.001577
1.125000 1.125000 0.001577
1.125000 1.125000 0.001577
1.125000 1.125000 0.001577
1.125000 1.125000 0.001577
0.001577 1.125000 0.001577
0.007480 1.125000 0.001577
0.026472 1.125000 0.001577
0.058453 1.125000 0.001577
0.086055 1.125000 0.001577
0.112125 1.125000 0.001577
0.139314 1.125000 0.001577
0.169279 1.125000 0.001577
0.202670 1.125000 0.001577
0.239525 1.125000 0.001577
0.280153 1.125000 0.001577
0.325168 1.125000 0.001577
0.375362 1.125000 0.001577
0.431619 1.125000 0.001577
0.494701 1.125000 0.001577
0.564431 1.125000 0.001577
0.641325 1.125000 0.001577
0.726100 1.125000 0.001577
0.819530 1.125000 0.001577
0.922450 1.125000 0.001577
1.035765 1.125000 0.001577
1.125000 1.125000 0.001577
1.125000 1.125000 0.001577
1.125000 1.125000 0.001577
1.125000 1.125000 0.001577
1.125000 1.125000 0.001577
1.125000 1.125000 0.001577
1.125000 1.125000 0.001577
1.125000 1.125000 0.001577
1.125000 1.125000 0.001577
1.125000 1.125000 0.001577
1.125000 1.125000 0.001577
0.001577 1.125000 0.001577
0.007480 1.125000 0.001577
0.026472 1.125000 0.001577
0.058453 1.125000 0.001577
0.086055 1.125000 0.001577
0.112125 1.125000 0.001577
0.139314 1.125000 0.001577
0.169279 1.125000 0.001577
0.202670 1.125000 0.001577
0.239525 1.125000 0.001577
0.280153 1.125000 0.001577
0.325168 1.125000 0.001577
0.375362 1.125000 0.001577
0.431619 1.125000 0.001577
0.494701 1.125000 0.001577
0.564431 1.125000 0.001577
0.641325 1.125000 0.001577
0.726100 1.125000 0.001577
0.819530 1.125000 0.001577
0.922450 1.125000 0.001577
1.035765 1.125000 0.001577
1.125000 1.125000 0.001577
1.125000 1.125000 0.001577
