stdX3.0/luts/PSD_log2anim.cube
TITLE "Generated by Foundry::LUT"
LUT_3D_SIZE 8
DOMAIN_MIN 0.000000 0.000000 0.000000
DOMAIN_MAX 0.903226 0.903226 0.903226
0.000000 0.000000 0.000000
0.013695 0.000000 0.000000
0.114419 0.000000 0.000000
0.332835 0.000000 0.000000
0.649831 0.000000 0.000000
0.876380 0.000000 0.000000
0.976906 0.000000 0.000000
1.000000 0.000000 0.000000
0.000000 0.013695 0.000000
0.013695 0.013695 0.000000
0.114419 0.013695 0.000000
0.332835 0.013695 0.000000
0.649831 0.013695 0.000000
0.876380 0.013695 0.000000
0.976906 0.013695 0.000000
1.000000 0.013695 0.000000
0.000000 0.114419 0.000000
0.013695 0.114419 0.000000
0.114419 0.114419 0.000000
0.332835 0.114419 0.000000
0.649831 0.114419 0.000000
0.876380 0.114419 0.000000
0.976906 0.114419 0.000000
1.000000 0.114419 0.000000
0.000000 0.332835 0.000000
0.013695 0.332835 0.000000
0.114419 0.332835 0.000000
0.332835 0.332835 0.000000
0.649831 0.332835 0.000000
0.876380 0.332835 0.000000
0.976906 0.332835 0.000000
1.000000 0.332835 0.000000
0.000000 0.649831 0.000000
0.013695 0.649831 0.000000
0.114419 0.649831 0.000000
0.332835 0.649831 0.000000
0.649831 0.649831 0.000000
0.876380 0.649831 0.000000
0.976906 0.649831 0.000000
1.000000 0.649831 0.000000
0.000000 0.876380 0.000000
0.013695 0.876380 0.000000
0.114419 0.876380 0.000000
0.332835 0.876380 0.000000
0.649831 0.876380 0.000000
0.876380 0.876380 0.000000
0.976906 0.876380 0.000000
1.000000 0.876380 0.000000
0.000000 0.976906 0.000000
0.013695 0.976906 0.000000
0.114419 0.976906 0.000000
0.332835 0.976906 0.000000
0.649831 0.976906 0.000000
0.876380 0.976906 0.000000
0.976906 0.976906 0.000000
1.000000 0.976906 0.000000
0.000000 1.000000 0.000000
0.013695 1.000000 0.000000
0.114419 1.000000 0.000000
0.332835 1.000000 0.000000
0.649831 1.000000 0.000000
0.876380 1.000000 0.000000
0.976906 1.000000 0.000000
1.000000 1.000000 0.000000
0.000000 0.000000 0.013695
0.013695 0.000000 0.013695
0.114419 0.000000 0.013695
0.332835 0.000000 0.013695
0.649831 0.000000 0.013695
0.876380 0.000000 0.013695
0.976906 0.000000 0.013695
1.000000 0.000000 0.013695
0.000000 0.013695 0.013695
0.013695 0.013695 0.013695
0.114419 0.013695 0.013695
0.332835 0.013695 0.013695
0.649831 0.013695 0.013695
0.876380 0.013695 0.013695
0.976906 0.013695 0.013695
1.000000 0.013695 0.013695
0.000000 0.114419 0.013695
0.013695 0.114419 0.013695
0.114419 0.114419 0.013695
0.332835 0.114419 0.013695
0.649831 0.114419 0.013695
0.876380 0.114419 0.013695
0.976906 0.114419 0.013695
1.000000 0.114419 0.013695
0.000000 0.332835 0.013695
0.013695 0.332835 0.013695
0.114419 0.332835 0.013695
0.332835 0.332835 0.013695
0.649831 0.332835 0.013695
0.876380 0.332835 0.013695
0.976906 0.332835 0.013695
1.000000 0.332835 0.013695
0.000000 0.649831 0.013695
0.013695 0.649831 0.013695
0.114419 0.649831 0.013695
0.332835 0.649831 0.013695
0.649831 0.649831 0.013695
0.876380 0.649831 0.013695
0.976906 0.649831 0.013695
1.000000 0.649831 0.013695
0.000000 0.876380 0.013695
0.013695 0.876380 0.013695
0.114419 0.876380 0.013695
0.332835 0.876380 0.013695
0.649831 0.876380 0.013695
0.876380 0.876380 0.013695
0.976906 0.876380 0.013695
1.000000 0.876380 0.013695
0.000000 0.976906 0.013695
0.013695 0.976906 0.013695
0.114419 0.976906 0.013695
0.332835 0.976906 0.013695
0.649831 0.976906 0.013695
0.876380 0.976906 0.013695
0.976906 0.976906 0.013695
1.000000 0.976906 0.013695
0.000000 1.000000 0.013695
0.013695 1.000000 0.013695
0.114419 1.000000 0.013695
0.332835 1.000000 0.013695
0.649831 1.000000 0.013695
0.876380 1.000000 0.013695
0.976906 1.000000 0.013695
1.000000 1.000000 0.013695
0.000000 0.000000 0.114419
0.013695 0.000000 0.114419
0.114419 0.000000 0.114419
0.332835 0.000000 0.114419
0.649831 0.000000 0.114419
0.876380 0.000000 0.114419
0.976906 0.000000 0.114419
1.000000 0.000000 0.114419
0.000000 0.013695 0.114419
0.013695 0.013695 0.114419
0.114419 0.013695 0.114419
0.332835 0.013695 0.114419
0.649831 0.013695 0.114419
0.876380 0.013695 0.114419
0.976906 0.013695 0.114419
1.000000 0.013695 0.114419
0.000000 0.114419 0.114419
0.013695 0.114419 0.114419
0.114419 0.114419 0.114419
0.332835 0.114419 0.114419
0.649831 0.114419 0.114419
0.876380 0.114419 0.114419
0.976906 0.114419 0.114419
1.000000 0.114419 0.114419
0.000000 0.332835 0.114419
0.013695 0.332835 0.114419
0.114419 0.332835 0.114419
0.332835 0.332835 0.114419
0.649831 0.332835 0.114419
0.876380 0.332835 0.114419
0.976906 0.332835 0.114419
1.000000 0.332835 0.114419
0.000000 0.649831 0.114419
0.013695 0.649831 0.114419
0.114419 0.649831 0.114419
0.332835 0.649831 0.114419
0.649831 0.649831 0.114419
0.876380 0.649831 0.114419
0.976906 0.649831 0.114419
1.000000 0.649831 0.114419
0.000000 0.876380 0.114419
0.013695 0.876380 0.114419
0.114419 0.876380 0.114419
0.332835 0.876380 0.114419
0.649831 0.876380 0.114419
0.876380 0.876380 0.114419
0.976906 0.876380 0.114419
1.000000 0.876380 0.114419
0.000000 0.976906 0.114419
0.013695 0.976906 0.114419
0.114419 0.976906 0.114419
0.332835 0.976906 0.114419
0.649831 0.976906 0.114419
0.876380 0.976906 0.114419
0.976906 0.976906 0.114419
1.000000 0.976906 0.114419
0.000000 1.000000 0.114419
0.013695 1.000000 0.114419
0.114419 1.000000 0.114419
0.332835 1.000000 0.114419
0.649831 1.000000 0.114419
0.876380 1.000000 0.114419
0.976906 1.000000 0.114419
1.000000 1.000000 0.114419
0.000000 0.000000 0.332835
0.013695 0.000000 0.332835
0.114419 0.000000 0.332835
0.332835 0.000000 0.332835
0.649831 0.000000 0.332835
0.876380 0.000000 0.332835
0.976906 0.000000 0.332835
1.000000 0.000000 0.332835
0.000000 0.013695 0.332835
0.013695 0.013695 0.332835
0.114419 0.013695 0.332835
0.332835 0.013695 0.332835
0.649831 0.013695 0.332835
0.876380 0.013695 0.332835
0.976906 0.013695 0.332835
1.000000 0.013695 0.332835
0.000000 0.114419 0.332835
0.013695 0.114419 0.332835
0.114419 0.114419 0.332835
0.332835 0.114419 0.332835
0.649831 0.114419 0.332835
0.876380 0.114419 0.332835
0.976906 0.114419 0.332835
1.000000 0.114419 0.332835
0.000000 0.332835 0.332835
0.013695 0.332835 0.332835
0.114419 0.332835 0.332835
0.332835 0.332835 0.332835
0.649831 0.332835 0.332835
0.876380 0.332835 0.332835
0.976906 0.332835 0.332835
1.000000 0.332835 0.332835
0.000000 0.649831 0.332835
0.013695 0.649831 0.332835
0.114419 0.649831 0.332835
0.332835 0.649831 0.332835
0.649831 0.649831 0.332835
0.876380 0.649831 0.332835
0.976906 0.649831 0.332835
1.000000 0.649831 0.332835
0.000000 0.876380 0.332835
0.013695 0.876380 0.332835
0.114419 0.876380 0.332835
0.332835 0.876380 0.332835
0.649831 0.876380 0.332835
0.876380 0.876380 0.332835
0.976906 0.876380 0.332835
1.000000 0.876380 0.332835
0.000000 0.976906 0.332835
0.013695 0.976906 0.332835
0.114419 0.976906 0.332835
0.332835 0.976906 0.332835
0.649831 0.976906 0.332835
0.876380 0.976906 0.332835
0.976906 0.976906 0.332835
1.000000 0.976906 0.332835
0.000000 1.000000 0.332835
0.013695 1.000000 0.332835
0.114419 1.000000 0.332835
0.332835 1.000000 0.332835
0.649831 1.000000 0.332835
0.876380 1.000000 0.332835
0.976906 1.000000 0.332835
1.000000 1.000000 0.332835
0.000000 0.000000 0.649831
0.013695 0.000000 0.649831
0.114419 0.000000 0.649831
0.332835 0.000000 0.649831
0.649831 0.000000 0.649831
0.876380 0.000000 0.649831
0.976906 0.000000 0.649831
1.000000 0.000000 0.649831
0.000000 0.013695 0.649831
0.013695 0.013695 0.649831
0.114419 0.013695 0.649831
0.332835 0.013695 0.649831
0.649831 0.013695 0.649831
0.876380 0.013695 0.649831
0.976906 0.013695 0.649831
1.000000 0.013695 0.649831
0.000000 0.114419 0.649831
0.013695 0.114419 0.649831
0.114419 0.114419 0.649831
0.332835 0.114419 0.649831
0.649831 0.114419 0.649831
0.876380 0.114419 0.649831
0.976906 0.114419 0.649831
1.000000 0.114419 0.649831
0.000000 0.332835 0.649831
0.013695 0.332835 0.649831
0.114419 0.332835 0.649831
0.332835 0.332835 0.649831
0.649831 0.332835 0.649831
0.876380 0.332835 0.649831
0.976906 0.332835 0.649831
1.000000 0.332835 0.649831
0.000000 0.649831 0.649831
0.013695 0.649831 0.649831
0.114419 0.649831 0.649831
0.332835 0.649831 0.649831
0.649831 0.649831 0.649831
0.876380 0.649831 0.649831
0.976906 0.649831 0.649831
1.000000 0.649831 0.649831
0.000000 0.876380 0.649831
0.013695 0.876380 0.649831
0.114419 0.876380 0.649831
0.332835 0.876380 0.649831
0.649831 0.876380 0.649831
0.876380 0.876380 0.649831
0.976906 0.876380 0.649831
1.000000 0.876380 0.649831
0.000000 0.976906 0.649831
0.013695 0.976906 0.649831
0.114419 0.976906 0.649831
0.332835 0.976906 0.649831
0.649831 0.976906 0.649831
0.876380 0.976906 0.649831
0.976906 0.976906 0.649831
1.000000 0.976906 0.649831
0.000000 1.000000 0.649831
0.013695 1.000000 0.649831
0.114419 1.000000 0.649831
0.332835 1.000000 0.649831
0.649831 1.000000 0.649831
0.876380 1.000000 0.649831
0.976906 1.000000 0.649831
1.000000 1.000000 0.649831
0.000000 0.000000 0.876380
0.013695 0.000000 0.876380
0.114419 0.000000 0.876380
0.332835 0.000000 0.876380
0.649831 0.000000 0.876380
0.876380 0.000000 0.876380
0.976906 0.000000 0.876380
1.000000 0.000000 0.876380
0.000000 0.013695 0.876380
0.013695 0.013695 0.876380
0.114419 0.013695 0.876380
0.332835 0.013695 0.876380
0.649831 0.013695 0.876380
0.876380 0.013695 0.876380
0.976906 0.013695 0.876380
1.000000 0.013695 0.876380
0.000000 0.114419 0.876380
0.013695 0.114419 0.876380
0.114419 0.114419 0.876380
0.332835 0.114419 0.876380
0.649831 0.114419 0.876380
0.876380 0.114419 0.876380
0.976906 0.114419 0.876380
1.000000 0.114419 0.876380
0.000000 0.332835 0.876380
0.013695 0.332835 0.876380
0.114419 0.332835 0.876380
0.332835 0.332835 0.876380
0.649831 0.332835 0.876380
0.876380 0.332835 0.876380
0.976906 0.332835 0.876380
1.000000 0.332835 0.876380
0.000000 0.649831 0.876380
0.013695 0.649831 0.876380
0.114419 0.649831 0.876380
0.332835 0.649831 0.876380
0.649831 0.649831 0.876380
0.876380 0.649831 0.876380
0.976906 0.649831 0.876380
1.000000 0.649831 0.876380
0.000000 0.876380 0.876380
0.013695 0.876380 0.876380
0.114419 0.876380 0.876380
0.332835 0.876380 0.876380
0.649831 0.876380 0.876380
0.876380 0.876380 0.876380
0.976906 0.876380 0.876380
1.000000 0.876380 0.876380
0.000000 0.976906 0.876380
0.013695 0.976906 0.876380
0.114419 0.976906 0.876380
0.332835 0.976906 0.876380
0.649831 0.976906 0.876380
0.876380 0.976906 0.876380
0.976906 0.976906 0.876380
1.000000 0.976906 0.876380
0.000000 1.000000 0.876380
0.013695 1.000000 0.876380
0.114419 1.000000 0.876380
0.332835 1.000000 0.876380
0.649831 1.000000 0.876380
0.876380 1.000000 0.876380
0.976906 1.000000 0.876380
1.000000 1.000000 0.876380
0.000000 0.000000 0.976906
0.013695 0.000000 0.976906
0.114419 0.000000 0.976906
0.332835 0.000000 0.976906
0.649831 0.000000 0.976906
0.876380 0.000000 0.976906
0.976906 0.000000 0.976906
1.000000 0.000000 0.976906
0.000000 0.013695 0.976906
0.013695 0.013695 0.976906
0.114419 0.013695 0.976906
0.332835 0.013695 0.976906
0.649831 0.013695 0.976906
0.876380 0.013695 0.976906
0.976906 0.013695 0.976906
1.000000 0.013695 0.976906
0.000000 0.114419 0.976906
0.013695 0.114419 0.976906
0.114419 0.114419 0.976906
0.332835 0.114419 0.976906
0.649831 0.114419 0.976906
0.876380 0.114419 0.976906
0.976906 0.114419 0.976906
1.000000 0.114419 0.976906
0.000000 0.332835 0.976906
0.013695 0.332835 0.976906
0.114419 0.332835 0.976906
0.332835 0.332835 0.976906
0.649831 0.332835 0.976906
0.876380 0.332835 0.976906
0.976906 0.332835 0.976906
1.000000 0.332835 0.976906
0.000000 0.649831 0.976906
0.013695 0.649831 0.976906
0.114419 0.649831 0.976906
0.332835 0.649831 0.976906
0.649831 0.649831 0.976906
0.876380 0.649831 0.976906
0.976906 0.649831 0.976906
1.000000 0.649831 0.976906
0.000000 0.876380 0.976906
0.013695 0.876380 0.976906
0.114419 0.876380 0.976906
0.332835 0.876380 0.976906
0.649831 0.876380 0.976906
0.876380 0.876380 0.976906
0.976906 0.876380 0.976906
1.000000 0.876380 0.976906
0.000000 0.976906 0.976906
0.013695 0.976906 0.976906
0.114419 0.976906 0.976906
0.332835 0.976906 0.976906
0.649831 0.976906 0.976906
0.876380 0.976906 0.976906
0.976906 0.976906 0.976906
1.000000 0.976906 0.976906
0.000000 1.000000 0.976906
0.013695 1.000000 0.976906
0.114419 1.000000 0.976906
0.332835 1.000000 0.976906
0.649831 1.000000 0.976906
0.876380 1.000000 0.976906
0.976906 1.000000 0.976906
1.000000 1.000000 0.976906
0.000000 0.000000 1.000000
0.013695 0.000000 1.000000
0.114419 0.000000 1.000000
0.332835 0.000000 1.000000
0.649831 0.000000 1.000000
0.876380 0.000000 1.000000
0.976906 0.000000 1.000000
1.000000 0.000000 1.000000
0.000000 0.013695 1.000000
0.013695 0.013695 1.000000
0.114419 0.013695 1.000000
0.332835 0.013695 1.000000
0.649831 0.013695 1.000000
0.876380 0.013695 1.000000
0.976906 0.013695 1.000000
1.000000 0.013695 1.000000
0.000000 0.114419 1.000000
0.013695 0.114419 1.000000
0.114419 0.114419 1.000000
0.332835 0.114419 1.000000
0.649831 0.114419 1.000000
0.876380 0.114419 1.000000
0.976906 0.114419 1.000000
1.000000 0.114419 1.000000
0.000000 0.332835 1.000000
0.013695 0.332835 1.000000
0.114419 0.332835 1.000000
0.332835 0.332835 1.000000
0.649831 0.332835 1.000000
0.876380 0.332835 1.000000
0.976906 0.332835 1.000000
1.000000 0.332835 1.000000
0.000000 0.649831 1.000000
0.013695 0.649831 1.000000
0.114419 0.649831 1.000000
0.332835 0.649831 1.000000
0.649831 0.649831 1.000000
0.876380 0.649831 1.000000
0.976906 0.649831 1.000000
1.000000 0.649831 1.000000
0.000000 0.876380 1.000000
0.013695 0.876380 1.000000
0.114419 0.876380 1.000000
0.332835 0.876380 1.000000
0.649831 0.876380 1.000000
0.876380 0.876380 1.000000
0.976906 0.876380 1.000000
1.000000 0.876380 1.000000
0.000000 0.976906 1.000000
0.013695 0.976906 1.000000
0.114419 0.976906 1.000000
0.332835 0.976906 1.000000
0.649831 0.976906 1.000000
0.876380 0.976906 1.000000
0.976906 0.976906 1.000000
1.000000 0.976906 1.000000
0.000000 1.000000 1.000000
0.013695 1.000000 1.000000
0.114419 1.000000 1.000000
0.332835 1.000000 1.000000
0.649831 1.000000 1.000000
0.876380 1.000000 1.000000
0.976906 1.000000 1.000000
1.000000 1.000000 1.000000
