stdX3.0/luts/PSD_log2anim.cube
TITLE "Generated by Foundry::LUT"
LUT_3D_SIZE 5
DOMAIN_MIN 0.000000 0.000000 0.000000
DOMAIN_MAX 0.903226 0.903226 0.903226
0.000000 0.000000 0.000000
0.080659 0.000000 0.000000
0.492191 0.000000 0.000000
0.908965 0.000000 0.000000
1.000000 0.000000 0.000000
0.000000 0.080659 0.000000
0.080659 0.080659 0.000000
0.492191 0.080659 0.000000
0.908965 0.080659 0.000000
1.000000 0.080659 0.000000
0.000000 0.492191 0.000000
0.080659 0.492191 0.000000
0.492191 0.492191 0.000000
0.908965 0.492191 0.000000
1.000000 0.492191 0.000000
0.000000 0.908965 0.000000
0.080659 0.908965 0.000000
0.492191 0.908965 0.000000
0.908965 0.908965 0.000000
1.000000 0.908965 0.000000
0.000000 1.000000 0.000000
0.080659 1.000000 0.000000
0.492191 1.000000 0.000000
0.908965 1.000000 0.000000
1.000000 1.000000 0.000000
0.000000 0.000000 0.080659
0.080659 0.000000 0.080659
0.492191 0.000000 0.080659
0.908965 0.000000 0.080659
1.000000 0.000000 0.080659
0.000000 0.080659 0.080659
0.080659 0.080659 0.080659
0.492191 0.080659 0.080659
0.908965 0.080659 0.080659
1.000000 0.080659 0.080659
0.000000 0.492191 0.080659
0.080659 0.492191 0.080659
0.492191 0.492191 0.080659
0.908965 0.492191 0.080659
1.000000 0.492191 0.080659
0.000000 0.908965 0.080659
0.080659 0.908965 0.080659
0.492191 0.908965 0.080659
0.908965 0.908965 0.080659
1.000000 0.908965 0.080659
0.000000 1.000000 0.080659
0.080659 1.000000 0.080659
0.492191 1.000000 0.080659
0.908965 1.000000 0.080659
1.000000 1.000000 0.080659
0.000000 0.000000 0.492191
0.080659 0.000000 0.492191
0.492191 0.000000 0.492191
0.908965 0.000000 0.492191
1.000000 0.000000 0.492191
0.000000 0.080659 0.492191
0.080659 0.080659 0.492191
0.492191 0.080659 0.492191
0.908965 0.080659 0.492191
1.000000 0.080659 0.492191
0.000000 0.492191 0.492191
0.080659 0.492191 0.492191
0.492191 0.492191 0.492191
0.908965 0.492191 0.492191
1.000000 0.492191 0.492191
0.000000 0.908965 0.492191
0.080659 0.908965 0.492191
0.492191 0.908965 0.492191
0.908965 0.908965 0.492191
1.000000 0.908965 0.492191
0.000000 1.000000 0.492191
0.080659 1.000000 0.492191
0.492191 1.000000 0.492191
0.908965 1.000000 0.492191
1.000000 1.000000 0.492191
0.000000 0.000000 0.908965
0.080659 0.000000 0.908965
0.492191 0.000000 0.908965
0.908965 0.000000 0.908965
1.000000 0.000000 0.908965
0.000000 0.080659 0.908965
0.080659 0.080659 0.908965
0.492191 0.080659 0.908965
0.908965 0.080659 0.908965
1.000000 0.080659 0.908965
0.000000 0.492191 0.908965
0.080659 0.492191 0.908965
0.492191 0.492191 0.908965
0.908965 0.492191 0.908965
1.000000 0.492191 0.908965
0.000000 0.908965 0.908965
0.080659 0.908965 0.908965
0.492191 0.908965 0.908965
0.908965 0.908965 0.908965
1.000000 0.908965 0.908965
0.000000 1.000000 0.908965
0.080659 1.000000 0.908965
0.492191 1.000000 0.908965
0.908965 1.000000 0.908965
1.000000 1.000000 0.908965
0.000000 0.000000 1.000000
0.080659 0.000000 1.000000
0.492191 0.000000 1.000000
0.908965 0.000000 1.000000
1.000000 0.000000 1.000000
0.000000 0.080659 1.000000
0.080659 0.080659 1.000000
0.492191 0.080659 1.000000
0.908965 0.080659 1.000000
1.000000 0.080659 1.000000
0.000000 0.492191 1.000000
0.080659 0.492191 1.000000
0.492191 0.492191 1.000000
0.908965 0.492191 1.000000
1.000000 0.492191 1.000000
0.000000 0.908965 1.000000
0.080659 0.908965 1.000000
0.492191 0.908965 1.000000
0.908965 0.908965 1.000000
1.000000 0.908965 1.000000
0.000000 1.000000 1.000000
0.080659 1.000000 1.000000
0.492191 1.000000 1.000000
0.908965 1.000000 1.000000
1.000000 1.000000 1.000000
