stdX3.0/luts/PSD_log2anim.cube
TITLE "Generated by Foundry::LUT"
LUT_3D_SIZE 32
0.000000 0.000000 0.000000
0.000000 0.000000 0.000000
0.000000 0.000000 0.000000
0.002167 0.000000 0.000000
0.013695 0.000000 0.000000
0.031166 0.000000 0.000000
0.053521 0.000000 0.000000
0.080659 0.000000 0.000000
0.114419 0.000000 0.000000
0.154733 0.000000 0.000000
0.203508 0.000000 0.000000
0.262743 0.000000 0.000000
0.332835 0.000000 0.000000
0.411121 0.000000 0.000000
0.492191 0.000000 0.000000
0.572621 0.000000 0.000000
0.649831 0.000000 0.000000
0.721388 0.000000 0.000000
0.784682 0.000000 0.000000
0.836730 0.000000 0.000000
0.876380 0.000000 0.000000
0.908965 0.000000 0.000000
0.935958 0.000000 0.000000
0.958328 0.000000 0.000000
0.976906 0.000000 0.000000
0.992332 0.000000 0.000000
1.000000 0.000000 0.000000
1.000000 0.000000 0.000000
1.000000 0.000000 0.000000
1.000000 0.000000 0.000000
1.000000 0.000000 0.000000
1.000000 0.000000 0.000000
0.000000 0.000000 0.000000
0.000000 0.000000 0.000000
0.000000 0.000000 0.000000
0.002167 0.000000 0.000000
0.013695 0.000000 0.000000
0.031166 0.000000 0.000000
0.053521 0.000000 0.000000
0.080659 0.000000 0.000000
0.114419 0.000000 0.000000
0.154733 0.000000 0.000000
0.203508 0.000000 0.000000
0.262743 0.000000 0.000000
0.332835 0.000000 0.000000
0.411121 0.000000 0.000000
0.492191 0.000000 0.000000
0.572621 0.000000 0.000000
0.649831 0.000000 0.000000
0.721388 0.000000 0.000000
0.784682 0.000000 0.000000
0.836730 0.000000 0.000000
0.876380 0.000000 0.000000
0.908965 0.000000 0.000000
0.935958 0.000000 0.000000
0.958328 0.000000 0.000000
0.976906 0.000000 0.000000
0.992332 0.000000 0.000000
1.000000 0.000000 0.000000
1.000000 0.000000 0.000000
1.000000 0.000000 0.000000
1.000000 0.000000 0.000000
1.000000 0.000000 0.000000
1.000000 0.000000 0.000000
0.000000 0.000000 0.000000
0.000000 0.000000 0.000000
0.000000 0.000000 0.000000
0.002167 0.000000 0.000000
0.013695 0.000000 0.000000
0.031166 0.000000 0.000000
0.053521 0.000000 0.000000
0.080659 0.000000 0.000000
0.114419 0.000000 0.000000
0.154733 0.000000 0.000000
0.203508 0.000000 0.000000
0.262743 0.000000 0.000000
0.332835 0.000000 0.000000
0.411121 0.000000 0.000000
0.492191 0.000000 0.000000
0.572621 0.000000 0.000000
0.649831 0.000000 0.000000
0.721388 0.000000 0.000000
0.784682 0.000000 0.000000
0.836730 0.000000 0.000000
0.876380 0.000000 0.000000
0.908965 0.000000 0.000000
0.935958 0.000000 0.000000
0.958328 0.000000 0.000000
0.976906 0.000000 0.000000
0.992332 0.000000 0.000000
1.000000 0.000000 0.000000
1.000000 0.000000 0.000000
1.000000 0.000000 0.000000
1.000000 0.000000 0.000000
1.000000 0.000000 0.000000
1.000000 0.000000 0.000000
0.000000 0.002167 0.000000
0.000000 0.002167 0.000000
0.000000 0.002167 0.000000
0.002167 0.002167 0.000000
0.013695 0.002167 0.000000
0.031166 0.002167 0.000000
0.053521 0.002167 0.000000
0.080659 0.002167 0.000000
0.114419 0.002167 0.000000
0.154733 0.002167 0.000000
0.203508 0.002167 0.000000
0.262743 0.002167 0.000000
0.332835 0.002167 0.000000
0.411121 0.002167 0.000000
0.492191 0.002167 0.000000
0.572621 0.002167 0.000000
0.649831 0.002167 0.000000
0.721388 0.002167 0.000000
0.784682 0.002167 0.000000
0.836730 0.002167 0.000000
0.876380 0.002167 0.000000
0.908965 0.002167 0.000000
0.935958 0.002167 0.000000
0.958328 0.002167 0.000000
0.976906 0.002167 0.000000
0.992332 0.002167 0.000000
1.000000 0.002167 0.000000
1.000000 0.002167 0.000000
1.000000 0.002167 0.000000
1.000000 0.002167 0.000000
1.000000 0.002167 0.000000
1.000000 0.002167 0.000000
0.000000 0.013695 0.000000
0.000000 0.013695 0.000000
0.000000 0.013695 0.000000
0.002167 0.013695 0.000000
0.013695 0.013695 0.000000
0.031166 0.013695 0.000000
0.053521 0.013695 0.000000
0.080659 0.013695 0.000000
0.114419 0.013695 0.000000
0.154733 0.013695 0.000000
0.203508 0.013695 0.000000
0.262743 0.013695 0.000000
0.332835 0.013695 0.000000
0.411121 0.013695 0.000000
0.492191 0.013695 0.000000
0.572621 0.013695 0.000000
0.649831 0.013695 0.000000
0.721388 0.013695 0.000000
0.784682 0.013695 0.000000
0.836730 0.013695 0.000000
0.876380 0.013695 0.000000
0.908965 0.013695 0.000000
0.935958 0.013695 0.000000
0.958328 0.013695 0.000000
0.976906 0.013695 0.000000
0.992332 0.013695 0.000000
1.000000 0.013695 0.000000
1.000000 0.013695 0.000000
1.000000 0.013695 0.000000
1.000000 0.013695 0.000000
1.000000 0.013695 0.000000
1.000000 0.013695 0.000000
0.000000 0.031166 0.000000
0.000000 0.031166 0.000000
0.000000 0.031166 0.000000
0.002167 0.031166 0.000000
0.013695 0.031166 0.000000
0.031166 0.031166 0.000000
0.053521 0.031166 0.000000
0.080659 0.031166 0.000000
0.114419 0.031166 0.000000
0.154733 0.031166 0.000000
0.203508 0.031166 0.000000
0.262743 0.031166 0.000000
0.332835 0.031166 0.000000
0.411121 0.031166 0.000000
0.492191 0.031166 0.000000
0.572621 0.031166 0.000000
0.649831 0.031166 0.000000
0.721388 0.031166 0.000000
0.784682 0.031166 0.000000
0.836730 0.031166 0.000000
0.876380 0.031166 0.000000
0.908965 0.031166 0.000000
0.935958 0.031166 0.000000
0.958328 0.031166 0.000000
0.976906 0.031166 0.000000
0.992332 0.031166 0.000000
1.000000 0.031166 0.000000
1.000000 0.031166 0.000000
1.000000 0.031166 0.000000
1.000000 0.031166 0.000000
1.000000 0.031166 0.000000
1.000000 0.031166 0.000000
0.000000 0.053521 0.000000
0.000000 0.053521 0.000000
0.000000 0.053521 0.000000
0.002167 0.053521 0.000000
0.013695 0.053521 0.000000
0.031166 0.053521 0.000000
0.053521 0.053521 0.000000
0.080659 0.053521 0.000000
0.114419 0.053521 0.000000
0.154733 0.053521 0.000000
0.203508 0.053521 0.000000
0.262743 0.053521 0.000000
0.332835 0.053521 0.000000
0.411121 0.053521 0.000000
0.492191 0.053521 0.000000
0.572621 0.053521 0.000000
0.649831 0.053521 0.000000
0.721388 0.053521 0.000000
0.784682 0.053521 0.000000
0.836730 0.053521 0.000000
0.876380 0.053521 0.000000
0.908965 0.053521 0.000000
0.935958 0.053521 0.000000
0.958328 0.053521 0.000000
0.976906 0.053521 0.000000
0.992332 0.053521 0.000000
1.000000 0.053521 0.000000
1.000000 0.053521 0.000000
1.000000 0.053521 0.000000
1.000000 0.053521 0.000000
1.000000 0.053521 0.000000
1.000000 0.053521 0.000000
0.000000 0.080659 0.000000
0.000000 0.080659 0.000000
0.000000 0.080659 0.000000
0.002167 0.080659 0.000000
0.013695 0.080659 0.000000
0.031166 0.080659 0.000000
0.053521 0.080659 0.000000
0.080659 0.080659 0.000000
0.114419 0.080659 0.000000
0.154733 0.080659 0.000000
0.203508 0.080659 0.000000
0.262743 0.080659 0.000000
0.332835 0.080659 0.000000
0.411121 0.080659 0.000000
0.492191 0.080659 0.000000
0.572621 0.080659 0.000000
0.649831 0.080659 0.000000
0.721388 0.080659 0.000000
0.784682 0.080659 0.000000
0.836730 0.080659 0.000000
0.876380 0.080659 0.000000
0.908965 0.080659 0.000000
0.935958 0.080659 0.000000
0.958328 0.080659 0.000000
0.976906 0.080659 0.000000
0.992332 0.080659 0.000000
1.000000 0.080659 0.000000
1.000000 0.080659 0.000000
1.000000 0.080659 0.000000
1.000000 0.080659 0.000000
1.000000 0.080659 0.000000
1.000000 0.080659 0.000000
0.000000 0.114419 0.000000
0.000000 0.114419 0.000000
0.000000 0.114419 0.000000
0.002167 0.114419 0.000000
0.013695 0.114419 0.000000
0.031166 0.114419 0.000000
0.053521 0.114419 0.000000
0.080659 0.114419 0.000000
0.114419 0.114419 0.000000
0.154733 0.114419 0.000000
0.203508 0.114419 0.000000
0.262743 0.114419 0.000000
0.332835 0.114419 0.000000
0.411121 0.114419 0.000000
0.492191 0.114419 0.000000
0.572621 0.114419 0.000000
0.649831 0.114419 0.000000
0.721388 0.114419 0.000000
0.784682 0.114419 0.000000
0.836730 0.114419 0.000000
0.876380 0.114419 0.000000
0.908965 0.114419 0.000000
0.935958 0.114419 0.000000
0.958328 0.114419 0.000000
0.976906 0.114419 0.000000
0.992332 0.114419 0.000000
1.000000 0.114419 0.000000
1.000000 0.114419 0.000000
1.000000 0.114419 0.000000
1.000000 0.114419 0.000000
1.000000 0.114419 0.000000
1.000000 0.114419 0.000000
0.000000 0.154733 0.000000
0.000000 0.154733 0.000000
0.000000 0.154733 0.000000
0.002167 0.154733 0.000000
0.013695 0.154733 0.000000
0.031166 0.154733 0.000000
0.053521 0.154733 0.000000
0.080659 0.154733 0.000000
0.114419 0.154733 0.000000
0.154733 0.154733 0.000000
0.203508 0.154733 0.000000
0.262743 0.154733 0.000000
0.332835 0.154733 0.000000
0.411121 0.154733 0.000000
0.492191 0.154733 0.000000
0.572621 0.154733 0.000000
0.649831 0.154733 0.000000
0.721388 0.154733 0.000000
0.784682 0.154733 0.000000
0.836730 0.154733 0.000000
0.876380 0.154733 0.000000
0.908965 0.154733 0.000000
0.935958 0.154733 0.000000
0.958328 0.154733 0.000000
0.976906 0.154733 0.000000
0.992332 0.154733 0.000000
1.000000 0.154733 0.000000
1.000000 0.154733 0.000000
1.000000 0.154733 0.000000
1.000000 0.154733 0.000000
1.000000 0.154733 0.000000
1.000000 0.154733 0.000000
0.000000 0.203508 0.000000
0.000000 0.203508 0.000000
0.000000 0.203508 0.000000
0.002167 0.203508 0.000000
0.013695 0.203508 0.000000
0.031166 0.203508 0.000000
0.053521 0.203508 0.000000
0.080659 0.203508 0.000000
0.114419 0.203508 0.000000
0.154733 0.203508 0.000000
0.203508 0.203508 0.000000
0.262743 0.203508 0.000000
0.332835 0.203508 0.000000
0.411121 0.203508 0.000000
0.492191 0.203508 0.000000
0.572621 0.203508 0.000000
0.649831 0.203508 0.000000
0.721388 0.203508 0.000000
0.784682 0.203508 0.000000
0.836730 0.203508 0.000000
0.876380 0.203508 0.000000
0.908965 0.203508 0.000000
0.935958 0.203508 0.000000
0.958328 0.203508 0.000000
0.976906 0.203508 0.000000
0.992332 0.203508 0.000000
1.000000 0.203508 0.000000
1.000000 0.203508 0.000000
1.000000 0.203508 0.000000
1.000000 0.203508 0.000000
1.000000 0.203508 0.000000
1.000000 0.203508 0.000000
0.000000 0.262743 0.000000
0.000000 0.262743 0.000000
0.000000 0.262743 0.000000
0.002167 0.262743 0.000000
0.013695 0.262743 0.000000
0.031166 0.262743 0.000000
0.053521 0.262743 0.000000
0.080659 0.262743 0.000000
0.114419 0.262743 0.000000
0.154733 0.262743 0.000000
0.203508 0.262743 0.000000
0.262743 0.262743 0.000000
0.332835 0.262743 0.000000
0.411121 0.262743 0.000000
0.492191 0.262743 0.000000
0.572621 0.262743 0.000000
0.649831 0.262743 0.000000
0.721388 0.262743 0.000000
0.784682 0.262743 0.000000
0.836730 0.262743 0.000000
0.876380 0.262743 0.000000
0.908965 0.262743 0.000000
0.935958 0.262743 0.000000
0.958328 0.262743 0.000000
0.976906 0.262743 0.000000
0.992332 0.262743 0.000000
1.000000 0.262743 0.000000
1.000000 0.262743 0.000000
1.000000 0.262743 0.000000
1.000000 0.262743 0.000000
1.000000 0.262743 0.000000
1.000000 0.262743 0.000000
0.000000 0.332835 0.000000
0.000000 0.332835 0.000000
0.000000 0.332835 0.000000
0.002167 0.332835 0.000000
0.013695 0.332835 0.000000
0.031166 0.332835 0.000000
0.053521 0.332835 0.000000
0.080659 0.332835 0.000000
0.114419 0.332835 0.000000
0.154733 0.332835 0.000000
0.203508 0.332835 0.000000
0.262743 0.332835 0.000000
0.332835 0.332835 0.000000
0.411121 0.332835 0.000000
0.492191 0.332835 0.000000
0.572621 0.332835 0.000000
0.649831 0.332835 0.000000
0.721388 0.332835 0.000000
0.784682 0.332835 0.000000
0.836730 0.332835 0.000000
0.876380 0.332835 0.000000
0.908965 0.332835 0.000000
0.935958 0.332835 0.000000
0.958328 0.332835 0.000000
0.976906 0.332835 0.000000
0.992332 0.332835 0.000000
1.000000 0.332835 0.000000
1.000000 0.332835 0.000000
1.000000 0.332835 0.000000
1.000000 0.332835 0.000000
1.000000 0.332835 0.000000
1.000000 0.332835 0.000000
0.000000 0.411121 0.000000
0.000000 0.411121 0.000000
0.000000 0.411121 0.000000
0.002167 0.411121 0.000000
0.013695 0.411121 0.000000
0.031166 0.411121 0.000000
0.053521 0.411121 0.000000
0.080659 0.411121 0.000000
0.114419 0.411121 0.000000
0.154733 0.411121 0.000000
0.203508 0.411121 0.000000
0.262743 0.411121 0.000000
0.332835 0.411121 0.000000
0.411121 0.411121 0.000000
0.492191 0.411121 0.000000
0.572621 0.411121 0.000000
0.649831 0.411121 0.000000
0.721388 0.411121 0.000000
0.784682 0.411121 0.000000
0.836730 0.411121 0.000000
0.876380 0.411121 0.000000
0.908965 0.411121 0.000000
0.935958 0.411121 0.000000
0.958328 0.411121 0.000000
0.976906 0.411121 0.000000
0.992332 0.411121 0.000000
1.000000 0.411121 0.000000
1.000000 0.411121 0.000000
1.000000 0.411121 0.000000
1.000000 0.411121 0.000000
1.000000 0.411121 0.000000
1.000000 0.411121 0.000000
0.000000 0.492191 0.000000
0.000000 0.492191 0.000000
0.000000 0.492191 0.000000
0.002167 0.492191 0.000000
0.013695 0.492191 0.000000
0.031166 0.492191 0.000000
0.053521 0.492191 0.000000
0.080659 0.492191 0.000000
0.114419 0.492191 0.000000
0.154733 0.492191 0.000000
0.203508 0.492191 0.000000
0.262743 0.492191 0.000000
0.332835 0.492191 0.000000
0.411121 0.492191 0.000000
0.492191 0.492191 0.000000
0.572621 0.492191 0.000000
0.649831 0.492191 0.000000
0.721388 0.492191 0.000000
0.784682 0.492191 0.000000
0.836730 0.492191 0.000000
0.876380 0.492191 0.000000
0.908965 0.492191 0.000000
0.935958 0.492191 0.000000
0.958328 0.492191 0.000000
0.976906 0.492191 0.000000
0.992332 0.492191 0.000000
1.000000 0.492191 0.000000
1.000000 0.492191 0.000000
1.000000 0.492191 0.000000
1.000000 0.492191 0.000000
1.000000 0.492191 0.000000
1.000000 0.492191 0.000000
0.000000 0.572621 0.000000
0.000000 0.572621 0.000000
0.000000 0.572621 0.000000
0.002167 0.572621 0.000000
0.013695 0.572621 0.000000
0.031166 0.572621 0.000000
0.053521 0.572621 0.000000
0.080659 0.572621 0.000000
0.114419 0.572621 0.000000
0.154733 0.572621 0.000000
0.203508 0.572621 0.000000
0.262743 0.572621 0.000000
0.332835 0.572621 0.000000
0.411121 0.572621 0.000000
0.492191 0.572621 0.000000
0.572621 0.572621 0.000000
0.649831 0.572621 0.000000
0.721388 0.572621 0.000000
0.784682 0.572621 0.000000
0.836730 0.572621 0.000000
0.876380 0.572621 0.000000
0.908965 0.572621 0.000000
0.935958 0.572621 0.000000
0.958328 0.572621 0.000000
0.976906 0.572621 0.000000
0.992332 0.572621 0.000000
1.000000 0.572621 0.000000
1.000000 0.572621 0.000000
1.000000 0.572621 0.000000
1.000000 0.572621 0.000000
1.000000 0.572621 0.000000
1.000000 0.572621 0.000000
0.000000 0.649831 0.000000
0.000000 0.649831 0.000000
0.000000 0.649831 0.000000
0.002167 0.649831 0.000000
0.013695 0.649831 0.000000
0.031166 0.649831 0.000000
0.053521 0.649831 0.000000
0.080659 0.649831 0.000000
0.114419 0.649831 0.000000
0.154733 0.649831 0.000000
0.203508 0.649831 0.000000
0.262743 0.649831 0.000000
0.332835 0.649831 0.000000
0.411121 0.649831 0.000000
0.492191 0.649831 0.000000
0.572621 0.649831 0.000000
0.649831 0.649831 0.000000
0.721388 0.649831 0.000000
0.784682 0.649831 0.000000
0.836730 0.649831 0.000000
0.876380 0.649831 0.000000
0.908965 0.649831 0.000000
0.935958 0.649831 0.000000
0.958328 0.649831 0.000000
0.976906 0.649831 0.000000
0.992332 0.649831 0.000000
1.000000 0.649831 0.000000
1.000000 0.649831 0.000000
1.000000 0.649831 0.000000
1.000000 0.649831 0.000000
1.000000 0.649831 0.000000
1.000000 0.649831 0.000000
0.000000 0.721388 0.000000
0.000000 0.721388 0.000000
0.000000 0.721388 0.000000
0.002167 0.721388 0.000000
0.013695 0.721388 0.000000
0.031166 0.721388 0.000000
0.053521 0.721388 0.000000
0.080659 0.721388 0.000000
0.114419 0.721388 0.000000
0.154733 0.721388 0.000000
0.203508 0.721388 0.000000
0.262743 0.721388 0.000000
0.332835 0.721388 0.000000
0.411121 0.721388 0.000000
0.492191 0.721388 0.000000
0.572621 0.721388 0.000000
0.649831 0.721388 0.000000
0.721388 0.721388 0.000000
0.784682 0.721388 0.000000
0.836730 0.721388 0.000000
0.876380 0.721388 0.000000
0.908965 0.721388 0.000000
0.935958 0.721388 0.000000
0.958328 0.721388 0.000000
0.976906 0.721388 0.000000
0.992332 0.721388 0.000000
1.000000 0.721388 0.000000
1.000000 0.721388 0.000000
1.000000 0.721388 0.000000
1.000000 0.721388 0.000000
1.000000 0.721388 0.000000
1.000000 0.721388 0.000000
0.000000 0.784682 0.000000
0.000000 0.784682 0.000000
0.000000 0.784682 0.000000
0.002167 0.784682 0.000000
0.013695 0.784682 0.000000
0.031166 0.784682 0.000000
0.053521 0.784682 0.000000
0.080659 0.784682 0.000000
0.114419 0.784682 0.000000
0.154733 0.784682 0.000000
0.203508 0.784682 0.000000
0.262743 0.784682 0.000000
0.332835 0.784682 0.000000
0.411121 0.784682 0.000000
0.492191 0.784682 0.000000
0.572621 0.784682 0.000000
0.649831 0.784682 0.000000
0.721388 0.784682 0.000000
0.784682 0.784682 0.000000
0.836730 0.784682 0.000000
0.876380 0.784682 0.000000
0.908965 0.784682 0.000000
0.935958 0.784682 0.000000
0.958328 0.784682 0.000000
0.976906 0.784682 0.000000
0.992332 0.784682 0.000000
1.000000 0.784682 0.000000
1.000000 0.784682 0.000000
1.000000 0.784682 0.000000
1.000000 0.784682 0.000000
1.000000 0.784682 0.000000
1.000000 0.784682 0.000000
0.000000 0.836730 0.000000
0.000000 0.836730 0.000000
0.000000 0.836730 0.000000
0.002167 0.836730 0.000000
0.013695 0.836730 0.000000
0.031166 0.836730 0.000000
0.053521 0.836730 0.000000
0.080659 0.836730 0.000000
0.114419 0.836730 0.000000
0.154733 0.836730 0.000000
0.203508 0.836730 0.000000
0.262743 0.836730 0.000000
0.332835 0.836730 0.000000
0.411121 0.836730 0.000000
0.492191 0.836730 0.000000
0.572621 0.836730 0.000000
0.649831 0.836730 0.000000
0.721388 0.836730 0.000000
0.784682 0.836730 0.000000
0.836730 0.836730 0.000000
0.876380 0.836730 0.000000
0.908965 0.836730 0.000000
0.935958 0.836730 0.000000
0.958328 0.836730 0.000000
0.976906 0.836730 0.000000
0.992332 0.836730 0.000000
1.000000 0.836730 0.000000
1.000000 0.836730 0.000000
1.000000 0.836730 0.000000
1.000000 0.836730 0.000000
1.000000 0.836730 0.000000
1.000000 0.836730 0.000000
0.000000 0.876380 0.000000
0.000000 0.876380 0.000000
0.000000 0.876380 0.000000
0.002167 0.876380 0.000000
0.013695 0.876380 0.000000
0.031166 0.876380 0.000000
0.053521 0.876380 0.000000
0.080659 0.876380 0.000000
0.114419 0.876380 0.000000
0.154733 0.876380 0.000000
0.203508 0.876380 0.000000
0.262743 0.876380 0.000000
0.332835 0.876380 0.000000
0.411121 0.876380 0.000000
0.492191 0.876380 0.000000
0.572621 0.876380 0.000000
0.649831 0.876380 0.000000
0.721388 0.876380 0.000000
0.784682 0.876380 0.000000
0.836730 0.876380 0.000000
0.876380 0.876380 0.000000
0.908965 0.876380 0.000000
0.935958 0.876380 0.000000
0.958328 0.876380 0.000000
0.976906 0.876380 0.000000
0.992332 0.876380 0.000000
1.000000 0.876380 0.000000
1.000000 0.876380 0.000000
1.000000 0.876380 0.000000
1.000000 0.876380 0.000000
1.000000 0.876380 0.000000
1.000000 0.876380 0.000000
0.000000 0.908965 0.000000
0.000000 0.908965 0.000000
0.000000 0.908965 0.000000
0.002167 0.908965 0.000000
0.013695 0.908965 0.000000
0.031166 0.908965 0.000000
0.053521 0.908965 0.000000
0.080659 0.908965 0.000000
0.114419 0.908965 0.000000
0.154733 0.908965 0.000000
0.203508 0.908965 0.000000
0.262743 0.908965 0.000000
0.332835 0.908965 0.000000
0.411121 0.908965 0.000000
0.492191 0.908965 0.000000
0.572621 0.908965 0.000000
0.649831 0.908965 0.000000
0.721388 0.908965 0.000000
0.784682 0.908965 0.000000
0.836730 0.908965 0.000000
0.876380 0.908965 0.000000
0.908965 0.908965 0.000000
0.935958 0.908965 0.000000
0.958328 0.908965 0.000000
0.976906 0.908965 0.000000
0.992332 0.908965 0.000000
1.000000 0.908965 0.000000
1.000000 0.908965 0.000000
1.000000 0.908965 0.000000
1.000000 0.908965 0.000000
1.000000 0.908965 0.000000
1.000000 0.908965 0.000000
0.000000 0.935958 0.000000
0.000000 0.935958 0.000000
0.000000 0.935958 0.000000
0.002167 0.935958 0.000000
0.013695 0.935958 0.000000
0.031166 0.935958 0.000000
0.053521 0.935958 0.000000
0.080659 0.935958 0.000000
0.114419 0.935958 0.000000
0.154733 0.935958 0.000000
0.203508 0.935958 0.000000
0.262743 0.935958 0.000000
0.332835 0.935958 0.000000
0.411121 0.935958 0.000000
0.492191 0.935958 0.000000
0.572621 0.935958 0.000000
0.649831 0.935958 0.000000
0.721388 0.935958 0.000000
0.784682 0.935958 0.000000
0.836730 0.935958 0.000000
0.876380 0.935958 0.000000
0.908965 0.935958 0.000000
0.935958 0.935958 0.000000
0.958328 0.935958 0.000000
0.976906 0.935958 0.000000
0.992332 0.935958 0.000000
1.000000 0.935958 0.000000
1.000000 0.935958 0.000000
1.000000 0.935958 0.000000
1.000000 0.935958 0.000000
1.000000 0.935958 0.000000
1.000000 0.935958 0.000000
0.000000 0.958328 0.000000
0.000000 0.958328 0.000000
0.000000 0.958328 0.000000
0.002167 0.958328 0.000000
0.013695 0.958328 0.000000
0.031166 0.958328 0.000000
0.053521 0.958328 0.000000
0.080659 0.958328 0.000000
0.114419 0.958328 0.000000
0.154733 0.958328 0.000000
0.203508 0.958328 0.000000
0.262743 0.958328 0.000000
0.332835 0.958328 0.000000
0.411121 0.958328 0.000000
0.492191 0.958328 0.000000
0.572621 0.958328 0.000000
0.649831 0.958328 0.000000
0.721388 0.958328 0.000000
0.784682 0.958328 0.000000
0.836730 0.958328 0.000000
0.876380 0.958328 0.000000
0.908965 0.958328 0.000000
0.935958 0.958328 0.000000
0.958328 0.958328 0.000000
0.976906 0.958328 0.000000
0.992332 0.958328 0.000000
1.000000 0.958328 0.000000
1.000000 0.958328 0.000000
1.000000 0.958328 0.000000
1.000000 0.958328 0.000000
1.000000 0.958328 0.000000
1.000000 0.958328 0.000000
0.000000 0.976906 0.000000
0.000000 0.976906 0.000000
0.000000 0.976906 0.000000
0.002167 0.976906 0.000000
0.013695 0.976906 0.000000
0.031166 0.976906 0.000000
0.053521 0.976906 0.000000
0.080659 0.976906 0.000000
0.114419 0.976906 0.000000
0.154733 0.976906 0.000000
0.203508 0.976906 0.000000
0.262743 0.976906 0.000000
0.332835 0.976906 0.000000
0.411121 0.976906 0.000000
0.492191 0.976906 0.000000
0.572621 0.976906 0.000000
0.649831 0.976906 0.000000
0.721388 0.976906 0.000000
0.784682 0.976906 0.000000
0.836730 0.976906 0.000000
0.876380 0.976906 0.000000
0.908965 0.976906 0.000000
0.935958 0.976906 0.000000
0.958328 0.976906 0.000000
0.976906 0.976906 0.000000
0.992332 0.976906 0.000000
1.000000 0.976906 0.000000
1.000000 0.976906 0.000000
1.000000 0.976906 0.000000
1.000000 0.976906 0.000000
1.000000 0.976906 0.000000
1.000000 0.976906 0.000000
0.000000 0.992332 0.000000
0.000000 0.992332 0.000000
0.000000 0.992332 0.000000
0.002167 0.992332 0.000000
0.013695 0.992332 0.000000
0.031166 0.992332 0.000000
0.053521 0.992332 0.000000
0.080659 0.992332 0.000000
0.114419 0.992332 0.000000
0.154733 0.992332 0.000000
0.203508 0.992332 0.000000
0.262743 0.992332 0.000000
0.332835 0.992332 0.000000
0.411121 0.992332 0.000000
0.492191 0.992332 0.000000
0.572621 0.992332 0.000000
0.649831 0.992332 0.000000
0.721388 0.992332 0.000000
0.784682 0.992332 0.000000
0.836730 0.992332 0.000000
0.876380 0.992332 0.000000
0.908965 0.992332 0.000000
0.935958 0.992332 0.000000
0.958328 0.992332 0.000000
0.976906 0.992332 0.000000
0.992332 0.992332 0.000000
1.000000 0.992332 0.000000
1.000000 0.992332 0.000000
1.000000 0.992332 0.000000
1.000000 0.992332 0.000000
1.000000 0.992332 0.000000
1.000000 0.992332 0.000000
0.000000 1.000000 0.000000
0.000000 1.000000 0.000000
0.000000 1.000000 0.000000
0.002167 1.000000 0.000000
0.013695 1.000000 0.000000
0.031166 1.000000 0.000000
0.053521 1.000000 0.000000
0.080659 1.000000 0.000000
0.114419 1.000000 0.000000
0.154733 1.000000 0.000000
0.203508 1.000000 0.000000
0.262743 1.000000 0.000000
0.332835 1.000000 0.000000
0.411121 1.000000 0.000000
0.492191 1.000000 0.000000
0.572621 1.000000 0.000000
0.649831 1.000000 0.000000
0.721388 1.000000 0.000000
0.784682 1.000000 0.000000
0.836730 1.000000 0.000000
0.876380 1.000000 0.000000
0.908965 1.000000 0.000000
0.935958 1.000000 0.000000
0.958328 1.000000 0.000000
0.976906 1.000000 0.000000
0.992332 1.000000 0.000000
1.000000 1.000000 0.000000
1.000000 1.000000 0.000000
1.000000 1.000000 0.000000
1.000000 1.000000 0.000000
1.000000 1.000000 0.000000
1.000000 1.000000 0.000000
0.000000 1.000000 0.000000
0.000000 1.000000 0.000000
0.000000 1.000000 0.000000
0.002167 1.000000 0.000000
0.013695 1.000000 0.000000
0.031166 1.000000 0.000000
0.053521 1.000000 0.000000
0.080659 1.000000 0.000000
0.114419 1.000000 0.000000
0.154733 1.000000 0.000000
0.203508 1.000000 0.000000
0.262743 1.000000 0.000000
0.332835 1.000000 0.000000
0.411121 1.000000 0.000000
0.492191 1.000000 0.000000
0.572621 1.000000 0.000000
0.649831 1.000000 0.000000
0.721388 1.000000 0.000000
0.784682 1.000000 0.000000
0.836730 1.000000 0.000000
0.876380 1.000000 0.000000
0.908965 1.000000 0.000000
0.935958 1.000000 0.000000
