stdX3.0/luts/PSD_log2vfx.cube
TITLE "Generated by Foundry::LUT"
LUT_3D_SIZE 5
DOMAIN_MIN 0.000000 0.000000 0.000000
DOMAIN_MAX 0.903226 0.903226 0.903226
0.000000 0.000000 0.000000
0.051591 0.001964 0.000000
0.388455 0.014787 0.000000
0.759228 0.028901 0.000000
0.845801 0.032197 0.000000
0.006966 0.049378 0.003160
0.058557 0.051342 0.003160
0.395421 0.064165 0.003160
0.766194 0.078279 0.003160
0.852767 0.081575 0.003160
0.052451 0.371792 0.023796
0.104042 0.373756 0.023796
0.440906 0.386579 0.023796
0.811679 0.400693 0.023796
0.898252 0.403989 0.023796
0.102514 0.726661 0.046508
0.154105 0.728625 0.046508
0.490969 0.741448 0.046508
0.861742 0.755562 0.046508
0.948316 0.758858 0.046508
0.114204 0.809521 0.051811
0.165795 0.811485 0.051811
0.502659 0.824308 0.051811
0.873432 0.838422 0.051811
0.960005 0.841718 0.051811
0.001258 0.008473 0.056655
0.052849 0.010437 0.056655
0.389712 0.023260 0.056655
0.760486 0.037374 0.056655
0.847059 0.040669 0.056655
0.008224 0.057851 0.059815
0.059815 0.059815 0.059815
0.396679 0.072638 0.059815
0.767452 0.086752 0.059815
0.854025 0.090048 0.059815
0.053708 0.380265 0.080450
0.105300 0.382229 0.080450
0.442163 0.395052 0.080450
0.812936 0.409166 0.080450
0.899510 0.412462 0.080450
0.103772 0.735134 0.103163
0.155363 0.737098 0.103163
0.492227 0.749921 0.103163
0.863000 0.764035 0.103163
0.949573 0.767330 0.103163
0.115461 0.817994 0.108466
0.167053 0.819958 0.108466
0.503916 0.832781 0.108466
0.874689 0.846895 0.108466
0.961263 0.850190 0.108466
0.009468 0.063795 0.426579
0.061060 0.065759 0.426579
0.397923 0.078582 0.426579
0.768696 0.092696 0.426579
0.855270 0.095991 0.426579
0.016435 0.113173 0.429739
0.068026 0.115137 0.429739
0.404889 0.127960 0.429739
0.775663 0.142074 0.429739
0.862236 0.145370 0.429739
0.061919 0.435587 0.450374
0.113511 0.437551 0.450374
0.450374 0.450374 0.450374
0.821147 0.464488 0.450374
0.907721 0.467784 0.450374
0.111983 0.790456 0.473087
0.163574 0.792420 0.473087
0.500438 0.805243 0.473087
0.871211 0.819357 0.473087
0.957784 0.822653 0.473087
0.123672 0.873316 0.478390
0.175263 0.875280 0.478390
0.512127 0.888103 0.478390
0.882900 0.902217 0.478390
0.969474 0.905513 0.478390
0.018506 0.124686 0.833740
0.070097 0.126650 0.833740
0.406961 0.139473 0.833740
0.777734 0.153587 0.833740
0.864307 0.156883 0.833740
0.025472 0.174064 0.836900
0.077063 0.176028 0.836900
0.413927 0.188851 0.836900
0.784700 0.202965 0.836900
0.871273 0.206261 0.836900
0.070957 0.496478 0.857536
0.122548 0.498442 0.857536
0.459412 0.511265 0.857536
0.830185 0.525379 0.857536
0.916758 0.528675 0.857536
0.121020 0.851347 0.880248
0.172611 0.853311 0.880248
0.509475 0.866134 0.880248
0.880248 0.880248 0.880248
0.966822 0.883544 0.880248
0.132710 0.934207 0.885551
0.184301 0.936171 0.885551
0.521165 0.948994 0.885551
0.891938 0.963108 0.885551
0.978511 0.966404 0.885551
0.020616 0.138904 0.928810
0.072207 0.140868 0.928810
0.409071 0.153691 0.928810
0.779844 0.167805 0.928810
0.866418 0.171100 0.928810
0.027582 0.188282 0.931970
0.079174 0.190246 0.931970
0.416037 0.203069 0.931970
0.786810 0.217183 0.931970
0.873384 0.220479 0.931970
0.073067 0.510696 0.952606
0.124658 0.512660 0.952606
0.461522 0.525483 0.952606
0.832295 0.539597 0.952606
0.918868 0.542892 0.952606
0.123130 0.865565 0.975318
0.174722 0.867529 0.975318
0.511585 0.880352 0.975318
0.882358 0.894466 0.975318
0.968932 0.897761 0.975318
0.134820 0.948425 0.980621
0.186411 0.950389 0.980621
0.523275 0.963212 0.980621
0.894048 0.977326 0.980621
0.980621 0.980621 0.980621
