stdX3.0/luts/PSD_log2vfx.cube
TITLE "Generated by Foundry::LUT"
LUT_3D_SIZE 8
DOMAIN_MIN 0.000000 0.000000 0.000000
DOMAIN_MAX 0.903226 0.903226 0.903226
0.000000 0.000000 0.000000
0.010884 0.000414 0.000000
0.077834 0.002963 0.000000
0.241196 0.009181 0.000000
0.535372 0.020380 0.000000
0.732866 0.027898 0.000000
0.812714 0.030937 0.000000
0.845801 0.032197 0.000000
0.001470 0.010417 0.000667
0.012354 0.010832 0.000667
0.079304 0.013380 0.000667
0.242666 0.019599 0.000667
0.536841 0.030797 0.000667
0.734336 0.038315 0.000667
0.814184 0.041354 0.000667
0.847271 0.042614 0.000667
0.010510 0.074496 0.004768
0.021394 0.074910 0.004768
0.088344 0.077459 0.004768
0.251705 0.083677 0.004768
0.545881 0.094875 0.004768
0.743376 0.102393 0.004768
0.823224 0.105433 0.004768
0.856311 0.106692 0.004768
0.032567 0.230850 0.014775
0.043451 0.231264 0.014775
0.110402 0.233813 0.014775
0.273763 0.240031 0.014775
0.567939 0.251230 0.014775
0.765434 0.258748 0.014775
0.845282 0.261787 0.014775
0.878369 0.263047 0.014775
0.072288 0.512407 0.032795
0.083172 0.512821 0.032795
0.150123 0.515370 0.032795
0.313484 0.521589 0.032795
0.607660 0.532787 0.032795
0.805155 0.540305 0.032795
0.885003 0.543344 0.032795
0.918090 0.544604 0.032795
0.098955 0.701430 0.044893
0.109839 0.701845 0.044893
0.176789 0.704393 0.044893
0.340151 0.710612 0.044893
0.634326 0.721810 0.044893
0.831821 0.729328 0.044893
0.911669 0.732367 0.044893
0.944756 0.733627 0.044893
0.109736 0.777853 0.049784
0.120620 0.778268 0.049784
0.187571 0.780816 0.049784
0.350932 0.787035 0.049784
0.645108 0.798233 0.049784
0.842603 0.805751 0.049784
0.922451 0.808790 0.049784
0.955537 0.810050 0.049784
0.114204 0.809521 0.051811
0.125088 0.809935 0.051811
0.192038 0.812484 0.051811
0.355400 0.818702 0.051811
0.649575 0.829901 0.051811
0.847070 0.837419 0.051811
0.926918 0.840458 0.051811
0.960005 0.841718 0.051811
0.000265 0.001787 0.011952
0.011149 0.002202 0.011952
0.078100 0.004750 0.011952
0.241461 0.010969 0.011952
0.535637 0.022167 0.011952
0.733132 0.029685 0.011952
0.812980 0.032725 0.011952
0.846067 0.033984 0.011952
0.001735 0.012205 0.012619
0.012619 0.012619 0.012619
0.079569 0.015168 0.012619
0.242931 0.021386 0.012619
0.537107 0.032584 0.012619
0.734601 0.040102 0.012619
0.814449 0.043142 0.012619
0.847536 0.044401 0.012619
0.010775 0.076283 0.016720
0.021659 0.076698 0.016720
0.088609 0.079246 0.016720
0.251971 0.085465 0.016720
0.546147 0.096663 0.016720
0.743641 0.104181 0.016720
0.823489 0.107220 0.016720
0.856576 0.108480 0.016720
0.032833 0.232637 0.026727
0.043717 0.233052 0.026727
0.110667 0.235600 0.026727
0.274029 0.241819 0.026727
0.568204 0.253017 0.026727
0.765699 0.260535 0.026727
0.845547 0.263575 0.026727
0.878634 0.264834 0.026727
0.072553 0.514195 0.044748
0.083438 0.514609 0.044748
0.150388 0.517157 0.044748
0.313749 0.523376 0.044748
0.607925 0.534574 0.044748
0.805420 0.542092 0.044748
0.885268 0.545132 0.044748
0.918355 0.546391 0.044748
0.099220 0.703218 0.056846
0.110104 0.703632 0.056846
0.177054 0.706181 0.056846
0.340416 0.712399 0.056846
0.634592 0.723597 0.056846
0.832086 0.731115 0.056846
0.911934 0.734155 0.056846
0.945021 0.735414 0.056846
0.110001 0.779641 0.061737
0.120886 0.780055 0.061737
0.187836 0.782604 0.061737
0.351197 0.788822 0.061737
0.645373 0.800021 0.061737
0.842868 0.807538 0.061737
0.922716 0.810578 0.061737
0.955803 0.811837 0.061737
0.114469 0.811309 0.063764
0.125353 0.811723 0.063764
0.192303 0.814271 0.063764
0.355665 0.820490 0.063764
0.649841 0.831688 0.063764
0.847335 0.839206 0.063764
0.927183 0.842246 0.063764
0.960270 0.843505 0.063764
0.001897 0.012783 0.085473
0.012781 0.013197 0.085473
0.079732 0.015745 0.085473
0.243093 0.021964 0.085473
0.537269 0.033162 0.085473
0.734764 0.040680 0.085473
0.814612 0.043720 0.085473
0.847699 0.044979 0.085473
0.003367 0.023200 0.086140
0.014251 0.023614 0.086140
0.081201 0.026163 0.086140
0.244563 0.032381 0.086140
0.538738 0.043580 0.086140
0.736233 0.051097 0.086140
0.816081 0.054137 0.086140
0.849168 0.055396 0.086140
0.012407 0.087278 0.090241
0.023291 0.087693 0.090241
0.090241 0.090241 0.090241
0.253603 0.096460 0.090241
0.547778 0.107658 0.090241
0.745273 0.115176 0.090241
0.825121 0.118215 0.090241
0.858208 0.119475 0.090241
0.034464 0.243632 0.100248
0.045349 0.244047 0.100248
0.112299 0.246595 0.100248
0.275660 0.252814 0.100248
0.569836 0.264012 0.100248
0.767331 0.271530 0.100248
0.847179 0.274570 0.100248
0.880266 0.275829 0.100248
0.074185 0.525190 0.118268
0.085070 0.525604 0.118268
0.152020 0.528152 0.118268
0.315381 0.534371 0.118268
0.609557 0.545569 0.118268
0.807052 0.553087 0.118268
0.886900 0.556127 0.118268
0.919987 0.557386 0.118268
0.100852 0.714213 0.130366
0.111736 0.714627 0.130366
0.178686 0.717176 0.130366
0.342048 0.723394 0.130366
0.636224 0.734592 0.130366
0.833718 0.742110 0.130366
0.913566 0.745150 0.130366
0.946653 0.746409 0.130366
0.111633 0.790636 0.135258
0.122518 0.791050 0.135258
0.189468 0.793599 0.135258
0.352829 0.799817 0.135258
0.647005 0.811016 0.135258
0.844500 0.818533 0.135258
0.924348 0.821573 0.135258
0.957435 0.822832 0.135258
0.116101 0.822304 0.137284
0.126985 0.822718 0.137284
0.193935 0.825266 0.137284
0.357297 0.831485 0.137284
0.651473 0.842683 0.137284
0.848967 0.850201 0.137284
0.928815 0.853241 0.137284
0.961902 0.854500 0.137284
0.005879 0.039611 0.264867
0.016763 0.040025 0.264867
0.083714 0.042574 0.264867
0.247075 0.048792 0.264867
0.541251 0.059991 0.264867
0.738746 0.067509 0.264867
0.818594 0.070548 0.264867
0.851680 0.071808 0.264867
0.007349 0.050028 0.265534
0.018233 0.050443 0.265534
0.085183 0.052991 0.265534
0.248545 0.059210 0.265534
0.542720 0.070408 0.265534
0.740215 0.077926 0.265534
0.820063 0.080965 0.265534
0.853150 0.082225 0.265534
0.016389 0.114107 0.269635
0.027273 0.114521 0.269635
0.094223 0.117070 0.269635
0.257585 0.123288 0.269635
0.551760 0.134486 0.269635
0.749255 0.142004 0.269635
0.829103 0.145044 0.269635
0.862190 0.146303 0.269635
0.038446 0.270461 0.279642
0.049331 0.270875 0.279642
0.116281 0.273424 0.279642
0.279642 0.279642 0.279642
0.573818 0.290841 0.279642
0.771313 0.298358 0.279642
0.851161 0.301398 0.279642
0.884248 0.302657 0.279642
0.078167 0.552018 0.297663
0.089051 0.552432 0.297663
0.156002 0.554981 0.297663
0.319363 0.561199 0.297663
0.613539 0.572398 0.297663
0.811034 0.579916 0.297663
0.890882 0.582955 0.297663
0.923969 0.584215 0.297663
0.104834 0.741041 0.309761
0.115718 0.741456 0.309761
0.182668 0.744004 0.309761
0.346030 0.750223 0.309761
0.640206 0.761421 0.309761
0.837700 0.768939 0.309761
0.917548 0.771978 0.309761
0.950635 0.773238 0.309761
0.115615 0.817464 0.314652
0.126499 0.817879 0.314652
0.193450 0.820427 0.314652
0.356811 0.826646 0.314652
0.650987 0.837844 0.314652
0.848482 0.845362 0.314652
0.928330 0.848401 0.314652
0.961417 0.849661 0.314652
0.120083 0.849132 0.316679
0.130967 0.849546 0.316679
0.197917 0.852095 0.316679
0.361279 0.858313 0.316679
0.655454 0.869512 0.316679
0.852949 0.877030 0.316679
0.932797 0.880069 0.316679
0.965884 0.881329 0.316679
0.013050 0.087923 0.587914
0.023934 0.088337 0.587914
0.090884 0.090885 0.587914
0.254245 0.097104 0.587914
0.548421 0.108302 0.587914
0.745916 0.115820 0.587914
0.825764 0.118860 0.587914
0.858851 0.120119 0.587914
0.014519 0.098340 0.588581
0.025403 0.098754 0.588581
0.092354 0.101303 0.588581
0.255715 0.107521 0.588581
0.549891 0.118720 0.588581
0.747386 0.126238 0.588581
0.827234 0.129277 0.588581
0.860321 0.130537 0.588581
0.023559 0.162418 0.592682
0.034443 0.162833 0.592682
0.101394 0.165381 0.592682
0.264755 0.171600 0.592682
0.558931 0.182798 0.592682
0.756425 0.190316 0.592682
0.836274 0.193355 0.592682
0.869360 0.194615 0.592682
0.045617 0.318773 0.602689
0.056501 0.319187 0.602689
0.123451 0.321735 0.602689
0.286813 0.327954 0.602689
0.580989 0.339152 0.602689
0.778483 0.346670 0.602689
0.858331 0.349710 0.602689
0.891418 0.350969 0.602689
0.085338 0.600330 0.620709
0.096222 0.600744 0.620709
0.163172 0.603293 0.620709
0.326534 0.609511 0.620709
0.620709 0.620709 0.620709
0.818204 0.628227 0.620709
0.898052 0.631267 0.620709
0.931139 0.632526 0.620709
0.112004 0.789353 0.632807
0.122888 0.789767 0.632807
0.189839 0.792316 0.632807
0.353200 0.798534 0.632807
0.647376 0.809733 0.632807
0.844871 0.817251 0.632807
0.924719 0.820290 0.632807
0.957806 0.821550 0.632807
0.122786 0.865776 0.637699
0.133670 0.866190 0.637699
0.200620 0.868739 0.637699
0.363982 0.874957 0.637699
0.658157 0.886156 0.637699
0.855652 0.893674 0.637699
0.935500 0.896713 0.637699
0.968587 0.897973 0.637699
0.127253 0.897444 0.639725
0.138137 0.897858 0.639725
0.205088 0.900407 0.639725
0.368449 0.906625 0.639725
0.662625 0.917823 0.639725
0.860120 0.925341 0.639725
0.939968 0.928381 0.639725
0.973055 0.929640 0.639725
0.017863 0.120357 0.804791
0.028748 0.120771 0.804791
0.095698 0.123320 0.804791
0.259059 0.129538 0.804791
0.553235 0.140736 0.804791
0.750730 0.148254 0.804791
0.830578 0.151294 0.804791
0.863665 0.152553 0.804791
0.019333 0.130774 0.805458
0.030217 0.131188 0.805458
0.097167 0.133737 0.805458
0.260529 0.139955 0.805458
0.554705 0.151154 0.805458
0.752199 0.158672 0.805458
0.832047 0.161711 0.805458
0.865134 0.162971 0.805458
0.028373 0.194852 0.809559
0.039257 0.195267 0.809559
0.106207 0.197815 0.809559
0.269569 0.204034 0.809559
0.563745 0.215232 0.809559
0.761239 0.222750 0.809559
0.841087 0.225789 0.809559
0.874174 0.227049 0.809559
0.050431 0.351207 0.819566
0.061315 0.351621 0.819566
0.128265 0.354169 0.819566
0.291627 0.360388 0.819566
0.585802 0.371586 0.819566
0.783297 0.379104 0.819566
0.863145 0.382144 0.819566
0.896232 0.383403 0.819566
0.090152 0.632764 0.837587
0.101036 0.633178 0.837587
0.167986 0.635727 0.837587
0.331348 0.641945 0.837587
0.625523 0.653143 0.837587
0.823018 0.660661 0.837587
0.902866 0.663701 0.837587
0.935953 0.664960 0.837587
0.116818 0.821787 0.849685
0.127702 0.822201 0.849685
0.194653 0.824750 0.849685
0.358014 0.830968 0.849685
0.652190 0.842167 0.849685
0.849685 0.849685 0.849685
0.929533 0.852724 0.849685
0.962620 0.853984 0.849685
0.127600 0.898210 0.854576
0.138484 0.898624 0.854576
0.205434 0.901173 0.854576
0.368796 0.907391 0.854576
0.662971 0.918590 0.854576
0.860466 0.926108 0.854576
0.940314 0.929147 0.854576
0.973401 0.930407 0.854576
0.132067 0.929878 0.856603
0.142951 0.930292 0.856603
0.209902 0.932841 0.856603
0.373263 0.939059 0.856603
0.667439 0.950257 0.856603
0.864933 0.957775 0.856603
0.944782 0.960815 0.856603
0.977868 0.962074 0.856603
0.019810 0.133470 0.892476
0.030694 0.133884 0.892476
0.097644 0.136433 0.892476
0.261006 0.142651 0.892476
0.555181 0.153850 0.892476
0.752676 0.161367 0.892476
0.832524 0.164407 0.892476
0.865611 0.165666 0.892476
0.021279 0.143887 0.893143
0.032164 0.144302 0.893143
0.099114 0.146850 0.893143
0.262475 0.153069 0.893143
0.556651 0.164267 0.893143
0.754146 0.171785 0.893143
0.833994 0.174824 0.893143
0.867081 0.176084 0.893143
0.030319 0.207966 0.897244
0.041203 0.208380 0.897244
0.108154 0.210928 0.897244
0.271515 0.217147 0.897244
0.565691 0.228345 0.897244
0.763186 0.235863 0.897244
0.843034 0.238903 0.897244
0.876121 0.240162 0.897244
0.052377 0.364320 0.907251
0.063261 0.364734 0.907251
0.130211 0.367283 0.907251
0.293573 0.373501 0.907251
0.587749 0.384699 0.907251
0.785243 0.392217 0.907251
0.865092 0.395257 0.907251
0.898178 0.396516 0.907251
0.092098 0.645877 0.925271
0.102982 0.646291 0.925271
0.169932 0.648840 0.925271
0.333294 0.655058 0.925271
0.627470 0.666257 0.925271
0.824964 0.673775 0.925271
0.904812 0.676814 0.925271
0.937899 0.678074 0.925271
0.118764 0.834900 0.937369
0.129649 0.835315 0.937369
0.196599 0.837863 0.937369
0.359960 0.844082 0.937369
0.654136 0.855280 0.937369
0.851631 0.862798 0.937369
0.931479 0.865837 0.937369
0.964566 0.867097 0.937369
0.129546 0.911323 0.942260
0.140430 0.911738 0.942260
0.207380 0.914286 0.942260
0.370742 0.920505 0.942260
0.664918 0.931703 0.942260
0.862412 0.939221 0.942260
0.942260 0.942260 0.942260
0.975347 0.943520 0.942260
0.134013 0.942991 0.944287
0.144898 0.943405 0.944287
0.211848 0.945954 0.944287
0.375209 0.952172 0.944287
0.669385 0.963371 0.944287
0.866880 0.970888 0.944287
0.946728 0.973928 0.944287
0.979815 0.975187 0.944287
0.020616 0.138904 0.928810
0.031500 0.139318 0.928810
0.098451 0.141867 0.928810
0.261812 0.148085 0.928810
0.555988 0.159283 0.928810
0.753483 0.166801 0.928810
0.833331 0.169841 0.928810
0.866418 0.171100 0.928810
0.022086 0.149321 0.929477
0.032970 0.149735 0.929477
0.099920 0.152284 0.929477
0.263282 0.158502 0.929477
0.557457 0.169701 0.929477
0.754952 0.177219 0.929477
0.834800 0.180258 0.929477
0.867887 0.181518 0.929477
0.031126 0.213399 0.933578
0.042010 0.213814 0.933578
0.108960 0.216362 0.933578
0.272322 0.222581 0.933578
0.566497 0.233779 0.933578
0.763992 0.241297 0.933578
0.843840 0.244337 0.933578
0.876927 0.245596 0.933578
0.053183 0.369754 0.943585
0.064068 0.370168 0.943585
0.131018 0.372716 0.943585
0.294379 0.378935 0.943585
0.588555 0.390133 0.943585
0.786050 0.397651 0.943585
0.865898 0.400691 0.943585
0.898985 0.401950 0.943585
0.092904 0.651311 0.961605
0.103789 0.651725 0.961605
0.170739 0.654274 0.961605
0.334100 0.660492 0.961605
0.628276 0.671690 0.961605
0.825771 0.679208 0.961605
0.905619 0.682248 0.961605
0.938706 0.683507 0.961605
0.119571 0.840334 0.973703
0.130455 0.840748 0.973703
0.197405 0.843297 0.973703
0.360767 0.849515 0.973703
0.654943 0.860714 0.973703
0.852437 0.868232 0.973703
0.932285 0.871271 0.973703
0.965372 0.872531 0.973703
0.130352 0.916757 0.978594
0.141237 0.917171 0.978594
0.208187 0.919720 0.978594
0.371548 0.925938 0.978594
0.665724 0.937137 0.978594
0.863219 0.944655 0.978594
0.943067 0.947694 0.978594
0.976154 0.948954 0.978594
0.134820 0.948425 0.980621
0.145704 0.948839 0.980621
0.212654 0.951388 0.980621
0.376016 0.957606 0.980621
0.670192 0.968804 0.980621
0.867686 0.976322 0.980621
0.947534 0.979362 0.980621
0.980621 0.980621 0.980621
