stdX3.0/luts/PSD_log2vfx.cube
TITLE "Generated by Foundry::LUT"
LUT_3D_SIZE 32
0.000000 0.000000 0.000000
0.000000 0.000000 0.000000
0.000994 0.000038 0.000000
0.004429 0.000169 0.000000
0.010884 0.000414 0.000000
0.020505 0.000781 0.000000
0.033771 0.001286 0.000000
0.051591 0.001964 0.000000
0.077834 0.002963 0.000000
0.107131 0.004078 0.000000
0.138092 0.005257 0.000000
0.180517 0.006872 0.000000
0.241196 0.009181 0.000000
0.312937 0.011912 0.000000
0.388455 0.014787 0.000000
0.463585 0.017647 0.000000
0.535372 0.020380 0.000000
0.601078 0.022881 0.000000
0.657684 0.025036 0.000000
0.701444 0.026701 0.000000
0.732866 0.027898 0.000000
0.759228 0.028901 0.000000
0.780944 0.029728 0.000000
0.798560 0.030398 0.000000
0.812714 0.030937 0.000000
0.824026 0.031368 0.000000
0.833022 0.031710 0.000000
0.840162 0.031982 0.000000
0.845801 0.032197 0.000000
0.850230 0.032365 0.000000
0.853685 0.032497 0.000000
0.856330 0.032597 0.000000
0.000000 0.000000 0.000000
0.000000 0.000000 0.000000
0.000994 0.000038 0.000000
0.004429 0.000169 0.000000
0.010884 0.000414 0.000000
0.020505 0.000781 0.000000
0.033771 0.001286 0.000000
0.051591 0.001964 0.000000
0.077834 0.002963 0.000000
0.107131 0.004078 0.000000
0.138092 0.005257 0.000000
0.180517 0.006872 0.000000
0.241196 0.009181 0.000000
0.312937 0.011912 0.000000
0.388455 0.014787 0.000000
0.463585 0.017647 0.000000
0.535372 0.020380 0.000000
0.601078 0.022881 0.000000
0.657684 0.025036 0.000000
0.701444 0.026701 0.000000
0.732866 0.027898 0.000000
0.759228 0.028901 0.000000
0.780944 0.029728 0.000000
0.798560 0.030398 0.000000
0.812714 0.030937 0.000000
0.824026 0.031368 0.000000
0.833022 0.031710 0.000000
0.840162 0.031982 0.000000
0.845801 0.032197 0.000000
0.850230 0.032365 0.000000
0.853685 0.032497 0.000000
0.856330 0.032597 0.000000
0.000134 0.000951 0.000061
0.000134 0.000951 0.000061
0.001128 0.000989 0.000061
0.004563 0.001120 0.000061
0.011018 0.001365 0.000061
0.020639 0.001732 0.000061
0.033905 0.002237 0.000061
0.051725 0.002915 0.000061
0.077969 0.003914 0.000061
0.107265 0.005029 0.000061
0.138226 0.006208 0.000061
0.180651 0.007823 0.000061
0.241330 0.010132 0.000061
0.313071 0.012863 0.000061
0.388589 0.015738 0.000061
0.463719 0.018598 0.000061
0.535506 0.021331 0.000061
0.601212 0.023832 0.000061
0.657818 0.025987 0.000061
0.701579 0.027652 0.000061
0.733001 0.028849 0.000061
0.759362 0.029852 0.000061
0.781078 0.030679 0.000061
0.798694 0.031349 0.000061
0.812849 0.031888 0.000061
0.824161 0.032319 0.000061
0.833156 0.032661 0.000061
0.840296 0.032933 0.000061
0.845936 0.033148 0.000061
0.850364 0.033316 0.000061
0.853819 0.033448 0.000061
0.856464 0.033548 0.000061
0.000598 0.004239 0.000271
0.000598 0.004239 0.000271
0.001592 0.004277 0.000271
0.005027 0.004407 0.000271
0.011482 0.004653 0.000271
0.021103 0.005019 0.000271
0.034369 0.005524 0.000271
0.052189 0.006203 0.000271
0.078432 0.007202 0.000271
0.107729 0.008317 0.000271
0.138690 0.009495 0.000271
0.181115 0.011110 0.000271
0.241794 0.013420 0.000271
0.313535 0.016151 0.000271
0.389053 0.019026 0.000271
0.464183 0.021886 0.000271
0.535970 0.024618 0.000271
0.601676 0.027120 0.000271
0.658282 0.029274 0.000271
0.702042 0.030940 0.000271
0.733464 0.032136 0.000271
0.759826 0.033140 0.000271
0.781542 0.033966 0.000271
0.799158 0.034637 0.000271
0.813312 0.035176 0.000271
0.824624 0.035606 0.000271
0.833620 0.035949 0.000271
0.840760 0.036221 0.000271
0.846399 0.036435 0.000271
0.850828 0.036604 0.000271
0.854283 0.036735 0.000271
0.856928 0.036836 0.000271
0.001470 0.010417 0.000667
0.001470 0.010417 0.000667
0.002463 0.010455 0.000667
0.005898 0.010586 0.000667
0.012354 0.010832 0.000667
0.021975 0.011198 0.000667
0.035241 0.011703 0.000667
0.053061 0.012381 0.000667
0.079304 0.013380 0.000667
0.108601 0.014495 0.000667
0.139562 0.015674 0.000667
0.181987 0.017289 0.000667
0.242666 0.019599 0.000667
0.314406 0.022330 0.000667
0.389925 0.025204 0.000667
0.465054 0.028064 0.000667
0.536841 0.030797 0.000667
0.602548 0.033298 0.000667
0.659154 0.035453 0.000667
0.702914 0.037119 0.000667
0.734336 0.038315 0.000667
0.760698 0.039318 0.000667
0.782413 0.040145 0.000667
0.800029 0.040816 0.000667
0.814184 0.041354 0.000667
0.825496 0.041785 0.000667
0.834492 0.042127 0.000667
0.841631 0.042399 0.000667
0.847271 0.042614 0.000667
0.851700 0.042782 0.000667
0.855154 0.042914 0.000667
0.857800 0.043015 0.000667
0.002769 0.019625 0.001256
0.002769 0.019625 0.001256
0.003762 0.019663 0.001256
0.007197 0.019794 0.001256
0.013653 0.020040 0.001256
0.023274 0.020406 0.001256
0.036540 0.020911 0.001256
0.054360 0.021589 0.001256
0.080603 0.022588 0.001256
0.109900 0.023703 0.001256
0.140861 0.024882 0.001256
0.183286 0.026497 0.001256
0.243965 0.028807 0.001256
0.315705 0.031538 0.001256
0.391224 0.034412 0.001256
0.466353 0.037272 0.001256
0.538140 0.040005 0.001256
0.603847 0.042506 0.001256
0.660453 0.044661 0.001256
0.704213 0.046327 0.001256
0.735635 0.047523 0.001256
0.761997 0.048526 0.001256
0.783712 0.049353 0.001256
0.801328 0.050024 0.001256
0.815483 0.050562 0.001256
0.826795 0.050993 0.001256
0.835791 0.051335 0.001256
0.842930 0.051607 0.001256
0.848570 0.051822 0.001256
0.852999 0.051991 0.001256
0.856453 0.052122 0.001256
0.859099 0.052223 0.001256
0.004560 0.032323 0.002069
0.004560 0.032323 0.002069
0.005554 0.032360 0.002069
0.008989 0.032491 0.002069
0.015444 0.032737 0.002069
0.025065 0.033103 0.002069
0.038331 0.033608 0.002069
0.056151 0.034287 0.002069
0.082394 0.035286 0.002069
0.111691 0.036401 0.002069
0.142652 0.037579 0.002069
0.185077 0.039194 0.002069
0.245756 0.041504 0.002069
0.317497 0.044235 0.002069
0.393015 0.047110 0.002069
0.468145 0.049970 0.002069
0.539932 0.052702 0.002069
0.605638 0.055204 0.002069
0.662244 0.057358 0.002069
0.706004 0.059024 0.002069
0.737426 0.060220 0.002069
0.763788 0.061224 0.002069
0.785504 0.062050 0.002069
0.803120 0.062721 0.002069
0.817274 0.063260 0.002069
0.828586 0.063690 0.002069
0.837582 0.064033 0.002069
0.844722 0.064305 0.002069
0.850361 0.064519 0.002069
0.854790 0.064688 0.002069
0.858245 0.064819 0.002069
0.860890 0.064920 0.002069
0.006966 0.049378 0.003160
0.006966 0.049378 0.003160
0.007960 0.049416 0.003160
0.011395 0.049547 0.003160
0.017850 0.049793 0.003160
0.027471 0.050159 0.003160
0.040737 0.050664 0.003160
0.058557 0.051342 0.003160
0.084801 0.052341 0.003160
0.114097 0.053456 0.003160
0.145058 0.054635 0.003160
0.187483 0.056250 0.003160
0.248162 0.058560 0.003160
0.319903 0.061291 0.003160
0.395421 0.064165 0.003160
0.470551 0.067025 0.003160
0.542338 0.069758 0.003160
0.608044 0.072259 0.003160
0.664650 0.074414 0.003160
0.708410 0.076080 0.003160
0.739832 0.077276 0.003160
0.766194 0.078279 0.003160
0.787910 0.079106 0.003160
0.805526 0.079777 0.003160
0.819681 0.080315 0.003160
0.830992 0.080746 0.003160
0.839988 0.081088 0.003160
0.847128 0.081360 0.003160
0.852767 0.081575 0.003160
0.857196 0.081743 0.003160
0.860651 0.081875 0.003160
0.863296 0.081976 0.003160
0.010510 0.074496 0.004768
0.010510 0.074496 0.004768
0.011503 0.074534 0.004768
0.014938 0.074664 0.004768
0.021394 0.074910 0.004768
0.031014 0.075276 0.004768
0.044281 0.075781 0.004768
0.062101 0.076460 0.004768
0.088344 0.077459 0.004768
0.117640 0.078574 0.004768
0.148602 0.079752 0.004768
0.191026 0.081367 0.004768
0.251705 0.083677 0.004768
0.323446 0.086408 0.004768
0.398964 0.089283 0.004768
0.474094 0.092143 0.004768
0.545881 0.094875 0.004768
0.611588 0.097377 0.004768
0.668193 0.099531 0.004768
0.711954 0.101197 0.004768
0.743376 0.102393 0.004768
0.769738 0.103397 0.004768
0.791453 0.104223 0.004768
0.809069 0.104894 0.004768
0.823224 0.105433 0.004768
0.834536 0.105863 0.004768
0.843532 0.106206 0.004768
0.850671 0.106478 0.004768
0.856311 0.106692 0.004768
0.860740 0.106861 0.004768
0.864194 0.106992 0.004768
0.866840 0.107093 0.004768
0.014465 0.102536 0.006563
0.014465 0.102536 0.006563
0.015459 0.102573 0.006563
0.018894 0.102704 0.006563
0.025349 0.102950 0.006563
0.034970 0.103316 0.006563
0.048237 0.103821 0.006563
0.066057 0.104499 0.006563
0.092300 0.105498 0.006563
0.121596 0.106614 0.006563
0.152558 0.107792 0.006563
0.194982 0.109407 0.006563
0.255661 0.111717 0.006563
0.327402 0.114448 0.006563
0.402920 0.117323 0.006563
0.478050 0.120183 0.006563
0.549837 0.122915 0.006563
0.615543 0.125416 0.006563
0.672149 0.127571 0.006563
0.715910 0.129237 0.006563
0.747332 0.130433 0.006563
0.773693 0.131437 0.006563
0.795409 0.132263 0.006563
0.813025 0.132934 0.006563
0.827180 0.133473 0.006563
0.838492 0.133903 0.006563
0.847487 0.134246 0.006563
0.854627 0.134518 0.006563
0.860267 0.134732 0.006563
0.864695 0.134901 0.006563
0.868150 0.135032 0.006563
0.870795 0.135133 0.006563
0.018646 0.132169 0.008459
0.018646 0.132169 0.008459
0.019639 0.132207 0.008459
0.023075 0.132337 0.008459
0.029530 0.132583 0.008459
0.039151 0.132949 0.008459
0.052417 0.133454 0.008459
0.070237 0.134133 0.008459
0.096480 0.135132 0.008459
0.125777 0.136247 0.008459
0.156738 0.137426 0.008459
0.199163 0.139040 0.008459
0.259842 0.141350 0.008459
0.331583 0.144081 0.008459
0.407101 0.146956 0.008459
0.482231 0.149816 0.008459
0.554017 0.152549 0.008459
0.619724 0.155050 0.008459
0.676330 0.157205 0.008459
0.720090 0.158870 0.008459
0.751512 0.160066 0.008459
0.777874 0.161070 0.008459
0.799590 0.161897 0.008459
0.817206 0.162567 0.008459
0.831360 0.163106 0.008459
0.842672 0.163537 0.008459
0.851668 0.163879 0.008459
0.858808 0.164151 0.008459
0.864447 0.164365 0.008459
0.868876 0.164534 0.008459
0.872331 0.164666 0.008459
0.874976 0.164766 0.008459
0.024374 0.172774 0.011058
0.024374 0.172774 0.011058
0.025368 0.172812 0.011058
0.028803 0.172942 0.011058
0.035258 0.173188 0.011058
0.044879 0.173554 0.011058
0.058145 0.174059 0.011058
0.075965 0.174738 0.011058
0.102209 0.175737 0.011058
0.131505 0.176852 0.011058
0.162466 0.178030 0.011058
0.204891 0.179645 0.011058
0.265570 0.181955 0.011058
0.337311 0.184686 0.011058
0.412829 0.187561 0.011058
0.487959 0.190421 0.011058
0.559746 0.193153 0.011058
0.625452 0.195655 0.011058
0.682058 0.197809 0.011058
0.725819 0.199475 0.011058
0.757241 0.200671 0.011058
0.783602 0.201675 0.011058
0.805318 0.202501 0.011058
0.822934 0.203172 0.011058
0.837089 0.203711 0.011058
0.848401 0.204141 0.011058
0.857396 0.204484 0.011058
0.864536 0.204756 0.011058
0.870176 0.204970 0.011058
0.874604 0.205139 0.011058
0.878059 0.205270 0.011058
0.880704 0.205371 0.011058
0.032567 0.230850 0.014775
0.032567 0.230850 0.014775
0.033561 0.230888 0.014775
0.036996 0.231019 0.014775
0.043451 0.231264 0.014775
0.053072 0.231630 0.014775
0.066339 0.232135 0.014775
0.084159 0.232814 0.014775
0.110402 0.233813 0.014775
0.139698 0.234928 0.014775
0.170660 0.236107 0.014775
0.213084 0.237722 0.014775
0.273763 0.240031 0.014775
0.345504 0.242762 0.014775
0.421022 0.245637 0.014775
0.496152 0.248497 0.014775
0.567939 0.251230 0.014775
0.633646 0.253731 0.014775
0.690251 0.255886 0.014775
0.734012 0.257551 0.014775
0.765434 0.258748 0.014775
0.791795 0.259751 0.014775
0.813511 0.260578 0.014775
0.831127 0.261248 0.014775
0.845282 0.261787 0.014775
0.856594 0.262218 0.014775
0.865589 0.262560 0.014775
0.872729 0.262832 0.014775
0.878369 0.263047 0.014775
0.882797 0.263215 0.014775
0.886252 0.263347 0.014775
0.888897 0.263447 0.014775
0.042254 0.299514 0.019170
0.042254 0.299514 0.019170
0.043248 0.299551 0.019170
0.046683 0.299682 0.019170
0.053138 0.299928 0.019170
0.062759 0.300294 0.019170
0.076025 0.300799 0.019170
0.093845 0.301477 0.019170
0.120088 0.302476 0.019170
0.149385 0.303592 0.019170
0.180346 0.304770 0.019170
0.222771 0.306385 0.019170
0.283450 0.308695 0.019170
0.355191 0.311426 0.019170
0.430709 0.314301 0.019170
0.505839 0.317161 0.019170
0.577626 0.319893 0.019170
0.643332 0.322394 0.019170
0.699938 0.324549 0.019170
0.743698 0.326215 0.019170
0.775120 0.327411 0.019170
0.801482 0.328415 0.019170
0.823198 0.329241 0.019170
0.840814 0.329912 0.019170
0.854969 0.330451 0.019170
0.866280 0.330881 0.019170
0.875276 0.331224 0.019170
0.882416 0.331495 0.019170
0.888055 0.331710 0.019170
0.892484 0.331879 0.019170
0.895939 0.332010 0.019170
0.898584 0.332111 0.019170
0.052451 0.371792 0.023796
0.052451 0.371792 0.023796
0.053444 0.371830 0.023796
0.056880 0.371961 0.023796
0.063335 0.372207 0.023796
0.072956 0.372573 0.023796
0.086222 0.373078 0.023796
0.104042 0.373756 0.023796
0.130285 0.374755 0.023796
0.159582 0.375870 0.023796
0.190543 0.377049 0.023796
0.232968 0.378664 0.023796
0.293647 0.380974 0.023796
0.365388 0.383705 0.023796
0.440906 0.386579 0.023796
0.516036 0.389439 0.023796
0.587822 0.392172 0.023796
0.653529 0.394673 0.023796
0.710135 0.396828 0.023796
0.753895 0.398494 0.023796
0.785317 0.399690 0.023796
0.811679 0.400693 0.023796
0.833395 0.401520 0.023796
0.851011 0.402191 0.023796
0.865165 0.402729 0.023796
0.876477 0.403160 0.023796
0.885473 0.403502 0.023796
0.892613 0.403774 0.023796
0.898252 0.403989 0.023796
0.902681 0.404157 0.023796
0.906136 0.404289 0.023796
0.908781 0.404390 0.023796
0.062595 0.443699 0.028398
0.062595 0.443699 0.028398
0.063589 0.443737 0.028398
0.067024 0.443868 0.028398
0.073479 0.444114 0.028398
0.083100 0.444480 0.028398
0.096366 0.444985 0.028398
0.114186 0.445663 0.028398
0.140430 0.446662 0.028398
0.169726 0.447778 0.028398
0.200687 0.448956 0.028398
0.243112 0.450571 0.028398
0.303791 0.452881 0.028398
0.375532 0.455612 0.028398
0.451050 0.458487 0.028398
0.526180 0.461346 0.028398
0.597967 0.464079 0.028398
0.663673 0.466580 0.028398
0.720279 0.468735 0.028398
0.764040 0.470401 0.028398
0.795462 0.471597 0.028398
0.821823 0.472601 0.028398
0.843539 0.473427 0.028398
0.861155 0.474098 0.028398
0.875310 0.474637 0.028398
0.886622 0.475067 0.028398
0.895617 0.475410 0.028398
0.902757 0.475681 0.028398
0.908397 0.475896 0.028398
0.912825 0.476065 0.028398
0.916280 0.476196 0.028398
0.918925 0.476297 0.028398
0.072288 0.512407 0.032795
0.072288 0.512407 0.032795
0.073282 0.512445 0.032795
0.076717 0.512576 0.032795
0.083172 0.512821 0.032795
0.092793 0.513188 0.032795
0.106059 0.513693 0.032795
0.123879 0.514371 0.032795
0.150123 0.515370 0.032795
0.179419 0.516485 0.032795
0.210380 0.517664 0.032795
0.252805 0.519279 0.032795
0.313484 0.521589 0.032795
0.385225 0.524319 0.032795
0.460743 0.527194 0.032795
0.535873 0.530054 0.032795
0.607660 0.532787 0.032795
0.673366 0.535288 0.032795
0.729972 0.537443 0.032795
0.773733 0.539109 0.032795
0.805155 0.540305 0.032795
0.831516 0.541308 0.032795
0.853232 0.542135 0.032795
0.870848 0.542805 0.032795
0.885003 0.543344 0.032795
0.896315 0.543775 0.032795
0.905310 0.544117 0.032795
0.912450 0.544389 0.032795
0.918090 0.544604 0.032795
0.922518 0.544772 0.032795
0.925973 0.544904 0.032795
0.928618 0.545004 0.032795
0.081160 0.575295 0.036820
0.081160 0.575295 0.036820
0.082154 0.575333 0.036820
0.085589 0.575464 0.036820
0.092044 0.575709 0.036820
0.101665 0.576076 0.036820
0.114931 0.576581 0.036820
0.132751 0.577259 0.036820
0.158995 0.578258 0.036820
0.188291 0.579373 0.036820
0.219252 0.580552 0.036820
0.261677 0.582167 0.036820
0.322356 0.584477 0.036820
0.394097 0.587207 0.036820
0.469615 0.590082 0.036820
0.544745 0.592942 0.036820
0.616532 0.595675 0.036820
0.682238 0.598176 0.036820
0.738844 0.600331 0.036820
0.782605 0.601997 0.036820
0.814027 0.603193 0.036820
0.840388 0.604196 0.036820
0.862104 0.605023 0.036820
0.879720 0.605693 0.036820
0.893875 0.606232 0.036820
0.905186 0.606663 0.036820
0.914182 0.607005 0.036820
0.921322 0.607277 0.036820
0.926961 0.607492 0.036820
0.931390 0.607660 0.036820
0.934845 0.607792 0.036820
0.937490 0.607893 0.036820
0.088803 0.629473 0.040288
0.088803 0.629473 0.040288
0.089797 0.629511 0.040288
0.093232 0.629641 0.040288
0.099687 0.629887 0.040288
0.109308 0.630253 0.040288
0.122575 0.630758 0.040288
0.140395 0.631437 0.040288
0.166638 0.632436 0.040288
0.195934 0.633551 0.040288
0.226896 0.634729 0.040288
0.269320 0.636344 0.040288
0.329999 0.638654 0.040288
0.401740 0.641385 0.040288
0.477258 0.644260 0.040288
0.552388 0.647120 0.040288
0.624175 0.649852 0.040288
0.689882 0.652354 0.040288
0.746487 0.654508 0.040288
0.790248 0.656174 0.040288
0.821670 0.657370 0.040288
0.848031 0.658374 0.040288
0.869747 0.659200 0.040288
0.887363 0.659871 0.040288
0.901518 0.660410 0.040288
0.912830 0.660841 0.040288
0.921825 0.661183 0.040288
0.928965 0.661455 0.040288
0.934605 0.661669 0.040288
0.939033 0.661838 0.040288
0.942488 0.661969 0.040288
0.945133 0.662070 0.040288
0.094712 0.671356 0.042968
0.094712 0.671356 0.042968
0.095706 0.671394 0.042968
0.099141 0.671525 0.042968
0.105596 0.671770 0.042968
0.115217 0.672137 0.042968
0.128483 0.672642 0.042968
0.146303 0.673320 0.042968
0.172546 0.674319 0.042968
0.201843 0.675434 0.042968
0.232804 0.676613 0.042968
0.275229 0.678228 0.042968
0.335908 0.680538 0.042968
0.407649 0.683268 0.042968
0.483167 0.686143 0.042968
0.558297 0.689003 0.042968
0.630084 0.691736 0.042968
0.695790 0.694237 0.042968
0.752396 0.696392 0.042968
0.796156 0.698058 0.042968
0.827578 0.699254 0.042968
0.853940 0.700257 0.042968
0.875656 0.701084 0.042968
0.893272 0.701754 0.042968
0.907426 0.702293 0.042968
0.918738 0.702724 0.042968
0.927734 0.703066 0.042968
0.934874 0.703338 0.042968
0.940513 0.703553 0.042968
0.944942 0.703721 0.042968
0.948397 0.703853 0.042968
0.951042 0.703954 0.042968
0.098955 0.701430 0.044893
0.098955 0.701430 0.044893
0.099948 0.701468 0.044893
0.103383 0.701599 0.044893
0.109839 0.701845 0.044893
0.119460 0.702211 0.044893
0.132726 0.702716 0.044893
0.150546 0.703394 0.044893
0.176789 0.704393 0.044893
0.206086 0.705508 0.044893
0.237047 0.706687 0.044893
0.279472 0.708302 0.044893
0.340151 0.710612 0.044893
0.411892 0.713343 0.044893
0.487410 0.716217 0.044893
0.562540 0.719077 0.044893
0.634326 0.721810 0.044893
0.700033 0.724311 0.044893
0.756639 0.726466 0.044893
0.800399 0.728132 0.044893
0.831821 0.729328 0.044893
0.858183 0.730331 0.044893
0.879898 0.731158 0.044893
0.897515 0.731829 0.044893
0.911669 0.732367 0.044893
0.922981 0.732798 0.044893
0.931977 0.733140 0.044893
0.939117 0.733412 0.044893
0.944756 0.733627 0.044893
0.949185 0.733796 0.044893
0.952640 0.733927 0.044893
0.955285 0.734028 0.044893
0.102514 0.726661 0.046508
0.102514 0.726661 0.046508
0.103508 0.726699 0.046508
0.106943 0.726830 0.046508
0.113398 0.727075 0.046508
0.123019 0.727442 0.046508
0.136285 0.727947 0.046508
0.154105 0.728625 0.046508
0.180349 0.729624 0.046508
0.209645 0.730739 0.046508
0.240606 0.731918 0.046508
0.283031 0.733533 0.046508
0.343710 0.735843 0.046508
0.415451 0.738573 0.046508
0.490969 0.741448 0.046508
0.566099 0.744308 0.046508
0.637886 0.747041 0.046508
0.703592 0.749542 0.046508
0.760198 0.751697 0.046508
0.803959 0.753363 0.046508
0.835381 0.754559 0.046508
0.861742 0.755562 0.046508
0.883458 0.756389 0.046508
0.901074 0.757059 0.046508
0.915229 0.757598 0.046508
0.926541 0.758029 0.046508
0.935536 0.758371 0.046508
0.942676 0.758643 0.046508
0.948316 0.758858 0.046508
0.952744 0.759026 0.046508
0.956199 0.759158 0.046508
0.958844 0.759259 0.046508
0.105446 0.747445 0.047838
0.105446 0.747445 0.047838
0.106440 0.747483 0.047838
0.109875 0.747614 0.047838
0.116331 0.747860 0.047838
0.125951 0.748226 0.047838
0.139218 0.748731 0.047838
0.157038 0.749409 0.047838
0.183281 0.750408 0.047838
0.212577 0.751523 0.047838
0.243539 0.752702 0.047838
0.285963 0.754317 0.047838
0.346642 0.756627 0.047838
0.418383 0.759358 0.047838
0.493901 0.762232 0.047838
0.569031 0.765092 0.047838
0.640818 0.767825 0.047838
0.706525 0.770326 0.047838
0.763130 0.772481 0.047838
0.806891 0.774147 0.047838
0.838313 0.775343 0.047838
0.864674 0.776346 0.047838
0.886390 0.777173 0.047838
0.904006 0.777844 0.047838
0.918161 0.778382 0.047838
0.929473 0.778813 0.047838
0.938468 0.779156 0.047838
0.945608 0.779427 0.047838
0.951248 0.779642 0.047838
0.955676 0.779811 0.047838
0.959131 0.779942 0.047838
0.961776 0.780043 0.047838
0.107825 0.764306 0.048917
0.107825 0.764306 0.048917
0.108819 0.764344 0.048917
0.112254 0.764474 0.048917
0.118709 0.764720 0.048917
0.128330 0.765086 0.048917
0.141596 0.765591 0.048917
0.159416 0.766270 0.048917
0.185659 0.767269 0.048917
0.214956 0.768384 0.048917
0.245917 0.769562 0.048917
0.288342 0.771177 0.048917
0.349021 0.773487 0.048917
0.420762 0.776218 0.048917
0.496280 0.779093 0.048917
0.571410 0.781953 0.048917
0.643197 0.784685 0.048917
0.708903 0.787187 0.048917
0.765509 0.789341 0.048917
0.809269 0.791007 0.048917
0.840691 0.792203 0.048917
0.867053 0.793207 0.048917
0.888769 0.794034 0.048917
0.906385 0.794704 0.048917
0.920539 0.795243 0.048917
0.931851 0.795674 0.048917
0.940847 0.796016 0.048917
0.947987 0.796288 0.048917
0.953626 0.796502 0.048917
0.958055 0.796671 0.048917
0.961510 0.796803 0.048917
0.964155 0.796903 0.048917
0.109736 0.777853 0.049784
0.109736 0.777853 0.049784
0.110730 0.777891 0.049784
0.114165 0.778022 0.049784
0.120620 0.778268 0.049784
0.130241 0.778634 0.049784
0.143507 0.779139 0.049784
0.161327 0.779817 0.049784
0.187571 0.780816 0.049784
0.216867 0.781931 0.049784
0.247828 0.783110 0.049784
0.290253 0.784725 0.049784
0.350932 0.787035 0.049784
0.422673 0.789766 0.049784
0.498191 0.792640 0.049784
0.573321 0.795500 0.049784
0.645108 0.798233 0.049784
0.710814 0.800734 0.049784
0.767420 0.802889 0.049784
0.811181 0.804555 0.049784
0.842603 0.805751 0.049784
0.868964 0.806754 0.049784
0.890680 0.807581 0.049784
0.908296 0.808252 0.049784
0.922451 0.808790 0.049784
0.933762 0.809221 0.049784
0.942758 0.809564 0.049784
0.949898 0.809835 0.049784
0.955537 0.810050 0.049784
0.959966 0.810219 0.049784
0.963421 0.810350 0.049784
0.966066 0.810451 0.049784
0.111264 0.788680 0.050477
0.111264 0.788680 0.050477
0.112257 0.788718 0.050477
0.115692 0.788849 0.050477
0.122148 0.789094 0.050477
0.131768 0.789461 0.050477
0.145035 0.789966 0.050477
0.162855 0.790644 0.050477
0.189098 0.791643 0.050477
0.218394 0.792758 0.050477
0.249356 0.793937 0.050477
0.291780 0.795552 0.050477
0.352459 0.797861 0.050477
0.424200 0.800592 0.050477
0.499718 0.803467 0.050477
0.574848 0.806327 0.050477
0.646635 0.809060 0.050477
0.712342 0.811561 0.050477
0.768947 0.813716 0.050477
0.812708 0.815381 0.050477
0.844130 0.816578 0.050477
0.870492 0.817581 0.050477
0.892207 0.818408 0.050477
0.909823 0.819078 0.050477
0.923978 0.819617 0.050477
0.935290 0.820048 0.050477
0.944286 0.820390 0.050477
0.951425 0.820662 0.050477
0.957065 0.820877 0.050477
0.961494 0.821045 0.050477
0.964948 0.821177 0.050477
0.967594 0.821277 0.050477
0.112478 0.797290 0.051028
0.112478 0.797290 0.051028
0.113472 0.797328 0.051028
0.116907 0.797458 0.051028
0.123362 0.797704 0.051028
0.132983 0.798070 0.051028
0.146249 0.798575 0.051028
0.164069 0.799254 0.051028
0.190313 0.800253 0.051028
0.219609 0.801368 0.051028
0.250570 0.802546 0.051028
0.292995 0.804161 0.051028
0.353674 0.806471 0.051028
0.425415 0.809202 0.051028
0.500933 0.812077 0.051028
0.576063 0.814937 0.051028
0.647850 0.817669 0.051028
0.713556 0.820171 0.051028
0.770162 0.822325 0.051028
0.813923 0.823991 0.051028
0.845345 0.825187 0.051028
0.871706 0.826191 0.051028
0.893422 0.827017 0.051028
0.911038 0.827688 0.051028
0.925193 0.828227 0.051028
0.936505 0.828658 0.051028
0.945500 0.829000 0.051028
0.952640 0.829272 0.051028
0.958280 0.829486 0.051028
0.962708 0.829655 0.051028
0.966163 0.829786 0.051028
0.968808 0.829887 0.051028
0.113442 0.804123 0.051466
0.113442 0.804123 0.051466
0.114436 0.804161 0.051466
0.117871 0.804292 0.051466
0.124326 0.804538 0.051466
0.133947 0.804904 0.051466
0.147213 0.805409 0.051466
0.165034 0.806087 0.051466
0.191277 0.807086 0.051466
0.220573 0.808201 0.051466
0.251535 0.809380 0.051466
0.293959 0.810995 0.051466
0.354638 0.813305 0.051466
0.426379 0.816036 0.051466
0.501897 0.818910 0.051466
0.577027 0.821770 0.051466
0.648814 0.824503 0.051466
0.714520 0.827004 0.051466
0.771126 0.829159 0.051466
0.814887 0.830825 0.051466
0.846309 0.832021 0.051466
0.872670 0.833024 0.051466
0.894386 0.833851 0.051466
