stdX3.0/luts/PSD_log2rec709.cube
TITLE "Generated by Foundry::LUT"
LUT_3D_SIZE 8
DOMAIN_MIN 0.000000 0.000000 0.000000
DOMAIN_MAX 0.903226 0.903226 0.903226
0.000549 0.000549 0.000549
0.035970 0.000549 0.000549
0.140792 0.000549 0.000549
0.318278 0.000549 0.000549
0.602653 0.000549 0.000549
1.040291 0.000549 0.000549
1.125000 0.000549 0.000549
1.125000 0.000549 0.000549
0.000549 0.035970 0.000549
0.035970 0.035970 0.000549
0.140792 0.035970 0.000549
0.318278 0.035970 0.000549
0.602653 0.035970 0.000549
1.040291 0.035970 0.000549
1.125000 0.035970 0.000549
1.125000 0.035970 0.000549
0.000549 0.140792 0.000549
0.035970 0.140792 0.000549
0.140792 0.140792 0.000549
0.318278 0.140792 0.000549
0.602653 0.140792 0.000549
1.040291 0.140792 0.000549
1.125000 0.140792 0.000549
1.125000 0.140792 0.000549
0.000549 0.318278 0.000549
0.035970 0.318278 0.000549
0.140792 0.318278 0.000549
0.318278 0.318278 0.000549
0.602653 0.318278 0.000549
1.040291 0.318278 0.000549
1.125000 0.318278 0.000549
1.125000 0.318278 0.000549
0.000549 0.602653 0.000549
0.035970 0.602653 0.000549
0.140792 0.602653 0.000549
0.318278 0.602653 0.000549
0.602653 0.602653 0.000549
1.040291 0.602653 0.000549
1.125000 0.602653 0.000549
1.125000 0.602653 0.000549
0.000549 1.040291 0.000549
0.035970 1.040291 0.000549
0.140792 1.040291 0.000549
0.318278 1.040291 0.000549
0.602653 1.040291 0.000549
1.040291 1.040291 0.000549
1.125000 1.040291 0.000549
1.125000 1.040291 0.000549
0.000549 1.125000 0.000549
0.035970 1.125000 0.000549
0.140792 1.125000 0.000549
0.318278 1.125000 0.000549
0.602653 1.125000 0.000549
1.040291 1.125000 0.000549
1.125000 1.125000 0.000549
1.125000 1.125000 0.000549
0.000549 1.125000 0.000549
0.035970 1.125000 0.000549
0.140792 1.125000 0.000549
0.318278 1.125000 0.000549
0.602653 1.125000 0.000549
1.040291 1.125000 0.000549
1.125000 1.125000 0.000549
1.125000 1.125000 0.000549
0.000549 0.000549 0.035970
0.035970 0.000549 0.035970
0.140792 0.000549 0.035970
0.318278 0.000549 0.035970
0.602653 0.000549 0.035970
1.040291 0.000549 0.035970
1.125000 0.000549 0.035970
1.125000 0.000549 0.035970
0.000549 0.035970 0.035970
0.035970 0.035970 0.035970
0.140792 0.035970 0.035970
0.318278 0.035970 0.035970
0.602653 0.035970 0.035970
1.040291 0.035970 0.035970
1.125000 0.035970 0.035970
1.125000 0.035970 0.035970
0.000549 0.140792 0.035970
0.035970 0.140792 0.035970
0.140792 0.140792 0.035970
0.318278 0.140792 0.035970
0.602653 0.140792 0.035970
1.040291 0.140792 0.035970
1.125000 0.140792 0.035970
1.125000 0.140792 0.035970
0.000549 0.318278 0.035970
0.035970 0.318278 0.035970
0.140792 0.318278 0.035970
0.318278 0.318278 0.035970
0.602653 0.318278 0.035970
1.040291 0.318278 0.035970
1.125000 0.318278 0.035970
1.125000 0.318278 0.035970
0.000549 0.602653 0.035970
0.035970 0.602653 0.035970
0.140792 0.602653 0.035970
0.318278 0.602653 0.035970
0.602653 0.602653 0.035970
1.040291 0.602653 0.035970
1.125000 0.602653 0.035970
1.125000 0.602653 0.035970
0.000549 1.040291 0.035970
0.035970 1.040291 0.035970
0.140792 1.040291 0.035970
0.318278 1.040291 0.035970
0.602653 1.040291 0.035970
1.040291 1.040291 0.035970
1.125000 1.040291 0.035970
1.125000 1.040291 0.035970
0.000549 1.125000 0.035970
0.035970 1.125000 0.035970
0.140792 1.125000 0.035970
0.318278 1.125000 0.035970
0.602653 1.125000 0.035970
1.040291 1.125000 0.035970
1.125000 1.125000 0.035970
1.125000 1.125000 0.035970
0.000549 1.125000 0.035970
0.035970 1.125000 0.035970
0.140792 1.125000 0.035970
0.318278 1.125000 0.035970
0.602653 1.125000 0.035970
1.040291 1.125000 0.035970
1.125000 1.125000 0.035970
1.125000 1.125000 0.035970
0.000549 0.000549 0.140792
0.035970 0.000549 0.140792
0.140792 0.000549 0.140792
0.318278 0.000549 0.140792
0.602653 0.000549 0.140792
1.040291 0.000549 0.140792
1.125000 0.000549 0.140792
1.125000 0.000549 0.140792
0.000549 0.035970 0.140792
0.035970 0.035970 0.140792
0.140792 0.035970 0.140792
0.318278 0.035970 0.140792
0.602653 0.035970 0.140792
1.040291 0.035970 0.140792
1.125000 0.035970 0.140792
1.125000 0.035970 0.140792
0.000549 0.140792 0.140792
0.035970 0.140792 0.140792
0.140792 0.140792 0.140792
0.318278 0.140792 0.140792
0.602653 0.140792 0.140792
1.040291 0.140792 0.140792
1.125000 0.140792 0.140792
1.125000 0.140792 0.140792
0.000549 0.318278 0.140792
0.035970 0.318278 0.140792
0.140792 0.318278 0.140792
0.318278 0.318278 0.140792
0.602653 0.318278 0.140792
1.040291 0.318278 0.140792
1.125000 0.318278 0.140792
1.125000 0.318278 0.140792
0.000549 0.602653 0.140792
0.035970 0.602653 0.140792
0.140792 0.602653 0.140792
0.318278 0.602653 0.140792
0.602653 0.602653 0.140792
1.040291 0.602653 0.140792
1.125000 0.602653 0.140792
1.125000 0.602653 0.140792
0.000549 1.040291 0.140792
0.035970 1.040291 0.140792
0.140792 1.040291 0.140792
0.318278 1.040291 0.140792
0.602653 1.040291 0.140792
1.040291 1.040291 0.140792
1.125000 1.040291 0.140792
1.125000 1.040291 0.140792
0.000549 1.125000 0.140792
0.035970 1.125000 0.140792
0.140792 1.125000 0.140792
0.318278 1.125000 0.140792
0.602653 1.125000 0.140792
1.040291 1.125000 0.140792
1.125000 1.125000 0.140792
1.125000 1.125000 0.140792
0.000549 1.125000 0.140792
0.035970 1.125000 0.140792
0.140792 1.125000 0.140792
0.318278 1.125000 0.140792
0.602653 1.125000 0.140792
1.040291 1.125000 0.140792
1.125000 1.125000 0.140792
1.125000 1.125000 0.140792
0.000549 0.000549 0.318278
0.035970 0.000549 0.318278
0.140792 0.000549 0.318278
0.318278 0.000549 0.318278
0.602653 0.000549 0.318278
1.040291 0.000549 0.318278
1.125000 0.000549 0.318278
1.125000 0.000549 0.318278
0.000549 0.035970 0.318278
0.035970 0.035970 0.318278
0.140792 0.035970 0.318278
0.318278 0.035970 0.318278
0.602653 0.035970 0.318278
1.040291 0.035970 0.318278
1.125000 0.035970 0.318278
1.125000 0.035970 0.318278
0.000549 0.140792 0.318278
0.035970 0.140792 0.318278
0.140792 0.140792 0.318278
0.318278 0.140792 0.318278
0.602653 0.140792 0.318278
1.040291 0.140792 0.318278
1.125000 0.140792 0.318278
1.125000 0.140792 0.318278
0.000549 0.318278 0.318278
0.035970 0.318278 0.318278
0.140792 0.318278 0.318278
0.318278 0.318278 0.318278
0.602653 0.318278 0.318278
1.040291 0.318278 0.318278
1.125000 0.318278 0.318278
1.125000 0.318278 0.318278
0.000549 0.602653 0.318278
0.035970 0.602653 0.318278
0.140792 0.602653 0.318278
0.318278 0.602653 0.318278
0.602653 0.602653 0.318278
1.040291 0.602653 0.318278
1.125000 0.602653 0.318278
1.125000 0.602653 0.318278
0.000549 1.040291 0.318278
0.035970 1.040291 0.318278
0.140792 1.040291 0.318278
0.318278 1.040291 0.318278
0.602653 1.040291 0.318278
1.040291 1.040291 0.318278
1.125000 1.040291 0.318278
1.125000 1.040291 0.318278
0.000549 1.125000 0.318278
0.035970 1.125000 0.318278
0.140792 1.125000 0.318278
0.318278 1.125000 0.318278
0.602653 1.125000 0.318278
1.040291 1.125000 0.318278
1.125000 1.125000 0.318278
1.125000 1.125000 0.318278
0.000549 1.125000 0.318278
0.035970 1.125000 0.318278
0.140792 1.125000 0.318278
0.318278 1.125000 0.318278
0.602653 1.125000 0.318278
1.040291 1.125000 0.318278
1.125000 1.125000 0.318278
1.125000 1.125000 0.318278
0.000549 0.000549 0.602653
0.035970 0.000549 0.602653
0.140792 0.000549 0.602653
0.318278 0.000549 0.602653
0.602653 0.000549 0.602653
1.040291 0.000549 0.602653
1.125000 0.000549 0.602653
1.125000 0.000549 0.602653
0.000549 0.035970 0.602653
0.035970 0.035970 0.602653
0.140792 0.035970 0.602653
0.318278 0.035970 0.602653
0.602653 0.035970 0.602653
1.040291 0.035970 0.602653
1.125000 0.035970 0.602653
1.125000 0.035970 0.602653
0.000549 0.140792 0.602653
0.035970 0.140792 0.602653
0.140792 0.140792 0.602653
0.318278 0.140792 0.602653
0.602653 0.140792 0.602653
1.040291 0.140792 0.602653
1.125000 0.140792 0.602653
1.125000 0.140792 0.602653
0.000549 0.318278 0.602653
0.035970 0.318278 0.602653
0.140792 0.318278 0.602653
0.318278 0.318278 0.602653
0.602653 0.318278 0.602653
1.040291 0.318278 0.602653
1.125000 0.318278 0.602653
1.125000 0.318278 0.602653
0.000549 0.602653 0.602653
0.035970 0.602653 0.602653
0.140792 0.602653 0.602653
0.318278 0.602653 0.602653
0.602653 0.602653 0.602653
1.040291 0.602653 0.602653
1.125000 0.602653 0.602653
1.125000 0.602653 0.602653
0.000549 1.040291 0.602653
0.035970 1.040291 0.602653
0.140792 1.040291 0.602653
0.318278 1.040291 0.602653
0.602653 1.040291 0.602653
1.040291 1.040291 0.602653
1.125000 1.040291 0.602653
1.125000 1.040291 0.602653
0.000549 1.125000 0.602653
0.035970 1.125000 0.602653
0.140792 1.125000 0.602653
0.318278 1.125000 0.602653
0.602653 1.125000 0.602653
1.040291 1.125000 0.602653
1.125000 1.125000 0.602653
1.125000 1.125000 0.602653
0.000549 1.125000 0.602653
0.035970 1.125000 0.602653
0.140792 1.125000 0.602653
0.318278 1.125000 0.602653
0.602653 1.125000 0.602653
1.040291 1.125000 0.602653
1.125000 1.125000 0.602653
1.125000 1.125000 0.602653
0.000549 0.000549 1.040291
0.035970 0.000549 1.040291
0.140792 0.000549 1.040291
0.318278 0.000549 1.040291
0.602653 0.000549 1.040291
1.040291 0.000549 1.040291
1.125000 0.000549 1.040291
1.125000 0.000549 1.040291
0.000549 0.035970 1.040291
0.035970 0.035970 1.040291
0.140792 0.035970 1.040291
0.318278 0.035970 1.040291
0.602653 0.035970 1.040291
1.040291 0.035970 1.040291
1.125000 0.035970 1.040291
1.125000 0.035970 1.040291
0.000549 0.140792 1.040291
0.035970 0.140792 1.040291
0.140792 0.140792 1.040291
0.318278 0.140792 1.040291
0.602653 0.140792 1.040291
1.040291 0.140792 1.040291
1.125000 0.140792 1.040291
1.125000 0.140792 1.040291
0.000549 0.318278 1.040291
0.035970 0.318278 1.040291
0.140792 0.318278 1.040291
0.318278 0.318278 1.040291
0.602653 0.318278 1.040291
1.040291 0.318278 1.040291
1.125000 0.318278 1.040291
1.125000 0.318278 1.040291
0.000549 0.602653 1.040291
0.035970 0.602653 1.040291
0.140792 0.602653 1.040291
0.318278 0.602653 1.040291
0.602653 0.602653 1.040291
1.040291 0.602653 1.040291
1.125000 0.602653 1.040291
1.125000 0.602653 1.040291
0.000549 1.040291 1.040291
0.035970 1.040291 1.040291
0.140792 1.040291 1.040291
0.318278 1.040291 1.040291
0.602653 1.040291 1.040291
1.040291 1.040291 1.040291
1.125000 1.040291 1.040291
1.125000 1.040291 1.040291
0.000549 1.125000 1.040291
0.035970 1.125000 1.040291
0.140792 1.125000 1.040291
0.318278 1.125000 1.040291
0.602653 1.125000 1.040291
1.040291 1.125000 1.040291
1.125000 1.125000 1.040291
1.125000 1.125000 1.040291
0.000549 1.125000 1.040291
0.035970 1.125000 1.040291
0.140792 1.125000 1.040291
0.318278 1.125000 1.040291
0.602653 1.125000 1.040291
1.040291 1.125000 1.040291
1.125000 1.125000 1.040291
1.125000 1.125000 1.040291
0.000549 0.000549 1.125000
0.035970 0.000549 1.125000
0.140792 0.000549 1.125000
0.318278 0.000549 1.125000
0.602653 0.000549 1.125000
1.040291 0.000549 1.125000
1.125000 0.000549 1.125000
1.125000 0.000549 1.125000
0.000549 0.035970 1.125000
0.035970 0.035970 1.125000
0.140792 0.035970 1.125000
0.318278 0.035970 1.125000
0.602653 0.035970 1.125000
1.040291 0.035970 1.125000
1.125000 0.035970 1.125000
1.125000 0.035970 1.125000
0.000549 0.140792 1.125000
0.035970 0.140792 1.125000
0.140792 0.140792 1.125000
0.318278 0.140792 1.125000
0.602653 0.140792 1.125000
1.040291 0.140792 1.125000
1.125000 0.140792 1.125000
1.125000 0.140792 1.125000
0.000549 0.318278 1.125000
0.035970 0.318278 1.125000
0.140792 0.318278 1.125000
0.318278 0.318278 1.125000
0.602653 0.318278 1.125000
1.040291 0.318278 1.125000
1.125000 0.318278 1.125000
1.125000 0.318278 1.125000
0.000549 0.602653 1.125000
0.035970 0.602653 1.125000
0.140792 0.602653 1.125000
0.318278 0.602653 1.125000
0.602653 0.602653 1.125000
1.040291 0.602653 1.125000
1.125000 0.602653 1.125000
1.125000 0.602653 1.125000
0.000549 1.040291 1.125000
0.035970 1.040291 1.125000
0.140792 1.040291 1.125000
0.318278 1.040291 1.125000
0.602653 1.040291 1.125000
1.040291 1.040291 1.125000
1.125000 1.040291 1.125000
1.125000 1.040291 1.125000
0.000549 1.125000 1.125000
0.035970 1.125000 1.125000
0.140792 1.125000 1.125000
0.318278 1.125000 1.125000
0.602653 1.125000 1.125000
1.040291 1.125000 1.125000
1.125000 1.125000 1.125000
1.125000 1.125000 1.125000
0.000549 1.125000 1.125000
0.035970 1.125000 1.125000
0.140792 1.125000 1.125000
0.318278 1.125000 1.125000
0.602653 1.125000 1.125000
1.040291 1.125000 1.125000
1.125000 1.125000 1.125000
1.125000 1.125000 1.125000
0.000549 0.000549 1.125000
0.035970 0.000549 1.125000
0.140792 0.000549 1.125000
0.318278 0.000549 1.125000
0.602653 0.000549 1.125000
1.040291 0.000549 1.125000
1.125000 0.000549 1.125000
1.125000 0.000549 1.125000
0.000549 0.035970 1.125000
0.035970 0.035970 1.125000
0.140792 0.035970 1.125000
0.318278 0.035970 1.125000
0.602653 0.035970 1.125000
1.040291 0.035970 1.125000
1.125000 0.035970 1.125000
1.125000 0.035970 1.125000
0.000549 0.140792 1.125000
0.035970 0.140792 1.125000
0.140792 0.140792 1.125000
0.318278 0.140792 1.125000
0.602653 0.140792 1.125000
1.040291 0.140792 1.125000
1.125000 0.140792 1.125000
1.125000 0.140792 1.125000
0.000549 0.318278 1.125000
0.035970 0.318278 1.125000
0.140792 0.318278 1.125000
0.318278 0.318278 1.125000
0.602653 0.318278 1.125000
1.040291 0.318278 1.125000
1.125000 0.318278 1.125000
1.125000 0.318278 1.125000
0.000549 0.602653 1.125000
0.035970 0.602653 1.125000
0.140792 0.602653 1.125000
0.318278 0.602653 1.125000
0.602653 0.602653 1.125000
1.040291 0.602653 1.125000
1.125000 0.602653 1.125000
1.125000 0.602653 1.125000
0.000549 1.040291 1.125000
0.035970 1.040291 1.125000
0.140792 1.040291 1.125000
0.318278 1.040291 1.125000
0.602653 1.040291 1.125000
1.040291 1.040291 1.125000
1.125000 1.040291 1.125000
1.125000 1.040291 1.125000
0.000549 1.125000 1.125000
0.035970 1.125000 1.125000
0.140792 1.125000 1.125000
0.318278 1.125000 1.125000
0.602653 1.125000 1.125000
1.040291 1.125000 1.125000
1.125000 1.125000 1.125000
1.125000 1.125000 1.125000
0.000549 1.125000 1.125000
0.035970 1.125000 1.125000
0.140792 1.125000 1.125000
0.318278 1.125000 1.125000
0.602653 1.125000 1.125000
1.040291 1.125000 1.125000
1.125000 1.125000 1.125000
1.125000 1.125000 1.125000
