stdX3.0/luts/PSD_log2rec709.cube
TITLE "Generated by Foundry::LUT"
LUT_3D_SIZE 5
DOMAIN_MIN 0.000000 0.000000 0.000000
DOMAIN_MAX 0.903226 0.903226 0.903226
0.000549 0.000549 0.000549
0.107413 0.000549 0.000549
0.444528 0.000549 0.000549
1.125000 0.000549 0.000549
1.125000 0.000549 0.000549
0.000549 0.107413 0.000549
0.107413 0.107413 0.000549
0.444528 0.107413 0.000549
1.125000 0.107413 0.000549
1.125000 0.107413 0.000549
0.000549 0.444528 0.000549
0.107413 0.444528 0.000549
0.444528 0.444528 0.000549
1.125000 0.444528 0.000549
1.125000 0.444528 0.000549
0.000549 1.125000 0.000549
0.107413 1.125000 0.000549
0.444528 1.125000 0.000549
1.125000 1.125000 0.000549
1.125000 1.125000 0.000549
0.000549 1.125000 0.000549
0.107413 1.125000 0.000549
0.444528 1.125000 0.000549
1.125000 1.125000 0.000549
1.125000 1.125000 0.000549
0.000549 0.000549 0.107413
0.107413 0.000549 0.107413
0.444528 0.000549 0.107413
1.125000 0.000549 0.107413
1.125000 0.000549 0.107413
0.000549 0.107413 0.107413
0.107413 0.107413 0.107413
0.444528 0.107413 0.107413
1.125000 0.107413 0.107413
1.125000 0.107413 0.107413
0.000549 0.444528 0.107413
0.107413 0.444528 0.107413
0.444528 0.444528 0.107413
1.125000 0.444528 0.107413
1.125000 0.444528 0.107413
0.000549 1.125000 0.107413
0.107413 1.125000 0.107413
0.444528 1.125000 0.107413
1.125000 1.125000 0.107413
1.125000 1.125000 0.107413
0.000549 1.125000 0.107413
0.107413 1.125000 0.107413
0.444528 1.125000 0.107413
1.125000 1.125000 0.107413
1.125000 1.125000 0.107413
0.000549 0.000549 0.444528
0.107413 0.000549 0.444528
0.444528 0.000549 0.444528
1.125000 0.000549 0.444528
1.125000 0.000549 0.444528
0.000549 0.107413 0.444528
0.107413 0.107413 0.444528
0.444528 0.107413 0.444528
1.125000 0.107413 0.444528
1.125000 0.107413 0.444528
0.000549 0.444528 0.444528
0.107413 0.444528 0.444528
0.444528 0.444528 0.444528
1.125000 0.444528 0.444528
1.125000 0.444528 0.444528
0.000549 1.125000 0.444528
0.107413 1.125000 0.444528
0.444528 1.125000 0.444528
1.125000 1.125000 0.444528
1.125000 1.125000 0.444528
0.000549 1.125000 0.444528
0.107413 1.125000 0.444528
0.444528 1.125000 0.444528
1.125000 1.125000 0.444528
1.125000 1.125000 0.444528
0.000549 0.000549 1.125000
0.107413 0.000549 1.125000
0.444528 0.000549 1.125000
1.125000 0.000549 1.125000
1.125000 0.000549 1.125000
0.000549 0.107413 1.125000
0.107413 0.107413 1.125000
0.444528 0.107413 1.125000
1.125000 0.107413 1.125000
1.125000 0.107413 1.125000
0.000549 0.444528 1.125000
0.107413 0.444528 1.125000
0.444528 0.444528 1.125000
1.125000 0.444528 1.125000
1.125000 0.444528 1.125000
0.000549 1.125000 1.125000
0.107413 1.125000 1.125000
0.444528 1.125000 1.125000
1.125000 1.125000 1.125000
1.125000 1.125000 1.125000
0.000549 1.125000 1.125000
0.107413 1.125000 1.125000
0.444528 1.125000 1.125000
1.125000 1.125000 1.125000
1.125000 1.125000 1.125000
0.000549 0.000549 1.125000
0.107413 0.000549 1.125000
0.444528 0.000549 1.125000
1.125000 0.000549 1.125000
1.125000 0.000549 1.125000
0.000549 0.107413 1.125000
0.107413 0.107413 1.125000
0.444528 0.107413 1.125000
1.125000 0.107413 1.125000
1.125000 0.107413 1.125000
0.000549 0.444528 1.125000
0.107413 0.444528 1.125000
0.444528 0.444528 1.125000
1.125000 0.444528 1.125000
1.125000 0.444528 1.125000
0.000549 1.125000 1.125000
0.107413 1.125000 1.125000
0.444528 1.125000 1.125000
1.125000 1.125000 1.125000
1.125000 1.125000 1.125000
0.000549 1.125000 1.125000
0.107413 1.125000 1.125000
0.444528 1.125000 1.125000
1.125000 1.125000 1.125000
1.125000 1.125000 1.125000
