stdX3.0/luts/show_lut.cube
TITLE "Generated by Foundry::LUT"
LUT_3D_SIZE 5
DOMAIN_MIN 0.000000 0.000000 0.000000
DOMAIN_MAX 0.903226 0.903226 0.903226
0.000000 0.000000 0.000000
0.155529 0.017437 0.019203
0.311057 0.034875 0.038406
0.466586 0.052312 0.057609
0.622115 0.069749 0.076813
0.080254 0.155033 0.064649
0.235783 0.172471 0.083852
0.391311 0.189908 0.103055
0.546840 0.207345 0.122259
0.702369 0.224783 0.141462
0.160508 0.310067 0.129298
0.316037 0.327504 0.148501
0.471565 0.344941 0.167704
0.627094 0.362379 0.186908
0.782623 0.379816 0.206111
0.240762 0.465100 0.193947
0.396291 0.482537 0.213150
0.551820 0.499975 0.232354
0.707348 0.517412 0.251557
0.862877 0.534849 0.270760
0.321016 0.620134 0.258596
0.476545 0.637571 0.277799
0.632074 0.655008 0.297003
0.787602 0.672445 0.316206
0.943131 0.689883 0.335409
0.008088 0.005916 0.112599
0.163617 0.023354 0.131803
0.319146 0.040791 0.151006
0.474674 0.058228 0.170209
0.630203 0.075666 0.189412
0.088342 0.160950 0.177248
0.243871 0.178387 0.196452
0.399400 0.195824 0.215655
0.554928 0.213262 0.234858
0.710457 0.230699 0.254061
0.168596 0.315983 0.241898
0.324125 0.333420 0.261101
0.479654 0.350858 0.280304
0.635182 0.368295 0.299507
0.790711 0.385732 0.318710
0.248850 0.471016 0.306547
0.404379 0.488454 0.325750
0.559908 0.505891 0.344953
0.715436 0.523328 0.364156
0.870965 0.540766 0.383359
0.329104 0.626050 0.371196
0.484633 0.643487 0.390399
0.640162 0.660924 0.409602
0.795690 0.678362 0.428805
0.951219 0.695799 0.448008
0.016176 0.011833 0.225199
0.171705 0.029270 0.244402
0.327234 0.046707 0.263605
0.482763 0.064145 0.282808
0.638291 0.081582 0.302011
0.096430 0.166866 0.289848
0.251959 0.184303 0.309051
0.407488 0.201741 0.328254
0.563017 0.219178 0.347457
0.718545 0.236615 0.366660
0.176684 0.321900 0.354497
0.332213 0.339337 0.373700
0.487742 0.356774 0.392903
0.643271 0.374212 0.412106
0.798799 0.391649 0.431309
0.256939 0.476933 0.419146
0.412467 0.494370 0.438349
0.567996 0.511808 0.457552
0.723525 0.529245 0.476755
0.879053 0.546682 0.495959
0.337193 0.631966 0.483795
0.492721 0.649404 0.502998
0.648250 0.666841 0.522201
0.803779 0.684278 0.541404
0.959307 0.701716 0.560608
0.024265 0.017749 0.337798
0.179793 0.035186 0.357001
0.335322 0.052624 0.376204
0.490851 0.070061 0.395408
0.646380 0.087499 0.414611
0.104519 0.172783 0.402447
0.260047 0.190220 0.421650
0.415576 0.207657 0.440854
0.571105 0.225095 0.460057
0.726634 0.242532 0.479260
0.184773 0.327816 0.467096
0.340301 0.345253 0.486299
0.495830 0.362691 0.505503
0.651359 0.380128 0.524706
0.806888 0.397565 0.543909
0.265027 0.482849 0.531745
0.420555 0.500287 0.550949
0.576084 0.517724 0.570152
0.731613 0.535161 0.589355
0.887142 0.552599 0.608558
0.345281 0.637883 0.596394
0.500809 0.655320 0.615598
0.656338 0.672757 0.634801
0.811867 0.690195 0.654004
0.967396 0.707632 0.673207
0.032353 0.023666 0.450398
0.187882 0.041103 0.469601
0.343410 0.058540 0.488804
0.498939 0.075978 0.508007
0.654468 0.093415 0.527210
0.112607 0.178699 0.515047
0.268136 0.196136 0.534250
0.423664 0.213574 0.553453
0.579193 0.231011 0.572656
0.734722 0.248448 0.591859
0.192861 0.333732 0.579696
0.348390 0.351170 0.598899
0.503918 0.368607 0.618102
0.659447 0.386044 0.637305
0.814976 0.403482 0.656508
0.273115 0.488766 0.644345
0.428644 0.506203 0.663548
0.584172 0.523640 0.682751
0.739701 0.541078 0.701954
0.895230 0.558515 0.721157
0.353369 0.643799 0.708994
0.508898 0.661236 0.728197
0.664426 0.678674 0.747400
0.819955 0.696111 0.766603
0.975484 0.713548 0.785806
