stdX3.0/luts/show_lut.cube
TITLE "Generated by Foundry::LUT"
LUT_3D_SIZE 32
0.000000 0.000000 0.000000
0.022218 0.002491 0.002743
0.044437 0.004982 0.005487
0.066655 0.007473 0.008230
0.088874 0.009964 0.010973
0.111092 0.012455 0.013717
0.133310 0.014946 0.016460
0.155529 0.017437 0.019203
0.177747 0.019928 0.021946
0.199965 0.022419 0.024690
0.222184 0.024910 0.027433
0.244402 0.027402 0.030176
0.266621 0.029893 0.032920
0.288839 0.032384 0.035663
0.311057 0.034875 0.038406
0.333276 0.037366 0.041150
0.355494 0.039857 0.043893
0.377713 0.042348 0.046636
0.399931 0.044839 0.049380
0.422149 0.047330 0.052123
0.444368 0.049821 0.054866
0.466586 0.052312 0.057609
0.488805 0.054803 0.060353
0.511023 0.057294 0.063096
0.533241 0.059785 0.065839
0.555460 0.062276 0.068583
0.577678 0.064767 0.071326
0.599896 0.067258 0.074069
0.622115 0.069749 0.076813
0.644333 0.072240 0.079556
0.666552 0.074731 0.082299
0.688770 0.077223 0.085042
0.011465 0.022148 0.009236
0.033683 0.024639 0.011979
0.055902 0.027130 0.014722
0.078120 0.029621 0.017466
0.100338 0.032112 0.020209
0.122557 0.034603 0.022952
0.144775 0.037094 0.025695
0.166994 0.039585 0.028439
0.189212 0.042076 0.031182
0.211430 0.044567 0.033925
0.233649 0.047058 0.036669
0.255867 0.049549 0.039412
0.278086 0.052040 0.042155
0.300304 0.054531 0.044899
0.322522 0.057022 0.047642
0.344741 0.059513 0.050385
0.366959 0.062004 0.053128
0.389177 0.064495 0.055872
0.411396 0.066986 0.058615
0.433614 0.069478 0.061358
0.455833 0.071969 0.064102
0.478051 0.074460 0.066845
0.500269 0.076951 0.069588
0.522488 0.079442 0.072332
0.544706 0.081933 0.075075
0.566925 0.084424 0.077818
0.589143 0.086915 0.080562
0.611361 0.089406 0.083305
0.633580 0.091897 0.086048
0.655798 0.094388 0.088791
0.678016 0.096879 0.091535
0.700235 0.099370 0.094278
0.022930 0.044295 0.018471
0.045148 0.046786 0.021214
0.067367 0.049277 0.023958
0.089585 0.051768 0.026701
0.111803 0.054259 0.029444
0.134022 0.056750 0.032188
0.156240 0.059242 0.034931
0.178458 0.061733 0.037674
0.200677 0.064224 0.040418
0.222895 0.066715 0.043161
0.245114 0.069206 0.045904
0.267332 0.071697 0.048648
0.289550 0.074188 0.051391
0.311769 0.076679 0.054134
0.333987 0.079170 0.056877
0.356206 0.081661 0.059621
0.378424 0.084152 0.062364
0.400642 0.086643 0.065107
0.422861 0.089134 0.067851
0.445079 0.091625 0.070594
0.467297 0.094116 0.073337
0.489516 0.096607 0.076081
0.511734 0.099098 0.078824
0.533953 0.101589 0.081567
0.556171 0.104080 0.084311
0.578389 0.106571 0.087054
0.600608 0.109063 0.089797
0.622826 0.111554 0.092540
0.645045 0.114045 0.095284
0.667263 0.116536 0.098027
0.689481 0.119027 0.100770
0.711700 0.121518 0.103514
0.034395 0.066443 0.027707
0.056613 0.068934 0.030450
0.078831 0.071425 0.033193
0.101050 0.073916 0.035937
0.123268 0.076407 0.038680
0.145487 0.078898 0.041423
0.167705 0.081389 0.044167
0.189923 0.083880 0.046910
0.212142 0.086371 0.049653
0.234360 0.088862 0.052397
0.256578 0.091353 0.055140
0.278797 0.093844 0.057883
0.301015 0.096335 0.060626
0.323234 0.098826 0.063370
0.345452 0.101318 0.066113
0.367670 0.103809 0.068856
0.389889 0.106300 0.071600
0.412107 0.108791 0.074343
0.434326 0.111282 0.077086
0.456544 0.113773 0.079830
0.478762 0.116264 0.082573
0.500981 0.118755 0.085316
0.523199 0.121246 0.088059
0.545418 0.123737 0.090803
0.567636 0.126228 0.093546
0.589854 0.128719 0.096289
0.612073 0.131210 0.099033
0.634291 0.133701 0.101776
0.656509 0.136192 0.104519
0.678728 0.138683 0.107263
0.700946 0.141174 0.110006
0.723165 0.143665 0.112749
0.045859 0.088590 0.036942
0.068078 0.091082 0.039686
0.090296 0.093573 0.042429
0.112515 0.096064 0.045172
0.134733 0.098555 0.047916
0.156951 0.101046 0.050659
0.179170 0.103537 0.053402
0.201388 0.106028 0.056145
0.223607 0.108519 0.058889
0.245825 0.111010 0.061632
0.268043 0.113501 0.064375
0.290262 0.115992 0.067119
0.312480 0.118483 0.069862
0.334698 0.120974 0.072605
0.356917 0.123465 0.075349
0.379135 0.125956 0.078092
0.401354 0.128447 0.080835
0.423572 0.130938 0.083579
0.445790 0.133429 0.086322
0.468009 0.135920 0.089065
0.490227 0.138411 0.091808
0.512446 0.140903 0.094552
0.534664 0.143394 0.097295
0.556882 0.145885 0.100038
0.579101 0.148376 0.102782
0.601319 0.150867 0.105525
0.623538 0.153358 0.108268
0.645756 0.155849 0.111012
0.667974 0.158340 0.113755
0.690193 0.160831 0.116498
0.712411 0.163322 0.119242
0.734630 0.165813 0.121985
0.057324 0.110738 0.046178
0.079543 0.113229 0.048921
0.101761 0.115720 0.051665
0.123979 0.118211 0.054408
0.146198 0.120702 0.057151
0.168416 0.123193 0.059894
0.190635 0.125684 0.062638
0.212853 0.128175 0.065381
0.235071 0.130667 0.068124
0.257290 0.133158 0.070868
0.279508 0.135649 0.073611
0.301727 0.138140 0.076354
0.323945 0.140631 0.079098
0.346163 0.143122 0.081841
0.368382 0.145613 0.084584
0.390600 0.148104 0.087328
0.412818 0.150595 0.090071
0.435037 0.153086 0.092814
0.457255 0.155577 0.095557
0.479474 0.158068 0.098301
0.501692 0.160559 0.101044
0.523910 0.163050 0.103787
0.546129 0.165541 0.106531
0.568347 0.168032 0.109274
0.590566 0.170523 0.112017
0.612784 0.173014 0.114761
0.635002 0.175505 0.117504
0.657221 0.177996 0.120247
0.679439 0.180487 0.122990
0.701658 0.182979 0.125734
0.723876 0.185470 0.128477
0.746094 0.187961 0.131220
0.068789 0.132886 0.055413
0.091008 0.135377 0.058157
0.113226 0.137868 0.060900
0.135444 0.140359 0.063643
0.157663 0.142850 0.066387
0.179881 0.145341 0.069130
0.202100 0.147832 0.071873
0.224318 0.150323 0.074617
0.246536 0.152814 0.077360
0.268755 0.155305 0.080103
0.290973 0.157796 0.082847
0.313191 0.160287 0.085590
0.335410 0.162778 0.088333
0.357628 0.165269 0.091076
0.379847 0.167760 0.093820
0.402065 0.170251 0.096563
0.424283 0.172743 0.099306
0.446502 0.175234 0.102050
0.468720 0.177725 0.104793
0.490939 0.180216 0.107536
0.513157 0.182707 0.110280
0.535375 0.185198 0.113023
0.557594 0.187689 0.115766
0.579812 0.190180 0.118510
0.602031 0.192671 0.121253
0.624249 0.195162 0.123996
0.646467 0.197653 0.126739
0.668686 0.200144 0.129483
0.690904 0.202635 0.132226
0.713122 0.205126 0.134969
0.735341 0.207617 0.137713
0.757559 0.210108 0.140456
0.080254 0.155033 0.064649
0.102472 0.157524 0.067392
0.124691 0.160015 0.070136
0.146909 0.162507 0.072879
0.169128 0.164998 0.075622
0.191346 0.167489 0.078366
0.213564 0.169980 0.081109
0.235783 0.172471 0.083852
0.258001 0.174962 0.086596
0.280220 0.177453 0.089339
0.302438 0.179944 0.092082
0.324656 0.182435 0.094825
0.346875 0.184926 0.097569
0.369093 0.187417 0.100312
0.391311 0.189908 0.103055
0.413530 0.192399 0.105799
0.435748 0.194890 0.108542
0.457967 0.197381 0.111285
0.480185 0.199872 0.114029
0.502403 0.202363 0.116772
0.524622 0.204854 0.119515
0.546840 0.207345 0.122259
0.569059 0.209836 0.125002
0.591277 0.212327 0.127745
0.613495 0.214819 0.130488
0.635714 0.217310 0.133232
0.657932 0.219801 0.135975
0.680151 0.222292 0.138718
0.702369 0.224783 0.141462
0.724587 0.227274 0.144205
0.746806 0.229765 0.146948
0.769024 0.232256 0.149692
0.091719 0.177181 0.073885
0.113937 0.179672 0.076628
0.136156 0.182163 0.079371
0.158374 0.184654 0.082115
0.180592 0.187145 0.084858
0.202811 0.189636 0.087601
0.225029 0.192127 0.090344
0.247248 0.194618 0.093088
0.269466 0.197109 0.095831
0.291684 0.199600 0.098574
0.313903 0.202091 0.101318
0.336121 0.204583 0.104061
0.358340 0.207074 0.106804
0.380558 0.209565 0.109548
0.402776 0.212056 0.112291
0.424995 0.214547 0.115034
0.447213 0.217038 0.117778
0.469431 0.219529 0.120521
0.491650 0.222020 0.123264
0.513868 0.224511 0.126007
0.536087 0.227002 0.128751
0.558305 0.229493 0.131494
0.580523 0.231984 0.134237
0.602742 0.234475 0.136981
0.624960 0.236966 0.139724
0.647179 0.239457 0.142467
0.669397 0.241948 0.145211
0.691615 0.244439 0.147954
0.713834 0.246930 0.150697
0.736052 0.249421 0.153441
0.758271 0.251912 0.156184
0.780489 0.254403 0.158927
0.103184 0.199329 0.083120
0.125402 0.201820 0.085864
0.147621 0.204311 0.088607
0.169839 0.206802 0.091350
0.192057 0.209293 0.094093
0.214276 0.211784 0.096837
0.236494 0.214275 0.099580
0.258712 0.216766 0.102323
0.280931 0.219257 0.105067
0.303149 0.221748 0.107810
0.325368 0.224239 0.110553
0.347586 0.226730 0.113297
0.369804 0.229221 0.116040
0.392023 0.231712 0.118783
0.414241 0.234203 0.121527
0.436460 0.236694 0.124270
0.458678 0.239185 0.127013
0.480896 0.241676 0.129756
0.503115 0.244167 0.132500
0.525333 0.246659 0.135243
0.547552 0.249150 0.137986
0.569770 0.251641 0.140730
0.591988 0.254132 0.143473
0.614207 0.256623 0.146216
0.636425 0.259114 0.148960
0.658643 0.261605 0.151703
0.680862 0.264096 0.154446
0.703080 0.266587 0.157190
0.725299 0.269078 0.159933
0.747517 0.271569 0.162676
0.769735 0.274060 0.165419
0.791954 0.276551 0.168163
0.114649 0.221476 0.092356
0.136867 0.223967 0.095099
0.159085 0.226458 0.097842
0.181304 0.228949 0.100586
0.203522 0.231440 0.103329
0.225741 0.233931 0.106072
0.247959 0.236423 0.108816
0.270177 0.238914 0.111559
0.292396 0.241405 0.114302
0.314614 0.243896 0.117046
0.336832 0.246387 0.119789
0.359051 0.248878 0.122532
0.381269 0.251369 0.125275
0.403488 0.253860 0.128019
0.425706 0.256351 0.130762
0.447924 0.258842 0.133505
0.470143 0.261333 0.136249
0.492361 0.263824 0.138992
0.514580 0.266315 0.141735
0.536798 0.268806 0.144479
0.559016 0.271297 0.147222
0.581235 0.273788 0.149965
0.603453 0.276279 0.152709
0.625672 0.278770 0.155452
0.647890 0.281261 0.158195
0.670108 0.283752 0.160938
0.692327 0.286243 0.163682
0.714545 0.288735 0.166425
0.736763 0.291226 0.169168
0.758982 0.293717 0.171912
0.781200 0.296208 0.174655
0.803419 0.298699 0.177398
0.126113 0.243624 0.101591
0.148332 0.246115 0.104335
0.170550 0.248606 0.107078
0.192769 0.251097 0.109821
0.214987 0.253588 0.112565
0.237205 0.256079 0.115308
0.259424 0.258570 0.118051
0.281642 0.261061 0.120795
0.303861 0.263552 0.123538
0.326079 0.266043 0.126281
0.348297 0.268534 0.129024
0.370516 0.271025 0.131768
0.392734 0.273516 0.134511
0.414953 0.276008 0.137254
0.437171 0.278499 0.139998
0.459389 0.280990 0.142741
0.481608 0.283481 0.145484
0.503826 0.285972 0.148228
0.526044 0.288463 0.150971
0.548263 0.290954 0.153714
0.570481 0.293445 0.156458
0.592700 0.295936 0.159201
0.614918 0.298427 0.161944
0.637136 0.300918 0.164687
0.659355 0.303409 0.167431
0.681573 0.305900 0.170174
0.703792 0.308391 0.172917
0.726010 0.310882 0.175661
0.748228 0.313373 0.178404
0.770447 0.315864 0.181147
0.792665 0.318355 0.183891
0.814883 0.320846 0.186634
0.137578 0.265772 0.110827
0.159797 0.268263 0.113570
0.182015 0.270754 0.116314
0.204234 0.273245 0.119057
0.226452 0.275736 0.121800
0.248670 0.278227 0.124544
0.270889 0.280718 0.127287
0.293107 0.283209 0.130030
0.315325 0.285700 0.132773
0.337544 0.288191 0.135517
0.359762 0.290682 0.138260
0.381981 0.293173 0.141003
0.404199 0.295664 0.143747
0.426417 0.298155 0.146490
0.448636 0.300646 0.149233
0.470854 0.303137 0.151977
0.493073 0.305628 0.154720
0.515291 0.308119 0.157463
0.537509 0.310610 0.160206
0.559728 0.313101 0.162950
0.581946 0.315592 0.165693
0.604164 0.318084 0.168436
0.626383 0.320575 0.171180
0.648601 0.323066 0.173923
0.670820 0.325557 0.176666
0.693038 0.328048 0.179410
0.715256 0.330539 0.182153
0.737475 0.333030 0.184896
0.759693 0.335521 0.187640
0.781912 0.338012 0.190383
0.804130 0.340503 0.193126
0.826348 0.342994 0.195869
0.149043 0.287919 0.120063
0.171262 0.290410 0.122806
0.193480 0.292901 0.125549
0.215698 0.295392 0.128293
0.237917 0.297883 0.131036
0.260135 0.300374 0.133779
0.282354 0.302865 0.136522
0.304572 0.305356 0.139266
0.326790 0.307847 0.142009
0.349009 0.310339 0.144752
0.371227 0.312830 0.147496
0.393445 0.315321 0.150239
0.415664 0.317812 0.152982
0.437882 0.320303 0.155726
0.460101 0.322794 0.158469
0.482319 0.325285 0.161212
0.504537 0.327776 0.163955
0.526756 0.330267 0.166699
0.548974 0.332758 0.169442
0.571193 0.335249 0.172185
0.593411 0.337740 0.174929
0.615629 0.340231 0.177672
0.637848 0.342722 0.180415
0.660066 0.345213 0.183159
0.682285 0.347704 0.185902
0.704503 0.350195 0.188645
0.726721 0.352686 0.191389
0.748940 0.355177 0.194132
0.771158 0.357668 0.196875
0.793376 0.360160 0.199618
0.815595 0.362651 0.202362
0.837813 0.365142 0.205105
0.160508 0.310067 0.129298
0.182726 0.312558 0.132041
0.204945 0.315049 0.134785
0.227163 0.317540 0.137528
0.249382 0.320031 0.140271
0.271600 0.322522 0.143015
0.293818 0.325013 0.145758
0.316037 0.327504 0.148501
0.338255 0.329995 0.151245
0.360474 0.332486 0.153988
0.382692 0.334977 0.156731
0.404910 0.337468 0.159475
0.427129 0.339959 0.162218
0.449347 0.342450 0.164961
0.471565 0.344941 0.167704
0.493784 0.347432 0.170448
0.516002 0.349923 0.173191
0.538221 0.352415 0.175934
0.560439 0.354906 0.178678
0.582657 0.357397 0.181421
0.604876 0.359888 0.184164
0.627094 0.362379 0.186908
0.649313 0.364870 0.189651
0.671531 0.367361 0.192394
0.693749 0.369852 0.195138
0.715968 0.372343 0.197881
0.738186 0.374834 0.200624
0.760405 0.377325 0.203367
0.782623 0.379816 0.206111
0.804841 0.382307 0.208854
0.827060 0.384798 0.211597
0.849278 0.387289 0.214341
0.171973 0.332214 0.138534
0.194191 0.334705 0.141277
0.216410 0.337196 0.144020
0.238628 0.339687 0.146764
0.260846 0.342179 0.149507
0.283065 0.344670 0.152250
0.305283 0.347161 0.154994
0.327502 0.349652 0.157737
0.349720 0.352143 0.160480
0.371938 0.354634 0.163223
0.394157 0.357125 0.165967
0.416375 0.359616 0.168710
0.438594 0.362107 0.171453
0.460812 0.364598 0.174197
0.483030 0.367089 0.176940
0.505249 0.369580 0.179683
0.527467 0.372071 0.182427
0.549686 0.374562 0.185170
0.571904 0.377053 0.187913
0.594122 0.379544 0.190657
0.616341 0.382035 0.193400
0.638559 0.384526 0.196143
0.660777 0.387017 0.198886
0.682996 0.389508 0.201630
0.705214 0.392000 0.204373
0.727433 0.394491 0.207116
0.749651 0.396982 0.209860
0.771869 0.399473 0.212603
0.794088 0.401964 0.215346
0.816306 0.404455 0.218090
0.838525 0.406946 0.220833
0.860743 0.409437 0.223576
0.183438 0.354362 0.147769
0.205656 0.356853 0.150513
0.227875 0.359344 0.153256
0.250093 0.361835 0.155999
0.272311 0.364326 0.158743
0.294530 0.366817 0.161486
0.316748 0.369308 0.164229
0.338966 0.371799 0.166972
0.361185 0.374290 0.169716
0.383403 0.376781 0.172459
0.405622 0.379272 0.175202
0.427840 0.381764 0.177946
0.450058 0.384255 0.180689
0.472277 0.386746 0.183432
0.494495 0.389237 0.186176
0.516714 0.391728 0.188919
0.538932 0.394219 0.191662
0.561150 0.396710 0.194406
0.583369 0.399201 0.197149
0.605587 0.401692 0.199892
0.627806 0.404183 0.202635
0.650024 0.406674 0.205379
0.672242 0.409165 0.208122
0.694461 0.411656 0.210865
0.716679 0.414147 0.213609
0.738898 0.416638 0.216352
0.761116 0.419129 0.219095
0.783334 0.421620 0.221839
0.805553 0.424111 0.224582
0.827771 0.426602 0.227325
0.849989 0.429093 0.230069
0.872208 0.431585 0.232812
0.194903 0.376510 0.157005
0.217121 0.379001 0.159748
0.239339 0.381492 0.162492
0.261558 0.383983 0.165235
0.283776 0.386474 0.167978
0.305995 0.388965 0.170721
0.328213 0.391456 0.173465
0.350431 0.393947 0.176208
0.372650 0.396438 0.178951
0.394868 0.398929 0.181695
0.417087 0.401420 0.184438
0.439305 0.403911 0.187181
0.461523 0.406402 0.189925
0.483742 0.408893 0.192668
0.505960 0.411384 0.195411
0.528178 0.413875 0.198154
0.550397 0.416366 0.200898
0.572615 0.418857 0.203641
0.594834 0.421348 0.206384
0.617052 0.423840 0.209128
0.639270 0.426331 0.211871
0.661489 0.428822 0.214614
0.683707 0.431313 0.217358
0.705926 0.433804 0.220101
0.728144 0.436295 0.222844
0.750362 0.438786 0.225588
0.772581 0.441277 0.228331
0.794799 0.443768 0.231074
0.817018 0.446259 0.233817
0.839236 0.448750 0.236561
0.861454 0.451241 0.239304
0.883673 0.453732 0.242047
0.206368 0.398657 0.166240
0.228586 0.401148 0.168984
0.250804 0.403639 0.171727
0.273023 0.406130 0.174470
0.295241 0.408621 0.177214
0.317459 0.411112 0.179957
0.339678 0.413604 0.182700
0.361896 0.416095 0.185444
0.384115 0.418586 0.188187
0.406333 0.421077 0.190930
0.428551 0.423568 0.193674
0.450770 0.426059 0.196417
0.472988 0.428550 0.199160
0.495207 0.431041 0.201903
0.517425 0.433532 0.204647
0.539643 0.436023 0.207390
0.561862 0.438514 0.210133
0.584080 0.441005 0.212877
0.606299 0.443496 0.215620
0.628517 0.445987 0.218363
0.650735 0.448478 0.221107
0.672954 0.450969 0.223850
0.695172 0.453460 0.226593
0.717390 0.455951 0.229337
0.739609 0.458442 0.232080
0.761827 0.460933 0.234823
0.784046 0.463425 0.237566
0.806264 0.465916 0.240310
0.828482 0.468407 0.243053
0.850701 0.470898 0.245796
0.872919 0.473389 0.248540
0.895138 0.475880 0.251283
0.217832 0.420805 0.175476
0.240051 0.423296 0.178219
0.262269 0.425787 0.180963
0.284488 0.428278 0.183706
0.306706 0.430769 0.186449
0.328924 0.433260 0.189193
0.351143 0.435751 0.191936
0.373361 0.438242 0.194679
0.395579 0.440733 0.197423
0.417798 0.443224 0.200166
0.440016 0.445715 0.202909
0.462235 0.448206 0.205652
0.484453 0.450697 0.208396
0.506671 0.453189 0.211139
0.528890 0.455680 0.213882
0.551108 0.458171 0.216626
0.573327 0.460662 0.219369
0.595545 0.463153 0.222112
0.617763 0.465644 0.224856
0.639982 0.468135 0.227599
0.662200 0.470626 0.230342
0.684419 0.473117 0.233086
0.706637 0.475608 0.235829
0.728855 0.478099 0.238572
0.751074 0.480590 0.241315
0.773292 0.483081 0.244059
0.795510 0.485572 0.246802
0.817729 0.488063 0.249545
0.839947 0.490554 0.252289
0.862166 0.493045 0.255032
0.884384 0.495536 0.257775
0.906602 0.498027 0.260519
0.229297 0.442952 0.184712
0.251516 0.445444 0.187455
0.273734 0.447935 0.190198
0.295952 0.450426 0.192942
0.318171 0.452917 0.195685
0.340389 0.455408 0.198428
0.362608 0.457899 0.201171
0.384826 0.460390 0.203915
0.407044 0.462881 0.206658
0.429263 0.465372 0.209401
0.451481 0.467863 0.212145
0.473699 0.470354 0.214888
0.495918 0.472845 0.217631
0.518136 0.475336 0.220375
0.540355 0.477827 0.223118
0.562573 0.480318 0.225861
0.584791 0.482809 0.228605
0.607010 0.485300 0.231348
0.629228 0.487791 0.234091
0.651447 0.490282 0.236834
0.673665 0.492773 0.239578
0.695883 0.495265 0.242321
0.718102 0.497756 0.245064
0.740320 0.500247 0.247808
0.762539 0.502738 0.250551
0.784757 0.505229 0.253294
0.806975 0.507720 0.256038
0.829194 0.510211 0.258781
0.851412 0.512702 0.261524
0.873630 0.515193 0.264268
0.895849 0.517684 0.267011
0.918067 0.520175 0.269754
0.240762 0.465100 0.193947
0.262980 0.467591 0.196691
0.285199 0.470082 0.199434
0.307417 0.472573 0.202177
0.329636 0.475064 0.204920
0.351854 0.477555 0.207664
0.374072 0.480046 0.210407
0.396291 0.482537 0.213150
0.418509 0.485028 0.215894
0.440728 0.487520 0.218637
0.462946 0.490011 0.221380
0.485164 0.492502 0.224124
0.507383 0.494993 0.226867
0.529601 0.497484 0.229610
0.551820 0.499975 0.232354
0.574038 0.502466 0.235097
0.596256 0.504957 0.237840
0.618475 0.507448 0.240583
0.640693 0.509939 0.243327
0.662911 0.512430 0.246070
0.685130 0.514921 0.248813
0.707348 0.517412 0.251557
0.729567 0.519903 0.254300
0.751785 0.522394 0.257043
0.774003 0.524885 0.259787
0.796222 0.527376 0.262530
0.818440 0.529867 0.265273
0.840659 0.532358 0.268017
0.862877 0.534849 0.270760
0.885095 0.537341 0.273503
0.907314 0.539832 0.276246
0.929532 0.542323 0.278990
0.252227 0.487248 0.203183
0.274445 0.489739 0.205926
0.296664 0.492230 0.208669
0.318882 0.494721 0.211413
0.341100 0.497212 0.214156
0.363319 0.499703 0.216899
0.385537 0.502194 0.219643
0.407756 0.504685 0.222386
0.429974 0.507176 0.225129
0.452192 0.509667 0.227873
0.474411 0.512158 0.230616
0.496629 0.514649 0.233359
0.518848 0.517140 0.236102
0.541066 0.519631 0.238846
0.563284 0.522122 0.241589
0.585503 0.524613 0.244332
0.607721 0.527104 0.247076
0.629940 0.529596 0.249819
0.652158 0.532087 0.252562
0.674376 0.534578 0.255306
0.696595 0.537069 0.258049
0.718813 0.539560 0.260792
0.741031 0.542051 0.263536
0.763250 0.544542 0.266279
0.785468 0.547033 0.269022
0.807687 0.549524 0.271765
0.829905 0.552015 0.274509
0.852123 0.554506 0.277252
0.874342 0.556997 0.279995
0.896560 0.559488 0.282739
0.918779 0.561979 0.285482
0.940997 0.564470 0.288225
0.263692 0.509395 0.212418
0.285910 0.511886 0.215162
0.308129 0.514377 0.217905
0.330347 0.516869 0.220648
0.352565 0.519360 0.223392
0.374784 0.521851 0.226135
0.397002 0.524342 0.228878
0.419221 0.526833 0.231622
0.441439 0.529324 0.234365
0.463657 0.531815 0.237108
0.485876 0.534306 0.239851
0.508094 0.536797 0.242595
0.530312 0.539288 0.245338
0.552531 0.541779 0.248081
0.574749 0.544270 0.250825
0.596968 0.546761 0.253568
0.619186 0.549252 0.256311
0.641404 0.551743 0.259055
0.663623 0.554234 0.261798
0.685841 0.556725 0.264541
0.708060 0.559216 0.267285
0.730278 0.561707 0.270028
0.752496 0.564198 0.272771
0.774715 0.566689 0.275514
0.796933 0.569180 0.278258
0.819152 0.571672 0.281001
0.841370 0.574163 0.283744
0.863588 0.576654 0.286488
0.885807 0.579145 0.289231
0.908025 0.581636 0.291974
0.930243 0.584127 0.294718
0.952462 0.586618 0.297461
0.275157 0.531543 0.221654
0.297375 0.534034 0.224397
0.319593 0.536525 0.227141
0.341812 0.539016 0.229884
0.364030 0.541507 0.232627
0.386249 0.543998 0.235371
0.408467 0.546489 0.238114
0.430685 0.548980 0.240857
0.452904 0.551471 0.243600
0.475122 0.553962 0.246344
0.497341 0.556453 0.249087
0.519559 0.558945 0.251830
0.541777 0.561436 0.254574
0.563996 0.563927 0.257317
0.586214 0.566418 0.260060
0.608433 0.568909 0.262804
0.630651 0.571400 0.265547
0.652869 0.573891 0.268290
0.675088 0.576382 0.271033
0.697306 0.578873 0.273777
0.719524 0.581364 0.276520
0.741743 0.583855 0.279263
0.763961 0.586346 0.282007
0.786180 0.588837 0.284750
0.808398 0.591328 0.287493
0.830616 0.593819 0.290237
0.852835 0.596310 0.292980
0.875053 0.598801 0.295723
0.897272 0.601292 0.298467
0.919490 0.603783 0.301210
0.941708 0.606274 0.303953
0.963927 0.608765 0.306696
0.286622 0.553691 0.230890
0.308840 0.556182 0.233633
0.331058 0.558673 0.236376
0.353277 0.561164 0.239119
0.375495 0.563655 0.241863
0.397714 0.566146 0.244606
0.419932 0.568637 0.247349
0.442150 0.571128 0.250093
0.464369 0.573619 0.252836
0.486587 0.576110 0.255579
0.508805 0.578601 0.258323
0.531024 0.581092 0.261066
0.553242 0.583583 0.263809
0.575461 0.586074 0.266553
0.597679 0.588565 0.269296
0.619897 0.591056 0.272039
0.642116 0.593547 0.274782
0.664334 0.596038 0.277526
0.686553 0.598530 0.280269
0.708771 0.601021 0.283012
0.730989 0.603512 0.285756
0.753208 0.606003 0.288499
0.775426 0.608494 0.291242
0.797644 0.610985 0.293986
0.819863 0.613476 0.296729
0.842081 0.615967 0.299472
0.864300 0.618458 0.302216
0.886518 0.620949 0.304959
0.908736 0.623440 0.307702
0.930955 0.625931 0.310445
0.953173 0.628422 0.313189
0.975392 0.630913 0.315932
0.298086 0.575838 0.240125
0.320305 0.578329 0.242868
0.342523 0.580820 0.245612
0.364742 0.583311 0.248355
0.386960 0.585802 0.251098
0.409178 0.588293 0.253842
0.431397 0.590784 0.256585
0.453615 0.593276 0.259328
0.475834 0.595767 0.262072
0.498052 0.598258 0.264815
0.520270 0.600749 0.267558
0.542489 0.603240 0.270302
0.564707 0.605731 0.273045
0.586925 0.608222 0.275788
0.609144 0.610713 0.278531
0.631362 0.613204 0.281275
0.653581 0.615695 0.284018
0.675799 0.618186 0.286761
0.698017 0.620677 0.289505
0.720236 0.623168 0.292248
0.742454 0.625659 0.294991
0.764673 0.628150 0.297735
0.786891 0.630641 0.300478
0.809109 0.633132 0.303221
0.831328 0.635623 0.305965
0.853546 0.638115 0.308708
0.875765 0.640606 0.311451
0.897983 0.643097 0.314194
0.920201 0.645588 0.316938
0.942420 0.648079 0.319681
0.964638 0.650570 0.322424
0.986856 0.653061 0.325168
0.309551 0.597986 0.249361
0.331770 0.600477 0.252104
0.353988 0.602968 0.254847
0.376206 0.605459 0.257591
0.398425 0.607950 0.260334
0.420643 0.610441 0.263077
0.442862 0.612932 0.265821
0.465080 0.615423 0.268564
0.487298 0.617914 0.271307
0.509517 0.620405 0.274051
0.531735 0.622896 0.276794
0.553954 0.625387 0.279537
0.576172 0.627878 0.282280
0.598390 0.630370 0.285024
0.620609 0.632861 0.287767
0.642827 0.635352 0.290510
0.665045 0.637843 0.293254
0.687264 0.640334 0.295997
0.709482 0.642825 0.298740
0.731701 0.645316 0.301484
0.753919 0.647807 0.304227
0.776137 0.650298 0.306970
0.798356 0.652789 0.309714
