stdX3.0/luts/show_lut.cube
TITLE "Generated by Foundry::LUT"
LUT_3D_SIZE 8
DOMAIN_MIN 0.000000 0.000000 0.000000
DOMAIN_MAX 0.903226 0.903226 0.903226
0.000000 0.000000 0.000000
0.088874 0.009964 0.010973
0.177747 0.019928 0.021946
0.266621 0.029893 0.032920
0.355494 0.039857 0.043893
0.444368 0.049821 0.054866
0.533241 0.059785 0.065839
0.622115 0.069749 0.076813
0.045859 0.088590 0.036942
0.134733 0.098555 0.047916
0.223607 0.108519 0.058889
0.312480 0.118483 0.069862
0.401354 0.128447 0.080835
0.490227 0.138411 0.091808
0.579101 0.148376 0.102782
0.667974 0.158340 0.113755
0.091719 0.177181 0.073885
0.180592 0.187145 0.084858
0.269466 0.197109 0.095831
0.358340 0.207074 0.106804
0.447213 0.217038 0.117778
0.536087 0.227002 0.128751
0.624960 0.236966 0.139724
0.713834 0.246930 0.150697
0.137578 0.265772 0.110827
0.226452 0.275736 0.121800
0.315325 0.285700 0.132773
0.404199 0.295664 0.143747
0.493073 0.305628 0.154720
0.581946 0.315592 0.165693
0.670820 0.325557 0.176666
0.759693 0.335521 0.187640
0.183438 0.354362 0.147769
0.272311 0.364326 0.158743
0.361185 0.374290 0.169716
0.450058 0.384255 0.180689
0.538932 0.394219 0.191662
0.627806 0.404183 0.202635
0.716679 0.414147 0.213609
0.805553 0.424111 0.224582
0.229297 0.442952 0.184712
0.318171 0.452917 0.195685
0.407044 0.462881 0.206658
0.495918 0.472845 0.217631
0.584791 0.482809 0.228605
0.673665 0.492773 0.239578
0.762539 0.502738 0.250551
0.851412 0.512702 0.261524
0.275157 0.531543 0.221654
0.364030 0.541507 0.232627
0.452904 0.551471 0.243600
0.541777 0.561436 0.254574
0.630651 0.571400 0.265547
0.719524 0.581364 0.276520
0.808398 0.591328 0.287493
0.897272 0.601292 0.298467
0.321016 0.620134 0.258596
0.409890 0.630098 0.269570
0.498763 0.640062 0.280543
0.587637 0.650026 0.291516
0.676510 0.659990 0.302489
0.765384 0.669954 0.313462
0.854257 0.679919 0.324436
0.943131 0.689883 0.335409
0.004622 0.003381 0.064343
0.093495 0.013345 0.075316
0.182369 0.023309 0.086289
0.271242 0.033273 0.097262
0.360116 0.043238 0.108235
0.448990 0.053202 0.119209
0.537863 0.063166 0.130182
0.626737 0.073130 0.141155
0.050481 0.091971 0.101285
0.139355 0.101935 0.112258
0.228228 0.111900 0.123231
0.317102 0.121864 0.134205
0.405975 0.131828 0.145178
0.494849 0.141792 0.156151
0.583723 0.151756 0.167124
0.672596 0.161721 0.178097
0.096341 0.180562 0.138227
0.185214 0.190526 0.149200
0.274088 0.200490 0.160174
0.362961 0.210454 0.171147
0.451835 0.220419 0.182120
0.540708 0.230383 0.193093
0.629582 0.240347 0.204067
0.718456 0.250311 0.215040
0.142200 0.269152 0.175169
0.231074 0.279116 0.186143
0.319947 0.289081 0.197116
0.408821 0.299045 0.208089
0.497694 0.309009 0.219062
0.586568 0.318973 0.230036
0.675442 0.328937 0.241009
0.764315 0.338902 0.251982
0.188060 0.357743 0.212112
0.276933 0.367707 0.223085
0.365807 0.377671 0.234058
0.454680 0.387635 0.245031
0.543554 0.397600 0.256005
0.632427 0.407564 0.266978
0.721301 0.417528 0.277951
0.810174 0.427492 0.288924
0.233919 0.446333 0.249054
0.322793 0.456297 0.260027
0.411666 0.466262 0.271001
0.500540 0.476226 0.281974
0.589413 0.486190 0.292947
0.678287 0.496154 0.303920
0.767160 0.506118 0.314893
0.856034 0.516083 0.325867
0.279779 0.534924 0.285996
0.368652 0.544888 0.296970
0.457526 0.554852 0.307943
0.546399 0.564816 0.318916
0.635273 0.574781 0.329889
0.724146 0.584745 0.340863
0.813020 0.594709 0.351836
0.901893 0.604673 0.362809
0.325638 0.623514 0.322939
0.414511 0.633478 0.333912
0.503385 0.643443 0.344885
0.592259 0.653407 0.355858
0.681132 0.663371 0.366832
0.770006 0.673335 0.377805
0.858879 0.683299 0.388778
0.947753 0.693264 0.399751
0.009244 0.006762 0.128685
0.098117 0.016726 0.139658
0.186991 0.026690 0.150631
0.275864 0.036654 0.161605
0.364738 0.046618 0.172578
0.453611 0.056583 0.183551
0.542485 0.066547 0.194524
0.631359 0.076511 0.205498
0.055103 0.095352 0.165627
0.143977 0.105316 0.176601
0.232850 0.115280 0.187574
0.321724 0.125245 0.198547
0.410597 0.135209 0.209520
0.499471 0.145173 0.220493
0.588344 0.155137 0.231467
0.677218 0.165101 0.242440
0.100963 0.183943 0.202570
0.189836 0.193907 0.213543
0.278710 0.203871 0.224516
0.367583 0.213835 0.235489
0.456457 0.223799 0.246463
0.545330 0.233764 0.257436
0.634204 0.243728 0.268409
0.723077 0.253692 0.279382
0.146822 0.272533 0.239512
0.235696 0.282497 0.250485
0.324569 0.292461 0.261458
0.413443 0.302426 0.272432
0.502316 0.312390 0.283405
0.591190 0.322354 0.294378
0.680063 0.332318 0.305351
0.768937 0.342282 0.316325
0.192681 0.361124 0.276454
0.281555 0.371088 0.287428
0.370429 0.381052 0.298401
0.459302 0.391016 0.309374
0.548176 0.400980 0.320347
0.637049 0.410945 0.331320
0.725923 0.420909 0.342294
0.814796 0.430873 0.353267
0.238541 0.449714 0.313397
0.327414 0.459678 0.324370
0.416288 0.469642 0.335343
0.505162 0.479607 0.346316
0.594035 0.489571 0.357290
0.682909 0.499535 0.368263
0.771782 0.509499 0.379236
0.860656 0.519463 0.390209
0.284400 0.538305 0.350339
0.373274 0.548269 0.361312
0.462147 0.558233 0.372285
0.551021 0.568197 0.383259
0.639895 0.578161 0.394232
0.728768 0.588126 0.405205
0.817642 0.598090 0.416178
0.906515 0.608054 0.427152
0.330260 0.626895 0.387281
0.419133 0.636859 0.398255
0.508007 0.646823 0.409228
0.596880 0.656788 0.420201
0.685754 0.666752 0.431174
0.774628 0.676716 0.442147
0.863501 0.686680 0.453121
0.952375 0.696644 0.464094
0.013866 0.010142 0.193028
0.102739 0.020107 0.204001
0.191613 0.030071 0.214974
0.280486 0.040035 0.225947
0.369360 0.049999 0.236920
0.458233 0.059963 0.247894
0.547107 0.069928 0.258867
0.635980 0.079892 0.269840
0.059725 0.098733 0.229970
0.148599 0.108697 0.240943
0.237472 0.118661 0.251916
0.326346 0.128625 0.262890
0.415219 0.138590 0.273863
0.504093 0.148554 0.284836
0.592966 0.158518 0.295809
0.681840 0.168482 0.306782
0.105584 0.187323 0.266912
0.194458 0.197288 0.277885
0.283332 0.207252 0.288859
0.372205 0.217216 0.299832
0.461079 0.227180 0.310805
0.549952 0.237144 0.321778
0.638826 0.247109 0.332752
0.727699 0.257073 0.343725
0.151444 0.275914 0.303855
0.240317 0.285878 0.314828
0.329191 0.295842 0.325801
0.418065 0.305806 0.336774
0.506938 0.315771 0.347747
0.595812 0.325735 0.358721
0.684685 0.335699 0.369694
0.773559 0.345663 0.380667
0.197303 0.364504 0.340797
0.286177 0.374469 0.351770
0.375050 0.384433 0.362743
0.463924 0.394397 0.373717
0.552797 0.404361 0.384690
0.641671 0.414325 0.395663
0.730545 0.424290 0.406636
0.819418 0.434254 0.417609
0.243163 0.453095 0.377739
0.332036 0.463059 0.388712
0.420910 0.473023 0.399686
0.509783 0.482987 0.410659
0.598657 0.492952 0.421632
0.687531 0.502916 0.432605
0.776404 0.512880 0.443579
0.865278 0.522844 0.454552
0.289022 0.541685 0.414681
0.377896 0.551650 0.425655
0.466769 0.561614 0.436628
0.555643 0.571578 0.447601
0.644516 0.581542 0.458574
0.733390 0.591506 0.469548
0.822264 0.601471 0.480521
0.911137 0.611435 0.491494
0.334882 0.630276 0.451624
0.423755 0.640240 0.462597
0.512629 0.650204 0.473570
0.601502 0.660168 0.484543
0.690376 0.670133 0.495517
0.779249 0.680097 0.506490
0.868123 0.690061 0.517463
0.956997 0.700025 0.528436
0.018487 0.013523 0.257370
0.107361 0.023487 0.268343
0.196234 0.033452 0.279316
0.285108 0.043416 0.290290
0.373982 0.053380 0.301263
0.462855 0.063344 0.312236
0.551729 0.073308 0.323209
0.640602 0.083273 0.334183
0.064347 0.102114 0.294312
0.153220 0.112078 0.305286
0.242094 0.122042 0.316259
0.330967 0.132006 0.327232
0.419841 0.141970 0.338205
0.508715 0.151935 0.349178
0.597588 0.161899 0.360152
0.686462 0.171863 0.371125
0.110206 0.190704 0.331255
0.199080 0.200668 0.342228
0.287953 0.210633 0.353201
0.376827 0.220597 0.364174
0.465700 0.230561 0.375148
0.554574 0.240525 0.386121
0.643448 0.250489 0.397094
0.732321 0.260454 0.408067
0.156066 0.279295 0.368197
0.244939 0.289259 0.379170
0.333813 0.299223 0.390143
0.422686 0.309187 0.401117
0.511560 0.319151 0.412090
0.600433 0.329116 0.423063
0.689307 0.339080 0.434036
0.778181 0.349044 0.445010
0.201925 0.367885 0.405139
0.290799 0.377849 0.416113
0.379672 0.387814 0.427086
0.468546 0.397778 0.438059
0.557419 0.407742 0.449032
0.646293 0.417706 0.460005
0.735167 0.427670 0.470979
0.824040 0.437634 0.481952
0.247785 0.456476 0.442082
0.336658 0.466440 0.453055
0.425532 0.476404 0.464028
0.514405 0.486368 0.475001
0.603279 0.496332 0.485975
0.692152 0.506297 0.496948
0.781026 0.516261 0.507921
0.869900 0.526225 0.518894
0.293644 0.545066 0.479024
0.382518 0.555030 0.489997
0.471391 0.564995 0.500970
0.560265 0.574959 0.511944
0.649138 0.584923 0.522917
0.738012 0.594887 0.533890
0.826885 0.604851 0.544863
0.915759 0.614816 0.555837
0.339503 0.633657 0.515966
0.428377 0.643621 0.526940
0.517251 0.653585 0.537913
0.606124 0.663549 0.548886
0.694998 0.673513 0.559859
0.783871 0.683478 0.570832
0.872745 0.693442 0.581806
0.961618 0.703406 0.592779
0.023109 0.016904 0.321713
0.111983 0.026868 0.332686
0.200856 0.036832 0.343659
0.289730 0.046797 0.354632
0.378603 0.056761 0.365605
0.467477 0.066725 0.376579
0.556351 0.076689 0.387552
0.645224 0.086653 0.398525
0.068969 0.105494 0.358655
0.157842 0.115459 0.369628
0.246716 0.125423 0.380601
0.335589 0.135387 0.391575
0.424463 0.145351 0.402548
0.513336 0.155315 0.413521
0.602210 0.165280 0.424494
0.691083 0.175244 0.435467
0.114828 0.194085 0.395597
0.203702 0.204049 0.406570
0.292575 0.214013 0.417544
0.381449 0.223978 0.428517
0.470322 0.233942 0.439490
0.559196 0.243906 0.450463
0.648069 0.253870 0.461437
0.736943 0.263834 0.472410
0.160688 0.282675 0.432540
0.249561 0.292640 0.443513
0.338435 0.302604 0.454486
0.427308 0.312568 0.465459
0.516182 0.322532 0.476432
0.605055 0.332496 0.487406
0.693929 0.342461 0.498379
0.782802 0.352425 0.509352
0.206547 0.371266 0.469482
0.295421 0.381230 0.480455
0.384294 0.391194 0.491428
0.473168 0.401159 0.502401
0.562041 0.411123 0.513375
0.650915 0.421087 0.524348
0.739788 0.431051 0.535321
0.828662 0.441015 0.546294
0.252406 0.459856 0.506424
0.341280 0.469821 0.517397
0.430154 0.479785 0.528371
0.519027 0.489749 0.539344
0.607901 0.499713 0.550317
0.696774 0.509677 0.561290
0.785648 0.519642 0.572264
0.874521 0.529606 0.583237
0.298266 0.548447 0.543366
0.387139 0.558411 0.554340
0.476013 0.568375 0.565313
0.564887 0.578340 0.576286
0.653760 0.588304 0.587259
0.742634 0.598268 0.598233
0.831507 0.608232 0.609206
0.920381 0.618196 0.620179
0.344125 0.637037 0.580309
0.432999 0.647002 0.591282
0.521872 0.656966 0.602255
0.610746 0.666930 0.613228
0.699619 0.676894 0.624202
0.788493 0.686858 0.635175
0.877367 0.696823 0.646148
0.966240 0.706787 0.657121
0.027731 0.020285 0.386055
0.116605 0.030249 0.397028
0.205478 0.040213 0.408001
0.294352 0.050177 0.418975
0.383225 0.060142 0.429948
0.472099 0.070106 0.440921
0.560972 0.080070 0.451894
0.649846 0.090034 0.462868
0.073590 0.108875 0.422997
0.162464 0.118839 0.433971
0.251338 0.128804 0.444944
0.340211 0.138768 0.455917
0.429085 0.148732 0.466890
0.517958 0.158696 0.477863
0.606832 0.168660 0.488837
0.695705 0.178625 0.499810
0.119450 0.197466 0.459940
0.208323 0.207430 0.470913
0.297197 0.217394 0.481886
0.386071 0.227358 0.492859
0.474944 0.237323 0.503833
0.563818 0.247287 0.514806
0.652691 0.257251 0.525779
0.741565 0.267215 0.536752
0.165309 0.286056 0.496882
0.254183 0.296020 0.507855
0.343056 0.305985 0.518829
0.431930 0.315949 0.529802
0.520804 0.325913 0.540775
0.609677 0.335877 0.551748
0.698551 0.345841 0.562721
0.787424 0.355806 0.573695
0.211169 0.374647 0.533824
0.300042 0.384611 0.544798
0.388916 0.394575 0.555771
0.477789 0.404539 0.566744
0.566663 0.414504 0.577717
0.655537 0.424468 0.588690
0.744410 0.434432 0.599664
0.833284 0.444396 0.610637
0.257028 0.463237 0.570767
0.345902 0.473201 0.581740
0.434775 0.483166 0.592713
0.523649 0.493130 0.603686
0.612522 0.503094 0.614660
0.701396 0.513058 0.625633
0.790270 0.523022 0.636606
0.879143 0.532987 0.647579
0.302888 0.551828 0.607709
0.391761 0.561792 0.618682
0.480635 0.571756 0.629655
0.569508 0.581720 0.640629
0.658382 0.591685 0.651602
0.747255 0.601649 0.662575
0.836129 0.611613 0.673548
0.925003 0.621577 0.684522
0.348747 0.640418 0.644651
0.437621 0.650382 0.655625
0.526494 0.660347 0.666598
0.615368 0.670311 0.677571
0.704241 0.680275 0.688544
0.793115 0.690239 0.699517
0.881989 0.700203 0.710491
0.970862 0.710168 0.721464
0.032353 0.023666 0.450398
0.121226 0.033630 0.461371
0.210100 0.043594 0.472344
0.298974 0.053558 0.483317
0.387847 0.063522 0.494290
0.476721 0.073487 0.505264
0.565594 0.083451 0.516237
0.654468 0.093415 0.527210
0.078212 0.112256 0.487340
0.167086 0.122220 0.498313
0.255959 0.132184 0.509286
0.344833 0.142149 0.520259
0.433707 0.152113 0.531233
0.522580 0.162077 0.542206
0.611454 0.172041 0.553179
0.700327 0.182005 0.564152
0.124072 0.200847 0.524282
0.212945 0.210811 0.535255
0.301819 0.220775 0.546229
0.390692 0.230739 0.557202
0.479566 0.240703 0.568175
0.568439 0.250667 0.579148
0.657313 0.260632 0.590122
0.746187 0.270596 0.601095
0.169931 0.289437 0.561225
0.258805 0.299401 0.572198
0.347678 0.309365 0.583171
0.436552 0.319330 0.594144
0.525425 0.329294 0.605117
0.614299 0.339258 0.616091
0.703173 0.349222 0.627064
0.792046 0.359186 0.638037
0.215791 0.378028 0.598167
0.304664 0.387992 0.609140
0.393538 0.397956 0.620113
0.482411 0.407920 0.631087
0.571285 0.417884 0.642060
0.660158 0.427848 0.653033
0.749032 0.437813 0.664006
0.837906 0.447777 0.674979
0.261650 0.466618 0.635109
0.350524 0.476582 0.646082
0.439397 0.486546 0.657056
0.528271 0.496511 0.668029
0.617144 0.506475 0.679002
0.706018 0.516439 0.689975
0.794891 0.526403 0.700949
0.883765 0.536367 0.711922
0.307510 0.555209 0.672052
0.396383 0.565173 0.683025
0.485257 0.575137 0.693998
0.574130 0.585101 0.704971
0.663004 0.595065 0.715944
0.751877 0.605030 0.726918
0.840751 0.614994 0.737891
0.929624 0.624958 0.748864
0.353369 0.643799 0.708994
0.442243 0.653763 0.719967
0.531116 0.663727 0.730940
0.619990 0.673692 0.741913
0.708863 0.683656 0.752887
0.797737 0.693620 0.763860
0.886610 0.703584 0.774833
0.975484 0.713548 0.785806
