stdX3.0/luts/vd16.cube
TITLE "Generated by Foundry::LUT"
LUT_3D_SIZE 5
DOMAIN_MIN 0.000000 0.000000 0.000000
DOMAIN_MAX 0.903226 0.903226 0.903226
0.000000 0.000000 0.000000
0.513668 0.000000 0.000000
0.702886 0.000000 0.000000
0.797568 0.000000 0.000000
0.849944 0.000000 0.000000
0.000000 0.513668 0.000000
0.513668 0.513668 0.000000
0.702886 0.513668 0.000000
0.797568 0.513668 0.000000
0.849944 0.513668 0.000000
0.000000 0.702886 0.000000
0.513668 0.702886 0.000000
0.702886 0.702886 0.000000
0.797568 0.702886 0.000000
0.849944 0.702886 0.000000
0.000000 0.797568 0.000000
0.513668 0.797568 0.000000
0.702886 0.797568 0.000000
0.797568 0.797568 0.000000
0.849944 0.797568 0.000000
0.000000 0.849944 0.000000
0.513668 0.849944 0.000000
0.702886 0.849944 0.000000
0.797568 0.849944 0.000000
0.849944 0.849944 0.000000
0.000000 0.000000 0.513668
0.513668 0.000000 0.513668
0.702886 0.000000 0.513668
0.797568 0.000000 0.513668
0.849944 0.000000 0.513668
0.000000 0.513668 0.513668
0.513668 0.513668 0.513668
0.702886 0.513668 0.513668
0.797568 0.513668 0.513668
0.849944 0.513668 0.513668
0.000000 0.702886 0.513668
0.513668 0.702886 0.513668
0.702886 0.702886 0.513668
0.797568 0.702886 0.513668
0.849944 0.702886 0.513668
0.000000 0.797568 0.513668
0.513668 0.797568 0.513668
0.702886 0.797568 0.513668
0.797568 0.797568 0.513668
0.849944 0.797568 0.513668
0.000000 0.849944 0.513668
0.513668 0.849944 0.513668
0.702886 0.849944 0.513668
0.797568 0.849944 0.513668
0.849944 0.849944 0.513668
0.000000 0.000000 0.702886
0.513668 0.000000 0.702886
0.702886 0.000000 0.702886
0.797568 0.000000 0.702886
0.849944 0.000000 0.702886
0.000000 0.513668 0.702886
0.513668 0.513668 0.702886
0.702886 0.513668 0.702886
0.797568 0.513668 0.702886
0.849944 0.513668 0.702886
0.000000 0.702886 0.702886
0.513668 0.702886 0.702886
0.702886 0.702886 0.702886
0.797568 0.702886 0.702886
0.849944 0.702886 0.702886
0.000000 0.797568 0.702886
0.513668 0.797568 0.702886
0.702886 0.797568 0.702886
0.797568 0.797568 0.702886
0.849944 0.797568 0.702886
0.000000 0.849944 0.702886
0.513668 0.849944 0.702886
0.702886 0.849944 0.702886
0.797568 0.849944 0.702886
0.849944 0.849944 0.702886
0.000000 0.000000 0.797568
0.513668 0.000000 0.797568
0.702886 0.000000 0.797568
0.797568 0.000000 0.797568
0.849944 0.000000 0.797568
0.000000 0.513668 0.797568
0.513668 0.513668 0.797568
0.702886 0.513668 0.797568
0.797568 0.513668 0.797568
0.849944 0.513668 0.797568
0.000000 0.702886 0.797568
0.513668 0.702886 0.797568
0.702886 0.702886 0.797568
0.797568 0.702886 0.797568
0.849944 0.702886 0.797568
0.000000 0.797568 0.797568
0.513668 0.797568 0.797568
0.702886 0.797568 0.797568
0.797568 0.797568 0.797568
0.849944 0.797568 0.797568
0.000000 0.849944 0.797568
0.513668 0.849944 0.797568
0.702886 0.849944 0.797568
0.797568 0.849944 0.797568
0.849944 0.849944 0.797568
0.000000 0.000000 0.849944
0.513668 0.000000 0.849944
0.702886 0.000000 0.849944
0.797568 0.000000 0.849944
0.849944 0.000000 0.849944
0.000000 0.513668 0.849944
0.513668 0.513668 0.849944
0.702886 0.513668 0.849944
0.797568 0.513668 0.849944
0.849944 0.513668 0.849944
0.000000 0.702886 0.849944
0.513668 0.702886 0.849944
0.702886 0.702886 0.849944
0.797568 0.702886 0.849944
0.849944 0.702886 0.849944
0.000000 0.797568 0.849944
0.513668 0.797568 0.849944
0.702886 0.797568 0.849944
0.797568 0.797568 0.849944
0.849944 0.797568 0.849944
0.000000 0.849944 0.849944
0.513668 0.849944 0.849944
0.702886 0.849944 0.849944
0.797568 0.849944 0.849944
0.849944 0.849944 0.849944
