stdX3.0/luts/vd16.cube
TITLE "Generated by Foundry::LUT"
LUT_3D_SIZE 32
0.000000 0.000000 0.000000
0.108781 0.000000 0.000000
0.205492 0.000000 0.000000
0.288332 0.000000 0.000000
0.359782 0.000000 0.000000
0.420062 0.000000 0.000000
0.470493 0.000000 0.000000
0.513668 0.000000 0.000000
0.551182 0.000000 0.000000
0.584119 0.000000 0.000000
0.613294 0.000000 0.000000
0.639325 0.000000 0.000000
0.662694 0.000000 0.000000
0.683774 0.000000 0.000000
0.702886 0.000000 0.000000
0.720258 0.000000 0.000000
0.736112 0.000000 0.000000
0.750608 0.000000 0.000000
0.763884 0.000000 0.000000
0.776076 0.000000 0.000000
0.787268 0.000000 0.000000
0.797568 0.000000 0.000000
0.807043 0.000000 0.000000
0.815772 0.000000 0.000000
0.823798 0.000000 0.000000
0.831183 0.000000 0.000000
0.837981 0.000000 0.000000
0.844214 0.000000 0.000000
0.849944 0.000000 0.000000
0.855300 0.000000 0.000000
0.860358 0.000000 0.000000
0.865142 0.000000 0.000000
0.000000 0.108781 0.000000
0.108781 0.108781 0.000000
0.205492 0.108781 0.000000
0.288332 0.108781 0.000000
0.359782 0.108781 0.000000
0.420062 0.108781 0.000000
0.470493 0.108781 0.000000
0.513668 0.108781 0.000000
0.551182 0.108781 0.000000
0.584119 0.108781 0.000000
0.613294 0.108781 0.000000
0.639325 0.108781 0.000000
0.662694 0.108781 0.000000
0.683774 0.108781 0.000000
0.702886 0.108781 0.000000
0.720258 0.108781 0.000000
0.736112 0.108781 0.000000
0.750608 0.108781 0.000000
0.763884 0.108781 0.000000
0.776076 0.108781 0.000000
0.787268 0.108781 0.000000
0.797568 0.108781 0.000000
0.807043 0.108781 0.000000
0.815772 0.108781 0.000000
0.823798 0.108781 0.000000
0.831183 0.108781 0.000000
0.837981 0.108781 0.000000
0.844214 0.108781 0.000000
0.849944 0.108781 0.000000
0.855300 0.108781 0.000000
0.860358 0.108781 0.000000
0.865142 0.108781 0.000000
0.000000 0.205492 0.000000
0.108781 0.205492 0.000000
0.205492 0.205492 0.000000
0.288332 0.205492 0.000000
0.359782 0.205492 0.000000
0.420062 0.205492 0.000000
0.470493 0.205492 0.000000
0.513668 0.205492 0.000000
0.551182 0.205492 0.000000
0.584119 0.205492 0.000000
0.613294 0.205492 0.000000
0.639325 0.205492 0.000000
0.662694 0.205492 0.000000
0.683774 0.205492 0.000000
0.702886 0.205492 0.000000
0.720258 0.205492 0.000000
0.736112 0.205492 0.000000
0.750608 0.205492 0.000000
0.763884 0.205492 0.000000
0.776076 0.205492 0.000000
0.787268 0.205492 0.000000
0.797568 0.205492 0.000000
0.807043 0.205492 0.000000
0.815772 0.205492 0.000000
0.823798 0.205492 0.000000
0.831183 0.205492 0.000000
0.837981 0.205492 0.000000
0.844214 0.205492 0.000000
0.849944 0.205492 0.000000
0.855300 0.205492 0.000000
0.860358 0.205492 0.000000
0.865142 0.205492 0.000000
0.000000 0.288332 0.000000
0.108781 0.288332 0.000000
0.205492 0.288332 0.000000
0.288332 0.288332 0.000000
0.359782 0.288332 0.000000
0.420062 0.288332 0.000000
0.470493 0.288332 0.000000
0.513668 0.288332 0.000000
0.551182 0.288332 0.000000
0.584119 0.288332 0.000000
0.613294 0.288332 0.000000
0.639325 0.288332 0.000000
0.662694 0.288332 0.000000
0.683774 0.288332 0.000000
0.702886 0.288332 0.000000
0.720258 0.288332 0.000000
0.736112 0.288332 0.000000
0.750608 0.288332 0.000000
0.763884 0.288332 0.000000
0.776076 0.288332 0.000000
0.787268 0.288332 0.000000
0.797568 0.288332 0.000000
0.807043 0.288332 0.000000
0.815772 0.288332 0.000000
0.823798 0.288332 0.000000
0.831183 0.288332 0.000000
0.837981 0.288332 0.000000
0.844214 0.288332 0.000000
0.849944 0.288332 0.000000
0.855300 0.288332 0.000000
0.860358 0.288332 0.000000
0.865142 0.288332 0.000000
0.000000 0.359782 0.000000
0.108781 0.359782 0.000000
0.205492 0.359782 0.000000
0.288332 0.359782 0.000000
0.359782 0.359782 0.000000
0.420062 0.359782 0.000000
0.470493 0.359782 0.000000
0.513668 0.359782 0.000000
0.551182 0.359782 0.000000
0.584119 0.359782 0.000000
0.613294 0.359782 0.000000
0.639325 0.359782 0.000000
0.662694 0.359782 0.000000
0.683774 0.359782 0.000000
0.702886 0.359782 0.000000
0.720258 0.359782 0.000000
0.736112 0.359782 0.000000
0.750608 0.359782 0.000000
0.763884 0.359782 0.000000
0.776076 0.359782 0.000000
0.787268 0.359782 0.000000
0.797568 0.359782 0.000000
0.807043 0.359782 0.000000
0.815772 0.359782 0.000000
0.823798 0.359782 0.000000
0.831183 0.359782 0.000000
0.837981 0.359782 0.000000
0.844214 0.359782 0.000000
0.849944 0.359782 0.000000
0.855300 0.359782 0.000000
0.860358 0.359782 0.000000
0.865142 0.359782 0.000000
0.000000 0.420062 0.000000
0.108781 0.420062 0.000000
0.205492 0.420062 0.000000
0.288332 0.420062 0.000000
0.359782 0.420062 0.000000
0.420062 0.420062 0.000000
0.470493 0.420062 0.000000
0.513668 0.420062 0.000000
0.551182 0.420062 0.000000
0.584119 0.420062 0.000000
0.613294 0.420062 0.000000
0.639325 0.420062 0.000000
0.662694 0.420062 0.000000
0.683774 0.420062 0.000000
0.702886 0.420062 0.000000
0.720258 0.420062 0.000000
0.736112 0.420062 0.000000
0.750608 0.420062 0.000000
0.763884 0.420062 0.000000
0.776076 0.420062 0.000000
0.787268 0.420062 0.000000
0.797568 0.420062 0.000000
0.807043 0.420062 0.000000
0.815772 0.420062 0.000000
0.823798 0.420062 0.000000
0.831183 0.420062 0.000000
0.837981 0.420062 0.000000
0.844214 0.420062 0.000000
0.849944 0.420062 0.000000
0.855300 0.420062 0.000000
0.860358 0.420062 0.000000
0.865142 0.420062 0.000000
0.000000 0.470493 0.000000
0.108781 0.470493 0.000000
0.205492 0.470493 0.000000
0.288332 0.470493 0.000000
0.359782 0.470493 0.000000
0.420062 0.470493 0.000000
0.470493 0.470493 0.000000
0.513668 0.470493 0.000000
0.551182 0.470493 0.000000
0.584119 0.470493 0.000000
0.613294 0.470493 0.000000
0.639325 0.470493 0.000000
0.662694 0.470493 0.000000
0.683774 0.470493 0.000000
0.702886 0.470493 0.000000
0.720258 0.470493 0.000000
0.736112 0.470493 0.000000
0.750608 0.470493 0.000000
0.763884 0.470493 0.000000
0.776076 0.470493 0.000000
0.787268 0.470493 0.000000
0.797568 0.470493 0.000000
0.807043 0.470493 0.000000
0.815772 0.470493 0.000000
0.823798 0.470493 0.000000
0.831183 0.470493 0.000000
0.837981 0.470493 0.000000
0.844214 0.470493 0.000000
0.849944 0.470493 0.000000
0.855300 0.470493 0.000000
0.860358 0.470493 0.000000
0.865142 0.470493 0.000000
0.000000 0.513668 0.000000
0.108781 0.513668 0.000000
0.205492 0.513668 0.000000
0.288332 0.513668 0.000000
0.359782 0.513668 0.000000
0.420062 0.513668 0.000000
0.470493 0.513668 0.000000
0.513668 0.513668 0.000000
0.551182 0.513668 0.000000
0.584119 0.513668 0.000000
0.613294 0.513668 0.000000
0.639325 0.513668 0.000000
0.662694 0.513668 0.000000
0.683774 0.513668 0.000000
0.702886 0.513668 0.000000
0.720258 0.513668 0.000000
0.736112 0.513668 0.000000
0.750608 0.513668 0.000000
0.763884 0.513668 0.000000
0.776076 0.513668 0.000000
0.787268 0.513668 0.000000
0.797568 0.513668 0.000000
0.807043 0.513668 0.000000
0.815772 0.513668 0.000000
0.823798 0.513668 0.000000
0.831183 0.513668 0.000000
0.837981 0.513668 0.000000
0.844214 0.513668 0.000000
0.849944 0.513668 0.000000
0.855300 0.513668 0.000000
0.860358 0.513668 0.000000
0.865142 0.513668 0.000000
0.000000 0.551182 0.000000
0.108781 0.551182 0.000000
0.205492 0.551182 0.000000
0.288332 0.551182 0.000000
0.359782 0.551182 0.000000
0.420062 0.551182 0.000000
0.470493 0.551182 0.000000
0.513668 0.551182 0.000000
0.551182 0.551182 0.000000
0.584119 0.551182 0.000000
0.613294 0.551182 0.000000
0.639325 0.551182 0.000000
0.662694 0.551182 0.000000
0.683774 0.551182 0.000000
0.702886 0.551182 0.000000
0.720258 0.551182 0.000000
0.736112 0.551182 0.000000
0.750608 0.551182 0.000000
0.763884 0.551182 0.000000
0.776076 0.551182 0.000000
0.787268 0.551182 0.000000
0.797568 0.551182 0.000000
0.807043 0.551182 0.000000
0.815772 0.551182 0.000000
0.823798 0.551182 0.000000
0.831183 0.551182 0.000000
0.837981 0.551182 0.000000
0.844214 0.551182 0.000000
0.849944 0.551182 0.000000
0.855300 0.551182 0.000000
0.860358 0.551182 0.000000
0.865142 0.551182 0.000000
0.000000 0.584119 0.000000
0.108781 0.584119 0.000000
0.205492 0.584119 0.000000
0.288332 0.584119 0.000000
0.359782 0.584119 0.000000
0.420062 0.584119 0.000000
0.470493 0.584119 0.000000
0.513668 0.584119 0.000000
0.551182 0.584119 0.000000
0.584119 0.584119 0.000000
0.613294 0.584119 0.000000
0.639325 0.584119 0.000000
0.662694 0.584119 0.000000
0.683774 0.584119 0.000000
0.702886 0.584119 0.000000
0.720258 0.584119 0.000000
0.736112 0.584119 0.000000
0.750608 0.584119 0.000000
0.763884 0.584119 0.000000
0.776076 0.584119 0.000000
0.787268 0.584119 0.000000
0.797568 0.584119 0.000000
0.807043 0.584119 0.000000
0.815772 0.584119 0.000000
0.823798 0.584119 0.000000
0.831183 0.584119 0.000000
0.837981 0.584119 0.000000
0.844214 0.584119 0.000000
0.849944 0.584119 0.000000
0.855300 0.584119 0.000000
0.860358 0.584119 0.000000
0.865142 0.584119 0.000000
0.000000 0.613294 0.000000
0.108781 0.613294 0.000000
0.205492 0.613294 0.000000
0.288332 0.613294 0.000000
0.359782 0.613294 0.000000
0.420062 0.613294 0.000000
0.470493 0.613294 0.000000
0.513668 0.613294 0.000000
0.551182 0.613294 0.000000
0.584119 0.613294 0.000000
0.613294 0.613294 0.000000
0.639325 0.613294 0.000000
0.662694 0.613294 0.000000
0.683774 0.613294 0.000000
0.702886 0.613294 0.000000
0.720258 0.613294 0.000000
0.736112 0.613294 0.000000
0.750608 0.613294 0.000000
0.763884 0.613294 0.000000
0.776076 0.613294 0.000000
0.787268 0.613294 0.000000
0.797568 0.613294 0.000000
0.807043 0.613294 0.000000
0.815772 0.613294 0.000000
0.823798 0.613294 0.000000
0.831183 0.613294 0.000000
0.837981 0.613294 0.000000
0.844214 0.613294 0.000000
0.849944 0.613294 0.000000
0.855300 0.613294 0.000000
0.860358 0.613294 0.000000
0.865142 0.613294 0.000000
0.000000 0.639325 0.000000
0.108781 0.639325 0.000000
0.205492 0.639325 0.000000
0.288332 0.639325 0.000000
0.359782 0.639325 0.000000
0.420062 0.639325 0.000000
0.470493 0.639325 0.000000
0.513668 0.639325 0.000000
0.551182 0.639325 0.000000
0.584119 0.639325 0.000000
0.613294 0.639325 0.000000
0.639325 0.639325 0.000000
0.662694 0.639325 0.000000
0.683774 0.639325 0.000000
0.702886 0.639325 0.000000
0.720258 0.639325 0.000000
0.736112 0.639325 0.000000
0.750608 0.639325 0.000000
0.763884 0.639325 0.000000
0.776076 0.639325 0.000000
0.787268 0.639325 0.000000
0.797568 0.639325 0.000000
0.807043 0.639325 0.000000
0.815772 0.639325 0.000000
0.823798 0.639325 0.000000
0.831183 0.639325 0.000000
0.837981 0.639325 0.000000
0.844214 0.639325 0.000000
0.849944 0.639325 0.000000
0.855300 0.639325 0.000000
0.860358 0.639325 0.000000
0.865142 0.639325 0.000000
0.000000 0.662694 0.000000
0.108781 0.662694 0.000000
0.205492 0.662694 0.000000
0.288332 0.662694 0.000000
0.359782 0.662694 0.000000
0.420062 0.662694 0.000000
0.470493 0.662694 0.000000
0.513668 0.662694 0.000000
0.551182 0.662694 0.000000
0.584119 0.662694 0.000000
0.613294 0.662694 0.000000
0.639325 0.662694 0.000000
0.662694 0.662694 0.000000
0.683774 0.662694 0.000000
0.702886 0.662694 0.000000
0.720258 0.662694 0.000000
0.736112 0.662694 0.000000
0.750608 0.662694 0.000000
0.763884 0.662694 0.000000
0.776076 0.662694 0.000000
0.787268 0.662694 0.000000
0.797568 0.662694 0.000000
0.807043 0.662694 0.000000
0.815772 0.662694 0.000000
0.823798 0.662694 0.000000
0.831183 0.662694 0.000000
0.837981 0.662694 0.000000
0.844214 0.662694 0.000000
0.849944 0.662694 0.000000
0.855300 0.662694 0.000000
0.860358 0.662694 0.000000
0.865142 0.662694 0.000000
0.000000 0.683774 0.000000
0.108781 0.683774 0.000000
0.205492 0.683774 0.000000
0.288332 0.683774 0.000000
0.359782 0.683774 0.000000
0.420062 0.683774 0.000000
0.470493 0.683774 0.000000
0.513668 0.683774 0.000000
0.551182 0.683774 0.000000
0.584119 0.683774 0.000000
0.613294 0.683774 0.000000
0.639325 0.683774 0.000000
0.662694 0.683774 0.000000
0.683774 0.683774 0.000000
0.702886 0.683774 0.000000
0.720258 0.683774 0.000000
0.736112 0.683774 0.000000
0.750608 0.683774 0.000000
0.763884 0.683774 0.000000
0.776076 0.683774 0.000000
0.787268 0.683774 0.000000
0.797568 0.683774 0.000000
0.807043 0.683774 0.000000
0.815772 0.683774 0.000000
0.823798 0.683774 0.000000
0.831183 0.683774 0.000000
0.837981 0.683774 0.000000
0.844214 0.683774 0.000000
0.849944 0.683774 0.000000
0.855300 0.683774 0.000000
0.860358 0.683774 0.000000
0.865142 0.683774 0.000000
0.000000 0.702886 0.000000
0.108781 0.702886 0.000000
0.205492 0.702886 0.000000
0.288332 0.702886 0.000000
0.359782 0.702886 0.000000
0.420062 0.702886 0.000000
0.470493 0.702886 0.000000
0.513668 0.702886 0.000000
0.551182 0.702886 0.000000
0.584119 0.702886 0.000000
0.613294 0.702886 0.000000
0.639325 0.702886 0.000000
0.662694 0.702886 0.000000
0.683774 0.702886 0.000000
0.702886 0.702886 0.000000
0.720258 0.702886 0.000000
0.736112 0.702886 0.000000
0.750608 0.702886 0.000000
0.763884 0.702886 0.000000
0.776076 0.702886 0.000000
0.787268 0.702886 0.000000
0.797568 0.702886 0.000000
0.807043 0.702886 0.000000
0.815772 0.702886 0.000000
0.823798 0.702886 0.000000
0.831183 0.702886 0.000000
0.837981 0.702886 0.000000
0.844214 0.702886 0.000000
0.849944 0.702886 0.000000
0.855300 0.702886 0.000000
0.860358 0.702886 0.000000
0.865142 0.702886 0.000000
0.000000 0.720258 0.000000
0.108781 0.720258 0.000000
0.205492 0.720258 0.000000
0.288332 0.720258 0.000000
0.359782 0.720258 0.000000
0.420062 0.720258 0.000000
0.470493 0.720258 0.000000
0.513668 0.720258 0.000000
0.551182 0.720258 0.000000
0.584119 0.720258 0.000000
0.613294 0.720258 0.000000
0.639325 0.720258 0.000000
0.662694 0.720258 0.000000
0.683774 0.720258 0.000000
0.702886 0.720258 0.000000
0.720258 0.720258 0.000000
0.736112 0.720258 0.000000
0.750608 0.720258 0.000000
0.763884 0.720258 0.000000
0.776076 0.720258 0.000000
0.787268 0.720258 0.000000
0.797568 0.720258 0.000000
0.807043 0.720258 0.000000
0.815772 0.720258 0.000000
0.823798 0.720258 0.000000
0.831183 0.720258 0.000000
0.837981 0.720258 0.000000
0.844214 0.720258 0.000000
0.849944 0.720258 0.000000
0.855300 0.720258 0.000000
0.860358 0.720258 0.000000
0.865142 0.720258 0.000000
0.000000 0.736112 0.000000
0.108781 0.736112 0.000000
0.205492 0.736112 0.000000
0.288332 0.736112 0.000000
0.359782 0.736112 0.000000
0.420062 0.736112 0.000000
0.470493 0.736112 0.000000
0.513668 0.736112 0.000000
0.551182 0.736112 0.000000
0.584119 0.736112 0.000000
0.613294 0.736112 0.000000
0.639325 0.736112 0.000000
0.662694 0.736112 0.000000
0.683774 0.736112 0.000000
0.702886 0.736112 0.000000
0.720258 0.736112 0.000000
0.736112 0.736112 0.000000
0.750608 0.736112 0.000000
0.763884 0.736112 0.000000
0.776076 0.736112 0.000000
0.787268 0.736112 0.000000
0.797568 0.736112 0.000000
0.807043 0.736112 0.000000
0.815772 0.736112 0.000000
0.823798 0.736112 0.000000
0.831183 0.736112 0.000000
0.837981 0.736112 0.000000
0.844214 0.736112 0.000000
0.849944 0.736112 0.000000
0.855300 0.736112 0.000000
0.860358 0.736112 0.000000
0.865142 0.736112 0.000000
0.000000 0.750608 0.000000
0.108781 0.750608 0.000000
0.205492 0.750608 0.000000
0.288332 0.750608 0.000000
0.359782 0.750608 0.000000
0.420062 0.750608 0.000000
0.470493 0.750608 0.000000
0.513668 0.750608 0.000000
0.551182 0.750608 0.000000
0.584119 0.750608 0.000000
0.613294 0.750608 0.000000
0.639325 0.750608 0.000000
0.662694 0.750608 0.000000
0.683774 0.750608 0.000000
0.702886 0.750608 0.000000
0.720258 0.750608 0.000000
0.736112 0.750608 0.000000
0.750608 0.750608 0.000000
0.763884 0.750608 0.000000
0.776076 0.750608 0.000000
0.787268 0.750608 0.000000
0.797568 0.750608 0.000000
0.807043 0.750608 0.000000
0.815772 0.750608 0.000000
0.823798 0.750608 0.000000
0.831183 0.750608 0.000000
0.837981 0.750608 0.000000
0.844214 0.750608 0.000000
0.849944 0.750608 0.000000
0.855300 0.750608 0.000000
0.860358 0.750608 0.000000
0.865142 0.750608 0.000000
0.000000 0.763884 0.000000
0.108781 0.763884 0.000000
0.205492 0.763884 0.000000
0.288332 0.763884 0.000000
0.359782 0.763884 0.000000
0.420062 0.763884 0.000000
0.470493 0.763884 0.000000
0.513668 0.763884 0.000000
0.551182 0.763884 0.000000
0.584119 0.763884 0.000000
0.613294 0.763884 0.000000
0.639325 0.763884 0.000000
0.662694 0.763884 0.000000
0.683774 0.763884 0.000000
0.702886 0.763884 0.000000
0.720258 0.763884 0.000000
0.736112 0.763884 0.000000
0.750608 0.763884 0.000000
0.763884 0.763884 0.000000
0.776076 0.763884 0.000000
0.787268 0.763884 0.000000
0.797568 0.763884 0.000000
0.807043 0.763884 0.000000
0.815772 0.763884 0.000000
0.823798 0.763884 0.000000
0.831183 0.763884 0.000000
0.837981 0.763884 0.000000
0.844214 0.763884 0.000000
0.849944 0.763884 0.000000
0.855300 0.763884 0.000000
0.860358 0.763884 0.000000
0.865142 0.763884 0.000000
0.000000 0.776076 0.000000
0.108781 0.776076 0.000000
0.205492 0.776076 0.000000
0.288332 0.776076 0.000000
0.359782 0.776076 0.000000
0.420062 0.776076 0.000000
0.470493 0.776076 0.000000
0.513668 0.776076 0.000000
0.551182 0.776076 0.000000
0.584119 0.776076 0.000000
0.613294 0.776076 0.000000
0.639325 0.776076 0.000000
0.662694 0.776076 0.000000
0.683774 0.776076 0.000000
0.702886 0.776076 0.000000
0.720258 0.776076 0.000000
0.736112 0.776076 0.000000
0.750608 0.776076 0.000000
0.763884 0.776076 0.000000
0.776076 0.776076 0.000000
0.787268 0.776076 0.000000
0.797568 0.776076 0.000000
0.807043 0.776076 0.000000
0.815772 0.776076 0.000000
0.823798 0.776076 0.000000
0.831183 0.776076 0.000000
0.837981 0.776076 0.000000
0.844214 0.776076 0.000000
0.849944 0.776076 0.000000
0.855300 0.776076 0.000000
0.860358 0.776076 0.000000
0.865142 0.776076 0.000000
0.000000 0.787268 0.000000
0.108781 0.787268 0.000000
0.205492 0.787268 0.000000
0.288332 0.787268 0.000000
0.359782 0.787268 0.000000
0.420062 0.787268 0.000000
0.470493 0.787268 0.000000
0.513668 0.787268 0.000000
0.551182 0.787268 0.000000
0.584119 0.787268 0.000000
0.613294 0.787268 0.000000
0.639325 0.787268 0.000000
0.662694 0.787268 0.000000
0.683774 0.787268 0.000000
0.702886 0.787268 0.000000
0.720258 0.787268 0.000000
0.736112 0.787268 0.000000
0.750608 0.787268 0.000000
0.763884 0.787268 0.000000
0.776076 0.787268 0.000000
0.787268 0.787268 0.000000
0.797568 0.787268 0.000000
0.807043 0.787268 0.000000
0.815772 0.787268 0.000000
0.823798 0.787268 0.000000
0.831183 0.787268 0.000000
0.837981 0.787268 0.000000
0.844214 0.787268 0.000000
0.849944 0.787268 0.000000
0.855300 0.787268 0.000000
0.860358 0.787268 0.000000
0.865142 0.787268 0.000000
0.000000 0.797568 0.000000
0.108781 0.797568 0.000000
0.205492 0.797568 0.000000
0.288332 0.797568 0.000000
0.359782 0.797568 0.000000
0.420062 0.797568 0.000000
0.470493 0.797568 0.000000
0.513668 0.797568 0.000000
0.551182 0.797568 0.000000
0.584119 0.797568 0.000000
0.613294 0.797568 0.000000
0.639325 0.797568 0.000000
0.662694 0.797568 0.000000
0.683774 0.797568 0.000000
0.702886 0.797568 0.000000
0.720258 0.797568 0.000000
0.736112 0.797568 0.000000
0.750608 0.797568 0.000000
0.763884 0.797568 0.000000
0.776076 0.797568 0.000000
0.787268 0.797568 0.000000
0.797568 0.797568 0.000000
0.807043 0.797568 0.000000
0.815772 0.797568 0.000000
0.823798 0.797568 0.000000
0.831183 0.797568 0.000000
0.837981 0.797568 0.000000
0.844214 0.797568 0.000000
0.849944 0.797568 0.000000
0.855300 0.797568 0.000000
0.860358 0.797568 0.000000
0.865142 0.797568 0.000000
0.000000 0.807043 0.000000
0.108781 0.807043 0.000000
0.205492 0.807043 0.000000
0.288332 0.807043 0.000000
0.359782 0.807043 0.000000
0.420062 0.807043 0.000000
0.470493 0.807043 0.000000
0.513668 0.807043 0.000000
0.551182 0.807043 0.000000
0.584119 0.807043 0.000000
0.613294 0.807043 0.000000
0.639325 0.807043 0.000000
0.662694 0.807043 0.000000
0.683774 0.807043 0.000000
0.702886 0.807043 0.000000
0.720258 0.807043 0.000000
0.736112 0.807043 0.000000
0.750608 0.807043 0.000000
0.763884 0.807043 0.000000
0.776076 0.807043 0.000000
0.787268 0.807043 0.000000
0.797568 0.807043 0.000000
0.807043 0.807043 0.000000
0.815772 0.807043 0.000000
0.823798 0.807043 0.000000
0.831183 0.807043 0.000000
0.837981 0.807043 0.000000
0.844214 0.807043 0.000000
0.849944 0.807043 0.000000
0.855300 0.807043 0.000000
0.860358 0.807043 0.000000
0.865142 0.807043 0.000000
0.000000 0.815772 0.000000
0.108781 0.815772 0.000000
0.205492 0.815772 0.000000
0.288332 0.815772 0.000000
0.359782 0.815772 0.000000
0.420062 0.815772 0.000000
0.470493 0.815772 0.000000
0.513668 0.815772 0.000000
0.551182 0.815772 0.000000
0.584119 0.815772 0.000000
0.613294 0.815772 0.000000
0.639325 0.815772 0.000000
0.662694 0.815772 0.000000
0.683774 0.815772 0.000000
0.702886 0.815772 0.000000
0.720258 0.815772 0.000000
0.736112 0.815772 0.000000
0.750608 0.815772 0.000000
0.763884 0.815772 0.000000
0.776076 0.815772 0.000000
0.787268 0.815772 0.000000
0.797568 0.815772 0.000000
0.807043 0.815772 0.000000
0.815772 0.815772 0.000000
0.823798 0.815772 0.000000
0.831183 0.815772 0.000000
0.837981 0.815772 0.000000
0.844214 0.815772 0.000000
0.849944 0.815772 0.000000
0.855300 0.815772 0.000000
0.860358 0.815772 0.000000
0.865142 0.815772 0.000000
0.000000 0.823798 0.000000
0.108781 0.823798 0.000000
0.205492 0.823798 0.000000
0.288332 0.823798 0.000000
0.359782 0.823798 0.000000
0.420062 0.823798 0.000000
0.470493 0.823798 0.000000
0.513668 0.823798 0.000000
0.551182 0.823798 0.000000
0.584119 0.823798 0.000000
0.613294 0.823798 0.000000
0.639325 0.823798 0.000000
0.662694 0.823798 0.000000
0.683774 0.823798 0.000000
0.702886 0.823798 0.000000
0.720258 0.823798 0.000000
0.736112 0.823798 0.000000
0.750608 0.823798 0.000000
0.763884 0.823798 0.000000
0.776076 0.823798 0.000000
0.787268 0.823798 0.000000
0.797568 0.823798 0.000000
0.807043 0.823798 0.000000
0.815772 0.823798 0.000000
0.823798 0.823798 0.000000
0.831183 0.823798 0.000000
0.837981 0.823798 0.000000
0.844214 0.823798 0.000000
0.849944 0.823798 0.000000
0.855300 0.823798 0.000000
0.860358 0.823798 0.000000
0.865142 0.823798 0.000000
0.000000 0.831183 0.000000
0.108781 0.831183 0.000000
0.205492 0.831183 0.000000
0.288332 0.831183 0.000000
0.359782 0.831183 0.000000
0.420062 0.831183 0.000000
0.470493 0.831183 0.000000
0.513668 0.831183 0.000000
0.551182 0.831183 0.000000
0.584119 0.831183 0.000000
0.613294 0.831183 0.000000
0.639325 0.831183 0.000000
0.662694 0.831183 0.000000
0.683774 0.831183 0.000000
0.702886 0.831183 0.000000
0.720258 0.831183 0.000000
0.736112 0.831183 0.000000
0.750608 0.831183 0.000000
0.763884 0.831183 0.000000
0.776076 0.831183 0.000000
0.787268 0.831183 0.000000
0.797568 0.831183 0.000000
0.807043 0.831183 0.000000
0.815772 0.831183 0.000000
0.823798 0.831183 0.000000
0.831183 0.831183 0.000000
0.837981 0.831183 0.000000
0.844214 0.831183 0.000000
0.849944 0.831183 0.000000
0.855300 0.831183 0.000000
0.860358 0.831183 0.000000
0.865142 0.831183 0.000000
0.000000 0.837981 0.000000
0.108781 0.837981 0.000000
0.205492 0.837981 0.000000
0.288332 0.837981 0.000000
0.359782 0.837981 0.000000
0.420062 0.837981 0.000000
0.470493 0.837981 0.000000
0.513668 0.837981 0.000000
0.551182 0.837981 0.000000
0.584119 0.837981 0.000000
0.613294 0.837981 0.000000
0.639325 0.837981 0.000000
0.662694 0.837981 0.000000
0.683774 0.837981 0.000000
0.702886 0.837981 0.000000
0.720258 0.837981 0.000000
0.736112 0.837981 0.000000
0.750608 0.837981 0.000000
0.763884 0.837981 0.000000
0.776076 0.837981 0.000000
0.787268 0.837981 0.000000
0.797568 0.837981 0.000000
0.807043 0.837981 0.000000
0.815772 0.837981 0.000000
0.823798 0.837981 0.000000
0.831183 0.837981 0.000000
0.837981 0.837981 0.000000
0.844214 0.837981 0.000000
0.849944 0.837981 0.000000
0.855300 0.837981 0.000000
0.860358 0.837981 0.000000
0.865142 0.837981 0.000000
0.000000 0.844214 0.000000
0.108781 0.844214 0.000000
0.205492 0.844214 0.000000
0.288332 0.844214 0.000000
0.359782 0.844214 0.000000
0.420062 0.844214 0.000000
0.470493 0.844214 0.000000
0.513668 0.844214 0.000000
0.551182 0.844214 0.000000
0.584119 0.844214 0.000000
0.613294 0.844214 0.000000
0.639325 0.844214 0.000000
0.662694 0.844214 0.000000
0.683774 0.844214 0.000000
0.702886 0.844214 0.000000
0.720258 0.844214 0.000000
0.736112 0.844214 0.000000
0.750608 0.844214 0.000000
0.763884 0.844214 0.000000
0.776076 0.844214 0.000000
0.787268 0.844214 0.000000
0.797568 0.844214 0.000000
0.807043 0.844214 0.000000
