stdX3.0/luts/vd16.cube
TITLE "Generated by Foundry::LUT"
LUT_3D_SIZE 8
DOMAIN_MIN 0.000000 0.000000 0.000000
DOMAIN_MAX 0.903226 0.903226 0.903226
0.000000 0.000000 0.000000
0.359782 0.000000 0.000000
0.551182 0.000000 0.000000
0.662694 0.000000 0.000000
0.736112 0.000000 0.000000
0.787268 0.000000 0.000000
0.823798 0.000000 0.000000
0.849944 0.000000 0.000000
0.000000 0.359782 0.000000
0.359782 0.359782 0.000000
0.551182 0.359782 0.000000
0.662694 0.359782 0.000000
0.736112 0.359782 0.000000
0.787268 0.359782 0.000000
0.823798 0.359782 0.000000
0.849944 0.359782 0.000000
0.000000 0.551182 0.000000
0.359782 0.551182 0.000000
0.551182 0.551182 0.000000
0.662694 0.551182 0.000000
0.736112 0.551182 0.000000
0.787268 0.551182 0.000000
0.823798 0.551182 0.000000
0.849944 0.551182 0.000000
0.000000 0.662694 0.000000
0.359782 0.662694 0.000000
0.551182 0.662694 0.000000
0.662694 0.662694 0.000000
0.736112 0.662694 0.000000
0.787268 0.662694 0.000000
0.823798 0.662694 0.000000
0.849944 0.662694 0.000000
0.000000 0.736112 0.000000
0.359782 0.736112 0.000000
0.551182 0.736112 0.000000
0.662694 0.736112 0.000000
0.736112 0.736112 0.000000
0.787268 0.736112 0.000000
0.823798 0.736112 0.000000
0.849944 0.736112 0.000000
0.000000 0.787268 0.000000
0.359782 0.787268 0.000000
0.551182 0.787268 0.000000
0.662694 0.787268 0.000000
0.736112 0.787268 0.000000
0.787268 0.787268 0.000000
0.823798 0.787268 0.000000
0.849944 0.787268 0.000000
0.000000 0.823798 0.000000
0.359782 0.823798 0.000000
0.551182 0.823798 0.000000
0.662694 0.823798 0.000000
0.736112 0.823798 0.000000
0.787268 0.823798 0.000000
0.823798 0.823798 0.000000
0.849944 0.823798 0.000000
0.000000 0.849944 0.000000
0.359782 0.849944 0.000000
0.551182 0.849944 0.000000
0.662694 0.849944 0.000000
0.736112 0.849944 0.000000
0.787268 0.849944 0.000000
0.823798 0.849944 0.000000
0.849944 0.849944 0.000000
0.000000 0.000000 0.359782
0.359782 0.000000 0.359782
0.551182 0.000000 0.359782
0.662694 0.000000 0.359782
0.736112 0.000000 0.359782
0.787268 0.000000 0.359782
0.823798 0.000000 0.359782
0.849944 0.000000 0.359782
0.000000 0.359782 0.359782
0.359782 0.359782 0.359782
0.551182 0.359782 0.359782
0.662694 0.359782 0.359782
0.736112 0.359782 0.359782
0.787268 0.359782 0.359782
0.823798 0.359782 0.359782
0.849944 0.359782 0.359782
0.000000 0.551182 0.359782
0.359782 0.551182 0.359782
0.551182 0.551182 0.359782
0.662694 0.551182 0.359782
0.736112 0.551182 0.359782
0.787268 0.551182 0.359782
0.823798 0.551182 0.359782
0.849944 0.551182 0.359782
0.000000 0.662694 0.359782
0.359782 0.662694 0.359782
0.551182 0.662694 0.359782
0.662694 0.662694 0.359782
0.736112 0.662694 0.359782
0.787268 0.662694 0.359782
0.823798 0.662694 0.359782
0.849944 0.662694 0.359782
0.000000 0.736112 0.359782
0.359782 0.736112 0.359782
0.551182 0.736112 0.359782
0.662694 0.736112 0.359782
0.736112 0.736112 0.359782
0.787268 0.736112 0.359782
0.823798 0.736112 0.359782
0.849944 0.736112 0.359782
0.000000 0.787268 0.359782
0.359782 0.787268 0.359782
0.551182 0.787268 0.359782
0.662694 0.787268 0.359782
0.736112 0.787268 0.359782
0.787268 0.787268 0.359782
0.823798 0.787268 0.359782
0.849944 0.787268 0.359782
0.000000 0.823798 0.359782
0.359782 0.823798 0.359782
0.551182 0.823798 0.359782
0.662694 0.823798 0.359782
0.736112 0.823798 0.359782
0.787268 0.823798 0.359782
0.823798 0.823798 0.359782
0.849944 0.823798 0.359782
0.000000 0.849944 0.359782
0.359782 0.849944 0.359782
0.551182 0.849944 0.359782
0.662694 0.849944 0.359782
0.736112 0.849944 0.359782
0.787268 0.849944 0.359782
0.823798 0.849944 0.359782
0.849944 0.849944 0.359782
0.000000 0.000000 0.551182
0.359782 0.000000 0.551182
0.551182 0.000000 0.551182
0.662694 0.000000 0.551182
0.736112 0.000000 0.551182
0.787268 0.000000 0.551182
0.823798 0.000000 0.551182
0.849944 0.000000 0.551182
0.000000 0.359782 0.551182
0.359782 0.359782 0.551182
0.551182 0.359782 0.551182
0.662694 0.359782 0.551182
0.736112 0.359782 0.551182
0.787268 0.359782 0.551182
0.823798 0.359782 0.551182
0.849944 0.359782 0.551182
0.000000 0.551182 0.551182
0.359782 0.551182 0.551182
0.551182 0.551182 0.551182
0.662694 0.551182 0.551182
0.736112 0.551182 0.551182
0.787268 0.551182 0.551182
0.823798 0.551182 0.551182
0.849944 0.551182 0.551182
0.000000 0.662694 0.551182
0.359782 0.662694 0.551182
0.551182 0.662694 0.551182
0.662694 0.662694 0.551182
0.736112 0.662694 0.551182
0.787268 0.662694 0.551182
0.823798 0.662694 0.551182
0.849944 0.662694 0.551182
0.000000 0.736112 0.551182
0.359782 0.736112 0.551182
0.551182 0.736112 0.551182
0.662694 0.736112 0.551182
0.736112 0.736112 0.551182
0.787268 0.736112 0.551182
0.823798 0.736112 0.551182
0.849944 0.736112 0.551182
0.000000 0.787268 0.551182
0.359782 0.787268 0.551182
0.551182 0.787268 0.551182
0.662694 0.787268 0.551182
0.736112 0.787268 0.551182
0.787268 0.787268 0.551182
0.823798 0.787268 0.551182
0.849944 0.787268 0.551182
0.000000 0.823798 0.551182
0.359782 0.823798 0.551182
0.551182 0.823798 0.551182
0.662694 0.823798 0.551182
0.736112 0.823798 0.551182
0.787268 0.823798 0.551182
0.823798 0.823798 0.551182
0.849944 0.823798 0.551182
0.000000 0.849944 0.551182
0.359782 0.849944 0.551182
0.551182 0.849944 0.551182
0.662694 0.849944 0.551182
0.736112 0.849944 0.551182
0.787268 0.849944 0.551182
0.823798 0.849944 0.551182
0.849944 0.849944 0.551182
0.000000 0.000000 0.662694
0.359782 0.000000 0.662694
0.551182 0.000000 0.662694
0.662694 0.000000 0.662694
0.736112 0.000000 0.662694
0.787268 0.000000 0.662694
0.823798 0.000000 0.662694
0.849944 0.000000 0.662694
0.000000 0.359782 0.662694
0.359782 0.359782 0.662694
0.551182 0.359782 0.662694
0.662694 0.359782 0.662694
0.736112 0.359782 0.662694
0.787268 0.359782 0.662694
0.823798 0.359782 0.662694
0.849944 0.359782 0.662694
0.000000 0.551182 0.662694
0.359782 0.551182 0.662694
0.551182 0.551182 0.662694
0.662694 0.551182 0.662694
0.736112 0.551182 0.662694
0.787268 0.551182 0.662694
0.823798 0.551182 0.662694
0.849944 0.551182 0.662694
0.000000 0.662694 0.662694
0.359782 0.662694 0.662694
0.551182 0.662694 0.662694
0.662694 0.662694 0.662694
0.736112 0.662694 0.662694
0.787268 0.662694 0.662694
0.823798 0.662694 0.662694
0.849944 0.662694 0.662694
0.000000 0.736112 0.662694
0.359782 0.736112 0.662694
0.551182 0.736112 0.662694
0.662694 0.736112 0.662694
0.736112 0.736112 0.662694
0.787268 0.736112 0.662694
0.823798 0.736112 0.662694
0.849944 0.736112 0.662694
0.000000 0.787268 0.662694
0.359782 0.787268 0.662694
0.551182 0.787268 0.662694
0.662694 0.787268 0.662694
0.736112 0.787268 0.662694
0.787268 0.787268 0.662694
0.823798 0.787268 0.662694
0.849944 0.787268 0.662694
0.000000 0.823798 0.662694
0.359782 0.823798 0.662694
0.551182 0.823798 0.662694
0.662694 0.823798 0.662694
0.736112 0.823798 0.662694
0.787268 0.823798 0.662694
0.823798 0.823798 0.662694
0.849944 0.823798 0.662694
0.000000 0.849944 0.662694
0.359782 0.849944 0.662694
0.551182 0.849944 0.662694
0.662694 0.849944 0.662694
0.736112 0.849944 0.662694
0.787268 0.849944 0.662694
0.823798 0.849944 0.662694
0.849944 0.849944 0.662694
0.000000 0.000000 0.736112
0.359782 0.000000 0.736112
0.551182 0.000000 0.736112
0.662694 0.000000 0.736112
0.736112 0.000000 0.736112
0.787268 0.000000 0.736112
0.823798 0.000000 0.736112
0.849944 0.000000 0.736112
0.000000 0.359782 0.736112
0.359782 0.359782 0.736112
0.551182 0.359782 0.736112
0.662694 0.359782 0.736112
0.736112 0.359782 0.736112
0.787268 0.359782 0.736112
0.823798 0.359782 0.736112
0.849944 0.359782 0.736112
0.000000 0.551182 0.736112
0.359782 0.551182 0.736112
0.551182 0.551182 0.736112
0.662694 0.551182 0.736112
0.736112 0.551182 0.736112
0.787268 0.551182 0.736112
0.823798 0.551182 0.736112
0.849944 0.551182 0.736112
0.000000 0.662694 0.736112
0.359782 0.662694 0.736112
0.551182 0.662694 0.736112
0.662694 0.662694 0.736112
0.736112 0.662694 0.736112
0.787268 0.662694 0.736112
0.823798 0.662694 0.736112
0.849944 0.662694 0.736112
0.000000 0.736112 0.736112
0.359782 0.736112 0.736112
0.551182 0.736112 0.736112
0.662694 0.736112 0.736112
0.736112 0.736112 0.736112
0.787268 0.736112 0.736112
0.823798 0.736112 0.736112
0.849944 0.736112 0.736112
0.000000 0.787268 0.736112
0.359782 0.787268 0.736112
0.551182 0.787268 0.736112
0.662694 0.787268 0.736112
0.736112 0.787268 0.736112
0.787268 0.787268 0.736112
0.823798 0.787268 0.736112
0.849944 0.787268 0.736112
0.000000 0.823798 0.736112
0.359782 0.823798 0.736112
0.551182 0.823798 0.736112
0.662694 0.823798 0.736112
0.736112 0.823798 0.736112
0.787268 0.823798 0.736112
0.823798 0.823798 0.736112
0.849944 0.823798 0.736112
0.000000 0.849944 0.736112
0.359782 0.849944 0.736112
0.551182 0.849944 0.736112
0.662694 0.849944 0.736112
0.736112 0.849944 0.736112
0.787268 0.849944 0.736112
0.823798 0.849944 0.736112
0.849944 0.849944 0.736112
0.000000 0.000000 0.787268
0.359782 0.000000 0.787268
0.551182 0.000000 0.787268
0.662694 0.000000 0.787268
0.736112 0.000000 0.787268
0.787268 0.000000 0.787268
0.823798 0.000000 0.787268
0.849944 0.000000 0.787268
0.000000 0.359782 0.787268
0.359782 0.359782 0.787268
0.551182 0.359782 0.787268
0.662694 0.359782 0.787268
0.736112 0.359782 0.787268
0.787268 0.359782 0.787268
0.823798 0.359782 0.787268
0.849944 0.359782 0.787268
0.000000 0.551182 0.787268
0.359782 0.551182 0.787268
0.551182 0.551182 0.787268
0.662694 0.551182 0.787268
0.736112 0.551182 0.787268
0.787268 0.551182 0.787268
0.823798 0.551182 0.787268
0.849944 0.551182 0.787268
0.000000 0.662694 0.787268
0.359782 0.662694 0.787268
0.551182 0.662694 0.787268
0.662694 0.662694 0.787268
0.736112 0.662694 0.787268
0.787268 0.662694 0.787268
0.823798 0.662694 0.787268
0.849944 0.662694 0.787268
0.000000 0.736112 0.787268
0.359782 0.736112 0.787268
0.551182 0.736112 0.787268
0.662694 0.736112 0.787268
0.736112 0.736112 0.787268
0.787268 0.736112 0.787268
0.823798 0.736112 0.787268
0.849944 0.736112 0.787268
0.000000 0.787268 0.787268
0.359782 0.787268 0.787268
0.551182 0.787268 0.787268
0.662694 0.787268 0.787268
0.736112 0.787268 0.787268
0.787268 0.787268 0.787268
0.823798 0.787268 0.787268
0.849944 0.787268 0.787268
0.000000 0.823798 0.787268
0.359782 0.823798 0.787268
0.551182 0.823798 0.787268
0.662694 0.823798 0.787268
0.736112 0.823798 0.787268
0.787268 0.823798 0.787268
0.823798 0.823798 0.787268
0.849944 0.823798 0.787268
0.000000 0.849944 0.787268
0.359782 0.849944 0.787268
0.551182 0.849944 0.787268
0.662694 0.849944 0.787268
0.736112 0.849944 0.787268
0.787268 0.849944 0.787268
0.823798 0.849944 0.787268
0.849944 0.849944 0.787268
0.000000 0.000000 0.823798
0.359782 0.000000 0.823798
0.551182 0.000000 0.823798
0.662694 0.000000 0.823798
0.736112 0.000000 0.823798
0.787268 0.000000 0.823798
0.823798 0.000000 0.823798
0.849944 0.000000 0.823798
0.000000 0.359782 0.823798
0.359782 0.359782 0.823798
0.551182 0.359782 0.823798
0.662694 0.359782 0.823798
0.736112 0.359782 0.823798
0.787268 0.359782 0.823798
0.823798 0.359782 0.823798
0.849944 0.359782 0.823798
0.000000 0.551182 0.823798
0.359782 0.551182 0.823798
0.551182 0.551182 0.823798
0.662694 0.551182 0.823798
0.736112 0.551182 0.823798
0.787268 0.551182 0.823798
0.823798 0.551182 0.823798
0.849944 0.551182 0.823798
0.000000 0.662694 0.823798
0.359782 0.662694 0.823798
0.551182 0.662694 0.823798
0.662694 0.662694 0.823798
0.736112 0.662694 0.823798
0.787268 0.662694 0.823798
0.823798 0.662694 0.823798
0.849944 0.662694 0.823798
0.000000 0.736112 0.823798
0.359782 0.736112 0.823798
0.551182 0.736112 0.823798
0.662694 0.736112 0.823798
0.736112 0.736112 0.823798
0.787268 0.736112 0.823798
0.823798 0.736112 0.823798
0.849944 0.736112 0.823798
0.000000 0.787268 0.823798
0.359782 0.787268 0.823798
0.551182 0.787268 0.823798
0.662694 0.787268 0.823798
0.736112 0.787268 0.823798
0.787268 0.787268 0.823798
0.823798 0.787268 0.823798
0.849944 0.787268 0.823798
0.000000 0.823798 0.823798
0.359782 0.823798 0.823798
0.551182 0.823798 0.823798
0.662694 0.823798 0.823798
0.736112 0.823798 0.823798
0.787268 0.823798 0.823798
0.823798 0.823798 0.823798
0.849944 0.823798 0.823798
0.000000 0.849944 0.823798
0.359782 0.849944 0.823798
0.551182 0.849944 0.823798
0.662694 0.849944 0.823798
0.736112 0.849944 0.823798
0.787268 0.849944 0.823798
0.823798 0.849944 0.823798
0.849944 0.849944 0.823798
0.000000 0.000000 0.849944
0.359782 0.000000 0.849944
0.551182 0.000000 0.849944
0.662694 0.000000 0.849944
0.736112 0.000000 0.849944
0.787268 0.000000 0.849944
0.823798 0.000000 0.849944
0.849944 0.000000 0.849944
0.000000 0.359782 0.849944
0.359782 0.359782 0.849944
0.551182 0.359782 0.849944
0.662694 0.359782 0.849944
0.736112 0.359782 0.849944
0.787268 0.359782 0.849944
0.823798 0.359782 0.849944
0.849944 0.359782 0.849944
0.000000 0.551182 0.849944
0.359782 0.551182 0.849944
0.551182 0.551182 0.849944
0.662694 0.551182 0.849944
0.736112 0.551182 0.849944
0.787268 0.551182 0.849944
0.823798 0.551182 0.849944
0.849944 0.551182 0.849944
0.000000 0.662694 0.849944
0.359782 0.662694 0.849944
0.551182 0.662694 0.849944
0.662694 0.662694 0.849944
0.736112 0.662694 0.849944
0.787268 0.662694 0.849944
0.823798 0.662694 0.849944
0.849944 0.662694 0.849944
0.000000 0.736112 0.849944
0.359782 0.736112 0.849944
0.551182 0.736112 0.849944
0.662694 0.736112 0.849944
0.736112 0.736112 0.849944
0.787268 0.736112 0.849944
0.823798 0.736112 0.849944
0.849944 0.736112 0.849944
0.000000 0.787268 0.849944
0.359782 0.787268 0.849944
0.551182 0.787268 0.849944
0.662694 0.787268 0.849944
0.736112 0.787268 0.849944
0.787268 0.787268 0.849944
0.823798 0.787268 0.849944
0.849944 0.787268 0.849944
0.000000 0.823798 0.849944
0.359782 0.823798 0.849944
0.551182 0.823798 0.849944
0.662694 0.823798 0.849944
0.736112 0.823798 0.849944
0.787268 0.823798 0.849944
0.823798 0.823798 0.849944
0.849944 0.823798 0.849944
0.000000 0.849944 0.849944
0.359782 0.849944 0.849944
0.551182 0.849944 0.849944
0.662694 0.849944 0.849944
0.736112 0.849944 0.849944
0.787268 0.849944 0.849944
0.823798 0.849944 0.849944
0.849944 0.849944 0.849944
