StdX_ACES/software/PremierePro/DRT_cct2rgb.cube
TITLE "Generated by Foundry::LUT"
LUT_3D_SIZE 5
DOMAIN_MIN 0.000000 0.000000 0.000000
DOMAIN_MAX 0.903226 0.903226 0.903226
0.000000 0.000000 0.000000
0.061259 0.000000 0.000000
0.536945 0.000000 0.000000
1.000000 0.000000 0.129849
1.000000 0.811454 0.793019
0.000000 0.038594 0.000000
0.033821 0.036996 0.000000
0.537835 0.000000 0.000000
1.000000 0.000000 0.126332
1.000000 0.815228 0.792859
0.000000 0.503639 0.000000
0.000000 0.503411 0.000000
0.494681 0.483249 0.000000
1.000000 0.478212 0.028134
1.000000 0.853506 0.791248
0.000000 0.998382 0.000000
0.000000 0.998280 0.000000
0.110764 0.992907 0.000000
0.987983 0.963229 0.200949
1.000000 0.967084 0.802188
0.857874 1.000000 0.885785
0.858681 1.000000 0.885798
0.867121 1.000000 0.885931
0.954910 1.000000 0.887270
1.000000 1.000000 0.920978
0.000000 0.000000 0.041798
0.051544 0.000000 0.041002
0.540689 0.000000 0.035996
1.000000 0.000000 0.129679
1.000000 0.811845 0.793019
0.000000 0.042336 0.039015
0.036367 0.036367 0.036367
0.541257 0.000000 0.034341
1.000000 0.000000 0.126170
1.000000 0.815615 0.792860
0.000000 0.504394 0.000000
0.000000 0.504140 0.000000
0.496684 0.484038 0.000000
1.000000 0.480997 0.027190
1.000000 0.853863 0.791250
0.000000 0.998352 0.057329
0.000000 0.998358 0.057974
0.105806 0.992954 0.068996
0.987734 0.963217 0.229433
1.000000 0.967107 0.802212
0.857989 1.000000 0.886208
0.858799 1.000000 0.886213
0.867250 1.000000 0.886268
0.954872 1.000000 0.888466
1.000000 1.000000 0.920982
0.000000 0.000000 0.501098
0.000000 0.000000 0.500993
0.583473 0.000000 0.495926
1.000000 0.000000 0.519942
1.000000 0.815939 0.793023
0.000000 0.024653 0.500712
0.000000 0.021447 0.500631
0.582231 0.000000 0.496025
1.000000 0.000000 0.519405
1.000000 0.819679 0.792865
0.000000 0.503402 0.482019
0.000000 0.503088 0.482165
0.483133 0.483133 0.483133
1.000000 0.480708 0.507816
1.000000 0.857623 0.791270
0.000000 0.998900 0.530465
0.000000 0.998905 0.530508
0.064183 0.992685 0.531930
0.980279 0.962519 0.566709
1.000000 0.967350 0.802464
0.857805 1.000000 0.899944
0.858597 1.000000 0.899949
0.866869 1.000000 0.899992
0.954339 1.000000 0.901402
1.000000 1.000000 0.926149
0.000000 0.010715 1.000000
0.000000 0.000636 1.000000
0.507903 0.000000 1.000000
1.000000 0.000000 0.995665
1.000000 0.819634 0.974439
0.000000 0.037567 1.000000
0.000000 0.027904 1.000000
0.495430 0.004899 1.000000
1.000000 0.000000 0.995604
1.000000 0.822192 0.974277
0.000000 0.505016 0.996147
0.000000 0.504664 0.996078
0.419297 0.483639 0.994255
1.000000 0.439379 0.987261
1.000000 0.848252 0.972635
0.000000 0.999440 0.963553
0.000000 0.999167 0.963517
0.168411 0.989799 0.962687
0.960614 0.960613 0.960614
1.000000 0.966843 0.965374
0.846292 1.000000 0.971962
0.846744 1.000000 0.971960
0.851457 1.000000 0.971947
0.949538 1.000000 0.971787
1.000000 1.000000 0.975744
0.467217 0.553329 1.000000
0.475074 0.552976 1.000000
0.557244 0.549354 1.000000
0.998670 0.487202 1.000000
1.000000 0.814388 1.000000
0.467490 0.561900 1.000000
0.475347 0.561549 1.000000
0.557494 0.557912 1.000000
0.998077 0.496587 1.000000
1.000000 0.815780 1.000000
0.470625 0.650660 1.000000
0.478455 0.650297 1.000000
0.560355 0.646523 1.000000
0.991942 0.593805 1.000000
1.000000 0.830273 1.000000
0.526995 0.980383 1.000000
0.532561 0.980207 1.000000
0.590789 0.978366 1.000000
0.951238 0.961623 1.000000
1.000000 0.961486 1.000000
0.858050 1.000000 1.000000
0.858275 1.000000 1.000000
0.862825 1.000000 1.000000
0.935720 1.000000 1.000000
1.000000 1.000000 1.000000
