StdX_ACES/software/PremierePro/DRT_cct2rgb.cube
TITLE "Generated by Foundry::LUT"
LUT_3D_SIZE 32
0.000000 0.000000 0.000000
0.000000 0.000000 0.000000
0.000000 0.000000 0.000000
0.000000 0.000000 0.000000
0.000083 0.000000 0.000000
0.010192 0.000000 0.000000
0.029650 0.000000 0.000000
0.061259 0.000000 0.000000
0.091345 0.000000 0.000000
0.130102 0.000000 0.000000
0.180596 0.000000 0.000000
0.243869 0.000000 0.000000
0.319648 0.000000 0.000000
0.416503 0.000000 0.000000
0.536945 0.000000 0.000000
0.671487 0.000000 0.000000
0.811152 0.000000 0.000000
0.937294 0.000000 0.000214
1.000000 0.000000 0.009528
1.000000 0.000000 0.036295
1.000000 0.000000 0.078659
1.000000 0.000000 0.129849
1.000000 0.000000 0.191236
1.000000 0.087650 0.266857
1.000000 0.275117 0.362559
1.000000 0.460573 0.472419
1.000000 0.608411 0.588454
1.000000 0.726137 0.703105
1.000000 0.811454 0.793019
1.000000 0.870432 0.857586
1.000000 0.912303 0.902524
1.000000 0.942709 0.935495
0.000000 0.000000 0.000000
0.000000 0.000000 0.000000
0.000000 0.000000 0.000000
0.000000 0.000000 0.000000
0.000962 0.000000 0.000000
0.012857 0.000000 0.000000
0.033581 0.000000 0.000000
0.063639 0.000000 0.000000
0.093379 0.000000 0.000000
0.131870 0.000000 0.000000
0.182104 0.000000 0.000000
0.245085 0.000000 0.000000
0.320307 0.000000 0.000000
0.416326 0.000000 0.000000
0.536943 0.000000 0.000000
0.671548 0.000000 0.000000
0.811183 0.000000 0.000000
0.937287 0.000000 0.000148
1.000000 0.000000 0.009057
1.000000 0.000000 0.035640
1.000000 0.000000 0.078101
1.000000 0.000000 0.129429
1.000000 0.000000 0.190896
1.000000 0.096784 0.266544
1.000000 0.281318 0.362339
1.000000 0.463904 0.472270
1.000000 0.610332 0.588366
1.000000 0.727097 0.703065
1.000000 0.811912 0.792999
1.000000 0.870650 0.857577
1.000000 0.912411 0.902520
1.000000 0.942762 0.935493
0.000000 0.000000 0.000000
0.000000 0.000000 0.000000
0.000000 0.000000 0.000000
0.000000 0.000000 0.000000
0.002866 0.000000 0.000000
0.015507 0.000000 0.000000
0.037276 0.000000 0.000000
0.065928 0.000000 0.000000
0.095398 0.000000 0.000000
0.133609 0.000000 0.000000
0.183500 0.000000 0.000000
0.245488 0.000000 0.000000
0.320119 0.000000 0.000000
0.416281 0.000000 0.000000
0.537021 0.000000 0.000000
0.671619 0.000000 0.000000
0.811186 0.000000 0.000000
0.937168 0.000000 0.000151
1.000000 0.000000 0.008552
1.000000 0.000000 0.035005
1.000000 0.000000 0.077555
1.000000 0.000000 0.129014
1.000000 0.000000 0.190533
1.000000 0.105861 0.266232
1.000000 0.287490 0.362120
1.000000 0.467227 0.472121
1.000000 0.612252 0.588279
1.000000 0.728056 0.703025
1.000000 0.812369 0.792980
1.000000 0.870868 0.857568
1.000000 0.912518 0.902515
1.000000 0.942815 0.935490
0.000000 0.000000 0.000000
0.000000 0.000000 0.000000
0.000000 0.000000 0.000000
0.000000 0.000000 0.000000
0.004607 0.000000 0.000000
0.017724 0.000000 0.000000
0.039547 0.000000 0.000000
0.067084 0.000000 0.000000
0.096162 0.000000 0.000000
0.133939 0.000000 0.000000
0.183421 0.000000 0.000000
0.245477 0.000000 0.000000
0.320133 0.000000 0.000000
0.416325 0.000000 0.000000
0.537079 0.000000 0.000000
0.671676 0.000000 0.000000
0.811172 0.000000 0.000000
0.937067 0.000000 0.000154
1.000000 0.000000 0.008070
1.000000 0.000000 0.034390
1.000000 0.000000 0.077021
1.000000 0.000000 0.128593
1.000000 0.000000 0.190157
1.000000 0.114884 0.265923
1.000000 0.293642 0.361901
1.000000 0.470540 0.471972
1.000000 0.614166 0.588191
1.000000 0.729013 0.702984
1.000000 0.812826 0.792961
1.000000 0.871086 0.857559
1.000000 0.912626 0.902510
1.000000 0.942868 0.935488
0.000000 0.002201 0.000000
0.000000 0.002477 0.000000
0.000000 0.002806 0.000000
0.000000 0.003124 0.000000
0.000872 0.003033 0.000000
0.009862 0.002567 0.000000
0.029701 0.001370 0.000000
0.061245 0.000000 0.000000
0.093739 0.000000 0.000000
0.132976 0.000000 0.000000
0.183069 0.000000 0.000000
0.245301 0.000000 0.000000
0.320079 0.000000 0.000000
0.416359 0.000000 0.000000
0.537175 0.000000 0.000000
0.671709 0.000000 0.000000
0.811131 0.000000 0.000000
0.936958 0.000000 0.000000
1.000000 0.000000 0.007506
1.000000 0.000000 0.033716
1.000000 0.000000 0.076473
1.000000 0.000000 0.128152
1.000000 0.000000 0.189784
1.000000 0.123852 0.265615
1.000000 0.299765 0.361684
1.000000 0.473843 0.471824
1.000000 0.616077 0.588103
1.000000 0.729970 0.702944
1.000000 0.813282 0.792941
1.000000 0.871304 0.857550
1.000000 0.912734 0.902506
1.000000 0.942922 0.935486
0.000000 0.008511 0.000000
0.000000 0.008831 0.000000
0.000000 0.009145 0.000000
0.000000 0.009488 0.000000
0.000000 0.009436 0.000000
0.006583 0.008956 0.000000
0.021159 0.008166 0.000000
0.052297 0.006059 0.000000
0.089678 0.002464 0.000000
0.131541 0.000000 0.000000
0.182747 0.000000 0.000000
0.245233 0.000000 0.000000
0.320120 0.000000 0.000000
0.416457 0.000000 0.000000
0.537272 0.000000 0.000000
0.671763 0.000000 0.000000
0.811082 0.000000 0.000000
0.936790 0.000000 0.000000
1.000000 0.000000 0.006798
1.000000 0.000000 0.032995
1.000000 0.000000 0.075925
1.000000 0.000000 0.127714
1.000000 0.000000 0.189411
1.000000 0.132827 0.265307
1.000000 0.305908 0.361466
1.000000 0.477160 0.471676
1.000000 0.617998 0.588016
1.000000 0.730932 0.702904
1.000000 0.813741 0.792922
1.000000 0.871523 0.857541
1.000000 0.912843 0.902501
1.000000 0.942976 0.935484
0.000000 0.018621 0.000000
0.000000 0.019139 0.000000
0.000000 0.019651 0.000000
0.000000 0.019945 0.000000
0.000000 0.019860 0.000000
0.002029 0.019390 0.000000
0.015566 0.018575 0.000000
0.043835 0.016778 0.000000
0.084057 0.013165 0.000000
0.129315 0.007324 0.000000
0.182314 0.000322 0.000000
0.245253 0.000000 0.000000
0.320267 0.000000 0.000000
0.416643 0.000000 0.000000
0.537449 0.000000 0.000000
0.671815 0.000000 0.000000
0.811011 0.000000 0.000000
0.936599 0.000000 0.000000
1.000000 0.000000 0.005754
1.000000 0.000000 0.031840
1.000000 0.000000 0.075223
1.000000 0.000000 0.127149
1.000000 0.000000 0.188929
1.000000 0.144486 0.264908
1.000000 0.313904 0.361183
1.000000 0.481486 0.471482
1.000000 0.620506 0.587901
1.000000 0.732188 0.702851
1.000000 0.814341 0.792897
1.000000 0.871810 0.857529
1.000000 0.912984 0.902495
1.000000 0.943046 0.935480
0.000000 0.038594 0.000000
0.000000 0.039197 0.000000
0.000000 0.039795 0.000000
0.000000 0.039906 0.000000
0.000000 0.039810 0.000000
0.000000 0.039374 0.000000
0.006552 0.038613 0.000000
0.033821 0.036996 0.000000
0.076256 0.033653 0.000000
0.125476 0.027344 0.000000
0.181546 0.017629 0.000000
0.245416 0.003589 0.000000
0.320687 0.000000 0.000000
0.417079 0.000000 0.000000
0.537835 0.000000 0.000000
0.671902 0.000000 0.000000
0.810890 0.000000 0.000000
0.936252 0.000000 0.000000
1.000000 0.000000 0.004302
1.000000 0.000000 0.029907
1.000000 0.000000 0.073750
1.000000 0.000000 0.126332
1.000000 0.000000 0.188227
1.000000 0.161572 0.264322
1.000000 0.325657 0.360766
1.000000 0.487857 0.471196
1.000000 0.624205 0.587732
1.000000 0.734042 0.702773
1.000000 0.815228 0.792859
1.000000 0.872233 0.857512
1.000000 0.913193 0.902486
1.000000 0.943149 0.935476
0.000000 0.069354 0.000000
0.000000 0.069873 0.000000
0.000000 0.070153 0.000000
0.000000 0.070161 0.000000
0.000000 0.070072 0.000000
0.000000 0.069767 0.000000
0.000046 0.069250 0.000000
0.016974 0.068113 0.000000
0.064129 0.065822 0.000000
0.118501 0.061283 0.000000
0.179733 0.052919 0.000000
0.245707 0.036820 0.000000
0.321793 0.011357 0.000000
0.418264 0.000000 0.000000
0.538593 0.000000 0.000000
0.672086 0.000000 0.000000
0.810650 0.000000 0.000000
0.935703 0.000000 0.000000
1.000000 0.000000 0.002568
1.000000 0.000000 0.027132
1.000000 0.000000 0.071202
1.000000 0.000000 0.124656
1.000000 0.000000 0.187210
1.000000 0.186493 0.263469
1.000000 0.342879 0.360156
1.000000 0.497222 0.470777
1.000000 0.629652 0.587483
1.000000 0.736779 0.702658
1.000000 0.816538 0.792804
1.000000 0.872859 0.857486
1.000000 0.913503 0.902473
1.000000 0.943302 0.935470
0.000000 0.109052 0.000000
0.000000 0.109354 0.000000
0.000000 0.109338 0.000000
0.000000 0.109341 0.000000
0.000000 0.109258 0.000000
0.000000 0.109060 0.000000
0.000000 0.108719 0.000000
0.000831 0.107964 0.000000
0.037015 0.106476 0.000000
0.103614 0.103416 0.000000
0.172624 0.097654 0.000000
0.244853 0.086493 0.000000
0.323975 0.066671 0.000000
0.420788 0.027430 0.000000
0.540085 0.000000 0.000000
0.672479 0.000000 0.000000
0.810267 0.000000 0.000000
0.934691 0.000000 0.000000
1.000000 0.000000 0.001250
1.000000 0.000000 0.021963
1.000000 0.000000 0.067622
1.000000 0.000000 0.121856
1.000000 0.025871 0.185159
1.000000 0.222614 0.262234
1.000000 0.367997 0.359267
1.000000 0.510946 0.470162
1.000000 0.637659 0.587117
1.000000 0.740809 0.702489
1.000000 0.818469 0.792722
1.000000 0.873783 0.857448
1.000000 0.913961 0.902453
1.000000 0.943529 0.935460
0.000000 0.159919 0.000000
0.000000 0.159903 0.000000
0.000000 0.159887 0.000000
0.000000 0.159884 0.000000
0.000000 0.159815 0.000000
0.000000 0.159687 0.000000
0.000000 0.159452 0.000000
0.000000 0.158976 0.000000
0.002814 0.157903 0.000000
0.067523 0.155496 0.000000
0.152441 0.150574 0.000000
0.235897 0.142388 0.000000
0.324841 0.129279 0.000000
0.424783 0.106479 0.000000
0.542995 0.058885 0.000000
0.673329 0.010264 0.000000
0.809702 0.000000 0.000000
0.933048 0.000000 0.000000
1.000000 0.000000 0.000000
1.000000 0.000000 0.013716
1.000000 0.000000 0.060874
1.000000 0.014921 0.117770
1.000000 0.082191 0.181805
1.000000 0.266011 0.260008
1.000000 0.404405 0.357980
1.000000 0.530961 0.469266
1.000000 0.649392 0.586581
1.000000 0.746732 0.702240
1.000000 0.821313 0.792602
1.000000 0.875145 0.857392
1.000000 0.914637 0.902425
1.000000 0.943864 0.935446
0.000000 0.220111 0.000000
0.000000 0.220049 0.000000
0.000000 0.219986 0.000000
0.000000 0.219913 0.000000
0.000000 0.219800 0.000000
0.000000 0.219664 0.000000
0.000000 0.219429 0.000000
0.000000 0.218960 0.000000
0.000000 0.218063 0.000000
0.009259 0.216296 0.000000
0.107554 0.213364 0.000000
0.211360 0.207725 0.000000
0.315433 0.198148 0.000000
0.427849 0.182664 0.000000
0.547667 0.158663 0.000000
0.675379 0.118268 0.000000
0.809046 0.040924 0.000000
0.930295 0.000000 0.000000
1.000000 0.000139 0.000000
1.000000 0.002249 0.006152
1.000000 0.023213 0.048867
1.000000 0.084557 0.110281
1.000000 0.184298 0.176973
1.000000 0.321585 0.256536
1.000000 0.442341 0.355936
1.000000 0.559972 0.467970
1.000000 0.666506 0.585800
1.000000 0.755412 0.701877
1.000000 0.825494 0.792426
1.000000 0.877152 0.857310
1.000000 0.915634 0.902382
1.000000 0.944358 0.935425
0.000000 0.294564 0.000000
0.000000 0.294521 0.000000
0.000000 0.294481 0.000000
0.000000 0.294411 0.000000
0.000000 0.294344 0.000000
0.000000 0.294239 0.000000
0.000000 0.294076 0.000000
0.000000 0.293793 0.000000
0.000000 0.293240 0.000000
0.000000 0.292231 0.000000
0.023916 0.290273 0.000000
0.158434 0.286824 0.000000
0.285649 0.280140 0.000000
0.417826 0.268955 0.000000
0.550412 0.253046 0.000000
0.678306 0.231177 0.000000
0.808387 0.201269 0.000000
0.925728 0.164210 0.000000
1.000000 0.137620 0.000000
1.000000 0.135324 0.000000
1.000000 0.168850 0.024504
1.000000 0.227862 0.097564
1.000000 0.305295 0.169083
1.000000 0.389574 0.251898
1.000000 0.486344 0.352934
1.000000 0.591906 0.466216
1.000000 0.691311 0.584671
1.000000 0.768072 0.701347
1.000000 0.831619 0.792168
1.000000 0.880101 0.857189
1.000000 0.917102 0.902319
1.000000 0.945087 0.935394
0.000000 0.390197 0.000000
0.000000 0.390184 0.000000
0.000000 0.390175 0.000000
0.000000 0.390149 0.000000
0.000000 0.390142 0.000000
0.000000 0.390074 0.000000
0.000000 0.390000 0.000000
0.000000 0.389828 0.000000
0.000000 0.389534 0.000000
0.000000 0.388917 0.000000
0.000000 0.387673 0.000000
0.041789 0.385536 0.000000
0.221699 0.381719 0.000000
0.382225 0.374130 0.000000
0.536153 0.362274 0.000000
0.677047 0.347300 0.000000
0.806353 0.330011 0.000000
0.918171 0.314474 0.000000
0.993954 0.305601 0.000000
1.000000 0.309150 0.000000
1.000000 0.325912 0.006512
1.000000 0.358236 0.072132
1.000000 0.407029 0.157167
1.000000 0.470101 0.244846
1.000000 0.544674 0.349072
1.000000 0.629434 0.463996
1.000000 0.716612 0.583588
1.000000 0.786420 0.700581
1.000000 0.840555 0.791792
1.000000 0.884423 0.857012
1.000000 0.919260 0.902227
1.000000 0.946160 0.935348
0.000000 0.503639 0.000000
0.000000 0.503648 0.000000
0.000000 0.503628 0.000000
0.000000 0.503612 0.000000
0.000000 0.503606 0.000000
0.000000 0.503588 0.000000
0.000000 0.503504 0.000000
0.000000 0.503411 0.000000
0.000000 0.503169 0.000000
0.000000 0.502760 0.000000
0.000000 0.501937 0.000000
0.000000 0.500351 0.000000
0.075820 0.497438 0.000000
0.313602 0.492194 0.000000
0.494681 0.483249 0.000000
0.657771 0.471155 0.000000
0.798937 0.457971 0.000000
0.907189 0.447847 0.000000
0.985738 0.443582 0.000000
1.000000 0.445866 0.000000
1.000000 0.457387 0.000000
1.000000 0.478212 0.028134
1.000000 0.511052 0.137666
1.000000 0.557537 0.235276
1.000000 0.615573 0.343703
1.000000 0.677794 0.461429
1.000000 0.743113 0.582747
1.000000 0.804599 0.700133
1.000000 0.853506 0.791248
1.000000 0.890728 0.856754
1.000000 0.922422 0.902093
1.000000 0.947738 0.935281
0.000000 0.623524 0.000000
0.000000 0.623509 0.000000
0.000000 0.623483 0.000000
0.000000 0.623462 0.000000
0.000000 0.623446 0.000000
0.000000 0.623433 0.000000
0.000000 0.623381 0.000000
0.000000 0.623247 0.000000
0.000000 0.623085 0.000000
0.000000 0.622682 0.000000
0.000000 0.622025 0.000000
0.000000 0.620802 0.000000
0.000000 0.618497 0.000000
0.135706 0.614334 0.000000
0.426673 0.607768 0.000000
0.613356 0.598097 0.000000
0.774690 0.586657 0.000000
0.889536 0.578062 0.000000
0.968201 0.574543 0.000000
1.000000 0.576114 0.000000
1.000000 0.583365 0.000000
1.000000 0.597561 0.002011
1.000000 0.618904 0.108116
1.000000 0.649342 0.222620
1.000000 0.688777 0.338257
1.000000 0.734273 0.458587
1.000000 0.777326 0.581924
1.000000 0.822570 0.700061
1.000000 0.866055 0.791018
1.000000 0.899865 0.856380
1.000000 0.927035 0.901896
1.000000 0.950051 0.935183
0.000000 0.741274 0.000000
0.000000 0.741239 0.000000
0.000000 0.741207 0.000000
0.000000 0.741177 0.000000
0.000000 0.741149 0.000000
0.000000 0.741124 0.000000
0.000000 0.741094 0.000000
0.000000 0.740987 0.000000
0.000000 0.740756 0.000000
0.000000 0.740446 0.000000
0.000000 0.739794 0.000000
0.000000 0.738730 0.000000
0.000000 0.736799 0.000000
0.027966 0.733299 0.000000
0.299736 0.727804 0.000000
0.550240 0.720173 0.000000
0.730323 0.710291 0.000000
0.858784 0.701909 0.000000
0.942534 0.697549 0.000000
0.993227 0.697397 0.000000
1.000000 0.699867 0.000000
1.000000 0.707698 0.000000
1.000000 0.719111 0.068940
1.000000 0.735568 0.211393
1.000000 0.757673 0.334445
1.000000 0.785441 0.457616
1.000000 0.817099 0.581533
1.000000 0.846930 0.700016
1.000000 0.878356 0.791056
1.000000 0.908515 0.856238
1.000000 0.933720 0.901612
1.000000 0.953424 0.935040
0.000000 0.834389 0.000000
0.000000 0.834353 0.000000
0.000000 0.834317 0.000000
0.000000 0.834283 0.000000
0.000000 0.834250 0.000000
0.000000 0.834218 0.000000
0.000000 0.834174 0.000000
0.000000 0.834107 0.000000
0.000000 0.833907 0.000000
0.000000 0.833532 0.000000
0.000000 0.832981 0.000000
0.000000 0.831927 0.000000
0.000000 0.830145 0.000000
0.000000 0.827058 0.000000
0.134738 0.822227 0.000000
0.478871 0.815446 0.000000
0.683355 0.807047 0.000000
0.821830 0.798963 0.000000
0.914826 0.793129 0.000000
0.974533 0.790606 0.000000
1.000000 0.790597 0.000000
1.000000 0.792704 0.000000
1.000000 0.798455 0.056388
1.000000 0.806476 0.208274
1.000000 0.818029 0.335332
1.000000 0.833619 0.459260
1.000000 0.853107 0.583146
1.000000 0.874579 0.700748
1.000000 0.895502 0.791118
1.000000 0.917605 0.856278
1.000000 0.939686 0.901509
1.000000 0.958112 0.934842
0.000000 0.900738 0.000000
0.000000 0.900698 0.000000
0.000000 0.900658 0.000000
0.000000 0.900619 0.000000
0.000000 0.900581 0.000000
0.000000 0.900542 0.000000
0.000000 0.900489 0.000000
0.000000 0.900401 0.000000
0.000000 0.900276 0.000000
0.000000 0.899929 0.000000
0.000000 0.899318 0.000000
0.000000 0.898354 0.000000
0.000000 0.896607 0.000000
0.000000 0.893721 0.000000
0.039263 0.889336 0.000000
0.418463 0.883176 0.000000
0.644948 0.875514 0.000000
0.789533 0.868386 0.000000
0.886797 0.862517 0.000000
0.952603 0.858581 0.000000
0.996698 0.856983 0.000000
1.000000 0.856731 0.000000
1.000000 0.858299 0.072419
1.000000 0.862686 0.219114
1.000000 0.867970 0.343765
1.000000 0.875872 0.465474
1.000000 0.886463 0.587638
1.000000 0.899895 0.702937
1.000000 0.914976 0.791759
1.000000 0.930277 0.856342
1.000000 0.946362 0.901527
1.000000 0.962291 0.934779
0.000000 0.947107 0.000000
0.000000 0.947062 0.000000
0.000000 0.947017 0.000000
0.000000 0.946973 0.000000
0.000000 0.946929 0.000000
0.000000 0.946885 0.000000
0.000000 0.946819 0.000000
0.000000 0.946713 0.000000
0.000000 0.946559 0.000000
0.000000 0.946337 0.000000
0.000000 0.945734 0.000000
0.000000 0.944709 0.000000
0.000000 0.942994 0.000000
0.000000 0.940284 0.000000
0.055053 0.936127 0.000000
0.381689 0.930400 0.000000
0.618333 0.923412 0.000000
0.765746 0.916750 0.000000
0.864861 0.911289 0.000000
0.932241 0.907119 0.000000
0.980525 0.904233 0.000000
0.999803 0.903032 0.000000
1.000000 0.902740 0.126155
1.000000 0.904007 0.249952
1.000000 0.906884 0.363489
1.000000 0.911026 0.478304
1.000000 0.916562 0.596246
1.000000 0.924034 0.707514
1.000000 0.933697 0.793369
1.000000 0.944392 0.856820
1.000000 0.955668 0.901556
1.000000 0.967112 0.934803
0.000000 0.980380 0.000000
0.000000 0.980329 0.000000
0.000000 0.980279 0.000000
0.000000 0.980228 0.000000
0.000000 0.980178 0.000000
0.000000 0.980120 0.000000
0.000000 0.980035 0.000000
0.000000 0.979909 0.000000
0.000000 0.979726 0.000000
0.000000 0.979460 0.000000
0.000000 0.979077 0.000000
0.000000 0.978071 0.000000
0.000000 0.976406 0.000000
0.000000 0.973649 0.000000
0.085296 0.969873 0.000000
0.362488 0.964424 0.000000
0.606816 0.957982 0.000000
0.750218 0.951902 0.000000
0.848130 0.946751 0.000000
0.916215 0.942766 0.000000
0.965014 0.939690 0.000000
0.997747 0.937633 0.082515
1.000000 0.936635 0.203351
1.000000 0.936419 0.299310
1.000000 0.937331 0.396356
1.000000 0.939343 0.500694
1.000000 0.942177 0.610746
1.000000 0.945899 0.715189
1.000000 0.951161 0.796696
1.000000 0.958151 0.858019
1.000000 0.965762 0.901885
1.000000 0.973834 0.934841
0.000000 0.998382 0.000000
0.000000 0.998322 0.000000
0.000000 0.998276 0.000000
0.000000 0.998276 0.000000
0.000000 0.998277 0.000000
0.000000 0.998278 0.000000
0.000000 0.998278 0.000000
0.000000 0.998280 0.000000
0.000000 0.998281 0.000000
0.000000 0.998284 0.000000
0.000000 0.998288 0.000000
0.000000 0.998295 0.000000
0.000000 0.997026 0.000000
0.009004 0.994731 0.000000
0.110764 0.992907 0.000000
0.368765 0.988593 0.000383
0.606768 0.982639 0.004892
0.743491 0.977081 0.022149
0.838090 0.972292 0.042932
0.903823 0.968518 0.071322
0.953116 0.965496 0.111881
0.987983 0.963229 0.200949
1.000000 0.961696 0.282368
1.000000 0.960860 0.362174
1.000000 0.960716 0.444313
1.000000 0.961421 0.534475
1.000000 0.962620 0.633562
1.000000 0.964583 0.727053
1.000000 0.967084 0.802188
1.000000 0.970738 0.860404
1.000000 0.975688 0.902747
1.000000 0.980872 0.935106
0.000000 1.000000 0.205706
0.000000 1.000000 0.205743
0.000000 1.000000 0.205779
0.000000 1.000000 0.205816
0.000000 1.000000 0.205852
0.000000 1.000000 0.205889
0.000000 1.000000 0.205936
0.000000 1.000000 0.206006
0.000000 1.000000 0.206110
0.000000 1.000000 0.206262
0.000000 1.000000 0.206486
0.000000 1.000000 0.206813
0.000000 1.000000 0.207288
0.068865 1.000000 0.208746
0.211335 1.000000 0.211046
0.442258 1.000000 0.213888
0.613692 0.997262 0.219306
0.743791 0.994996 0.226912
0.832669 0.990609 0.238357
0.896105 0.987048 0.255316
0.943218 0.984176 0.278236
0.978609 0.981918 0.308657
0.998642 0.980228 0.365390
1.000000 0.979098 0.432242
1.000000 0.978379 0.504465
1.000000 0.978210 0.581714
1.000000 0.978519 0.665234
1.000000 0.979114 0.744609
1.000000 0.980369 0.810669
1.000000 0.981990 0.864233
1.000000 0.984485 0.904483
1.000000 0.987911 0.935765
0.033159 1.000000 0.371975
0.035351 1.000000 0.371994
0.037539 1.000000 0.372014
0.039725 1.000000 0.372032
0.041906 1.000000 0.372051
0.044099 1.000000 0.372070
0.046962 1.000000 0.372095
0.051190 1.000000 0.372132
0.057420 1.000000 0.372186
0.066588 1.000000 0.372266
0.080044 1.000000 0.372384
0.099964 1.000000 0.372557
0.129121 1.000000 0.372812
0.171204 1.000000 0.373183
0.290887 1.000000 0.374282
0.451978 1.000000 0.376085
0.634520 1.000000 0.378580
0.747156 1.000000 0.382919
0.832010 0.999467 0.389250
0.891379 0.998935 0.398706
0.936843 0.997059 0.412587
0.970380 0.994910 0.432081
0.995753 0.993211 0.458748
1.000000 0.991967 0.509451
1.000000 0.991044 0.571714
1.000000 0.990476 0.638941
1.000000 0.990194 0.705198
1.000000 0.990273 0.767462
1.000000 0.990494 0.823006
1.000000 0.991323 0.870059
1.000000 0.992298 0.907337
1.000000 0.993883 0.937059
0.220450 1.000000 0.516661
0.223538 1.000000 0.516665
0.226625 1.000000 0.516669
0.229711 1.000000 0.516672
0.232791 1.000000 0.516676
0.235889 1.000000 0.516680
0.239939 1.000000 0.516685
0.245921 1.000000 0.516693
0.254747 1.000000 0.516703
0.267753 1.000000 0.516720
0.286897 1.000000 0.516743
0.314987 1.000000 0.516777
0.356006 1.000000 0.516908
0.415623 1.000000 0.517139
0.501724 1.000000 0.517477
0.582991 1.000000 0.518544
0.661985 1.000000 0.520318
0.763232 1.000000 0.522793
0.832046 1.000000 0.527410
0.889661 1.000000 0.532952
0.932190 1.000000 0.541835
0.964381 1.000000 0.555201
0.988408 0.999861 0.573074
1.000000 0.999842 0.598154
1.000000 0.999697 0.644525
1.000000 0.998849 0.697467
1.000000 0.998319 0.748640
1.000000 0.998146 0.795379
1.000000 0.998067 0.839506
1.000000 0.997945 0.878484
1.000000 0.998381 0.911704
1.000000 0.999034 0.939159
0.524599 1.000000 0.651916
0.525748 1.000000 0.651919
0.526896 1.000000 0.651922
0.528043 1.000000 0.651925
0.529189 1.000000 0.651928
0.530342 1.000000 0.651931
0.531849 1.000000 0.651934
0.534076 1.000000 0.651940
0.537366 1.000000 0.651949
0.542221 1.000000 0.651961
0.549376 1.000000 0.651979
0.559906 1.000000 0.652005
0.575361 1.000000 0.652044
0.597953 1.000000 0.652099
0.630804 1.000000 0.652176
0.678219 1.000000 0.652264
0.726361 1.000000 0.653113
0.774827 1.000000 0.654421
0.841093 1.000000 0.656653
0.887774 1.000000 0.661388
0.928966 1.000000 0.665726
0.959666 1.000000 0.674136
0.982530 1.000000 0.684734
0.997248 1.000000 0.699639
1.000000 1.000000 0.719268
1.000000 1.000000 0.752994
1.000000 1.000000 0.790100
1.000000 1.000000 0.826115
1.000000 1.000000 0.859480
1.000000 1.000000 0.889880
1.000000 1.000000 0.918031
1.000000 1.000000 0.942253
0.693591 1.000000 0.758885
0.694053 1.000000 0.758886
0.694515 1.000000 0.758887
0.694976 1.000000 0.758889
0.695436 1.000000 0.758890
0.695900 1.000000 0.758891
0.696508 1.000000 0.758893
0.697405 1.000000 0.758896
0.698731 1.000000 0.758900
0.700689 1.000000 0.758906
0.703579 1.000000 0.758914
0.707837 1.000000 0.758927
0.714105 1.000000 0.758946
0.723303 1.000000 0.758973
0.736750 1.000000 0.759011
0.756304 1.000000 0.759067
0.784516 1.000000 0.759145
0.814543 1.000000 0.760066
0.847750 1.000000 0.760690
0.893511 1.000000 0.761837
0.926158 1.000000 0.765187
0.955627 1.000000 0.769040
0.977624 1.000000 0.774042
0.993334 1.000000 0.782000
1.000000 1.000000 0.792360
1.000000 1.000000 0.805238
1.000000 1.000000 0.829162
1.000000 1.000000 0.855663
1.000000 1.000000 0.880630
1.000000 1.000000 0.904016
1.000000 1.000000 0.926421
1.000000 1.000000 0.946749
0.792511 1.000000 0.833678
0.792716 1.000000 0.833681
0.792921 1.000000 0.833685
0.793126 1.000000 0.833688
0.793330 1.000000 0.833692
0.793536 1.000000 0.833695
0.793806 1.000000 0.833700
0.794205 1.000000 0.833706
0.794795 1.000000 0.833716
0.795666 1.000000 0.833731
0.796952 1.000000 0.833752
0.798851 1.000000 0.833784
0.801662 1.000000 0.833804
0.805804 1.000000 0.833817
0.811884 1.000000 0.833837
0.820773 1.000000 0.833865
0.833698 1.000000 0.833904
0.852348 1.000000 0.833960
0.872368 1.000000 0.834576
0.896367 1.000000 0.835197
0.929389 1.000000 0.835743
0.952691 1.000000 0.838106
0.973738 1.000000 0.841020
