StdX_ACES/software/PremierePro/DRT_cct2rgb.cube
TITLE "Generated by Foundry::LUT"
LUT_3D_SIZE 8
DOMAIN_MIN 0.000000 0.000000 0.000000
DOMAIN_MAX 0.903226 0.903226 0.903226
0.000000 0.000000 0.000000
0.000083 0.000000 0.000000
0.091345 0.000000 0.000000
0.319648 0.000000 0.000000
0.811152 0.000000 0.000000
1.000000 0.000000 0.078659
1.000000 0.275117 0.362559
1.000000 0.811454 0.793019
0.000000 0.002201 0.000000
0.000872 0.003033 0.000000
0.093739 0.000000 0.000000
0.320079 0.000000 0.000000
0.811131 0.000000 0.000000
1.000000 0.000000 0.076473
1.000000 0.299765 0.361684
1.000000 0.813282 0.792941
0.000000 0.069354 0.000000
0.000000 0.070072 0.000000
0.064129 0.065822 0.000000
0.321793 0.011357 0.000000
0.810650 0.000000 0.000000
1.000000 0.000000 0.071202
1.000000 0.342879 0.360156
1.000000 0.816538 0.792804
0.000000 0.294564 0.000000
0.000000 0.294344 0.000000
0.000000 0.293240 0.000000
0.285649 0.280140 0.000000
0.808387 0.201269 0.000000
1.000000 0.168850 0.024504
1.000000 0.486344 0.352934
1.000000 0.831619 0.792168
0.000000 0.741274 0.000000
0.000000 0.741149 0.000000
0.000000 0.740756 0.000000
0.000000 0.736799 0.000000
0.730323 0.710291 0.000000
1.000000 0.699867 0.000000
1.000000 0.757673 0.334445
1.000000 0.878356 0.791056
0.000000 0.980380 0.000000
0.000000 0.980178 0.000000
0.000000 0.979726 0.000000
0.000000 0.976406 0.000000
0.606816 0.957982 0.000000
0.965014 0.939690 0.000000
1.000000 0.937331 0.396356
1.000000 0.951161 0.796696
0.220450 1.000000 0.516661
0.232791 1.000000 0.516676
0.254747 1.000000 0.516703
0.356006 1.000000 0.516908
0.661985 1.000000 0.520318
0.932190 1.000000 0.541835
1.000000 0.999697 0.644525
1.000000 0.998067 0.839506
0.857874 1.000000 0.885785
0.858264 1.000000 0.885791
0.858963 1.000000 0.885802
0.862240 1.000000 0.885854
0.877682 1.000000 0.885956
0.931012 1.000000 0.886894
0.995824 1.000000 0.893073
1.000000 1.000000 0.920978
0.000000 0.000000 0.004617
0.002409 0.000000 0.004497
0.095809 0.000000 0.004712
0.322826 0.000000 0.003828
0.812593 0.000000 0.000000
1.000000 0.000000 0.078541
1.000000 0.277675 0.362520
1.000000 0.811643 0.793019
0.000000 0.004119 0.004394
0.004113 0.004113 0.004113
0.097639 0.000000 0.004670
0.323208 0.000000 0.003584
0.812524 0.000000 0.000000
1.000000 0.000000 0.076361
1.000000 0.302280 0.361647
1.000000 0.813470 0.792942
0.000000 0.072326 0.000448
0.000000 0.072337 0.000435
0.070916 0.068022 0.000783
0.324442 0.012310 0.000266
0.812005 0.000000 0.000000
1.000000 0.000000 0.070972
1.000000 0.345314 0.360122
1.000000 0.816724 0.792804
0.000000 0.295635 0.000000
0.000000 0.295458 0.000000
0.000000 0.294492 0.000000
0.289003 0.281421 0.000000
0.809444 0.203968 0.000000
1.000000 0.173205 0.023849
1.000000 0.487567 0.352907
1.000000 0.831800 0.792168
0.000000 0.741473 0.000000
0.000000 0.741372 0.000000
0.000000 0.740959 0.000000
0.000000 0.736978 0.000000
0.731241 0.710639 0.000000
1.000000 0.700399 0.000000
1.000000 0.758010 0.334496
1.000000 0.878430 0.791064
0.000000 0.980363 0.000000
0.000000 0.980166 0.000000
0.000000 0.979729 0.000000
0.000000 0.976404 0.000000
0.606472 0.957974 0.000000
0.965089 0.939717 0.000000
1.000000 0.937360 0.396444
1.000000 0.951180 0.796708
0.221458 1.000000 0.521350
0.233747 1.000000 0.521392
0.255603 1.000000 0.521467
0.356476 1.000000 0.521801
0.661263 1.000000 0.525688
0.932038 1.000000 0.546394
1.000000 0.999696 0.644565
1.000000 0.998068 0.839514
0.857950 1.000000 0.885892
0.858341 1.000000 0.885898
0.859039 1.000000 0.885909
0.862316 1.000000 0.885961
0.877690 1.000000 0.886205
0.930993 1.000000 0.887445
0.995823 1.000000 0.893145
1.000000 1.000000 0.920980
0.000000 0.000000 0.071452
0.000000 0.000000 0.071382
0.087545 0.000000 0.070452
0.327771 0.000000 0.067329
0.814807 0.000000 0.065799
1.000000 0.000000 0.107381
1.000000 0.282241 0.362451
1.000000 0.811980 0.793019
0.000000 0.004459 0.071194
0.000387 0.004204 0.071099
0.088978 0.000000 0.070434
0.325748 0.000000 0.067393
0.814205 0.000000 0.065529
1.000000 0.000000 0.105974
1.000000 0.306765 0.361581
1.000000 0.813806 0.792942
0.000000 0.072422 0.067613
0.000000 0.071511 0.067029
0.064053 0.064053 0.064053
0.322326 0.011535 0.065425
0.812795 0.000000 0.063051
1.000000 0.000000 0.102421
1.000000 0.349661 0.360061
1.000000 0.817058 0.792805
0.000000 0.295540 0.023833
0.000000 0.295467 0.023990
0.000000 0.294575 0.024595
0.287861 0.281628 0.025827
0.807184 0.205180 0.024092
1.000000 0.176700 0.072727
1.000000 0.489751 0.352860
1.000000 0.832124 0.792169
0.000000 0.741406 0.000000
0.000000 0.741356 0.000000
0.000000 0.740915 0.000000
0.000000 0.736906 0.000000
0.730678 0.710638 0.000000
1.000000 0.700844 0.000000
1.000000 0.758613 0.334585
1.000000 0.878564 0.791079
0.000000 0.980308 0.000000
0.000000 0.980106 0.000000
0.000000 0.979711 0.000000
0.000000 0.976342 0.000000
0.605396 0.957932 0.000000
0.964564 0.939671 0.074586
1.000000 0.937412 0.396603
1.000000 0.951215 0.796728
0.223584 1.000000 0.540078
0.235688 1.000000 0.540120
0.257219 1.000000 0.540194
0.356582 1.000000 0.540530
0.660025 1.000000 0.543703
0.931430 1.000000 0.563630
1.000000 0.999690 0.647113
1.000000 0.998071 0.839528
0.857951 1.000000 0.886730
0.858342 1.000000 0.886732
0.859042 1.000000 0.886737
0.862324 1.000000 0.886759
0.877722 1.000000 0.886861
0.930893 1.000000 0.888001
0.995766 1.000000 0.894281
1.000000 1.000000 0.920984
0.000000 0.000000 0.291876
0.000000 0.000000 0.291864
0.045824 0.000000 0.291259
0.341896 0.000000 0.287717
0.821983 0.000000 0.287169
1.000000 0.000000 0.312764
1.000000 0.288968 0.429702
1.000000 0.813566 0.793021
0.000000 0.000766 0.291875
0.000000 0.001076 0.291869
0.045716 0.000000 0.291330
0.341464 0.000000 0.287901
0.820949 0.000000 0.287306
1.000000 0.000000 0.312491
1.000000 0.314595 0.429039
1.000000 0.815386 0.792944
0.000000 0.065642 0.290282
0.000000 0.065265 0.290333
0.015795 0.061236 0.290146
0.337855 0.004145 0.287791
0.818296 0.000000 0.287187
1.000000 0.000000 0.311779
1.000000 0.359436 0.427882
1.000000 0.818628 0.792807
0.000000 0.293035 0.279424
0.000000 0.292988 0.279532
0.000000 0.292248 0.279891
0.280260 0.280260 0.280260
0.802714 0.206456 0.281755
1.000000 0.174741 0.305392
1.000000 0.494190 0.422612
1.000000 0.833647 0.792174
0.000000 0.741031 0.228536
0.000000 0.740927 0.228671
0.000000 0.740536 0.229032
0.000000 0.736592 0.230873
0.726910 0.710538 0.238739
1.000000 0.700905 0.272873
1.000000 0.759803 0.410619
1.000000 0.879194 0.791147
0.000000 0.980128 0.293723
0.000000 0.980002 0.293775
0.000000 0.979749 0.293925
0.000000 0.975967 0.295412
0.599601 0.957670 0.303230
0.961599 0.939404 0.345595
1.000000 0.937351 0.469548
1.000000 0.951376 0.796825
0.231804 1.000000 0.615281
0.243287 1.000000 0.615307
0.263722 1.000000 0.615353
0.358033 1.000000 0.615561
0.652185 1.000000 0.617958
0.928720 1.000000 0.633305
1.000000 0.999559 0.696141
1.000000 0.998084 0.839595
0.857931 1.000000 0.892353
0.858317 1.000000 0.892355
0.859008 1.000000 0.892359
0.862247 1.000000 0.892378
0.877445 1.000000 0.892463
0.930538 1.000000 0.893382
0.995502 1.000000 0.899231
1.000000 1.000000 0.921781
0.000000 0.000000 0.741128
0.000000 0.000000 0.741091
0.000000 0.000000 0.740878
0.281028 0.000000 0.738459
0.856385 0.000000 0.732141
1.000000 0.000000 0.735611
1.000000 0.301987 0.761576
1.000000 0.816820 0.835561
0.000000 0.000000 0.741094
0.000000 0.000251 0.741063
0.000000 0.000000 0.740817
0.280408 0.000000 0.738398
0.856011 0.000000 0.732139
1.000000 0.000000 0.735420
1.000000 0.331219 0.761103
1.000000 0.818691 0.835475
0.000000 0.040040 0.740322
0.000000 0.039578 0.740298
0.000000 0.036324 0.740087
0.276423 0.000000 0.737924
0.854244 0.000000 0.731947
1.000000 0.000000 0.734905
1.000000 0.362765 0.760283
1.000000 0.822024 0.835320
0.000000 0.288097 0.733475
0.000000 0.287812 0.733464
0.000000 0.287245 0.733419
0.192933 0.275867 0.732487
0.836109 0.167158 0.728903
1.000000 0.132332 0.731454
1.000000 0.488986 0.756342
1.000000 0.837469 0.834605
0.000000 0.739592 0.709924
0.000000 0.739538 0.709933
0.000000 0.739058 0.709969
0.000000 0.735370 0.710038
0.709906 0.709906 0.709905
0.999989 0.700585 0.715027
1.000000 0.758766 0.745028
1.000000 0.880236 0.833332
0.000000 0.978700 0.713279
0.000000 0.978504 0.713276
0.000000 0.977996 0.713297
0.000000 0.974782 0.713381
0.570653 0.956525 0.713902
0.949075 0.938305 0.722561
1.000000 0.936429 0.752357
1.000000 0.951553 0.836593
0.176975 1.000000 0.792207
0.184740 1.000000 0.792202
0.199267 1.000000 0.792196
0.271228 1.000000 0.792182
0.628379 1.000000 0.792397
0.920300 1.000000 0.796481
1.000000 0.998971 0.817363
1.000000 0.997964 0.868153
0.858021 1.000000 0.913681
0.858390 1.000000 0.913682
0.859048 1.000000 0.913684
0.862136 1.000000 0.913691
0.876625 1.000000 0.913727
0.928788 1.000000 0.914305
0.994498 1.000000 0.918244
1.000000 1.000000 0.934369
0.000000 0.002841 0.987954
0.000000 0.000582 0.987875
0.000000 0.000000 0.987663
0.153762 0.000000 0.985793
0.837752 0.000000 0.977633
1.000000 0.000000 0.972841
1.000000 0.266469 0.967327
1.000000 0.821235 0.954241
0.000000 0.007723 0.987764
0.000000 0.005542 0.987685
0.000000 0.002151 0.987542
0.160459 0.000000 0.985669
0.836660 0.000000 0.977369
1.000000 0.000000 0.972729
1.000000 0.295090 0.966810
1.000000 0.823964 0.954087
0.000000 0.029852 0.987280
0.000000 0.029330 0.987176
0.000000 0.028493 0.986992
0.166094 0.020165 0.985153
0.834906 0.000000 0.976916
1.000000 0.000000 0.972474
1.000000 0.328303 0.965927
1.000000 0.828828 0.953811
0.000000 0.286300 0.980961
0.000000 0.285834 0.980910
0.000000 0.284767 0.980817
0.162739 0.273601 0.979616
0.818482 0.168106 0.973430
1.000000 0.108548 0.969059
1.000000 0.468535 0.962000
1.000000 0.838798 0.953194
0.000000 0.738063 0.957038
0.000000 0.737706 0.957005
0.000000 0.737090 0.956946
0.000000 0.733934 0.956588
0.683956 0.708268 0.954075
1.000000 0.690389 0.951809
1.000000 0.752069 0.949502
1.000000 0.878478 0.950710
0.000000 0.977645 0.939931
0.000000 0.977572 0.939924
0.000000 0.976968 0.939869
0.000000 0.973320 0.939545
0.549952 0.955417 0.938043
0.937112 0.937111 0.937111
1.000000 0.935750 0.938617
1.000000 0.951158 0.946613
0.221116 1.000000 0.940076
0.230005 1.000000 0.940061
0.245843 1.000000 0.940035
0.332524 1.000000 0.939892
0.632787 1.000000 0.939316
0.909932 1.000000 0.938824
0.999369 0.998181 0.940959
1.000000 0.997536 0.948890
0.854285 1.000000 0.959703
0.854542 1.000000 0.959702
0.855002 1.000000 0.959700
0.857254 1.000000 0.959695
0.868463 1.000000 0.959674
0.925413 1.000000 0.959666
0.991714 1.000000 0.960685
1.000000 1.000000 0.966233
0.253225 0.144538 1.000000
0.265418 0.142940 1.000000
0.287121 0.140101 1.000000
0.391123 0.131720 1.000000
0.774667 0.079488 1.000000
1.000000 0.042249 1.000000
1.000000 0.285985 1.000000
1.000000 0.809728 1.000000
0.255684 0.158304 1.000000
0.267865 0.156703 1.000000
0.289550 0.153860 1.000000
0.390343 0.141333 1.000000
0.772580 0.088353 1.000000
1.000000 0.058867 1.000000
1.000000 0.295628 1.000000
1.000000 0.811809 1.000000
0.260073 0.182672 1.000000
0.272239 0.181062 1.000000
0.293894 0.178206 1.000000
0.394146 0.165080 1.000000
0.768904 0.104040 1.000000
1.000000 0.088310 1.000000
1.000000 0.312753 1.000000
1.000000 0.815519 1.000000
0.271397 0.295280 1.000000
0.282861 0.293786 1.000000
0.303271 0.291131 1.000000
0.397673 0.278962 1.000000
0.752306 0.216472 1.000000
1.000000 0.225445 1.000000
1.000000 0.391359 1.000000
1.000000 0.826532 1.000000
0.088814 0.730538 1.000000
0.094655 0.730157 1.000000
0.105058 0.729477 1.000000
0.153186 0.726374 1.000000
0.580451 0.710345 1.000000
1.000000 0.682246 1.000000
1.000000 0.723987 1.000000
1.000000 0.874056 1.000000
0.079580 0.972094 1.000000
0.087054 0.971762 1.000000
0.100369 0.971169 1.000000
0.167519 0.968291 1.000000
0.512836 0.955171 1.000000
0.931622 0.937135 1.000000
1.000000 0.933140 0.999997
1.000000 0.949633 0.999840
0.248800 1.000000 0.999189
0.253531 1.000000 0.999189
0.261980 1.000000 0.999189
0.323083 1.000000 0.999188
0.564847 1.000000 0.998903
0.906469 1.000000 0.998275
0.997960 0.997959 0.997960
1.000000 0.997207 0.998268
0.853662 1.000000 0.998425
0.853978 1.000000 0.998424
0.854541 1.000000 0.998421
0.857187 1.000000 0.998410
0.872148 1.000000 0.998350
0.924398 1.000000 0.998134
0.989040 1.000000 0.997947
1.000000 1.000000 0.998395
0.467217 0.553329 1.000000
0.471018 0.553158 1.000000
0.477810 0.552855 1.000000
0.509702 0.551443 1.000000
0.658828 0.543399 1.000000
0.986151 0.497828 1.000000
1.000000 0.460831 1.000000
1.000000 0.814388 1.000000
0.467349 0.557476 1.000000
0.471150 0.557308 1.000000
0.477938 0.557005 1.000000
0.509828 0.555588 1.000000
0.659218 0.547996 1.000000
0.985863 0.502408 1.000000
1.000000 0.464837 1.000000
1.000000 0.815061 1.000000
0.467589 0.564882 1.000000
0.471394 0.564711 1.000000
0.478174 0.564408 1.000000
0.510058 0.562986 1.000000
0.659929 0.556212 1.000000
0.985348 0.510584 1.000000
1.000000 0.471994 1.000000
1.000000 0.816264 1.000000
0.468757 0.599501 1.000000
0.472548 0.599330 1.000000
0.479333 0.599021 1.000000
0.511179 0.597582 1.000000
0.661016 0.590939 1.000000
0.982945 0.548822 1.000000
1.000000 0.505236 1.000000
1.000000 0.821900 1.000000
0.472949 0.751898 1.000000
0.476689 0.751617 1.000000
0.483387 0.751111 1.000000
0.514793 0.748747 1.000000
0.662584 0.737685 1.000000
0.975348 0.698523 1.000000
1.000000 0.642460 1.000000
1.000000 0.848207 1.000000
0.497138 0.954590 1.000000
0.500310 0.954467 1.000000
0.505976 0.954245 1.000000
0.532601 0.953205 1.000000
0.657958 0.948318 1.000000
0.902549 0.937338 1.000000
1.000000 0.930161 1.000000
1.000000 0.941815 1.000000
0.406409 1.000000 1.000000
0.408843 1.000000 1.000000
0.413194 1.000000 1.000000
0.433639 1.000000 1.000000
0.530115 1.000000 1.000000
0.904670 1.000000 1.000000
0.996203 0.997653 1.000000
1.000000 0.996528 1.000000
0.858050 1.000000 1.000000
0.858159 1.000000 1.000000
0.858353 1.000000 1.000000
0.859268 1.000000 1.000000
0.870926 1.000000 1.000000
0.916726 1.000000 1.000000
0.987679 1.000000 1.000000
1.000000 1.000000 1.000000
