StdX_ACES/software/PremierePro/DRTneutral_cct2rgb.cube
TITLE "Generated by Foundry::LUT"
LUT_3D_SIZE 32
0.000000 0.000000 0.000000
0.000000 0.000000 0.000000
0.005283 0.000000 0.000000
0.016224 0.000000 0.000000
0.030906 0.000000 0.000000
0.053375 0.000000 0.000000
0.074388 0.000000 0.000000
0.099125 0.000000 0.000000
0.130127 0.000000 0.000000
0.168881 0.000000 0.000000
0.217271 0.000000 0.000000
0.273829 0.000000 0.000000
0.341744 0.000000 0.000000
0.426067 0.000000 0.000000
0.528802 0.000000 0.000000
0.641739 0.000000 0.000000
0.759369 0.000000 0.000000
0.875338 0.000000 0.000000
0.970871 0.000000 0.000463
1.000000 0.000000 0.011846
1.000000 0.000000 0.035840
1.000000 0.000000 0.071418
1.000000 0.000000 0.113556
1.000000 0.000000 0.162720
1.000000 0.000000 0.220354
1.000000 0.153597 0.289784
1.000000 0.308861 0.374974
1.000000 0.464015 0.469021
1.000000 0.591022 0.567266
1.000000 0.693897 0.667174
1.000000 0.775786 0.754168
1.000000 0.837994 0.819032
0.000000 0.000000 0.000000
0.000000 0.000000 0.000000
0.006181 0.000000 0.000000
0.017400 0.000000 0.000000
0.032551 0.000000 0.000000
0.054197 0.000000 0.000000
0.074672 0.000000 0.000000
0.099316 0.000000 0.000000
0.130128 0.000000 0.000000
0.168908 0.000000 0.000000
0.217294 0.000000 0.000000
0.273863 0.000000 0.000000
0.341840 0.000000 0.000000
0.426169 0.000000 0.000000
0.528862 0.000000 0.000000
0.641794 0.000000 0.000000
0.759387 0.000000 0.000000
0.875289 0.000000 0.000000
0.970775 0.000000 0.000248
1.000000 0.000000 0.011314
1.000000 0.000000 0.035324
1.000000 0.000000 0.070942
1.000000 0.000000 0.113168
1.000000 0.000000 0.162384
1.000000 0.000000 0.220084
1.000000 0.160456 0.289549
1.000000 0.313839 0.374797
1.000000 0.466860 0.468893
1.000000 0.592931 0.567177
1.000000 0.694994 0.667126
1.000000 0.776343 0.754145
1.000000 0.838275 0.819020
0.000000 0.002482 0.000000
0.000000 0.002692 0.000000
0.002066 0.002533 0.000000
0.010285 0.002129 0.000000
0.023668 0.001354 0.000000
0.046594 0.000257 0.000000
0.070603 0.000000 0.000000
0.097386 0.000000 0.000000
0.129235 0.000000 0.000000
0.168577 0.000000 0.000000
0.217118 0.000000 0.000000
0.273745 0.000000 0.000000
0.341865 0.000000 0.000000
0.426277 0.000000 0.000000
0.528948 0.000000 0.000000
0.641837 0.000000 0.000000
0.759379 0.000000 0.000000
0.875223 0.000000 0.000000
0.970689 0.000000 0.000043
1.000000 0.000000 0.010800
1.000000 0.000000 0.034709
1.000000 0.000000 0.070475
1.000000 0.000000 0.112785
1.000000 0.000000 0.162051
1.000000 0.000000 0.219817
1.000000 0.167281 0.289315
1.000000 0.318800 0.374621
1.000000 0.469698 0.468766
1.000000 0.594838 0.567089
1.000000 0.696089 0.667078
1.000000 0.776899 0.754122
1.000000 0.838557 0.819009
0.000000 0.007848 0.000000
0.000000 0.008009 0.000000
0.000532 0.007803 0.000000
0.007259 0.007357 0.000000
0.016958 0.006857 0.000000
0.037095 0.005592 0.000000
0.064611 0.003578 0.000000
0.094303 0.001061 0.000000
0.127947 0.000000 0.000000
0.168218 0.000000 0.000000
0.217029 0.000000 0.000000
0.273730 0.000000 0.000000
0.341966 0.000000 0.000000
0.426432 0.000000 0.000000
0.529034 0.000000 0.000000
0.641891 0.000000 0.000000
0.759378 0.000000 0.000000
0.875125 0.000000 0.000000
0.970565 0.000000 0.000000
1.000000 0.000000 0.010299
1.000000 0.000000 0.034103
1.000000 0.000000 0.070016
1.000000 0.000000 0.112407
1.000000 0.000000 0.161721
1.000000 0.002785 0.219535
1.000000 0.174077 0.289083
1.000000 0.323745 0.374446
1.000000 0.472529 0.468639
1.000000 0.596741 0.567001
1.000000 0.697182 0.667031
1.000000 0.777455 0.754098
1.000000 0.838839 0.818997
0.000000 0.014618 0.000000
0.000000 0.014753 0.000000
0.000000 0.014555 0.000000
0.004311 0.014120 0.000000
0.013554 0.013564 0.000000
0.030576 0.012492 0.000000
0.058380 0.010459 0.000000
0.090567 0.007324 0.000000
0.126401 0.003020 0.000000
0.167793 0.000000 0.000000
0.216987 0.000000 0.000000
0.273776 0.000000 0.000000
0.342117 0.000000 0.000000
0.426633 0.000000 0.000000
0.529156 0.000000 0.000000
0.641936 0.000000 0.000000
0.759360 0.000000 0.000000
0.875037 0.000000 0.000000
0.970390 0.000000 0.000000
1.000000 0.000000 0.009595
1.000000 0.000000 0.033437
1.000000 0.000000 0.069523
1.000000 0.000000 0.111999
1.000000 0.000000 0.161364
1.000000 0.009310 0.219209
1.000000 0.181467 0.288830
1.000000 0.329132 0.374255
1.000000 0.475616 0.468501
1.000000 0.598818 0.566904
1.000000 0.698377 0.666979
1.000000 0.778062 0.754073
1.000000 0.839146 0.818985
0.000000 0.026021 0.000000
0.000000 0.026119 0.000000
0.000000 0.025946 0.000000
0.000000 0.025573 0.000000
0.008399 0.025057 0.000000
0.024265 0.024155 0.000000
0.051860 0.022360 0.000000
0.085403 0.019347 0.000000
0.123858 0.014257 0.000000
0.167127 0.006733 0.000000
0.216983 0.001043 0.000000
0.273900 0.000000 0.000000
0.342402 0.000000 0.000000
0.426955 0.000000 0.000000
0.529351 0.000000 0.000000
0.642024 0.000000 0.000000
0.759343 0.000000 0.000000
0.874894 0.000000 0.000000
0.970171 0.000000 0.000000
1.000000 0.000000 0.008625
1.000000 0.000000 0.032145
1.000000 0.000000 0.068781
1.000000 0.000000 0.111446
1.000000 0.000000 0.160877
1.000000 0.018232 0.218763
1.000000 0.191596 0.288484
1.000000 0.336527 0.373992
1.000000 0.479859 0.468310
1.000000 0.601673 0.566772
1.000000 0.700021 0.666907
1.000000 0.778898 0.754038
1.000000 0.839569 0.818967
0.000000 0.045257 0.000000
0.000000 0.045269 0.000000
0.000000 0.045044 0.000000
0.000000 0.044645 0.000000
0.000000 0.044186 0.000000
0.015784 0.043311 0.000000
0.043186 0.041742 0.000000
0.079140 0.039033 0.000000
0.119718 0.034325 0.000000
0.165946 0.026462 0.000000
0.217204 0.014724 0.000000
0.274251 0.002862 0.000000
0.342977 0.000000 0.000000
0.427544 0.000000 0.000000
0.529689 0.000000 0.000000
0.642151 0.000000 0.000000
0.759286 0.000000 0.000000
0.874648 0.000000 0.000000
0.969877 0.000000 0.000000
1.000000 0.000000 0.006910
1.000000 0.000000 0.030414
1.000000 0.000000 0.067074
1.000000 0.000000 0.110650
1.000000 0.000000 0.160209
1.000000 0.030538 0.218149
1.000000 0.205611 0.288005
1.000000 0.346781 0.373629
1.000000 0.485752 0.468046
1.000000 0.605458 0.566598
1.000000 0.702309 0.666807
1.000000 0.780062 0.753990
1.000000 0.840160 0.818943
0.000000 0.071192 0.000000
0.000000 0.071223 0.000000
0.000000 0.071064 0.000000
0.000000 0.070804 0.000000
0.000000 0.070454 0.000000
0.000814 0.069826 0.000000
0.027773 0.068669 0.000000
0.068725 0.066567 0.000000
0.113028 0.063065 0.000000
0.162934 0.056757 0.000000
0.217080 0.046445 0.000000
0.274949 0.028541 0.000000
0.344061 0.006295 0.000000
0.428626 0.000000 0.000000
0.530318 0.000000 0.000000
0.642381 0.000000 0.000000
0.759215 0.000000 0.000000
0.874272 0.000000 0.000000
0.969279 0.000000 0.000000
1.000000 0.000000 0.005249
1.000000 0.000000 0.027916
1.000000 0.000000 0.064788
1.000000 0.000000 0.108851
1.000000 0.000814 0.159250
1.000000 0.047445 0.217305
1.000000 0.224943 0.287345
1.000000 0.360972 0.373126
1.000000 0.493926 0.467680
1.000000 0.610498 0.566368
1.000000 0.705491 0.666668
1.000000 0.781683 0.753922
1.000000 0.840981 0.818909
0.000000 0.103433 0.000000
0.000000 0.103459 0.000000
0.000000 0.103359 0.000000
0.000000 0.103196 0.000000
0.000000 0.102963 0.000000
0.000000 0.102529 0.000000
0.002572 0.101757 0.000000
0.047579 0.100347 0.000000
0.100395 0.097798 0.000000
0.156036 0.093406 0.000000
0.214219 0.085139 0.000000
0.275379 0.072365 0.000000
0.345901 0.050145 0.000000
0.430549 0.014902 0.000000
0.531485 0.000000 0.000000
0.642815 0.000000 0.000000
0.759107 0.000000 0.000000
0.873703 0.000000 0.000000
0.968458 0.000000 0.000000
1.000000 0.000000 0.003016
1.000000 0.000000 0.023796
1.000000 0.000000 0.061766
1.000000 0.000000 0.106328
1.000000 0.014854 0.157197
1.000000 0.071914 0.216107
1.000000 0.253202 0.286432
1.000000 0.380548 0.372433
1.000000 0.505237 0.467173
1.000000 0.617489 0.566048
1.000000 0.709913 0.666475
1.000000 0.783937 0.753828
1.000000 0.842125 0.818862
0.000000 0.143557 0.000000
0.000000 0.143571 0.000000
0.000000 0.143510 0.000000
0.000000 0.143415 0.000000
0.000000 0.143270 0.000000
0.000000 0.142983 0.000000
0.000000 0.142458 0.000000
0.005430 0.141482 0.000000
0.074503 0.139554 0.000000
0.139186 0.136109 0.000000
0.205362 0.129655 0.000000
0.272919 0.119798 0.000000
0.347786 0.105240 0.000000
0.433602 0.079768 0.000000
0.533636 0.030920 0.000000
0.643692 0.001444 0.000000
0.758998 0.000000 0.000000
0.872809 0.000000 0.000000
0.967165 0.000000 0.000000
1.000000 0.000000 0.000000
1.000000 0.000000 0.017850
1.000000 0.000000 0.056772
1.000000 0.000000 0.102992
1.000000 0.040177 0.154390
1.000000 0.126200 0.213750
1.000000 0.298613 0.285120
1.000000 0.407435 0.371482
1.000000 0.520838 0.466475
1.000000 0.627161 0.565606
1.000000 0.716045 0.666208
1.000000 0.787069 0.753698
1.000000 0.843717 0.818796
0.000000 0.191364 0.000000
0.000000 0.191306 0.000000
0.000000 0.191174 0.000000
0.000000 0.191020 0.000000
0.000000 0.190846 0.000000
0.000000 0.190500 0.000000
0.000000 0.189911 0.000000
0.000000 0.188984 0.000000
0.012137 0.187440 0.000000
0.107505 0.184608 0.000000
0.184928 0.180022 0.000000
0.263642 0.172918 0.000000
0.346040 0.161806 0.000000
0.437286 0.145336 0.000000
0.537266 0.119069 0.000000
0.645384 0.068959 0.000000
0.759106 0.011888 0.000000
0.871485 0.000000 0.000000
0.965088 0.000000 0.000000
1.000000 0.000000 0.000000
1.000000 0.000000 0.010229
1.000000 0.000000 0.047378
1.000000 0.011289 0.097714
1.000000 0.107791 0.150388
1.000000 0.199035 0.210592
1.000000 0.330743 0.282901
1.000000 0.442900 0.370168
1.000000 0.542268 0.465517
1.000000 0.640503 0.564998
1.000000 0.724530 0.665838
1.000000 0.791411 0.753517
1.000000 0.845928 0.818705
0.000000 0.246965 0.000000
0.000000 0.246908 0.000000
0.000000 0.246822 0.000000
0.000000 0.246735 0.000000
0.000000 0.246584 0.000000
0.000000 0.246371 0.000000
0.000000 0.245977 0.000000
0.000000 0.245299 0.000000
0.000000 0.244153 0.000000
0.029915 0.242217 0.000000
0.147122 0.238850 0.000000
0.240419 0.233324 0.000000
0.335404 0.225061 0.000000
0.436957 0.212357 0.000000
0.541373 0.195944 0.000000
0.648145 0.171937 0.000000
0.759717 0.134495 0.000000
0.869606 0.070331 0.000000
0.961919 0.000000 0.000000
1.000000 0.008167 0.000000
1.000000 0.029222 0.000000
1.000000 0.063513 0.032424
1.000000 0.121886 0.087746
1.000000 0.196614 0.144376
1.000000 0.284483 0.206428
1.000000 0.373852 0.279930
1.000000 0.471862 0.368207
1.000000 0.570686 0.464219
1.000000 0.658829 0.564163
1.000000 0.736234 0.665329
1.000000 0.797421 0.753267
1.000000 0.848994 0.818579
0.000000 0.315302 0.000000
0.000000 0.315270 0.000000
0.000000 0.315221 0.000000
0.000000 0.315161 0.000000
0.000000 0.315086 0.000000
0.000000 0.314928 0.000000
0.000000 0.314680 0.000000
0.000000 0.314244 0.000000
0.000000 0.313472 0.000000
0.000000 0.312140 0.000000
0.056436 0.309924 0.000000
0.194257 0.306139 0.000000
0.307829 0.299881 0.000000
0.425564 0.290528 0.000000
0.540238 0.277256 0.000000
0.650607 0.261877 0.000000
0.760312 0.242190 0.000000
0.866893 0.217304 0.000000
0.956780 0.195333 0.000000
1.000000 0.184017 0.000000
1.000000 0.185888 0.000000
1.000000 0.210886 0.008728
1.000000 0.246389 0.071296
1.000000 0.296207 0.134473
1.000000 0.362759 0.200501
1.000000 0.430942 0.276005
1.000000 0.509541 0.365704
1.000000 0.596880 0.462597
1.000000 0.682955 0.563071
1.000000 0.751252 0.664686
1.000000 0.805711 0.752923
1.000000 0.853236 0.818405
0.000000 0.399100 0.000000
0.000000 0.399085 0.000000
0.000000 0.399082 0.000000
0.000000 0.399018 0.000000
0.000000 0.398963 0.000000
0.000000 0.398905 0.000000
0.000000 0.398706 0.000000
0.000000 0.398449 0.000000
0.000000 0.397962 0.000000
0.000000 0.397073 0.000000
0.000000 0.395702 0.000000
0.087138 0.393417 0.000000
0.254577 0.389356 0.000000
0.392076 0.382614 0.000000
0.524934 0.372847 0.000000
0.645837 0.360303 0.000000
0.759425 0.346677 0.000000
0.862462 0.332747 0.000000
0.948512 0.321149 0.000000
0.997142 0.317457 0.000000
1.000000 0.321351 0.000000
1.000000 0.335125 0.001211
1.000000 0.359821 0.045595
1.000000 0.393658 0.119519
1.000000 0.438895 0.191401
1.000000 0.496814 0.270886
1.000000 0.559436 0.362401
1.000000 0.630900 0.460571
1.000000 0.702694 0.562267
1.000000 0.769054 0.663970
1.000000 0.817097 0.752450
1.000000 0.859088 0.818165
0.000000 0.495207 0.000000
0.000000 0.495192 0.000000
0.000000 0.495184 0.000000
0.000000 0.495165 0.000000
0.000000 0.495098 0.000000
0.000000 0.495022 0.000000
0.000000 0.494941 0.000000
0.000000 0.494678 0.000000
0.000000 0.494341 0.000000
0.000000 0.493699 0.000000
0.000000 0.492620 0.000000
0.000000 0.490860 0.000000
0.143521 0.487918 0.000000
0.335565 0.482705 0.000000
0.487671 0.475055 0.000000
0.627141 0.465137 0.000000
0.751199 0.453414 0.000000
0.855263 0.443335 0.000000
0.937570 0.436273 0.000000
0.994661 0.433598 0.000000
1.000000 0.436731 0.000000
1.000000 0.446602 0.000000
1.000000 0.463227 0.002584
1.000000 0.488755 0.098348
1.000000 0.521879 0.179497
1.000000 0.564761 0.263654
1.000000 0.619492 0.358138
1.000000 0.672278 0.458374
1.000000 0.729175 0.561195
1.000000 0.782974 0.663813
1.000000 0.832048 0.751860
1.000000 0.867126 0.817835
0.000000 0.596505 0.000000
0.000000 0.596486 0.000000
0.000000 0.596472 0.000000
0.000000 0.596461 0.000000
0.000000 0.596430 0.000000
0.000000 0.596351 0.000000
0.000000 0.596229 0.000000
0.000000 0.596091 0.000000
0.000000 0.595738 0.000000
0.000000 0.595248 0.000000
0.000000 0.594368 0.000000
0.000000 0.592892 0.000000
0.000000 0.590448 0.000000
0.237135 0.586466 0.000000
0.430253 0.580352 0.000000
0.587575 0.572103 0.000000
0.729521 0.562242 0.000000
0.840957 0.552977 0.000000
0.922726 0.547396 0.000000
0.984969 0.545402 0.000000
1.000000 0.547586 0.000000
1.000000 0.554088 0.000000
1.000000 0.566451 0.000000
1.000000 0.584294 0.061155
1.000000 0.609308 0.164097
1.000000 0.639495 0.255606
1.000000 0.675872 0.354146
1.000000 0.721202 0.455864
1.000000 0.761770 0.560088
1.000000 0.801651 0.663608
1.000000 0.842680 0.751850
1.000000 0.877678 0.817426
0.000000 0.698559 0.000000
0.000000 0.698540 0.000000
0.000000 0.698523 0.000000
0.000000 0.698508 0.000000
0.000000 0.698494 0.000000
0.000000 0.698440 0.000000
0.000000 0.698312 0.000000
0.000000 0.698145 0.000000
0.000000 0.697917 0.000000
0.000000 0.697421 0.000000
0.000000 0.696693 0.000000
0.000000 0.695471 0.000000
0.000000 0.693403 0.000000
0.044138 0.690069 0.000000
0.344499 0.685233 0.000000
0.531912 0.678515 0.000000
0.687925 0.670191 0.000000
0.814617 0.662010 0.000000
0.901177 0.656373 0.000000
0.964524 0.653396 0.000000
1.000000 0.653874 0.000000
1.000000 0.657852 0.000000
1.000000 0.665413 0.000000
1.000000 0.677097 0.014460
1.000000 0.692566 0.145391
1.000000 0.713520 0.247397
1.000000 0.736943 0.350399
1.000000 0.764282 0.454562
1.000000 0.796367 0.559550
1.000000 0.826384 0.663348
1.000000 0.855770 0.751881
1.000000 0.885946 0.817438
0.000000 0.789373 0.000000
0.000000 0.789346 0.000000
0.000000 0.789321 0.000000
0.000000 0.789297 0.000000
0.000000 0.789271 0.000000
0.000000 0.789237 0.000000
0.000000 0.789137 0.000000
0.000000 0.788921 0.000000
0.000000 0.788641 0.000000
0.000000 0.788255 0.000000
0.000000 0.787477 0.000000
0.000000 0.786360 0.000000
0.000000 0.784512 0.000000
0.000000 0.781498 0.000000
0.207473 0.777143 0.000000
0.467684 0.771319 0.000000
0.641887 0.763873 0.000000
0.778326 0.756073 0.000000
0.873978 0.750146 0.000000
0.941334 0.746173 0.000000
0.987867 0.745684 0.000000
1.000000 0.746555 0.000000
1.000000 0.749002 0.000000
1.000000 0.756097 0.000000
1.000000 0.764155 0.130485
1.000000 0.776293 0.242824
1.000000 0.791637 0.349031
1.000000 0.809145 0.454410
1.000000 0.829516 0.560051
1.000000 0.852312 0.663639
1.000000 0.873105 0.751931
1.000000 0.896481 0.817466
0.000000 0.858513 0.000000
0.000000 0.858485 0.000000
0.000000 0.858457 0.000000
0.000000 0.858430 0.000000
0.000000 0.858401 0.000000
0.000000 0.858362 0.000000
0.000000 0.858310 0.000000
0.000000 0.858162 0.000000
0.000000 0.857827 0.000000
0.000000 0.857390 0.000000
0.000000 0.856833 0.000000
0.000000 0.855627 0.000000
0.000000 0.853975 0.000000
0.000000 0.851204 0.000000
0.105797 0.847208 0.000000
0.393548 0.841885 0.000000
0.602264 0.835180 0.000000
0.743087 0.828154 0.000000
0.845114 0.822007 0.000000
0.918497 0.817380 0.000000
0.968527 0.814504 0.000000
0.998287 0.813905 0.000000
1.000000 0.815218 0.000000
1.000000 0.817413 0.000000
1.000000 0.821948 0.127688
1.000000 0.828833 0.245233
1.000000 0.837767 0.352145
1.000000 0.848889 0.457052
1.000000 0.861403 0.562340
1.000000 0.875834 0.665329
1.000000 0.893350 0.752356
1.000000 0.909183 0.817531
0.000000 0.910064 0.000000
0.000000 0.910027 0.000000
0.000000 0.909991 0.000000
0.000000 0.909955 0.000000
0.000000 0.909916 0.000000
0.000000 0.909864 0.000000
0.000000 0.909792 0.000000
0.000000 0.909694 0.000000
0.000000 0.909465 0.000000
0.000000 0.908999 0.000000
0.000000 0.908255 0.000000
0.000000 0.907293 0.000000
0.000000 0.905503 0.000000
0.000000 0.902993 0.000000
0.000000 0.899301 0.000000
0.314394 0.894406 0.000000
0.564326 0.888340 0.000000
0.717367 0.881997 0.000000
0.820100 0.876517 0.000000
0.895312 0.872136 0.000000
0.950232 0.868598 0.000000
0.988784 0.866296 0.000000
1.000000 0.865558 0.000000
1.000000 0.866238 0.000000
1.000000 0.868807 0.145014
1.000000 0.871398 0.257671
1.000000 0.876690 0.361078
1.000000 0.882578 0.463705
1.000000 0.890707 0.566979
1.000000 0.899877 0.668246
1.000000 0.910668 0.753829
1.000000 0.924228 0.817883
0.000000 0.947895 0.000000
0.000000 0.947859 0.000000
0.000000 0.947823 0.000000
0.000000 0.947780 0.000000
0.000000 0.947731 0.000000
0.000000 0.947663 0.000000
0.000000 0.947570 0.000000
0.000000 0.947443 0.000000
0.000000 0.947270 0.000000
0.000000 0.946879 0.000000
0.000000 0.946129 0.000000
0.000000 0.945047 0.000000
0.000000 0.943387 0.000000
0.000000 0.940944 0.000000
0.034573 0.937381 0.000000
0.304609 0.932736 0.000000
0.541497 0.927028 0.000000
0.695474 0.921089 0.000000
0.801731 0.915834 0.000000
0.878476 0.911386 0.000000
0.933123 0.908035 0.000000
0.975037 0.905559 0.000000
0.998717 0.904201 0.000000
1.000000 0.903562 0.059808
1.000000 0.903983 0.182809
1.000000 0.905494 0.282146
1.000000 0.908017 0.378094
1.000000 0.911743 0.475452
1.000000 0.916427 0.575300
1.000000 0.922587 0.673136
1.000000 0.929460 0.756271
1.000000 0.937649 0.819047
0.000000 0.976706 0.000000
0.000000 0.976662 0.000000
0.000000 0.976618 0.000000
0.000000 0.976574 0.000000
0.000000 0.976527 0.000000
0.000000 0.976462 0.000000
0.000000 0.976372 0.000000
0.000000 0.976247 0.000000
0.000000 0.976064 0.000000
0.000000 0.975760 0.000000
0.000000 0.975107 0.000000
0.000000 0.973885 0.000000
0.000000 0.972269 0.000000
0.000100 0.969870 0.000000
0.089672 0.966546 0.000000
0.279396 0.962121 0.000000
0.533852 0.956751 0.000000
0.684030 0.951214 0.000000
0.787695 0.946289 0.000000
0.864064 0.942095 0.000000
0.919145 0.938740 0.000000
0.961870 0.936007 0.000000
0.993123 0.934116 0.049135
1.000000 0.932955 0.146264
1.000000 0.932849 0.235507
1.000000 0.933158 0.318512
1.000000 0.934008 0.404275
1.000000 0.936210 0.494168
1.000000 0.938641 0.588303
1.000000 0.942133 0.681175
1.000000 0.946699 0.760239
1.000000 0.951935 0.820975
0.000000 0.997817 0.000000
0.000000 0.997763 0.000000
0.000000 0.997708 0.000000
0.000000 0.997654 0.000000
0.000000 0.997595 0.000000
0.000000 0.997514 0.000000
0.000000 0.997401 0.000000
0.000000 0.997245 0.000000
0.000000 0.997030 0.000000
0.000000 0.996735 0.000000
0.000000 0.996332 0.000000
0.000000 0.995418 0.000000
0.000000 0.993642 0.000000
0.000000 0.991292 0.000000
0.001499 0.988221 0.000000
0.258768 0.984062 0.000000
0.536314 0.979069 0.000179
0.678261 0.973954 0.000299
0.778021 0.969397 0.002064
0.853631 0.965389 0.005722
0.908787 0.962155 0.014791
0.950491 0.959511 0.045819
0.982621 0.957376 0.144041
0.999941 0.955826 0.222165
1.000000 0.954871 0.295856
1.000000 0.954680 0.366321
1.000000 0.955104 0.440588
1.000000 0.955766 0.521285
1.000000 0.957086 0.607606
1.000000 0.958992 0.692757
1.000000 0.961538 0.766390
1.000000 0.964803 0.823923
0.000000 1.000000 0.109668
0.000000 1.000000 0.109766
0.000000 1.000000 0.109865
0.000000 1.000000 0.109962
0.000000 1.000000 0.110069
0.000000 1.000000 0.110216
0.000000 1.000000 0.110331
0.000000 1.000000 0.110403
0.000000 1.000000 0.110503
0.000000 1.000000 0.110639
0.000000 1.000000 0.110826
0.000000 1.000000 0.111077
0.018807 0.999644 0.112602
0.081827 0.998920 0.115812
0.209036 0.998935 0.116549
0.375005 0.998947 0.117369
0.533814 0.995075 0.126127
0.682695 0.990838 0.137340
0.774726 0.986682 0.144956
0.845615 0.983031 0.163466
0.899851 0.979955 0.186402
0.942185 0.977394 0.211176
0.973622 0.975390 0.246680
0.995416 0.973804 0.299857
1.000000 0.972539 0.359147
1.000000 0.971754 0.421966
1.000000 0.971492 0.487110
1.000000 0.971685 0.557525
1.000000 0.972319 0.634196
1.000000 0.972932 0.709077
1.000000 0.974397 0.775085
1.000000 0.975949 0.828666
0.000000 1.000000 0.284007
0.000000 1.000000 0.284059
0.000000 1.000000 0.284110
0.000000 1.000000 0.284161
0.000000 1.000000 0.284217
0.000000 1.000000 0.284293
0.000000 1.000000 0.284387
0.000000 1.000000 0.284519
0.000000 1.000000 0.284655
0.000000 1.000000 0.284706
0.000000 1.000000 0.284777
0.000000 1.000000 0.284872
0.000000 1.000000 0.284976
0.044614 1.000000 0.285754
0.166922 1.000000 0.287689
0.340113 1.000000 0.288536
0.587160 0.999997 0.289346
0.686100 0.998946 0.294862
0.776947 0.998343 0.300969
0.843127 0.995664 0.306906
0.894216 0.992971 0.318824
0.934883 0.990514 0.334495
0.966439 0.988511 0.353043
0.990632 0.986884 0.381646
1.000000 0.985648 0.427527
1.000000 0.984749 0.481833
1.000000 0.984240 0.541046
1.000000 0.983929 0.603092
1.000000 0.983870 0.667334
1.000000 0.984090 0.730472
1.000000 0.984565 0.786977
1.000000 0.985415 0.835415
0.119578 1.000000 0.414933
0.121195 1.000000 0.414964
0.122812 1.000000 0.414994
0.124429 1.000000 0.415023
0.126191 1.000000 0.415056
0.128618 1.000000 0.415101
0.131995 1.000000 0.415164
0.136695 1.000000 0.415251
0.143223 1.000000 0.415372
0.152278 1.000000 0.415541
0.165022 1.000000 0.415648
0.182752 1.000000 0.415709
0.214845 1.000000 0.415787
0.270656 1.000000 0.415884
0.345681 1.000000 0.416581
0.445507 1.000000 0.418302
0.576348 1.000000 0.419306
0.712976 1.000000 0.420295
0.777601 1.000000 0.424857
0.843388 1.000000 0.430599
0.891545 1.000000 0.436012
0.930114 0.999026 0.447081
0.960381 0.997817 0.461152
0.984135 0.996601 0.478072
0.998914 0.995357 0.504295
1.000000 0.994349 0.547281
1.000000 0.993636 0.598666
1.000000 0.993162 0.653630
1.000000 0.992938 0.706384
1.000000 0.992751 0.755945
1.000000 0.992707 0.802581
1.000000 0.993075 0.844864
0.256551 1.000000 0.535899
0.259036 1.000000 0.535919
0.261521 1.000000 0.535939
0.264004 1.000000 0.535959
0.266712 1.000000 0.535980
0.270444 1.000000 0.536010
0.275644 1.000000 0.536052
0.282884 1.000000 0.536110
0.292954 1.000000 0.536191
0.306941 1.000000 0.536304
0.326342 1.000000 0.536459
0.353228 1.000000 0.536630
0.390456 1.000000 0.536686
0.441607 1.000000 0.536761
0.511499 1.000000 0.536861
0.578894 1.000000 0.537549
0.633644 1.000000 0.539239
0.705790 1.000000 0.540376
0.798407 1.000000 0.541448
0.841755 1.000000 0.545610
0.890376 1.000000 0.551210
0.926747 1.000000 0.556390
0.955366 1.000000 0.567034
0.978556 1.000000 0.580250
0.995942 1.000000 0.596116
1.000000 1.000000 0.620573
1.000000 0.999696 0.659600
1.000000 0.999270 0.702608
1.000000 0.998851 0.745863
1.000000 0.998969 0.784449
1.000000 0.998881 0.821809
1.000000 0.998428 0.856682
0.523567 1.000000 0.649349
0.524547 1.000000 0.649362
0.525526 1.000000 0.649375
0.526506 1.000000 0.649388
0.527575 1.000000 0.649402
0.529048 1.000000 0.649421
0.531101 1.000000 0.649448
0.533960 1.000000 0.649485
0.537942 1.000000 0.649537
0.543481 1.000000 0.649609
0.551174 1.000000 0.649709
0.561844 1.000000 0.649848
0.576613 1.000000 0.650041
0.597084 1.000000 0.650102
0.625214 1.000000 0.650177
0.663650 1.000000 0.650279
0.706133 1.000000 0.650972
0.747016 1.000000 0.652604
0.794032 1.000000 0.653710
0.855155 1.000000 0.654665
0.888770 1.000000 0.658280
0.924926 1.000000 0.663381
0.951618 1.000000 0.667939
