StdX_ACES/software/PremierePro/DRTneutral_cct2rgb.cube
TITLE "Generated by Foundry::LUT"
LUT_3D_SIZE 5
DOMAIN_MIN 0.000000 0.000000 0.000000
DOMAIN_MAX 0.903226 0.903226 0.903226
0.000000 0.000000 0.000000
0.099125 0.000000 0.000000
0.528802 0.000000 0.000000
1.000000 0.000000 0.071418
1.000000 0.591022 0.567266
0.000000 0.071192 0.000000
0.068725 0.066567 0.000000
0.530318 0.000000 0.000000
1.000000 0.000000 0.064788
1.000000 0.610498 0.566368
0.000000 0.495207 0.000000
0.000000 0.494678 0.000000
0.487671 0.475055 0.000000
1.000000 0.446602 0.000000
1.000000 0.729175 0.561195
0.000000 0.976706 0.000000
0.000000 0.976247 0.000000
0.089672 0.966546 0.000000
0.961870 0.936007 0.000000
1.000000 0.938641 0.588303
0.678174 1.000000 0.742517
0.683801 1.000000 0.742599
0.723094 1.000000 0.743077
0.922978 1.000000 0.749249
1.000000 1.000000 0.817274
0.000000 0.000000 0.070563
0.089416 0.000000 0.069589
0.531927 0.000000 0.064330
1.000000 0.000000 0.102913
1.000000 0.593131 0.567232
0.000000 0.071405 0.066641
0.063191 0.063191 0.063191
0.531561 0.000000 0.062364
1.000000 0.000000 0.098633
1.000000 0.612373 0.566346
0.000000 0.495266 0.000000
0.000000 0.494791 0.000000
0.487655 0.475307 0.000000
1.000000 0.448547 0.000234
1.000000 0.730128 0.561221
0.000000 0.976649 0.000000
0.000000 0.976244 0.000000
0.077783 0.966498 0.000000
0.961388 0.935975 0.045623
1.000000 0.938704 0.588404
0.678448 1.000000 0.748893
0.683819 1.000000 0.748934
0.722858 1.000000 0.749184
0.922614 1.000000 0.755886
1.000000 1.000000 0.817298
0.000000 0.000000 0.492142
0.003021 0.000000 0.491887
0.572993 0.000000 0.487069
1.000000 0.000000 0.500024
1.000000 0.602366 0.646834
0.000000 0.057043 0.491244
0.000000 0.051664 0.491081
0.570625 0.000000 0.487096
1.000000 0.000000 0.499617
1.000000 0.621161 0.646072
0.000000 0.494407 0.473446
0.000000 0.493936 0.473653
0.474555 0.474555 0.474555
1.000000 0.446274 0.488889
1.000000 0.734342 0.641859
0.000000 0.976640 0.486207
0.000000 0.975778 0.486387
0.028222 0.965767 0.488089
0.954011 0.935296 0.512474
1.000000 0.938682 0.664595
0.678232 1.000000 0.803241
0.682455 1.000000 0.803248
0.719773 1.000000 0.803304
0.919565 1.000000 0.807228
1.000000 1.000000 0.846230
0.000000 0.004178 0.984148
0.000000 0.000000 0.983941
0.517060 0.000000 0.978775
1.000000 0.000000 0.969255
1.000000 0.592979 0.956412
0.000000 0.024791 0.983576
0.000000 0.023649 0.983333
0.514593 0.000000 0.978171
1.000000 0.000000 0.968998
1.000000 0.610447 0.955647
0.000000 0.493687 0.968016
0.000000 0.492821 0.967907
0.321891 0.473389 0.965598
1.000000 0.418181 0.959559
1.000000 0.732292 0.949680
0.000000 0.973773 0.936539
0.000000 0.973244 0.936492
0.002588 0.963580 0.935636
0.933749 0.933748 0.933748
1.000000 0.937241 0.937723
0.567602 1.000000 0.943835
0.568835 1.000000 0.943832
0.631438 1.000000 0.943685
0.910835 1.000000 0.943171
1.000000 1.000000 0.947784
0.380810 0.321297 1.000000
0.398286 0.319568 1.000000
0.555818 0.304875 1.000000
1.000000 0.140879 1.000000
1.000000 0.599725 1.000000
0.384329 0.339464 1.000000
0.401795 0.337725 1.000000
0.556653 0.322536 1.000000
1.000000 0.153379 1.000000
1.000000 0.607457 1.000000
0.404813 0.504524 1.000000
0.421627 0.502712 1.000000
0.571854 0.486832 1.000000
1.000000 0.378073 1.000000
1.000000 0.668452 1.000000
0.000000 0.967681 1.000000
0.000000 0.967551 1.000000
0.086804 0.964020 1.000000
0.920170 0.934493 1.000000
1.000000 0.932593 1.000000
0.675673 1.000000 1.000000
0.676920 1.000000 1.000000
0.704337 1.000000 1.000000
0.906798 1.000000 1.000000
1.000000 1.000000 1.000000
