StdX_ACES/software/PremierePro/DRTneutral_cct2rgb.cube
TITLE "Generated by Foundry::LUT"
LUT_3D_SIZE 8
DOMAIN_MIN 0.000000 0.000000 0.000000
DOMAIN_MAX 0.903226 0.903226 0.903226
0.000000 0.000000 0.000000
0.030906 0.000000 0.000000
0.130127 0.000000 0.000000
0.341744 0.000000 0.000000
0.759369 0.000000 0.000000
1.000000 0.000000 0.035840
1.000000 0.000000 0.220354
1.000000 0.591022 0.567266
0.000000 0.014618 0.000000
0.013554 0.013564 0.000000
0.126401 0.003020 0.000000
0.342117 0.000000 0.000000
0.759360 0.000000 0.000000
1.000000 0.000000 0.033437
1.000000 0.009310 0.219209
1.000000 0.598818 0.566904
0.000000 0.103433 0.000000
0.000000 0.102963 0.000000
0.100395 0.097798 0.000000
0.345901 0.050145 0.000000
0.759107 0.000000 0.000000
1.000000 0.000000 0.023796
1.000000 0.071914 0.216107
1.000000 0.617489 0.566048
0.000000 0.315302 0.000000
0.000000 0.315086 0.000000
0.000000 0.313472 0.000000
0.307829 0.299881 0.000000
0.760312 0.242190 0.000000
1.000000 0.185888 0.000000
1.000000 0.362759 0.200501
1.000000 0.682955 0.563071
0.000000 0.698559 0.000000
0.000000 0.698494 0.000000
0.000000 0.697917 0.000000
0.000000 0.693403 0.000000
0.687925 0.670191 0.000000
1.000000 0.653874 0.000000
1.000000 0.692566 0.145391
1.000000 0.796367 0.559550
0.000000 0.947895 0.000000
0.000000 0.947731 0.000000
0.000000 0.947270 0.000000
0.000000 0.943387 0.000000
0.541497 0.927028 0.000000
0.933123 0.908035 0.000000
1.000000 0.903983 0.182809
1.000000 0.916427 0.575300
0.000000 1.000000 0.284007
0.000000 1.000000 0.284217
0.000000 1.000000 0.284655
0.000000 1.000000 0.284976
0.587160 0.999997 0.289346
0.894216 0.992971 0.318824
1.000000 0.985648 0.427527
1.000000 0.983870 0.667334
0.678174 1.000000 0.742517
0.680343 1.000000 0.742549
0.685546 1.000000 0.742626
0.702132 1.000000 0.742879
0.762720 1.000000 0.743196
0.896814 1.000000 0.746440
0.985666 1.000000 0.763245
1.000000 1.000000 0.817274
0.000000 0.000000 0.014799
0.020481 0.000000 0.014505
0.129733 0.000000 0.014301
0.343666 0.000000 0.013044
0.760602 0.000000 0.008213
1.000000 0.000000 0.035742
1.000000 0.000000 0.220301
1.000000 0.591835 0.567253
0.000000 0.014984 0.013748
0.012778 0.012778 0.012778
0.125995 0.003292 0.013811
0.343340 0.000000 0.012426
0.760423 0.000000 0.007046
1.000000 0.000000 0.033195
1.000000 0.012012 0.219144
1.000000 0.599622 0.566892
0.000000 0.103939 0.007000
0.000000 0.103250 0.007150
0.101513 0.098031 0.007435
0.344569 0.052197 0.006275
0.759774 0.000000 0.000663
1.000000 0.000000 0.023466
1.000000 0.076100 0.215993
1.000000 0.618205 0.566040
0.000000 0.315477 0.000000
0.000000 0.315257 0.000000
0.000000 0.313707 0.000000
0.308772 0.300140 0.000000
0.760043 0.243347 0.000000
1.000000 0.190020 0.000000
1.000000 0.364344 0.200382
1.000000 0.683353 0.563079
0.000000 0.698559 0.000000
0.000000 0.698517 0.000000
0.000000 0.697901 0.000000
0.000000 0.693434 0.000000
0.688164 0.670337 0.000000
1.000000 0.654477 0.000000
1.000000 0.693066 0.145401
1.000000 0.796552 0.559577
0.000000 0.947876 0.000000
0.000000 0.947714 0.000000
0.000000 0.947283 0.000000
0.000000 0.943366 0.000000
0.541217 0.927010 0.000000
0.933070 0.908047 0.000000
1.000000 0.904034 0.182973
1.000000 0.916468 0.575338
0.000000 1.000000 0.300884
0.000000 1.000000 0.300974
0.000000 1.000000 0.301149
0.000000 1.000000 0.301730
0.586152 0.999985 0.307880
0.893913 0.992945 0.335341
1.000000 0.985652 0.427602
1.000000 0.983874 0.667365
0.678380 1.000000 0.744043
0.680551 1.000000 0.744056
0.685655 1.000000 0.744087
0.702270 1.000000 0.744166
0.762703 1.000000 0.744422
0.896647 1.000000 0.749028
0.985575 1.000000 0.765084
1.000000 1.000000 0.817283
0.000000 0.000000 0.102324
0.012682 0.000000 0.102073
0.126108 0.000000 0.101078
0.350059 0.000000 0.096747
0.762770 0.000000 0.095939
1.000000 0.000000 0.117711
1.000000 0.000000 0.220166
1.000000 0.593940 0.567220
0.000000 0.014478 0.101557
0.005918 0.013319 0.101256
0.122998 0.002412 0.100614
0.347133 0.000000 0.096792
0.763254 0.000000 0.095749
1.000000 0.000000 0.116818
1.000000 0.018995 0.218977
1.000000 0.601714 0.566859
0.000000 0.103235 0.097408
0.000000 0.101513 0.096460
0.093085 0.093085 0.093085
0.340294 0.053304 0.094285
0.760639 0.000000 0.093207
1.000000 0.000000 0.113322
1.000000 0.086925 0.215700
1.000000 0.620066 0.566020
0.000000 0.315147 0.062505
0.000000 0.314957 0.062784
0.000000 0.313457 0.063429
0.307861 0.299928 0.064806
0.756335 0.244622 0.065449
1.000000 0.191583 0.088405
1.000000 0.368445 0.200076
1.000000 0.684388 0.563101
0.000000 0.698589 0.000000
0.000000 0.698474 0.000000
0.000000 0.697872 0.000000
0.000000 0.693461 0.000000
0.687525 0.670354 0.000000
0.999721 0.654593 0.000000
1.000000 0.694363 0.145428
1.000000 0.797032 0.559646
0.000000 0.947829 0.000000
0.000000 0.947687 0.000000
0.000000 0.947308 0.000000
0.000000 0.943303 0.000000
0.540257 0.926954 0.000000
0.932448 0.907997 0.000000
1.000000 0.904151 0.189118
1.000000 0.916573 0.575439
0.000000 1.000000 0.347943
0.000000 1.000000 0.348017
0.000000 1.000000 0.348191
0.000000 1.000000 0.348824
0.583428 0.999954 0.354079
0.893027 0.992869 0.377026
1.000000 0.985588 0.455825
1.000000 0.983885 0.667443
0.678460 1.000000 0.751848
0.680622 1.000000 0.751861
0.685424 1.000000 0.751885
0.701963 1.000000 0.751955
0.762118 1.000000 0.752181
0.896206 1.000000 0.756058
0.985255 1.000000 0.771573
1.000000 1.000000 0.817307
0.000000 0.000000 0.311124
0.000000 0.000000 0.311055
0.089846 0.000000 0.310176
0.364955 0.000000 0.307026
0.775895 0.000000 0.306134
1.000000 0.000000 0.320552
1.000000 0.015203 0.383164
1.000000 0.601878 0.567095
0.000000 0.008887 0.310946
0.000000 0.007812 0.310899
0.086519 0.000005 0.310184
0.364279 0.000000 0.307198
0.774276 0.000000 0.306260
1.000000 0.000000 0.320449
1.000000 0.032185 0.382669
1.000000 0.608996 0.566770
0.000000 0.096509 0.308758
0.000000 0.095992 0.308793
0.053687 0.091021 0.308578
0.357956 0.030673 0.306745
0.769148 0.000000 0.305942
1.000000 0.000000 0.319811
1.000000 0.103399 0.381099
1.000000 0.627078 0.565943
0.000000 0.311870 0.298413
0.000000 0.311743 0.298568
0.000000 0.310668 0.298941
0.299453 0.299453 0.299453
0.749400 0.245320 0.300238
1.000000 0.185826 0.313708
1.000000 0.366843 0.374534
1.000000 0.688287 0.563184
0.000000 0.698393 0.259964
0.000000 0.698322 0.260075
0.000000 0.697727 0.260537
0.000000 0.693293 0.262008
0.684026 0.670287 0.266990
0.998568 0.654860 0.286014
1.000000 0.694356 0.356220
1.000000 0.798847 0.559908
0.000000 0.947753 0.274691
0.000000 0.947706 0.274708
0.000000 0.946950 0.275177
0.000000 0.943033 0.276962
0.537171 0.926662 0.283361
0.929457 0.907738 0.312505
1.000000 0.903887 0.388651
1.000000 0.916972 0.575818
0.000000 1.000000 0.478805
0.000000 1.000000 0.478836
0.000000 1.000000 0.478912
0.003065 1.000000 0.479268
0.573209 0.999833 0.482505
0.889733 0.992590 0.497676
0.999671 0.985323 0.552685
1.000000 0.983903 0.672800
0.678841 1.000000 0.777261
0.680508 1.000000 0.777268
0.684822 1.000000 0.777288
0.700989 1.000000 0.777360
0.759926 1.000000 0.777630
0.894587 1.000000 0.780765
0.984166 1.000000 0.792915
1.000000 1.000000 0.830640
0.000000 0.000000 0.696903
0.000000 0.000000 0.696882
0.000000 0.000000 0.696521
0.319554 0.000000 0.693915
0.806670 0.000000 0.688779
1.000000 0.000000 0.691293
1.000000 0.030449 0.710418
1.000000 0.600572 0.761980
0.000000 0.001425 0.696773
0.000000 0.001569 0.696746
0.000000 0.000000 0.696381
0.318422 0.000000 0.693864
0.806393 0.000000 0.688775
1.000000 0.000000 0.691167
1.000000 0.050161 0.710076
1.000000 0.608403 0.761647
0.000000 0.081828 0.695571
0.000000 0.081238 0.695543
0.000000 0.075006 0.695249
0.311575 0.017140 0.693150
0.803642 0.000000 0.688475
1.000000 0.000000 0.690655
1.000000 0.113555 0.709138
1.000000 0.628505 0.760792
0.000000 0.308969 0.688433
0.000000 0.308900 0.688435
0.000000 0.307564 0.688371
0.236334 0.295919 0.687569
0.783189 0.219063 0.685129
1.000000 0.157074 0.687197
1.000000 0.359085 0.705081
1.000000 0.684364 0.758367
0.000000 0.697517 0.668416
0.000000 0.697358 0.668430
0.000000 0.696665 0.668524
0.000000 0.692014 0.668656
0.668818 0.668818 0.668818
0.992628 0.654852 0.672788
1.000000 0.692181 0.692851
1.000000 0.797489 0.753644
0.000000 0.946519 0.665645
0.000000 0.946385 0.665667
0.000000 0.945871 0.665730
0.000000 0.941880 0.665956
0.514309 0.925604 0.666818
0.918117 0.906779 0.673791
1.000000 0.903034 0.696014
1.000000 0.916305 0.756063
0.000000 1.000000 0.723859
0.000000 1.000000 0.723854
0.000000 1.000000 0.723842
0.097020 1.000000 0.723940
0.539275 0.999424 0.724388
0.880234 0.991749 0.728976
0.996042 0.984582 0.748743
1.000000 0.983385 0.792545
0.676549 1.000000 0.840279
0.678066 1.000000 0.840279
0.681993 1.000000 0.840279
0.696709 1.000000 0.840281
0.751231 1.000000 0.840345
0.890052 1.000000 0.841796
0.981148 1.000000 0.848414
1.000000 1.000000 0.869337
0.000000 0.000000 0.953918
0.000000 0.000000 0.953860
0.000000 0.000000 0.953606
0.250660 0.000000 0.951341
0.786365 0.000000 0.944083
1.000000 0.000000 0.939664
1.000000 0.023282 0.937903
1.000000 0.599370 0.930448
0.000000 0.000491 0.953765
0.000000 0.000541 0.953705
0.000000 0.000035 0.953531
0.255797 0.000587 0.951242
0.786119 0.000000 0.943954
1.000000 0.000000 0.939574
1.000000 0.043218 0.937492
1.000000 0.605769 0.930157
0.000000 0.062344 0.952647
0.000000 0.063964 0.952569
0.000000 0.067297 0.952343
0.246296 0.054173 0.950157
0.783061 0.000000 0.943436
1.000000 0.000000 0.939050
1.000000 0.093501 0.936455
1.000000 0.622213 0.929409
0.000000 0.307486 0.945921
0.000000 0.307293 0.945903
0.000000 0.306185 0.945742
0.149280 0.293728 0.944331
0.763184 0.217831 0.939387
1.000000 0.119003 0.935468
1.000000 0.334323 0.932235
1.000000 0.675679 0.926835
0.000000 0.695862 0.925214
0.000000 0.695715 0.925200
0.000000 0.695364 0.925156
0.000000 0.690603 0.924667
0.644954 0.667244 0.922476
0.992456 0.645569 0.920459
1.000000 0.685405 0.919157
1.000000 0.794440 0.920403
0.000000 0.945426 0.908068
0.000000 0.945255 0.908052
0.000000 0.944558 0.907992
0.000000 0.940573 0.907665
0.466948 0.924625 0.906406
0.905544 0.905544 0.905544
1.000000 0.902391 0.906947
1.000000 0.915205 0.913613
0.000000 1.000000 0.907437
0.000000 1.000000 0.907422
0.000000 1.000000 0.907384
0.033860 1.000000 0.907206
0.521349 1.000000 0.906283
0.869079 0.990852 0.905861
0.988015 0.983800 0.908049
1.000000 0.982780 0.915171
0.640487 1.000000 0.924990
0.641279 1.000000 0.924988
0.643330 1.000000 0.924982
0.651025 1.000000 0.924961
0.714604 1.000000 0.924859
0.881798 1.000000 0.924704
0.976568 1.000000 0.926080
1.000000 1.000000 0.932288
0.153162 0.069713 1.000000
0.163449 0.067338 1.000000
0.189897 0.061244 1.000000
0.315120 0.058664 1.000000
0.765825 0.000000 1.000000
1.000000 0.010988 1.000000
1.000000 0.058611 1.000000
1.000000 0.556786 0.999807
0.155235 0.081265 1.000000
0.165508 0.078884 1.000000
0.191924 0.072780 1.000000
0.312744 0.065100 1.000000
0.765612 0.001765 1.000000
1.000000 0.013687 1.000000
1.000000 0.064259 1.000000
1.000000 0.563920 0.999765
0.160609 0.115896 1.000000
0.170851 0.113628 1.000000
0.197188 0.107812 1.000000
0.307680 0.085866 1.000000
0.758546 0.021282 1.000000
1.000000 0.020773 1.000000
1.000000 0.090769 1.000000
1.000000 0.582306 0.999656
0.039218 0.298422 1.000000
0.048354 0.296515 1.000000
0.071828 0.291633 1.000000
0.176074 0.272912 1.000000
0.741202 0.230174 1.000000
1.000000 0.151556 1.000000
1.000000 0.247101 1.000000
1.000000 0.650088 0.999257
0.000000 0.695794 1.000000
0.000000 0.695643 1.000000
0.000000 0.695261 1.000000
0.069325 0.692167 1.000000
0.633929 0.667817 1.000000
0.994942 0.645691 1.000000
1.000000 0.661987 0.999111
1.000000 0.784664 0.996454
0.000000 0.941247 0.992670
0.000000 0.941052 0.992651
0.000000 0.940549 0.992603
0.000000 0.938425 0.992395
0.410170 0.924847 0.991166
0.899364 0.905107 0.989487
1.000000 0.899678 0.988855
1.000000 0.913157 0.988290
0.000000 1.000000 0.986090
0.000000 1.000000 0.986083
0.016164 1.000000 0.986029
0.093089 1.000000 0.985791
0.453616 0.999556 0.984888
0.861261 0.990543 0.983664
0.983324 0.983323 0.983323
1.000000 0.982544 0.983802
0.657977 1.000000 0.984541
0.659332 1.000000 0.984537
0.662848 1.000000 0.984526
0.676055 1.000000 0.984484
0.726506 1.000000 0.984320
0.878223 1.000000 0.983777
0.972703 1.000000 0.983577
1.000000 1.000000 0.984286
0.380810 0.321297 1.000000
0.387542 0.320632 1.000000
0.404998 0.318904 1.000000
0.470483 0.312455 1.000000
0.735414 0.286891 1.000000
0.993647 0.183091 1.000000
1.000000 0.156667 1.000000
1.000000 0.599725 1.000000
0.382163 0.328308 1.000000
0.388898 0.327639 1.000000
0.406342 0.325909 1.000000
0.471811 0.319451 1.000000
0.735358 0.293532 1.000000
0.993693 0.188232 1.000000
1.000000 0.166732 1.000000
1.000000 0.602706 1.000000
0.385682 0.346410 1.000000
0.392411 0.345738 1.000000
0.409842 0.344004 1.000000
0.475258 0.337730 1.000000
0.735194 0.313160 1.000000
0.992507 0.203750 1.000000
1.000000 0.192752 1.000000
1.000000 0.610327 1.000000
0.398988 0.417700 1.000000
0.405694 0.417042 1.000000
0.423074 0.415344 1.000000
0.488291 0.408994 1.000000
0.735590 0.386543 1.000000
0.979977 0.276370 1.000000
1.000000 0.289644 1.000000
1.000000 0.636111 1.000000
0.346477 0.653391 1.000000
0.352923 0.652674 1.000000
0.369612 0.650827 1.000000
0.432236 0.643917 1.000000
0.672405 0.619421 1.000000
0.961223 0.581103 1.000000
1.000000 0.672797 1.000000
1.000000 0.750316 1.000000
0.152269 0.934170 1.000000
0.155275 0.934037 1.000000
0.163062 0.933692 1.000000
0.192283 0.932402 1.000000
0.361846 0.926229 1.000000
0.897785 0.905225 1.000000
0.999997 0.899537 1.000000
1.000000 0.906037 1.000000
0.349289 0.998555 1.000000
0.353650 0.998537 1.000000
0.364958 0.998490 1.000000
0.407466 0.998315 1.000000
0.574387 0.998183 1.000000
0.838882 0.991029 1.000000
0.981479 0.983192 1.000000
1.000000 0.981641 1.000000
0.675673 1.000000 1.000000
0.676153 1.000000 1.000000
0.677399 1.000000 1.000000
0.688274 1.000000 1.000000
0.735132 1.000000 1.000000
0.855184 1.000000 1.000000
0.970417 1.000000 1.000000
1.000000 1.000000 1.000000
