StdX_ACES-Global/StdX_global_config.ocio
ocio_profile_version: 2
luma: [0.2126, 0.7152, 0.0722]
name: StudioX Gloabal ACES config 2.0 - Author Derek Flood
description: |
  Academy Color Encoding System - StudioX Global Config 
  Based on the studio-config-v1.0.0_aces-v1.3_ocio-v2.0 config from "OpenColorIO-Config-ACES" [COLORSPACES v1.0.0] [ACES v1.3] [OCIO v2.0]
  ------------------------------------------------------------------------------------------
  
  This "OpenColorIO" config is geared toward studios requiring a config that includes a wide variety of camera colorspaces, displays and looks.
  
# ---------------- Per Shot Grade Variables ------------------------- #
environment:
#--------------
# example path: ../shots/SM_020_018/01_Client_Original_Footage/5_LUT/
#--------------
  LUT_PATH: shot_lut/
  LUT_NAME: clientShotLUTname_ACEScct.cube
#--------------
# Camera aliases are: ARRIv3_log, ARRIv3_lin, ARRIv4_log, ARRIv4_log
# RED_log, RED_lin, CLog2, CLog3, Panasonic_log, Panasonic_lin, ADX10
# Sony_log, SonyCine_log, SonyVenice_log, SonyVeniceCine_log, Sony_lin, SonyCine_lin, SonyVenice_lin, SonyVeniceCine_lin, 
# CAMERA variable is set to ACEScct for ACES EXR workflow, and to camera for DPX for display-referred workflow
#--------------
  CAMERA: ARRIv3_log
  SHAPER: ACEScct
# ------------------------------------------------------------------- # 


search_path: "Looks:${LUT_PATH}"

roles:
  aces_interchange: ACES2065-1
  cie_xyz_d65_interchange: CIE-XYZ-D65
  color_timing: ACEScct
  color_picking: hdr
  compositing_linear: ACEScg  
  compositing_log: ACEScct
  data: Raw
  reference: ap1
  rendering: ACEScg
  scene_linear: ACEScg
  
#  bakeView_anm: ANM - Studio Look - RGC (Gamma 2.2 - Display)
#  bakeView_vfx: ACES 1.0 SDR-video (Rec.709 - Display)
  
#   Nuke 8-bit default:  
  matte_paint: Color sRGB Texture
#   Nuke 16-bit log default:  
  texture_paint: ACEScct
  
#     substance_3d_painter_standard_srgb: hdr
  substance_3d_painter_bitmap_import_8bit: Color sRGB Texture
  substance_3d_painter_bitmap_import_16bit: Color sRGB Texture
  substance_3d_painter_bitmap_import_floating: Raw
  substance_3d_painter_bitmap_export_8bit: Color sRGB Texture
  substance_3d_painter_bitmap_export_16bit: Color sRGB Texture
  substance_3d_painter_bitmap_export_floating: Raw
  substance_3d_painter_substance_material: Color sRGB Texture
  

#  mari_monitor: ACES 1.0 SDR-video (Rec.709 - Display)
#  mari_scaler_monitor: Raw
#  mari_color_picker: hdr 
#  mari_blending: Raw 
  mari_int8: Color sRGB Texture
  mari_int16: ACEScct
  mari_int_scalar: Raw
  mari_float: ACEScg


file_rules:

  - !<Rule> {name: tx, colorspace: Raw, pattern: "*", extension: tx}
  - !<Rule> {name: hdr, colorspace: Linear Rec.709 (sRGB), pattern: "*", extension: hdr}
  - !<Rule> {name: exr, colorspace: Raw, pattern: "*", extension: exr}
  - !<Rule> {name: ColorSpaceNamePathSearch}
  - !<Rule> {name: Default, colorspace: Raw}


shared_views:

  - !<View> {name: ACES 1.0 - SDR-video, view_transform: SDR Video - ACES 1.0, display_colorspace: <USE_DISPLAY_NAME>}
  - !<View> {name: ANM - Studio Look - RGC, view_transform: SDR Video - ACES 1.0, looks: "RedExp, LMT_gamut, ACESLooks LMT - RED IPP2 Look", display_colorspace: <USE_DISPLAY_NAME>} 
  - !<View> {name: VFX - ACES Shot Look, view_transform: SDR Video - ACES 1.0, looks: LMT_shot, display_colorspace: <USE_DISPLAY_NAME>}

  - !<View> {name: ARRI ALF-2 Look, view_transform: SDR Video - ACES 1.0, looks: "ACESLooks LMT - ARRI ALF-2 Look", display_colorspace: <USE_DISPLAY_NAME>} 
  - !<View> {name: VFX - ARRI K1S1 Look, view_transform: SDR Video - ACES 1.0, looks: "ACESLooks LMT - ARRI K1S1 Look", display_colorspace: <USE_DISPLAY_NAME>} 
  - !<View> {name: RED IPP2 Look, view_transform: SDR Video - ACES 1.0, looks: "ACESLooks LMT - RED IPP2 Look", display_colorspace: <USE_DISPLAY_NAME>} 
  - !<View> {name: Sony S-gamut3 Cine Look, view_transform: SDR Video - ACES 1.0, looks: "ACESLooks LMT - SONY S-Gamut3.Cine Look", display_colorspace: <USE_DISPLAY_NAME>} 
    
  - !<View> {name: Un-tone-mapped, view_transform: Un-tone-mapped, display_colorspace: <USE_DISPLAY_NAME>}


  
displays:

  Gamma 2.2 - Display:
    - !<Views> ["ACES 1.0 - SDR-video", ANM - Studio Look - RGC, Un-tone-mapped]
  Apple P3 - Display:
    - !<Views> ["ACES 1.0 - SDR-video", ANM - Studio Look - RGC, Un-tone-mapped, VFX - ACES Shot Look, ARRI ALF-2 Look, VFX - ARRI K1S1 Look, RED IPP2 Look, Sony S-gamut3 Cine Look]
  Rec.1886 Rec.709 - Display:
    - !<Views> ["ACES 1.0 - SDR-video", Un-tone-mapped, VFX - ACES Shot Look, ARRI ALF-2 Look, VFX - ARRI K1S1 Look, RED IPP2 Look, Sony S-gamut3 Cine Look]
  USE ONLY FOR CHECKING COMPS:
    - !<View> {name: Log, colorspace: camera_log}
  USE ONLY FOR CHECKING RENDERS:
    - !<View> {name: Raw, colorspace: Raw}
  Non-Color Managed DPX Workflow:
    - !<View> {name: "VFX - DPX Shot Look", colorspace: "VFX - DPX Shot Look (Non-Color Managed)"}


active_displays: [Gamma 2.2 - Display, "Rec.1886 Rec.709 - Display",  "USE ONLY FOR CHECKING COMPS", "USE ONLY FOR CHECKING RENDERS", "Non-Color Managed DPX Workflow"]
active_views: [ACES 1.0 - SDR-video, ANM - Studio Look - RGC, VFX - ARRI K1S1 Look, Log, Raw]
inactive_colorspaces: [CIE-XYZ-D65, Gamut Shaper, camera_log, Shot_shaper, Pick Rec709-sRGB Desat, "Color sRGB Texture lowCon", "Apple P3 - Display", Gamma 2.2 - Display, Rec.1886 Rec.709 - Display, Unreal Engine sRGB Display, VFX - ACES Shot Look (Gamma 2.2 - Display), Color Rec.709 Texture, Color Gamma 2.2 Texture, ANM - Studio Look - RGC (Rec.709 - Display), VFX - ACES Shot Look (Rec.709 - Display), VFX - DPX Shot Look (Non-Color Managed)]



view_transforms:

  - !<ViewTransform>
    name: Un-tone-mapped
    from_scene_reference: !<BuiltinTransform> {style: UTILITY - ACES-AP0_to_CIE-XYZ-D65_BFD}

  - !<ViewTransform>
    name: SDR Video - ACES 1.0
    description: Component of ACES Output Transforms for SDR D65 video
    from_scene_reference: !<BuiltinTransform> {style: ACES-OUTPUT - ACES2065-1_to_CIE-XYZ-D65 - SDR-VIDEO_1.0}
        
looks:

  - !<Look>
    name: LMT_gamut
    process_space: Gamut Shaper
    transform: !<FileTransform> {src: aces_RGC_33.clf, interpolation: linear}  

  - !<Look>
    name: LMT_shot
    process_space: Shot_shaper
    transform: !<FileTransform> {src: "${LUT_NAME}", interpolation: linear} 

  - !<Look>
    name: LowContrastCDL
    process_space: ACEScct
    transform: !<CDLTransform> {slope: [0.85, 0.85, 0.85], offset: [0.06525, 0.06525, 0.06525], power: [1.0, 1.0, 1.0]}

#-- Emulates the look of Camera vendor DRTs
 
  - !<Look>
    name: ACESLooks LMT - ARRI ALF-2 Look
    description: |
      This LMT emulates the look of the ARRI ALF-2 DRT when used with ACES 1.3 and Rec.709 Output Transform.
    process_space: ACES2065-1
    transform: !<FileTransform> {src: M-ARRI.clf}

  - !<Look>
    name: ACESLooks LMT - ARRI K1S1 Look
    description: |
      This LMT emulates the look of the ARRI K1S1 DRT when used with ACES 1.3 and Rec.709 Output Transform.
    process_space: ACES2065-1
    transform: !<FileTransform> {src: M-ARRI_Classic.clf}

  - !<Look>
    name: RedExp
    process_space: ACES2065-1
    transform: !<ExposureContrastTransform> {style: linear, exposure: -0.5, contrast: 1.0, gamma: 1.0, pivot: 0.18}

  - !<Look>
    name: ACESLooks LMT - RED IPP2 Look
    description: |
      This LMT emulates the look of the RED IPP2 DRT (MEDIUM contrast) when used with ACES 1.3 and Rec.709 Output Transform.
    process_space: ACES2065-1
    transform: !<FileTransform> {src: M-RED.clf}

  - !<Look>
    name: ACESLooks LMT - SONY S-Gamut3.Cine Look
    description: |
      This LMT emulates the look of the SONY S-Gamut3.Cine DRT when used with ACES 1.3 and Rec.709 Output Transform.
    process_space: ACES2065-1
    transform: !<FileTransform> {src: M-SONY.clf}




colorspaces:

#---------------------- Rendering -------------------------------#

  - !<ColorSpace>
    name: Color sRGB Texture
    aliases: [srgb_tx, Utility - sRGB - Texture, srgb_texture, Input - Generic - sRGB - Texture, sRGB - Texture, dif, BaseColor]
    family: Texture Input
    equalitygroup: ""
    bitdepth: 32f
    description: |
      Convert ACES2065-1 to sRGB
      CLFtransformID: urn:aswf:ocio:transformId:1.0:OCIO:Utility:AP0_to_sRGB-Texture:1.0
    isdata: false
    categories: [file-io]
    allocation: uniform
    from_scene_reference: !<GroupTransform>
      name: AP0 to sRGB Rec.709
      children:
        - !<MatrixTransform> {matrix: [2.52168618674388, -1.13413098823972, -0.387555198504164, 0, -0.276479914229922, 1.37271908766826, -0.096239173438334, 0, -0.0153780649660342, -0.152975335867399, 1.16835340083343, 0, 0, 0, 0, 1]}
        - !<ExponentWithLinearTransform> {gamma: 2.4, offset: 0.055, direction: inverse}


  - !<ColorSpace>
    name: Color P3-D65 sRGB Texture
#    aliases: [srgb_tx, Utility - sRGB - Texture, srgb_texture, Input - Generic - sRGB - Texture, sRGB - Texture, dif, BaseColor]
    family: Texture Input
    equalitygroup: ""
    bitdepth: 32f
    description: Convert ACES2065-1 to P3-D65 with sRGB EOTF
    isdata: false
    categories: [file-io]
    allocation: uniform
    from_scene_reference: !<GroupTransform>
      name: AP0 to P3-D65 with sRGB
      children:
        - !<MatrixTransform> {matrix: [2.04936115, -0.67820197, -0.37115918, 0, -0.18201788, 1.28351221, -0.10149433, 0, 0.00786579, -0.05546615, 1.04760037, 0, 0, 0, 0, 1]}
        - !<ExponentWithLinearTransform> {gamma: 2.4, offset: 0.055, direction: inverse}

  - !<ColorSpace>
    name: Raw
    family: Texture Input
    equalitygroup: ""
    bitdepth: 32f
    description: |
      Raw (no color processing)
    isdata: true
    categories: [ file-io ]
    encoding: data

  - !<ColorSpace>
    name: Linear Rec.709 (sRGB)
    aliases: [lin_rec709_srgb, Utility - Linear - Rec.709, lin_rec709, lin_srgb, Utility - Linear - sRGB, hdr]
    family: Texture Input
    equalitygroup: ""
    bitdepth: 32f
    description: |
      Convert ACES2065-1 to linear Rec.709 primaries, D65 white point
      CLFtransformID: urn:aswf:ocio:transformId:1.0:OCIO:Utility:AP0_to_Linear_Rec709:1.0
    isdata: false
    categories: [file-io, working-space]
    encoding: scene-linear
    allocation: uniform
    from_scene_reference: !<GroupTransform>
      name: AP0 to Linear Rec.709 (sRGB)
      children:
        - !<MatrixTransform> {matrix: [2.52168618674388, -1.13413098823972, -0.387555198504164, 0, -0.276479914229922, 1.37271908766826, -0.096239173438334, 0, -0.0153780649660342, -0.152975335867399, 1.16835340083343, 0, 0, 0, 0, 1]}

  - !<ColorSpace>
    name: Linear P3-D65
    aliases: [lin_p3d65]
    family: Texture Input
    equalitygroup: ""
    bitdepth: 32f
    description: Convert ACES2065-1 to linear P3 primaries, D65 white point
    isdata: false
    categories: [file-io, working-space]
    encoding: scene-linear
    allocation: uniform
    from_scene_reference: !<GroupTransform>
      name: AP0 to Linear P3-D65
      children:
        - !<MatrixTransform> {matrix: [2.04936115, -0.67820197, -0.37115918, 0, -0.18201788, 1.28351221, -0.10149433, 0, 0.00786579, -0.05546615, 1.04760037, 0, 0, 0, 0, 1]}

  - !<ColorSpace>
    name: Unreal Engine input (1.45 gain)
    family: Texture Input
    equalitygroup: ""
    bitdepth: 32f
    description: |
      Unreal Engine Scene-linear Rec.709 primaries to ACES primaries with gain boost of 1.45
    isdata: false
    encoding: scene-linear
    to_reference: !<GroupTransform>
      children:
        - !<MatrixTransform> {matrix: [ 0.439632981919, 0.382988698152, 0.177378319929, 0, 0.089776442959, 0.813439428749, 0.096784128292, 0, 0.017541170383, 0.111546553302, 0.870912276314, 0, 0, 0, 0, 1 ]}
        - !<CDLTransform> {slope: [1.45, 1.45, 1.45], offset: [0.0, 0.0, 0.0], power: [1.0, 1.0, 1.0]}

  - !<ColorSpace>
    name: Color Gamma 2.2 Texture
    aliases: [g22_rec709_tx, Utility - Gamma 2.2 - Rec.709 - Texture, g22_rec709, Gamma 2.2 Rec.709 - Texture]
    family: Texture Input
    equalitygroup: ""
    bitdepth: 32f
    description: |
      Convert ACES2065-1 to 2.2 gamma-corrected Rec.709 primaries, D65 white point
      CLFtransformID: urn:aswf:ocio:transformId:1.0:OCIO:Utility:AP0_to_Gamma2.2_Rec709-Texture:1.0
    isdata: false
    categories: [file-io]
    encoding: sdr-video
    allocation: uniform
    from_scene_reference: !<GroupTransform>
      name: AP0 to Gamma 2.2 Rec.709 - Texture
      children:
        - !<MatrixTransform> {matrix: [2.52168618674388, -1.13413098823972, -0.387555198504164, 0, -0.276479914229922, 1.37271908766826, -0.096239173438334, 0, -0.0153780649660342, -0.152975335867399, 1.16835340083343, 0, 0, 0, 0, 1]}
        - !<ExponentTransform> {value: 2.2, style: pass_thru, direction: inverse}

  - !<ColorSpace>
    name: Color Rec.709 Texture
    aliases: [g24_rec709_tx, g24_rec709, rec709_display, Utility - Rec.709 - Display, Gamma 2.4 Rec.709 - Texture]
    family: Texture Input
    equalitygroup: ""
    bitdepth: 32f
    description: |
      Convert ACES2065-1 to 2.4 gamma-corrected Rec.709 primaries, D65 white point
      CLFtransformID: urn:aswf:ocio:transformId:1.0:OCIO:Utility:AP0_to_Gamma2.4_Rec709-Texture:1.0
    isdata: false
    categories: [file-io]
    encoding: sdr-video
    allocation: uniform
    from_scene_reference: !<GroupTransform>
      name: AP0 to Gamma 2.4 Rec.709 - Texture
      children:
        - !<MatrixTransform> {matrix: [2.52168618674388, -1.13413098823972, -0.387555198504164, 0, -0.276479914229922, 1.37271908766826, -0.096239173438334, 0, -0.0153780649660342, -0.152975335867399, 1.16835340083343, 0, 0, 0, 0, 1]}
        - !<ExponentTransform> {value: 2.4, style: pass_thru, direction: inverse}

  - !<ColorSpace>
    name: Color sRGB Texture lowCon
    #aliases: [ dif, BaseColor ]
    family: Texture Input
    description: |
      sRGB texture color space (piecewise sRGB EOTF)
    isdata: false
    categories: [ file-io ]
    encoding: sdr-video
    to_reference: !<GroupTransform>
      children:
        - !<CDLTransform> {slope: [ 0.8, 0.8, 0.8 ], offset: [ 0.06525, 0.06525, 0.06525 ], sat: 1.0 }
        - !<ExponentWithLinearTransform> {gamma: 2.4, offset: 0.055}
        - !<MatrixTransform> {matrix:  [ 0.439632981919, 0.382988698152, 0.177378319929, 0, 0.089776442959, 0.813439428749, 0.096784128292, 0, 0.017541170383, 0.111546553302, 0.870912276314, 0, 0, 0, 0, 1 ]}

  - !<ColorSpace>
    name: Pick Rec709-sRGB Desat
    aliases: [ picker ]
    family: Texture Input
    bitdepth: 32f
    description: |
      color picking of sRGB primaries with slight desaturation (sat 0.85 based on rec709 luma 0.2126 0.7152 0.0722)
    isdata: false
    encoding: scene-linear
    to_reference: !<GroupTransform>
      children:
        - !<MatrixTransform> {matrix: [ 0.88189, 0.10728, 0.01083, 0, 0.03189, 0.95728, 0.01083, 0, 0.03189, 0.10728, 0.86083, 0, 0, 0, 0, 1 ]}
        - !<MatrixTransform> {matrix:  [ 0.439632981919, 0.382988698152, 0.177378319929, 0, 0.089776442959, 0.813439428749, 0.096784128292, 0, 0.017541170383, 0.111546553302, 0.870912276314, 0, 0, 0, 0, 1 ]}


  - !<ColorSpace>
    name: Gamut Shaper
    family: Texture Input
    equalitygroup: ""
    bitdepth: 32f
    description: |
      Logarithmic function with a linear segment, reflected by its intersection point with the Y-axis, 
      essentially mirroring the ACEScct shaper. Covers large amount of negative values for gamut mapping.
    isdata: false
    encoding: scene-linear
    to_reference: !<GroupTransform>
      children:
        - !<FileTransform> {src: aces_gm_lut_shaper_to_linear_v01.spi1d, interpolation: linear}
        - !<MatrixTransform> {matrix: [0.695452, 0.140679, 0.163869, 0, 0.0447946, 0.859671, 0.0955343, 0, -0.00552588, 0.00402521, 1.0015, 0, 0, 0, 0, 1]}

#---------------------- ACES ----------------------#

  - !<ColorSpace>
    name: ACEScg
    aliases: [ACES - ACEScg, lin_ap1, ap1]
    family: ACES
    equalitygroup: ""
    bitdepth: 32f
    description: |
      Convert ACEScg to ACES2065-1
      
      ACEStransformID: urn:ampas:aces:transformId:v1.5:ACEScsc.Academy.ACEScg_to_ACES.a1.0.3
    isdata: false
    categories: [file-io, working-space]
    encoding: scene-linear
    allocation: uniform
    to_scene_reference: !<BuiltinTransform> {style: ACEScg_to_ACES2065-1}

  - !<ColorSpace>
    name: ACES2065-1
    aliases: [aces2065_1, ACES - ACES2065-1, lin_ap0, ap0]
    family: ACES
    equalitygroup: ""
    bitdepth: 32f
    description: The "Academy Color Encoding System" reference colorspace.
    isdata: false
    categories: [file-io]
    encoding: scene-linear
    allocation: uniform

  - !<ColorSpace>
    name: ACEScct
    aliases: [ACES - ACEScct, acescct_ap1]
    family: ACES
    equalitygroup: ""
    bitdepth: 32f
    description: |
      Convert ACEScct to ACES2065-1
      
      ACEStransformID: urn:ampas:aces:transformId:v1.5:ACEScsc.Academy.ACEScct_to_ACES.a1.0.3
    isdata: false
    categories: [file-io, working-space]
    encoding: log
    allocation: uniform
    to_scene_reference: !<BuiltinTransform> {style: ACEScct_to_ACES2065-1}

  - !<ColorSpace>
    name: ACEScc
    aliases: [ACES - ACEScc, acescc_ap1]
    family: ACES
    equalitygroup: ""
    bitdepth: 32f
    description: |
      Convert ACEScc to ACES2065-1
      
      ACEStransformID: urn:ampas:aces:transformId:v1.5:ACEScsc.Academy.ACEScc_to_ACES.a1.0.3
    isdata: false
    categories: [file-io]
    encoding: log
    allocation: uniform
    to_scene_reference: !<BuiltinTransform> {style: ACEScc_to_ACES2065-1}


# Extra #

  - !<ColorSpace>
    name: Shot_shaper
    family: Utility
    equalitygroup: ""
    bitdepth: 32f
    description: |
      The ACEScct or ACEScc color space based on context variable
    isdata: false
    categories: [ file-io ]
    encoding: log
    to_reference: !<ColorSpaceTransform> {src: "${SHAPER}", dst: ACES2065-1}

  - !<ColorSpace>
    name: camera_log
    family: Utility
    equalitygroup: ""
    bitdepth: 32f
    description: |
      Camera log color space based on context variable
    isdata: false
    categories: [ file-io ]
    encoding: log
    to_reference: !<ColorSpaceTransform> {src: "${CAMERA}", dst: ACES2065-1}

  - !<ColorSpace>
    name: Inverse sRGB 2.2 Display
    family: Texture Input
    description: |
      sRGB monitor (pure 2.2 gamma)
    isdata: false
    categories: [ file-io ]
    encoding: sdr-video
    to_reference: !<DisplayViewTransform> {direction: inverse, src: ACES2065-1, display: "Gamma 2.2 - Display", view: "ACES 1.0 - SDR-video"}

  - !<ColorSpace>
    name: Gamma2.2
    family: Utility
    description: |
      sRGB monitor (pure 2.2 gamma). Here so movie files will work in Nuke.
    isdata: false
    categories: [ file-io ]
    encoding: sdr-video
    to_reference: !<DisplayViewTransform> {direction: inverse, src: ACES2065-1, display: "Gamma 2.2 - Display", view: "ACES 1.0 - SDR-video"}

  - !<ColorSpace>
    name: Inverse Rec709 Display
    family: Texture Input
    description: |
      Rec.709 Display
    isdata: false
    categories: [ file-io ]
    encoding: sdr-video
    to_reference: !<DisplayViewTransform> {direction: inverse, src: ACES2065-1, display: Rec.1886 Rec.709 - Display, view: "ACES 1.0 - SDR-video"}


  - !<ColorSpace>
    name: rec709
    family: Utility
    description: |
      Rec.709 Display
    isdata: false
    categories: [ file-io ]
    encoding: sdr-video
    to_reference: !<DisplayViewTransform> {direction: inverse, src: ACES2065-1, display: Rec.1886 Rec.709 - Display, view: "ACES 1.0 - SDR-video"}


#---------------------- Cameras ----------------------#


# BlackMagic -------

  - !<ColorSpace>
    name: BMDFilm WideGamut Gen5
    aliases: [bmdfilm_widegamut_gen5]
    family: Camera Input/Blackmagic
    equalitygroup: ""
    bitdepth: 32f
    description: |
      Convert Blackmagic Film Wide Gamut (Gen 5) to ACES2065-1
      CLFtransformID: urn:aswf:ocio:transformId:1.0:BlackmagicDesign:Input:BMDFilm_WideGamut_Gen5_to_ACES2065-1:1.0
    isdata: false
    categories: [file-io]
    encoding: log
    allocation: uniform
    to_scene_reference: !<GroupTransform>
      name: Blackmagic Film Wide Gamut (Gen 5) to ACES2065-1
      children:
        - !<LogCameraTransform> {base: 2.71828182845905, log_side_slope: 0.0869287606549122, log_side_offset: 0.530013339229194, lin_side_offset: 0.00549407243225781, lin_side_break: 0.005, direction: inverse}
        - !<MatrixTransform> {matrix: [0.647091325580708, 0.242595385134207, 0.110313289285085, 0, 0.0651915997328519, 1.02504756760476, -0.0902391673376125, 0, -0.0275570729194699, -0.0805887097177784, 1.10814578263725, 0, 0, 0, 0, 1]}

  - !<ColorSpace>
    name: DaVinci Intermediate WideGamut
    aliases: [davinci_intermediate_widegamut]
    family: Camera Input/Blackmagic
    equalitygroup: ""
    bitdepth: 32f
    description: |
      Convert DaVinci Intermediate Wide Gamut to ACES2065-1
      CLFtransformID: urn:aswf:ocio:transformId:1.0:BlackmagicDesign:Input:DaVinci_Intermediate_WideGamut_to_ACES2065-1:1.0
    isdata: false
    categories: [file-io]
    encoding: log
    allocation: uniform
    to_scene_reference: !<GroupTransform>
      name: DaVinci Intermediate Wide Gamut to ACES2065-1
      children:
        - !<LogCameraTransform> {log_side_slope: 0.07329248, log_side_offset: 0.51304736, lin_side_offset: 0.0075, lin_side_break: 0.00262409, linear_slope: 10.44426855, direction: inverse}
        - !<MatrixTransform> {matrix: [0.748270290272981, 0.167694659554328, 0.0840350501726906, 0, 0.0208421234689102, 1.11190474268894, -0.132746866157851, 0, -0.0915122574225729, -0.127746712807307, 1.21925897022988, 0, 0, 0, 0, 1]}

  - !<ColorSpace>
    name: Linear BMD WideGamut Gen5
    aliases: [lin_bmd_widegamut_gen5]
    family: Camera Input/Blackmagic
    equalitygroup: ""
    bitdepth: 32f
    description: |
      Convert Linear Blackmagic Wide Gamut (Gen 5) to ACES2065-1
      CLFtransformID: urn:aswf:ocio:transformId:1.0:BlackmagicDesign:Input:Linear_BMD_WideGamut_Gen5_to_ACES2065-1:1.0
    isdata: false
    categories: [file-io]
    encoding: scene-linear
    allocation: uniform
    to_scene_reference: !<GroupTransform>
      name: Linear Blackmagic Wide Gamut (Gen 5) to ACES2065-1
      children:
        - !<MatrixTransform> {matrix: [0.647091325580708, 0.242595385134207, 0.110313289285085, 0, 0.0651915997328519, 1.02504756760476, -0.0902391673376125, 0, -0.0275570729194699, -0.0805887097177784, 1.10814578263725, 0, 0, 0, 0, 1]}

  - !<ColorSpace>
    name: Linear DaVinci WideGamut
    aliases: [lin_davinci_widegamut]
    family: Camera Input/Blackmagic
    equalitygroup: ""
    bitdepth: 32f
    description: |
      Convert Linear DaVinci Wide Gamut to ACES2065-1
      CLFtransformID: urn:aswf:ocio:transformId:1.0:BlackmagicDesign:Input:Linear_DaVinci_WideGamut_to_ACES2065-1:1.0
    isdata: false
    categories: [file-io]
    encoding: scene-linear
    allocation: uniform
    to_scene_reference: !<GroupTransform>
      name: Linear DaVinci Wide Gamut to ACES2065-1
      children:
        - !<MatrixTransform> {matrix: [0.748270290272981, 0.167694659554328, 0.0840350501726906, 0, 0.0208421234689102, 1.11190474268894, -0.132746866157851, 0, -0.0915122574225729, -0.127746712807307, 1.21925897022988, 0, 0, 0, 0, 1]}


# ARRI --------


  - !<ColorSpace>
    name: ARRI LogC3 (EI800)
    aliases: [arri_logc3_ei800, Input - ARRI - V3 LogC (EI800) - Wide Gamut, logc3ei800_alexawide, ARRIv3_log]
    family: Camera Input/ARRI
    equalitygroup: ""
    bitdepth: 32f
    description: |
      Convert ARRI LogC3 (EI800) to ACES2065-1
      CLFtransformID: urn:aswf:ocio:transformId:1.0:ARRI:Input:ARRI_LogC3_EI800_to_ACES2065-1:1.0
    isdata: false
    categories: [file-io]
    encoding: log
    allocation: uniform
    to_scene_reference: !<GroupTransform>
      name: ARRI LogC3 (EI800) to ACES2065-1
      children:
