StdX-ACES-OCIOv2.0/config-ANM-HDR.ocio
# Maya 2022 default config.
# Modified by Derek for StudioX
#


ocio_profile_version: 2

description: Maya 2022 default config, modified by Derek Flood for StudioX
name: Maya_2022_default

environment: {}

search_path: "show:studio"

roles:
  aces_interchange: ACES2065-1
  cie_xyz_d65_interchange: CIE-XYZ D65
  color_timing: ACEScct
  color_picking: hdr
  compositing_linear: ACEScg  
  compositing_log: ACEScct
  data: Raw
  default: Raw
  reference: Raw
  rendering: ACEScg
  scene_linear: ACEScg
  
#   Nuke 8-bit default:  #
  matte_paint: Output - ACES 1.0 SDR-video (sRGB)  
#   Nuke 16-bit log default:  #
  texture_paint: ACEScct
  
  substance_3d_bitmap_import_8bit: Color sRGB Texture
  substance_3d_bitmap_import_16bit: Color sRGB Texture
  substance_3d_bitmap_import_floating: Raw
  substance_3d_bitmap_export_8bit: Color sRGB Texture
  substance_3d_bitmap_export_16bit: Color sRGB Texture
  substance_3d_bitmap_export_floating: Raw
  substance_3d_substance_material: Color sRGB Texture

  mari_monitor: Output - Neutral Look (sRGB)
  mari_scaler_monitor: Raw
  mari_color_picker: hdr 
  mari_blending: Raw 
  mari_int8: Color sRGB Texture
  mari_int16: ACEScct
  mari_int_scalar: Raw
  mari_float: ACEScg


file_rules:

  - !<Rule> {name: tx, colorspace: Raw, pattern: "*", extension: tx}
  - !<Rule> {name: hdr, colorspace: scene-linear Rec.709-sRGB, pattern: "*", extension: hdr}
  - !<Rule> {name: exr, colorspace: Raw, pattern: "*", extension: exr}
  - !<Rule> {name: ColorSpaceNamePathSearch}
  - !<Rule> {name: Default, colorspace: default}


shared_views:

  - !<View> {name: ACES 1.0 - SDR-video, view_transform: Output - SDR Video - ACES 1.0, looks: LMT_gamut, display_colorspace: <USE_DISPLAY_NAME>}
  - !<View> {name: Neutral Look - SDR-video, view_transform: Output - SDR Video - ACES 1.0, looks: "LMT_gamut, LMT_neutral", display_colorspace: <USE_DISPLAY_NAME>}
  - !<View> {name: Filmic Look - SDR-video, view_transform: Output - SDR Video - ACES 1.0, looks: "LMT_gamut, LMT_filmic", display_colorspace: <USE_DISPLAY_NAME>}

  - !<View> {name: ACES 1.0 - SDR-cinema, view_transform: Output - ACES 1.1 SDR-cinema, looks: LMT_gamut, display_colorspace: <USE_DISPLAY_NAME>}    
  - !<View> {name: P3-500 nits - HDR-video, view_transform: Output - HDR Video (500 nits & P3 lim) - ACES, looks: LMT_gamut, display_colorspace: <USE_DISPLAY_NAME>}   
  - !<View> {name: P3-1000 nits - HDR-video, view_transform: Output - HDR Video (1000 nits & P3 lim) - ACES 1.1, looks: LMT_gamut, display_colorspace: <USE_DISPLAY_NAME>}
    
  - !<View> {name: Un-tone-mapped, view_transform: Un-tone-mapped, display_colorspace: <USE_DISPLAY_NAME>}
  - !<View> {name: Log, colorspace: ACEScct}
  - !<View> {name: Raw, colorspace: Raw}


  
displays:


  sRGB:
    - !<Views> [ACES 1.0 - SDR-video, Neutral Look - SDR-video, Filmic Look - SDR-video, Un-tone-mapped, Log, Raw]
  Gamma 2.2 - Rec.709:
    - !<Views> [ACES 1.0 - SDR-video, Neutral Look - SDR-video, Filmic Look - SDR-video]
  Apple Display P3:
    - !<Views> [ACES 1.0 - SDR-video, P3-500 nits - HDR-video, P3-1000 nits - HDR-video, Neutral Look - SDR-video, Filmic Look - SDR-video]
  DCI-P3 D65:
    - !<Views> [ACES 1.0 - SDR-video, P3-500 nits - HDR-video, P3-1000 nits - HDR-video, Neutral Look - SDR-video, Filmic Look - SDR-video]
  Rec.1886 - Rec.709 video:
    - !<Views> [ACES 1.0 - SDR-video, Neutral Look - SDR-video, Filmic Look - SDR-video]


#active_displays: [sRGB Display, Apple P3 Display]
#active_views: [ACES 1.0 - SDR-video, Neutral - SDR-video, Filmic - SDR-video, Un-tone-mapped, Log, Raw, P3-500 nits - HDR-video, P3-1000 nits - HDR-video]


view_transforms:

  - !<ViewTransform>
    name: Un-tone-mapped
    from_scene_reference: !<BuiltinTransform> {style: UTILITY - ACES-AP0_to_CIE-XYZ-D65_BFD}

  - !<ViewTransform>
    name: Output - SDR Video - ACES 1.0
    description: Component of ACES Output Transforms for SDR D65 video
    from_scene_reference: !<BuiltinTransform> {style: ACES-OUTPUT - ACES2065-1_to_CIE-XYZ-D65 - SDR-VIDEO_1.0}

  - !<ViewTransform>
    name: Output - SDR Video (P3 lim) - ACES 1.1
    description: Component of ACES Output Transforms for SDR D65 video
    from_scene_reference: !<BuiltinTransform> {style: ACES-OUTPUT - ACES2065-1_to_CIE-XYZ-D65 - SDR-VIDEO-P3lim_1.1}
    
  - !<ViewTransform>
    name: Output - ACES 1.1 SDR-cinema
    from_scene_reference: !<BuiltinTransform> {style: "ACES-OUTPUT - ACES2065-1_to_CIE-XYZ-D65 - SDR-CINEMA_1.0"}

  - !<ViewTransform>
    name: Output - HDR Video (500 nits & P3 lim) - ACES
    description: Component of ACES Output Transforms for 500 nit HDR D65 video
    from_scene_reference: !<GroupTransform>
      children:
        - !<BuiltinTransform> {style: ACEScct_to_ACES2065-1, direction: inverse}
        - !<FileTransform> {src: ACEScct_to_XYZ_HDR_500_PQ.spi3d, interpolation: tetrahedral}
        - !<BuiltinTransform> {style: CURVE - ST-2084_to_LINEAR}

  - !<ViewTransform>
    name: Output - HDR Video (1000 nits & P3 lim) - ACES 1.1
    description: Component of ACES Output Transforms for 1000 nit HDR D65 video
    from_scene_reference: !<BuiltinTransform> {style: ACES-OUTPUT - ACES2065-1_to_CIE-XYZ-D65 - HDR-VIDEO-1000nit-15nit-P3lim_1.1}


    
    
looks:

  - !<Look>
    name: LMT_gamut
    process_space: Gamut Shaper
    transform: !<FileTransform> {src: aces_RGC_33.cube, interpolation: linear}  

  - !<Look>
    name: LMT_filmic
    process_space: ACEScct
    transform: !<FileTransform> {src: LMT_filmic_ACEScct_33.cube, interpolation: linear} 
	
  - !<Look>
    name: LMT_neutral
    process_space: ACEScct
    transform: !<FileTransform> {src: LMT_neutral_ACEScct_33.cube, interpolation: linear} 

  - !<Look>
    name: Show_LUT
    process_space: ACEScct
    transform: !<FileTransform> {src: Show_LMT_cct.cube, interpolation: linear}



inactive_colorspaces: [CIE-XYZ D65, sRGB - Gamut Compress, Gamut Shaper, Inverse sRGB Output, DCI-P3 D65, ST2084-P3-D65, Apple Display P3]



colorspaces:

# Rendering #

  - !<ColorSpace>
    name: Color sRGB Texture
    aliases: [ dif, BaseColor ]
    family: Input/File-io
    description: |
      sRGB texture color space (piecewise sRGB EOTF)
    isdata: false
    categories: [ file-io ]
    encoding: sdr-video
    to_reference: !<GroupTransform>
      children:
        - !<CDLTransform> {slope: [ 0.8, 0.8, 0.8 ], offset: [ 0.06525, 0.06525, 0.06525 ], sat: 1.0 }
        - !<ExponentWithLinearTransform> {gamma: 2.4, offset: 0.055}
        - !<MatrixTransform> {matrix:  [ 0.439632981919, 0.382988698152, 0.177378319929, 0, 0.089776442959, 0.813439428749, 0.096784128292, 0, 0.017541170383, 0.111546553302, 0.870912276314, 0, 0, 0, 0, 1 ]}


  - !<ColorSpace>
    name: Pick Rec709-sRGB Desat
    aliases: [ picker ]
    family: Input/File-io
    bitdepth: 32f
    description: |
      color picking of sRGB primaries with slight desaturation (sat 0.85 based on rec709 luma 0.2126 0.7152 0.0722)
    isdata: false
    encoding: scene-linear
    to_reference: !<GroupTransform>
      children:
        - !<MatrixTransform> {matrix: [ 0.88189, 0.10728, 0.01083, 0, 0.03189, 0.95728, 0.01083, 0, 0.03189, 0.10728, 0.86083, 0, 0, 0, 0, 1 ]}
        - !<MatrixTransform> {matrix:  [ 0.439632981919, 0.382988698152, 0.177378319929, 0, 0.089776442959, 0.813439428749, 0.096784128292, 0, 0.017541170383, 0.111546553302, 0.870912276314, 0, 0, 0, 0, 1 ]}

  - !<ColorSpace>
    name: Raw
    family: Input/File-io
    equalitygroup: ""
    bitdepth: 32f
    description: |
      Raw (no color processing)
    isdata: true
    categories: [ file-io ]
    encoding: data

  - !<ColorSpace>
    name: scene-linear Rec.709-sRGB
    aliases: [ hdr ]
    family: Input/File-io
    equalitygroup: ""
    bitdepth: 32f
    description: |
      Scene-linear Rec.709 or sRGB primaries to ACES primaries
    isdata: false
    categories: [ file-io, working-space, scene_linear_working_space ]
    encoding: scene-linear
    to_reference: !<MatrixTransform> {matrix: [ 0.439632981919, 0.382988698152, 0.177378319929, 0, 0.089776442959, 0.813439428749, 0.096784128292, 0, 0.017541170383, 0.111546553302, 0.870912276314, 0, 0, 0, 0, 1 ]}

  - !<ColorSpace>
    name: Gamut Shaper
    family: Input/File-io
    equalitygroup: ""
    bitdepth: 32f
    description: |
      Logarithmic function with a linear segment, reflected by its intersection point with the Y-axis, 
      essentially mirroring the ACEScct shaper. Covers large amount of negative values for gamut mapping.
    isdata: false
    encoding: scene-linear
    to_reference: !<GroupTransform>
      children:
        - !<FileTransform> {src: aces_gm_lut_shaper_to_linear_v01.spi1d, interpolation: linear}
        - !<MatrixTransform> {matrix: [0.695452, 0.140679, 0.163869, 0, 0.0447946, 0.859671, 0.0955343, 0, -0.00552588, 0.00402521, 1.0015, 0, 0, 0, 0, 1]}


# ACES #

  - !<ColorSpace>
    name: ACEScg
    family: ACES
    equalitygroup: ""
    bitdepth: 32f
    description: |
      ACEScg to ACES2065-1
    isdata: false
    categories: [ file-io, working-space, scene_linear_working_space ]
    encoding: scene-linear
    to_reference: !<MatrixTransform> {matrix: [ 0.695452241357, 0.140678696470, 0.163869062172, 0, 0.044794563372, 0.859671118456, 0.095534318172, 0, -0.005525882558, 0.004025210306, 1.001500672252, 0, 0, 0, 0, 1 ]}

  - !<ColorSpace>
    name: ACES2065-1
    family: ACES
    equalitygroup: ""
    bitdepth: 32f
    description: |
      The Academy Color Encoding System reference color space
    isdata: false
    categories: [ file-io, working-space, scene_linear_working_space ]
    encoding: scene-linear

  - !<ColorSpace>
    name: ACEScct
    family: ACES
    description: |
      ACES log working space
    isdata: false
    categories: [ file-io ]
    encoding: log
    to_reference: !<BuiltinTransform> {style: "ACEScct_to_ACES2065-1"}

  - !<ColorSpace>
    name: ACEScc
    family: ACES
    description: |
      ACES log working space
    isdata: false
    categories: [ file-io, advanced-2d ]
    encoding: log
    to_scene_reference: !<BuiltinTransform> {style: "ACEScc_to_ACES2065-1"}

# Extra #
  - !<ColorSpace>
    name: Inverse sRGB Output
    family: Input/File-io
    description: |
      sRGB monitor (piecewise EOTF)
    isdata: false
    categories: [ file-io ]
    encoding: sdr-video
    to_reference: !<DisplayViewTransform> {direction: inverse, src: ACES2065-1, display: sRGB, view: "ACES 1.0 SDR-video"}



# Cameras #

  - !<ColorSpace>
    name: ARRI LogC (v3-EI800) - AlexaWideGamut
    family: Input/Camera/ARRI
    description: |
      Alexa-v3-LogC-EI800 (no camera black) to ACES2065-1 (SUP v3 color science)
    isdata: false
#    categories: [ file-io ]
    encoding: log
    to_reference: !<BuiltinTransform> {style: "ARRI_ALEXA-LOGC-EI800-AWG_to_ACES2065-1"}

  - !<ColorSpace>
    name: RED Log3G10 - REDWideGamutRGB
    family: Input/Camera/RED
    description: |
      RED Log3G10 / REDWideGamutRGB (no camera black)
    isdata: false
#    categories: [ file-io ]
    encoding: log
    to_reference: !<BuiltinTransform> {style: "RED_LOG3G10-RWG_to_ACES2065-1"}

  - !<ColorSpace>
    name: Sony SLog3 - SGamut3
    family: Input/Camera/Sony
    description: |
      Sony SLog3 / SGamut3 (no camera black)
    isdata: false
#    categories: [ file-io ]
    encoding: log
    to_reference: !<BuiltinTransform> {style: "SONY_SLOG3-SGAMUT3_to_ACES2065-1"}

  - !<ColorSpace>
    name: Sony SLog3 - SGamut3Cine
    family: Input/Camera/Sony
    equalitygroup: ""
    bitdepth: 32f
    description: |
      Convert Sony S-Log3 S-Gamut3.Cine to ACES2065-1
      
      ACEStransformID: urn:ampas:aces:transformId:v1.5:ACEScsc.Academy.SLog3_SGamut3Cine_to_ACES.a1.1.0
    isdata: false
#    categories: [file-io]
    encoding: log
    allocation: uniform
    to_scene_reference: !<BuiltinTransform> {style: SONY_SLOG3-SGAMUT3.CINE_to_ACES2065-1}

  - !<ColorSpace>
    name: Sony SLog3 - Venice SGamut3
    family: Input/Camera/Sony
    equalitygroup: ""
    bitdepth: 32f
    description: |
      Convert Sony S-Log3 S-Gamut3 for the Venice camera to ACES2065-1
      
      ACEStransformID: urn:ampas:aces:transformId:v1.5:ACEScsc.Academy.SLog3_Venice_SGamut3_to_ACES.a1.1.0
    isdata: false
#    categories: [file-io]
    encoding: log
    allocation: uniform
    to_scene_reference: !<BuiltinTransform> {style: SONY_SLOG3-SGAMUT3-VENICE_to_ACES2065-1}

  - !<ColorSpace>
    name: Sony SLog3 - Venice SGamut3Cine
    family: Input/Camera/Sony
    equalitygroup: ""
    bitdepth: 32f
    description: |
      Convert Sony S-Log3 S-Gamut3.Cine for the Venice camera to ACES2065-1
      
      ACEStransformID: urn:ampas:aces:transformId:v1.5:ACEScsc.Academy.SLog3_Venice_SGamut3Cine_to_ACES.a1.1.0
    isdata: false
#    categories: [file-io]
    encoding: log
    allocation: uniform
    to_scene_reference: !<BuiltinTransform> {style: SONY_SLOG3-SGAMUT3.CINE-VENICE_to_ACES2065-1}

  - !<ColorSpace>
    name: Canon CLog2 CGamut
    family: Input/Camera/Canon
    equalitygroup: ""
    bitdepth: 32f
    description: |
      Convert Canon Log 2 Cinema Gamut to ACES2065-1
      
      ACEStransformID: urn:ampas:aces:transformId:v1.5:ACEScsc.Academy.CLog2_CGamut_to_ACES.a1.1.0
    isdata: false
#    categories: [file-io]
    encoding: log
    allocation: uniform
    to_scene_reference: !<BuiltinTransform> {style: CANON_CLOG2-CGAMUT_to_ACES2065-1}

  - !<ColorSpace>
    name: Canon CLog3 CGamut
    family: Input/Camera/Canon
    equalitygroup: ""
    bitdepth: 32f
    description: |
      Convert Canon Log 3 Cinema Gamut to ACES2065-1
      
      ACEStransformID: urn:ampas:aces:transformId:v1.5:ACEScsc.Academy.CLog3_CGamut_to_ACES.a1.1.0
    isdata: false
#    categories: [file-io]
    encoding: log
    allocation: uniform
    to_scene_reference: !<BuiltinTransform> {style: CANON_CLOG3-CGAMUT_to_ACES2065-1}

  - !<ColorSpace>
    name: Log film scan (ADX10)
    family: Input/Camera/Film
    description: |
      ADX10 Academy Density Encoding
    isdata: false
#    categories: [ file-io ]
    encoding: log
    to_reference: !<BuiltinTransform> {style: "ADX10_to_ACES2065-1"}

# Output #

#Neutral Look, Filmic Look, Show Look, ACES 1.0 SDR-video

  - !<ColorSpace>
    name: Output - Neutral Look (sRGB)
    family: Output
    description: Output Neutral Look (sRGB display)
    isdata: false
#    categories: [ file-io ]
    encoding: sdr-video
    from_reference: !<DisplayViewTransform> {src: ACES2065-1, display: sRGB, view: "Neutral Look"}


  - !<ColorSpace>
    name: Output - Filmic Look (sRGB)
    family: Output
    description: Output Neutral Look (sRGB display)
    isdata: false
    encoding: sdr-video
    from_reference: !<DisplayViewTransform> {src: ACES2065-1, display: sRGB, view: "Filmic Look"}

  - !<ColorSpace>
    name: Output - ACES 1.0 SDR-video (sRGB)
    family: Output
    description: Output ACES 1.0 SDR-video (sRGB display)
    isdata: false
    encoding: sdr-video
    from_reference: !<GroupTransform>
      children:
        - !<DisplayViewTransform> {src: ACES2065-1, display: sRGB, view: "ACES 1.0 SDR-video"}
        - !<RangeTransform> {min_in_value: 0., min_out_value: 0., max_in_value: 1., max_out_value: 1.}


  - !<ColorSpace>
    name: Output - Show Look (sRGB)
    family: Output
    description: Output Show Look (sRGB display)
    isdata: false
    encoding: sdr-video
    from_reference: !<DisplayViewTransform> {src: ACES2065-1, display: sRGB, view: "Show Look"}


display_colorspaces:

  - !<ColorSpace>
    name: CIE-XYZ D65
    family: Output
    description: |
      Display connection space, CIE XYZ with D65 adopted white point
    encoding: display-linear
    isdata: false

  - !<ColorSpace>
    name: sRGB
    family: Output
    description: |
      sRGB monitor (piecewise EOTF)
    isdata: false
    categories: [ file-io ]
    encoding: sdr-video
    from_display_reference: !<GroupTransform>
      children:
        - !<MatrixTransform> {matrix: [ 3.240969941905, -1.537383177570, -0.498610760293, 0, -0.969243636281, 1.875967501508, 0.041555057407, 0, 0.055630079697, -0.203976958889, 1.056971514243, 0, 0, 0, 0, 1 ]}
        - !<ExponentWithLinearTransform> {gamma: 2.4, offset: 0.055, direction: inverse}
        - !<RangeTransform> {min_in_value: 0., min_out_value: 0., max_in_value: 1., max_out_value: 1.}

  - !<ColorSpace>
    name: Gamma 2.2 - Rec.709
    family: Output
    description: |
      Gamma 2.2 monitor with Rec.709 or sRGB primaries
    isdata: false
#    categories: [ file-io ]
    encoding: sdr-video
    from_display_reference: !<GroupTransform>
      children:
        - !<MatrixTransform> {matrix: [ 3.240969941905, -1.537383177570, -0.498610760293, 0, -0.969243636281, 1.875967501508, 0.041555057407, 0, 0.055630079697, -0.203976958889, 1.056971514243, 0, 0, 0, 0, 1 ]}
        - !<ExponentTransform> {value: 2.2, direction: inverse}
        - !<RangeTransform> {min_in_value: 0., min_out_value: 0., max_in_value: 1., max_out_value: 1.}

  - !<ColorSpace>
    name: Rec.1886 - Rec.709 video
    aliases: [ rec709 ]
    family: Output
    description: |
      Rec.709 HD broadcast monitor with Rec.1886 EOTF (gamma 2.4)
    isdata: false
#    categories: [ file-io ]
    encoding: sdr-video
    from_display_reference: !<GroupTransform>
      children:
        - !<MatrixTransform> {matrix: [ 3.240969941905, -1.537383177570, -0.498610760293, 0, -0.969243636281, 1.875967501508, 0.041555057407, 0, 0.055630079697, -0.203976958889, 1.056971514243, 0, 0, 0, 0, 1 ]}
        - !<ExponentTransform> {value: 2.4, direction: inverse}
        - !<RangeTransform> {min_in_value: 0., min_out_value: 0., max_in_value: 1., max_out_value: 1.}


  - !<ColorSpace>
    name: Apple Display P3 
    family: Output
    equalitygroup: ""
    bitdepth: 32f
    description: Convert CIE XYZ (D65 white) to P3-D65 with 2.2 Gamma EOTF
    isdata: false
#    categories: [file-io]
    encoding: sdr-video
    allocation: uniform
    from_display_reference: !<GroupTransform>
      children:
        - !<MatrixTransform> {matrix: [ 2.493496911941426, -0.931383617919124, -0.402710784450717, 0, -0.829488969561575, 1.762664060318346, 0.023624685841944, 0, 0.035845830243784, -0.076172389268042, 0.956884524007687, 0, 0, 0, 0, 1 ]}
        - !<ExponentTransform> {value: [2.2, 2.2, 2.2, 1], direction: inverse}


  - !<ColorSpace>
    name: ST2084-P3-D65
    family: 
    description: |
      DCI-P3 monitor/projector with D65 white point and ST-2084 (PQ) EOTF
    isdata: false
#    categories: [ file-io ]
    encoding: sdr-video
    from_display_reference: !<GroupTransform>
      children:
        - !<BuiltinTransform> {style: "DISPLAY - CIE-XYZ-D65_to_ST2084-P3-D65"}
#        - !<RangeTransform> {min_in_value: 0., min_out_value: 0., max_in_value: 1., max_out_value: 1.}



  - !<ColorSpace>
    name: DCI-P3 D65
    family: Display
    description: |
      DCI-P3 monitor with D65 white point and 2.6 gamma
    isdata: false
#    categories: [ file-io ]
    encoding: sdr-video
    from_display_reference: !<GroupTransform>
      children:
        - !<MatrixTransform> {matrix: [ 2.493496911941, -0.931383617919, -0.402710784451, 0, -0.829488969562, 1.762664060318, 0.023624685842, 0, 0.035845830244, -0.076172389268, 0.956884524008, 0, 0, 0, 0, 1 ]}
        - !<ExponentTransform> {value: 2.6, direction: inverse}
        - !<RangeTransform> {min_in_value: 0., min_out_value: 0., max_in_value: 1., max_out_value: 1.}


 



named_transforms:

  - !<NamedTransform>
    name: Cineon Log to Lin
    aliases: [ Cineon ]
    family: Input/File-io
    description: |
      Traditional Cineon-style log-to-lin with RefWhite=695, RefBlack=95, Gamma=0.6
    transform: !<LogAffineTransform>
      log_side_slope:  0.293255131965
      log_side_offset: 0.669599217986
      lin_side_slope:  0.989202248377
      lin_side_offset: 0.010797751623
      base: 10
      direction: inverse
