StdX-ACES-OCIOv2.0/VFX_config3.ocio
# Maya 2022 default config.
# Modified by Derek for StudioX
#


ocio_profile_version: 2

description: Maya 2022 default config, modified by Derek Flood for StudioX
name: Maya_2022_default

# ---------------- Per Shot Grade Variables ------------------------- #
environment:
#--------------
# example path: ../shots/SM_020_018/01_Client_Original_Footage/5_LUT/
#--------------
  LUT_PATH: path_to/shot_lut/
  LUT_NAME: clientShotLUTname_ACEScct.cube
#--------------
# Camera aliases are: ARRI, RED, CLog2, CLog3, Panasonic,
# Sony, SonyCine, SonyVenice, SonyVeniceCine, ADX10.
# CAMERA variable is set to ACEScct for ACES EXR workflow, and to camera for DPX for display-referred workflow
#--------------
  CAMERA: ARRI
  SHAPER: ACEScct
# ------------------------------------------------------------------- # 


search_path: "${LUT_PATH}"

roles:
  aces_interchange: ACES2065-1
  cie_xyz_d65_interchange: CIE-XYZ D65
  color_timing: ACEScct
  color_picking: hdr
  compositing_linear: ACEScg  
  compositing_log: ACEScct
  data: Raw
  default: Raw
# --- set reference to ap0 for VFX:
  reference: ap0
  rendering: ACEScg
  scene_linear: ACEScg
  
#   Nuke 8-bit default:  
  matte_paint: Color sRGB Texture  
#   Nuke 16-bit log default:  
  texture_paint: ACEScct
  
#     substance_3d_painter_standard_srgb: hdr
  substance_3d_painter_bitmap_import_8bit: Color sRGB Texture
  substance_3d_painter_bitmap_import_16bit: Color sRGB Texture
  substance_3d_painter_bitmap_import_floating: Raw
  substance_3d_painter_bitmap_export_8bit: Color sRGB Texture
  substance_3d_painter_bitmap_export_16bit: Color sRGB Texture
  substance_3d_painter_bitmap_export_floating: Raw
  substance_3d_painter_substance_material: Color sRGB Texture
  

  mari_monitor: Low Contrast Look - RGC (Gamma 2.2)
  mari_scaler_monitor: Raw
  mari_color_picker: hdr 
  mari_blending: Raw 
  mari_int8: Color sRGB Texture
  mari_int16: ACEScct
  mari_int_scalar: Raw
  mari_float: ACEScg


file_rules:

  - !<Rule> {name: tx, colorspace: Raw, pattern: "*", extension: tx}
  - !<Rule> {name: hdr, colorspace: scene-linear Rec.709-sRGB, pattern: "*", extension: hdr}
  - !<Rule> {name: exr, colorspace: Raw, pattern: "*", extension: exr}
  - !<Rule> {name: ColorSpaceNamePathSearch}
  - !<Rule> {name: Default, colorspace: default}


shared_views:

  - !<View> {name: ACES 1.0 - SDR-video - RGC, view_transform: SDR Video - ACES 1.0, looks: LMT_gamut, display_colorspace: <USE_DISPLAY_NAME>}
  - !<View> {name: ACES 1.0 - SDR-video, view_transform: SDR Video - ACES 1.0, display_colorspace: <USE_DISPLAY_NAME>}
  - !<View> {name: Neutral Look - RGC, view_transform: SDR Video - ACES 1.0, looks: "LMT_gamut, LMT_neutral", display_colorspace: <USE_DISPLAY_NAME>}  
  - !<View> {name: Low Contrast Look - RGC, view_transform: SDR Video - ACES 1.0, looks: "LMT_gamut, LowContrastCDL", display_colorspace: <USE_DISPLAY_NAME>} 

  - !<View> {name: Low Contrast, view_transform: SDR Video - ACES 1.0, looks: LowContrastCDL, display_colorspace: <USE_DISPLAY_NAME>} 
  - !<View> {name: "Low Contrast +1 Stops", view_transform: SDR Video - ACES 1.0, looks: "Exposure1Stop, LowContrastCDL", display_colorspace: <USE_DISPLAY_NAME>} 
  - !<View> {name: "Low Contrast +2 Stops", view_transform: SDR Video - ACES 1.0, looks: "Exposure2Stop, LowContrastCDL", display_colorspace: <USE_DISPLAY_NAME>} 
  - !<View> {name: Shot Look, view_transform: SDR Video - ACES 1.0, looks: LMT_shot, display_colorspace: <USE_DISPLAY_NAME>}
  
  - !<View> {name: Shot Look - RGC, view_transform: SDR Video - ACES 1.0, looks: LMT_shot, display_colorspace: <USE_DISPLAY_NAME>}
  - !<View> {name: Show Look - RGC, view_transform: SDR Video - ACES 1.0, looks: "LMT_gamut, LMT_shot", display_colorspace: <USE_DISPLAY_NAME>}
  
  - !<View> {name: P3-500 nits - HDR-video, view_transform: HDR Video (500 nits & P3 lim) - ACES, looks: LMT_gamut, display_colorspace: <USE_DISPLAY_NAME>}   
  - !<View> {name: P3-1000 nits - HDR-video, view_transform: HDR Video (1000 nits & P3 lim) - ACES 1.1, looks: LMT_gamut, display_colorspace: <USE_DISPLAY_NAME>}
    
  - !<View> {name: Un-tone-mapped, view_transform: Un-tone-mapped, display_colorspace: <USE_DISPLAY_NAME>}


  
displays:

  Gamma 2.2:
    - !<Views> ["ACES 1.0 - SDR-video", "ACES 1.0 - SDR-video - RGC", "Low Contrast Look - RGC", "Neutral Look - RGC", "Shot Look - RGC", "Show Look - RGC", Un-tone-mapped, Low Contrast, "Low Contrast +1 Stops", "Low Contrast +2 Stops", Shot Look]
  Apple P3:
    - !<Views> ["ACES 1.0 - SDR-video", "ACES 1.0 - SDR-video - RGC", "P3-500 nits - HDR-video", "P3-1000 nits - HDR-video", "Low Contrast Look - RGC", "Neutral Look - RGC", Un-tone-mapped, Low Contrast, "Low Contrast +1 Stops", "Low Contrast +2 Stops", Shot Look]
  DCI-P3 D65:
    - !<Views> ["ACES 1.0 - SDR-video", "P3-500 nits - HDR-video", "P3-1000 nits - HDR-video", "Low Contrast Look - RGC", "Neutral Look - RGC", "Shot Look - RGC", "Show Look - RGC", Un-tone-mapped, Low Contrast, "Low Contrast +1 Stops", "Low Contrast +2 Stops", Shot Look]
  Rec709:
    - !<Views> ["ACES 1.0 - SDR-video", "ACES 1.0 - SDR-video - RGC", "Low Contrast Look - RGC", "Shot Look - RGC", "Show Look - RGC", Un-tone-mapped, Low Contrast, "Low Contrast +1 Stops", "Low Contrast +2 Stops", Shot Look]
  USE ONLY FOR CHECKING COMPS:
    - !<View> {name: Log, colorspace: camera_log}
  USE ONLY FOR CHECKING RENDERS:
    - !<View> {name: Raw, colorspace: Raw}
  Non-Color Managed DPX Workflow:
    - !<View> {name: "DPX Shot Look", colorspace: "DPX Shot Look (Non-Color Managed)"}


#-- ANM config:

#active_displays: [Gamma 2.2, "Apple P3", "USE ONLY FOR CHECKING COMPS", "USE ONLY FOR CHECKING RENDERS"]
#active_views: ["ACES 1.0 - SDR-video - RGC", "Low Contrast Look - RGC", "Neutral Look - RGC", Show Look, Log, Raw]
#inactive_colorspaces: [CIE-XYZ D65, Gamut Shaper, DCI-P3 D65, ST2084-P3-D65, P3-D65, Pick Rec709-sRGB Desat, Shot_shaper, "Shot Look - RGC (Gamma 2.2)", "Shot Look - RGC (Rec709)", "ACES 1.0 SDR-video (Rec709)", "DPX Shot Look (Non-Color Managed)", "Gamma 2.2", "Rec709", "Apple P3", camera_log]

#-- VFX config:

#active_displays: ["Gamma 2.2", "Rec709", "USE ONLY FOR CHECKING COMPS", "USE ONLY FOR CHECKING RENDERS", "Display-Referred Workflow"]
#active_views: [ACES 1.0 - SDR-video, Shot Look - RGC, Un-tone-mapped, Log, Raw, DPX Shot Look, P3-500 nits - HDR-video, P3-1000 nits - HDR-video]
#inactive_colorspaces: [CIE-XYZ D65,  Gamut Shaper, Inverse sRGB Output, DCI-P3 D65, ST2084-P3-D65, P3-D65, Apple P3, Pick Rec709-sRGB Desat, Shot_shaper, Low Contrast Look - RGC (Gamma 2.2) 2.2 Display), Neutral Look - RGC (Gamma 2.2), Show Look - RGC (Gamma 2.2), camera_log]

active_displays: ["Rec709", "USE ONLY FOR CHECKING COMPS", "USE ONLY FOR CHECKING RENDERS", "Non-Color Managed DPX Workflow"]
active_views: [ACES 1.0 - SDR-video, Shot Look, Low Contrast, "Low Contrast +1 Stops", "Low Contrast +2 Stops", Un-tone-mapped, Log, Raw, DPX Shot Look]
inactive_colorspaces: [CIE-XYZ D65, Gamut Shaper, DCI-P3 D65, ST2084-P3-D65, P3-D65, Pick Rec709-sRGB Desat, Shot_shaper, "Gamma 2.2", "Rec709", "Apple P3", "Neutral Look - RGC (Gamma 2.2)", "Show Look - RGC (Gamma 2.2)", camera_log, "ACES 1.0 SDR-video (Gamma 2.2)", "Low Contrast Look - RGC (Gamma 2.2)", "Shot Look - RGC (Gamma 2.2)"]
# inactive_colorspaces: [CIE-XYZ D65, Gamut Shaper, DCI-P3 D65, ST2084-P3-D65, P3-D65, Pick Rec709-sRGB Desat, Shot_shaper, "Gamma 2.2", "Rec709", "Apple P3", camera_log]



view_transforms:

  - !<ViewTransform>
    name: Un-tone-mapped
    from_scene_reference: !<BuiltinTransform> {style: UTILITY - ACES-AP0_to_CIE-XYZ-D65_BFD}

  - !<ViewTransform>
    name: SDR Video - ACES 1.0
    description: Component of ACES Output Transforms for SDR D65 video
    from_scene_reference: !<BuiltinTransform> {style: ACES-OUTPUT - ACES2065-1_to_CIE-XYZ-D65 - SDR-VIDEO_1.0}

  - !<ViewTransform>
    name: SDR Video (P3 lim) - ACES 1.1
    description: Component of ACES Output Transforms for SDR D65 video
    from_scene_reference: !<BuiltinTransform> {style: ACES-OUTPUT - ACES2065-1_to_CIE-XYZ-D65 - SDR-VIDEO-P3lim_1.1}
    
  - !<ViewTransform>
    name: ACES 1.1 SDR-cinema
    from_scene_reference: !<BuiltinTransform> {style: "ACES-OUTPUT - ACES2065-1_to_CIE-XYZ-D65 - SDR-CINEMA_1.0"}

  - !<ViewTransform>
    name: HDR Video (500 nits & P3 lim) - ACES
    description: Component of ACES Output Transforms for 500 nit HDR D65 video
    from_scene_reference: !<GroupTransform>
      children:
        - !<BuiltinTransform> {style: ACEScct_to_ACES2065-1, direction: inverse}
        - !<FileTransform> {src: ACEScct_to_XYZ_HDR_500_PQ.spi3d, interpolation: tetrahedral}
        - !<BuiltinTransform> {style: CURVE - ST-2084_to_LINEAR}

  - !<ViewTransform>
    name: HDR Video (1000 nits & P3 lim) - ACES 1.1
    description: Component of ACES Output Transforms for 1000 nit HDR D65 video
    from_scene_reference: !<BuiltinTransform> {style: ACES-OUTPUT - ACES2065-1_to_CIE-XYZ-D65 - HDR-VIDEO-1000nit-15nit-P3lim_1.1}


    
    
looks:

  - !<Look>
    name: LMT_gamut
    process_space: Gamut Shaper
    transform: !<FileTransform> {src: aces_RGC_33.cube, interpolation: linear}  

  - !<Look>
    name: LMT_neutral
    process_space: ACEScct
    transform: !<FileTransform> {src: LMT_Soft_v9_cct_33.cube, interpolation: linear} 

  - !<Look>
    name: Show_LUT
    process_space: ACEScct
    transform: !<FileTransform> {src: Show_LMT_cct.cube, interpolation: linear}

  - !<Look>
    name: LMT_shot
    process_space: Shot_shaper
    transform: !<FileTransform> {src: "${LUT_NAME}", interpolation: linear} 

  - !<Look>
    name: LowContrastCDL
    process_space: ACEScct
    transform: !<CDLTransform> {slope: [0.85, 0.85, 0.85], offset: [0.06525, 0.06525, 0.06525], power: [1.0, 1.0, 1.0]}

  - !<Look>
    name: Exposure1Stop
    process_space: ACES2065-1
    transform: !<ExposureContrastTransform> {style: linear, exposure: 1.0, contrast: 1.0, gamma: 1.0, pivot: 0.18}

  - !<Look>
    name: Exposure2Stop
    process_space: ACES2065-1
    transform: !<ExposureContrastTransform> {style: linear, exposure: 2.0, contrast: 1.0, gamma: 1.0, pivot: 0.18}





colorspaces:

#---------------------- Rendering -------------------------------#

  - !<ColorSpace>
    name: Color sRGB Texture
    aliases: [ dif, BaseColor ]
    family: Texture
    description: |
      sRGB texture color space (piecewise sRGB EOTF)
    isdata: false
    categories: [ file-io ]
    encoding: sdr-video
    to_reference: !<GroupTransform>
      children:
        - !<ExponentWithLinearTransform> {gamma: 2.4, offset: 0.055}
        - !<MatrixTransform> {matrix:  [ 0.439632981919, 0.382988698152, 0.177378319929, 0, 0.089776442959, 0.813439428749, 0.096784128292, 0, 0.017541170383, 0.111546553302, 0.870912276314, 0, 0, 0, 0, 1 ]}

  - !<ColorSpace>
    name: Color sRGB Texture lowCon
    #aliases: [ dif, BaseColor ]
    family: Texture
    description: |
      sRGB texture color space (piecewise sRGB EOTF)
    isdata: false
    categories: [ file-io ]
    encoding: sdr-video
    to_reference: !<GroupTransform>
      children:
        - !<CDLTransform> {slope: [ 0.8, 0.8, 0.8 ], offset: [ 0.06525, 0.06525, 0.06525 ], sat: 1.0 }
        - !<ExponentWithLinearTransform> {gamma: 2.4, offset: 0.055}
        - !<MatrixTransform> {matrix:  [ 0.439632981919, 0.382988698152, 0.177378319929, 0, 0.089776442959, 0.813439428749, 0.096784128292, 0, 0.017541170383, 0.111546553302, 0.870912276314, 0, 0, 0, 0, 1 ]}

  - !<ColorSpace>
    name: Pick Rec709-sRGB Desat
    aliases: [ picker ]
    family: Texture
    bitdepth: 32f
    description: |
      color picking of sRGB primaries with slight desaturation (sat 0.85 based on rec709 luma 0.2126 0.7152 0.0722)
    isdata: false
    encoding: scene-linear
    to_reference: !<GroupTransform>
      children:
        - !<MatrixTransform> {matrix: [ 0.88189, 0.10728, 0.01083, 0, 0.03189, 0.95728, 0.01083, 0, 0.03189, 0.10728, 0.86083, 0, 0, 0, 0, 1 ]}
        - !<MatrixTransform> {matrix:  [ 0.439632981919, 0.382988698152, 0.177378319929, 0, 0.089776442959, 0.813439428749, 0.096784128292, 0, 0.017541170383, 0.111546553302, 0.870912276314, 0, 0, 0, 0, 1 ]}

  - !<ColorSpace>
    name: Raw
    family: Texture
    equalitygroup: ""
    bitdepth: 32f
    description: |
      Raw (no color processing)
    isdata: true
    categories: [ file-io ]
    encoding: data

  - !<ColorSpace>
    name: scene-linear Rec.709-sRGB
    aliases: [ hdr ]
    family: Texture
    equalitygroup: ""
    bitdepth: 32f
    description: |
      Scene-linear Rec.709 or sRGB primaries to ACES primaries
    isdata: false
    categories: [ file-io, working-space, scene_linear_working_space ]
    encoding: scene-linear
    to_reference: !<MatrixTransform> {matrix: [ 0.439632981919, 0.382988698152, 0.177378319929, 0, 0.089776442959, 0.813439428749, 0.096784128292, 0, 0.017541170383, 0.111546553302, 0.870912276314, 0, 0, 0, 0, 1 ]}

  - !<ColorSpace>
    name: Gamut Shaper
    family: Texture
    equalitygroup: ""
    bitdepth: 32f
    description: |
      Logarithmic function with a linear segment, reflected by its intersection point with the Y-axis, 
      essentially mirroring the ACEScct shaper. Covers large amount of negative values for gamut mapping.
    isdata: false
    encoding: scene-linear
    to_reference: !<GroupTransform>
      children:
        - !<FileTransform> {src: aces_gm_lut_shaper_to_linear_v01.spi1d, interpolation: linear}
        - !<MatrixTransform> {matrix: [0.695452, 0.140679, 0.163869, 0, 0.0447946, 0.859671, 0.0955343, 0, -0.00552588, 0.00402521, 1.0015, 0, 0, 0, 0, 1]}




#---------------------- ACES ----------------------#

  - !<ColorSpace>
    name: ACEScg
    aliases: [ ap1 ]
    family: ACES
    equalitygroup: ""
    bitdepth: 32f
    description: |
      ACEScg to ACES2065-1
    isdata: false
    categories: [ file-io, working-space, scene_linear_working_space ]
    encoding: scene-linear
    to_reference: !<MatrixTransform> {matrix: [ 0.695452241357, 0.140678696470, 0.163869062172, 0, 0.044794563372, 0.859671118456, 0.095534318172, 0, -0.005525882558, 0.004025210306, 1.001500672252, 0, 0, 0, 0, 1 ]}

  - !<ColorSpace>
    name: ACES2065-1
    aliases: [ ap0 ]
    family: ACES
    equalitygroup: ""
    bitdepth: 32f
    description: |
      The Academy Color Encoding System reference color space
    isdata: false
    categories: [ file-io, working-space, scene_linear_working_space ]
    encoding: scene-linear

  - !<ColorSpace>
    name: ACEScct
    family: ACES
    description: |
      ACES log working space
    isdata: false
    categories: [ file-io ]
    encoding: log
    to_reference: !<BuiltinTransform> {style: "ACEScct_to_ACES2065-1"}

  - !<ColorSpace>
    name: ACEScc
    family: ACES
    description: |
      ACES log working space
    isdata: false
    categories: [ file-io, advanced-2d ]
    encoding: log
    to_scene_reference: !<BuiltinTransform> {style: "ACEScc_to_ACES2065-1"}

# Extra #

  - !<ColorSpace>
    name: Shot_shaper
    family: Utility
    equalitygroup: ""
    bitdepth: 32f
    description: |
      The ACEScct or ACEScc color space based on context variable
    isdata: false
    categories: [ file-io ]
    encoding: log
    to_reference: !<ColorSpaceTransform> {src: "${SHAPER}", dst: ACES2065-1}

  - !<ColorSpace>
    name: camera_log
    family: Utility
    equalitygroup: ""
    bitdepth: 32f
    description: |
      Camera log color space based on context variable
    isdata: false
    categories: [ file-io ]
    encoding: log
    to_reference: !<ColorSpaceTransform> {src: "${CAMERA}", dst: ACES2065-1}

  - !<ColorSpace>
    name: Inverse sRGB Output
    family: Texture
    description: |
      sRGB monitor (piecewise EOTF)
    isdata: false
    categories: [ file-io ]
    encoding: sdr-video
    to_reference: !<DisplayViewTransform> {direction: inverse, src: ACES2065-1, display: "Gamma 2.2", view: "ACES 1.0 - SDR-video"}

  - !<ColorSpace>
    name: rec709
    alias: 
    family: Texture
    description: |
      sRGB monitor (piecewise EOTF)
    isdata: false
    categories: [ file-io ]
    encoding: sdr-video
    to_reference: !<DisplayViewTransform> {direction: inverse, src: ACES2065-1, display: Rec709, view: "ACES 1.0 - SDR-video"}




#---------------------- Cameras ----------------------#

  - !<ColorSpace>
    name: ARRI LogC (v3-EI800) - AlexaWideGamut
    aliases: [ ARRI ]
    family: Camera/ARRI
    description: |
      Alexa-v3-LogC-EI800 (no camera black) to ACES2065-1 (SUP v3 color science)
    isdata: false
    encoding: log
    to_reference: !<BuiltinTransform> {style: "ARRI_ALEXA-LOGC-EI800-AWG_to_ACES2065-1"}

  - !<ColorSpace>
    name: RED Log3G10 - REDWideGamutRGB
    aliases: [ RED ]
    family: Camera/RED
    description: |
      RED Log3G10 / REDWideGamutRGB (no camera black)
    isdata: false
    encoding: log
    to_reference: !<BuiltinTransform> {style: "RED_LOG3G10-RWG_to_ACES2065-1"}

  - !<ColorSpace>
    name: Sony SLog3 - SGamut3
    aliases: [ Sony ]
    family: Camera/Sony
    description: |
      Sony SLog3 / SGamut3 (no camera black)
    isdata: false
    encoding: log
    to_reference: !<BuiltinTransform> {style: "SONY_SLOG3-SGAMUT3_to_ACES2065-1"}

  - !<ColorSpace>
    name: Sony SLog3 - SGamut3Cine
    aliases: [ SonyCine ]
    family: Camera/Sony
    equalitygroup: ""
    bitdepth: 32f
    description: |
      Convert Sony S-Log3 S-Gamut3.Cine to ACES2065-1
      ACEStransformID: urn:ampas:aces:transformId:v1.5:ACEScsc.Academy.SLog3_SGamut3Cine_to_ACES.a1.1.0
    isdata: false
    encoding: log
    allocation: uniform
    to_scene_reference: !<BuiltinTransform> {style: SONY_SLOG3-SGAMUT3.CINE_to_ACES2065-1}

  - !<ColorSpace>
    name: Sony SLog3 - Venice SGamut3
    aliases: [ SonyVenice ]
    family: Camera/Sony
    equalitygroup: ""
    bitdepth: 32f
    description: |
      Convert Sony S-Log3 S-Gamut3 for the Venice camera to ACES2065-1
      ACEStransformID: urn:ampas:aces:transformId:v1.5:ACEScsc.Academy.SLog3_Venice_SGamut3_to_ACES.a1.1.0
    isdata: false
    encoding: log
    allocation: uniform
    to_scene_reference: !<BuiltinTransform> {style: SONY_SLOG3-SGAMUT3-VENICE_to_ACES2065-1}

  - !<ColorSpace>
    name: Sony SLog3 - Venice SGamut3Cine
    aliases: [ SonyVeniceCine ]
    family: Camera/Sony
    equalitygroup: ""
    bitdepth: 32f
    description: |
      Convert Sony S-Log3 S-Gamut3.Cine for the Venice camera to ACES2065-1
      ACEStransformID: urn:ampas:aces:transformId:v1.5:ACEScsc.Academy.SLog3_Venice_SGamut3Cine_to_ACES.a1.1.0
    isdata: false
    encoding: log
    allocation: uniform
    to_scene_reference: !<BuiltinTransform> {style: SONY_SLOG3-SGAMUT3.CINE-VENICE_to_ACES2065-1}

  - !<ColorSpace>
    name: Canon CLog2 CGamut
    aliases: [ CLog2 ]
    family: Camera/Canon
    equalitygroup: ""
    bitdepth: 32f
    description: |
      Convert Canon Log 2 Cinema Gamut to ACES2065-1
      ACEStransformID: urn:ampas:aces:transformId:v1.5:ACEScsc.Academy.CLog2_CGamut_to_ACES.a1.1.0
    isdata: false
    encoding: log
    allocation: uniform
    to_scene_reference: !<BuiltinTransform> {style: CANON_CLOG2-CGAMUT_to_ACES2065-1}

  - !<ColorSpace>
    name: Canon CLog3 CGamut
    aliases: [ CLog3 ]
    family: Camera/Canon
    equalitygroup: ""
    bitdepth: 32f
    description: |
      Convert Canon Log 3 Cinema Gamut to ACES2065-1
      ACEStransformID: urn:ampas:aces:transformId:v1.5:ACEScsc.Academy.CLog3_CGamut_to_ACES.a1.1.0
    isdata: false
    encoding: log
    allocation: uniform
    to_scene_reference: !<BuiltinTransform> {style: CANON_CLOG3-CGAMUT_to_ACES2065-1}

  - !<ColorSpace>
    name: Panasonic - VLog VGamut
    aliases: [ Panasonic ]
    family: Camera/Panasonic
    description: |
      Convert Panasonic Varicam V-Log V-Gamut to ACES2065-1
    isdata: false
    encoding: log
    to_reference: !<BuiltinTransform> {style: PANASONIC_VLOG-VGAMUT_to_ACES2065-1}

  - !<ColorSpace>
    name: Log film scan (ADX10)
    aliases: [ ADX10 ]
    family: Camera/Film
    description: |
      ADX10 Academy Density Encoding
    isdata: false
    encoding: log
    to_reference: !<BuiltinTransform> {style: "ADX10_to_ACES2065-1"}

#--------------- Output --------------------------------#


#-- 2.2 Gamma Display:

  - !<ColorSpace>
    name: ACES 1.0 SDR-video (Gamma 2.2)
    family: Baked View
    isdata: false
    encoding: sdr-video
    from_reference: !<GroupTransform>
      children:
        - !<DisplayViewTransform> {src: ACES2065-1, display: "Gamma 2.2", view: "ACES 1.0 - SDR-video"}
        - !<RangeTransform> {min_in_value: 0., min_out_value: 0., max_in_value: 1., max_out_value: 1.}

  - !<ColorSpace>
    name: Low Contrast Look - RGC (Gamma 2.2)
    family: Baked View
    isdata: false
    encoding: sdr-video
    from_reference: !<GroupTransform>
      children:
        - !<DisplayViewTransform> {src: ACES2065-1, display: "Gamma 2.2", view: "Low Contrast Look - RGC"}
        - !<RangeTransform> {min_in_value: 0., min_out_value: 0., max_in_value: 1., max_out_value: 1.}

  - !<ColorSpace>
    name: Neutral Look - RGC (Gamma 2.2)
    family: Baked View
    isdata: false
    encoding: sdr-video
    from_reference: !<GroupTransform>
      children:
        - !<DisplayViewTransform> {src: ACES2065-1, display: "Gamma 2.2", view: "Neutral Look - RGC"}
        - !<RangeTransform> {min_in_value: 0., min_out_value: 0., max_in_value: 1., max_out_value: 1.}

  - !<ColorSpace>
    name: Show Look - RGC (Gamma 2.2)
    family: Baked View
    isdata: false
    encoding: sdr-video
    from_reference: !<GroupTransform>
      children:
        - !<DisplayViewTransform> {src: ACES2065-1, display: "Gamma 2.2", view: "Show Look - RGC"}
        - !<RangeTransform> {min_in_value: 0., min_out_value: 0., max_in_value: 1., max_out_value: 1.}

  - !<ColorSpace>
    name: Shot Look - RGC (Gamma 2.2)
    family: Baked View
    isdata: false
    encoding: sdr-video
    from_reference: !<GroupTransform>
      children:
        - !<DisplayViewTransform> {src: ACES2065-1, display: "Gamma 2.2", view: "Shot Look - RGC"}
        - !<RangeTransform> {min_in_value: 0., min_out_value: 0., max_in_value: 1., max_out_value: 1.}


#-- BT.1886 Video display:

  - !<ColorSpace>
    name: ACES 1.0 SDR-video (Rec709)
    family: Baked View
    isdata: false
    encoding: sdr-video
    from_reference: !<GroupTransform>
      children:
        - !<DisplayViewTransform> {src: ACES2065-1, display: "Rec709", view: "ACES 1.0 - SDR-video"}
        - !<RangeTransform> {min_in_value: 0., min_out_value: 0., max_in_value: 1., max_out_value: 1.}

  - !<ColorSpace>
    name: Shot Look - RGC (Rec709)
    family: Baked View
    isdata: false
    encoding: sdr-video
    from_reference: !<GroupTransform>
      children:
        - !<DisplayViewTransform> {src: ACES2065-1, display: "Rec709", view: "Shot Look - RGC"}
        - !<RangeTransform> {min_in_value: 0., min_out_value: 0., max_in_value: 1., max_out_value: 1.}

  - !<ColorSpace>
    name: Low Contrast (Rec709)
    family: Baked View
    isdata: false
    encoding: sdr-video
    from_reference: !<GroupTransform>
      children:
        - !<DisplayViewTransform> {src: ACES2065-1, display: "Rec709", view: "Low Contrast"}
        - !<RangeTransform> {min_in_value: 0., min_out_value: 0., max_in_value: 1., max_out_value: 1.}


  - !<ColorSpace>
    name: Low Contrast +1 Stop (Rec709)
    family: Baked View
    isdata: false
    encoding: sdr-video
    from_reference: !<GroupTransform>
      children:
        - !<DisplayViewTransform> {src: ACES2065-1, display: "Rec709", view: "Low Contrast +1 Stops"}
        - !<RangeTransform> {min_in_value: 0., min_out_value: 0., max_in_value: 1., max_out_value: 1.}

  - !<ColorSpace>
    name: Low Contrast +2 Stops (Rec709)
    family: Baked View
    isdata: false
    encoding: sdr-video
    from_reference: !<GroupTransform>
      children:
