software/Premiere/untitled folder/ARRILogC3_to_ACES-Rec709.cube
TITLE "Generated by Foundry::LUT"
LUT_3D_SIZE 9
0.075155 0.075155 0.075155
0.075155 0.075155 0.075155
0.075155 0.075155 0.075155
0.075155 0.075155 0.075155
0.535234 0.072906 0.072906
0.554795 0.554795 0.554795
0.072906 0.072906 0.072906
0.072906 0.072906 0.072906
0.072906 0.072906 0.072906
0.075155 0.075155 0.075155
0.075155 0.075155 0.075155
0.075155 0.075155 0.075155
0.075155 0.075155 0.075155
0.535257 0.072906 0.072906
0.554795 0.554795 0.554795
0.072906 0.072906 0.072906
0.072906 0.072906 0.072906
0.072906 0.072906 0.072906
0.075155 0.075155 0.075155
0.075155 0.075155 0.075155
0.075155 0.075155 0.075155
0.075155 0.075155 0.075155
0.535294 0.072906 0.072906
0.554795 0.554795 0.554795
0.072906 0.072906 0.072906
0.072906 0.072906 0.072906
0.072906 0.072906 0.072906
0.072906 0.274982 0.072906
0.072906 0.278855 0.072906
0.072906 0.284555 0.072906
0.072906 0.301647 0.072906
0.535450 0.072906 0.072906
0.554795 0.554795 0.554795
0.072906 0.072906 0.072906
0.072906 0.072906 0.072906
0.072906 0.072906 0.072906
0.072906 0.534421 0.072906
0.072906 0.534419 0.072906
0.072906 0.534415 0.072906
0.072906 0.534395 0.072906
0.528731 0.532631 0.072906
0.554795 0.554795 0.554795
0.072906 0.072906 0.072906
0.072906 0.072906 0.072906
0.072906 0.072906 0.072906
0.554795 0.554795 0.554795
0.554795 0.554795 0.554795
0.554795 0.554795 0.554795
0.554795 0.554795 0.554795
0.554795 0.554795 0.554795
0.554795 0.554795 0.554795
0.072906 0.072906 0.072906
0.072906 0.072906 0.072906
0.072906 0.072906 0.072906
0.072906 0.072906 0.072906
0.072906 0.072906 0.072906
0.072906 0.072906 0.072906
0.072906 0.072906 0.072906
0.072906 0.072906 0.072906
0.072906 0.072906 0.072906
0.072906 0.072906 0.072906
0.072906 0.072906 0.072906
0.072906 0.072906 0.072906
0.072906 0.072906 0.072906
0.072906 0.072906 0.072906
0.072906 0.072906 0.072906
0.072906 0.072906 0.072906
0.072906 0.072906 0.072906
0.072906 0.072906 0.072906
0.072906 0.072906 0.072906
0.072906 0.072906 0.072906
0.072906 0.072906 0.072906
0.072906 0.072906 0.072906
0.072906 0.072906 0.072906
0.072906 0.072906 0.072906
0.072906 0.072906 0.072906
0.072906 0.072906 0.072906
0.072906 0.072906 0.072906
0.072906 0.072906 0.072906
0.072906 0.072906 0.072906
0.072906 0.072906 0.072906
0.075155 0.075155 0.075155
0.075155 0.075155 0.075155
0.075155 0.075155 0.075155
0.075155 0.075155 0.075155
0.535224 0.072906 0.072906
0.554795 0.554795 0.554795
0.072906 0.072906 0.072906
0.072906 0.072906 0.072906
0.072906 0.072906 0.072906
0.075155 0.075155 0.075155
0.075155 0.075155 0.075155
0.075155 0.075155 0.075155
0.075155 0.075155 0.075155
0.535246 0.072906 0.072906
0.554795 0.554795 0.554795
0.072906 0.072906 0.072906
0.072906 0.072906 0.072906
0.072906 0.072906 0.072906
0.075155 0.075155 0.075155
0.075155 0.075155 0.075155
0.075155 0.075155 0.075155
0.075155 0.075155 0.075155
0.535282 0.072906 0.072906
0.554795 0.554795 0.554795
0.072906 0.072906 0.072906
0.072906 0.072906 0.072906
0.072906 0.072906 0.072906
0.072906 0.269734 0.072906
0.072906 0.274139 0.072906
0.072906 0.280516 0.072906
0.072906 0.299094 0.072906
0.535430 0.072906 0.072906
0.554795 0.554795 0.554795
0.072906 0.072906 0.072906
0.072906 0.072906 0.072906
0.072906 0.072906 0.072906
0.072906 0.534410 0.072906
0.072906 0.534408 0.072906
0.072906 0.534404 0.072906
0.072906 0.534384 0.072906
0.528759 0.532620 0.072906
0.554795 0.554795 0.554795
0.072906 0.072906 0.072906
0.072906 0.072906 0.072906
0.072906 0.072906 0.072906
0.554795 0.554795 0.554795
0.554795 0.554795 0.554795
0.554795 0.554795 0.554795
0.554795 0.554795 0.554795
0.554795 0.554795 0.554795
0.554795 0.554795 0.554795
0.072906 0.072906 0.072906
0.072906 0.072906 0.072906
0.072906 0.072906 0.072906
0.072906 0.072906 0.072906
0.072906 0.072906 0.072906
0.072906 0.072906 0.072906
0.072906 0.072906 0.072906
0.072906 0.072906 0.072906
0.072906 0.072906 0.072906
0.072906 0.072906 0.072906
0.072906 0.072906 0.072906
0.072906 0.072906 0.072906
0.072906 0.072906 0.072906
0.072906 0.072906 0.072906
0.072906 0.072906 0.072906
0.072906 0.072906 0.072906
0.072906 0.072906 0.072906
0.072906 0.072906 0.072906
0.072906 0.072906 0.072906
0.072906 0.072906 0.072906
0.072906 0.072906 0.072906
0.072906 0.072906 0.072906
0.072906 0.072906 0.072906
0.072906 0.072906 0.072906
0.072906 0.072906 0.072906
0.072906 0.072906 0.072906
0.072906 0.072906 0.072906
0.072906 0.072906 0.072906
0.072906 0.072906 0.072906
0.072906 0.072906 0.072906
0.075155 0.075155 0.075155
0.075155 0.075155 0.075155
0.075155 0.075155 0.075155
0.075155 0.075155 0.075155
0.535211 0.072906 0.072906
0.554795 0.554795 0.554795
0.072906 0.072906 0.072906
0.072906 0.072906 0.072906
0.072906 0.072906 0.072906
0.075155 0.075155 0.075155
0.075155 0.075155 0.075155
0.075155 0.075155 0.075155
0.075155 0.075155 0.075155
0.535231 0.072906 0.072906
0.554795 0.554795 0.554795
0.072906 0.072906 0.072906
0.072906 0.072906 0.072906
0.072906 0.072906 0.072906
0.075155 0.075155 0.075155
0.075155 0.075155 0.075155
0.075155 0.075155 0.075155
0.075155 0.075155 0.075155
0.535263 0.072906 0.072906
0.554795 0.554795 0.554795
0.072906 0.072906 0.072906
0.072906 0.072906 0.072906
0.072906 0.072906 0.072906
0.072906 0.259008 0.072906
0.072906 0.264732 0.072906
0.072906 0.272693 0.072906
0.072906 0.294345 0.072906
0.535400 0.072906 0.072906
0.554795 0.554795 0.554795
0.072906 0.072906 0.072906
0.072906 0.072906 0.072906
0.072906 0.072906 0.072906
0.072906 0.534391 0.072906
0.072906 0.534389 0.072906
0.072906 0.534385 0.072906
0.072906 0.534365 0.072906
0.528805 0.532601 0.072906
0.554795 0.554795 0.554795
0.072906 0.072906 0.072906
0.072906 0.072906 0.072906
0.072906 0.072906 0.072906
0.554795 0.554795 0.554795
0.554795 0.554795 0.554795
0.554795 0.554795 0.554795
0.554795 0.554795 0.554795
0.554795 0.554795 0.554795
0.554795 0.554795 0.554795
0.072906 0.072906 0.072906
0.072906 0.072906 0.072906
0.072906 0.072906 0.072906
0.072906 0.072906 0.072906
0.072906 0.072906 0.072906
0.072906 0.072906 0.072906
0.072906 0.072906 0.072906
0.072906 0.072906 0.072906
0.072906 0.072906 0.072906
0.072906 0.072906 0.072906
0.072906 0.072906 0.072906
0.072906 0.072906 0.072906
0.072906 0.072906 0.072906
0.072906 0.072906 0.072906
0.072906 0.072906 0.072906
0.072906 0.072906 0.072906
0.072906 0.072906 0.072906
0.072906 0.072906 0.072906
0.072906 0.072906 0.072906
0.072906 0.072906 0.072906
0.072906 0.072906 0.072906
0.072906 0.072906 0.072906
0.072906 0.072906 0.072906
0.072906 0.072906 0.072906
0.072906 0.072906 0.072906
0.072906 0.072906 0.072906
0.072906 0.072906 0.072906
0.072906 0.072906 0.072906
0.072906 0.072906 0.072906
0.072906 0.072906 0.072906
0.072906 0.072906 0.278146
0.072906 0.072906 0.278222
0.072906 0.072906 0.278348
0.072906 0.072906 0.278908
0.535207 0.072906 0.290150
0.554795 0.554795 0.554795
0.072906 0.072906 0.072906
0.072906 0.072906 0.072906
0.072906 0.072906 0.072906
0.072906 0.072906 0.275748
0.072906 0.072906 0.275830
0.072906 0.072906 0.275965
0.072906 0.072906 0.276560
0.535217 0.072906 0.285418
0.554795 0.554795 0.554795
0.072906 0.072906 0.072906
0.072906 0.072906 0.072906
0.072906 0.072906 0.072906
0.072906 0.072906 0.271387
0.072906 0.072906 0.271478
0.072906 0.072906 0.271629
0.072906 0.072906 0.272296
0.535233 0.072906 0.274716
0.554795 0.554795 0.554795
0.072906 0.072906 0.072906
0.072906 0.072906 0.072906
0.072906 0.072906 0.072906
0.072906 0.072906 0.243782
0.072906 0.072906 0.244132
0.072906 0.149932 0.244157
0.242275 0.242275 0.242275
0.535301 0.072906 0.072906
0.554795 0.554795 0.554795
0.072906 0.072906 0.072906
0.072906 0.072906 0.072906
0.072906 0.072906 0.072906
0.072906 0.534306 0.072906
0.072906 0.534304 0.072906
0.072906 0.534300 0.072906
0.072906 0.534279 0.072906
0.529010 0.532515 0.072906
0.554795 0.554795 0.554795
0.072906 0.072906 0.072906
0.072906 0.072906 0.072906
0.072906 0.072906 0.072906
0.554795 0.554795 0.554795
0.554795 0.554795 0.554795
0.554795 0.554795 0.554795
0.554795 0.554795 0.554795
0.554795 0.554795 0.554795
0.554795 0.554795 0.554795
0.072906 0.072906 0.072906
0.072906 0.072906 0.072906
0.072906 0.072906 0.072906
0.072906 0.072906 0.072906
0.072906 0.072906 0.072906
0.072906 0.072906 0.072906
0.072906 0.072906 0.072906
0.072906 0.072906 0.072906
0.072906 0.072906 0.072906
0.072906 0.072906 0.072906
0.072906 0.072906 0.072906
0.072906 0.072906 0.072906
0.072906 0.072906 0.072906
0.072906 0.072906 0.072906
0.072906 0.072906 0.072906
0.072906 0.072906 0.072906
0.072906 0.072906 0.072906
0.072906 0.072906 0.072906
0.072906 0.072906 0.072906
0.072906 0.072906 0.072906
0.072906 0.072906 0.072906
0.072906 0.072906 0.072906
0.072906 0.072906 0.072906
0.072906 0.072906 0.072906
0.072906 0.072906 0.072906
0.072906 0.072906 0.072906
0.072906 0.072906 0.072906
0.072906 0.072906 0.072906
0.072906 0.072906 0.072906
0.072906 0.072906 0.072906
0.072906 0.072906 0.531470
0.072906 0.072906 0.531470
0.072906 0.072906 0.531472
0.072906 0.072906 0.531478
0.535958 0.072906 0.530801
0.554795 0.554795 0.554795
0.072906 0.072906 0.072906
0.072906 0.072906 0.072906
0.072906 0.072906 0.072906
0.072906 0.072906 0.531463
0.072906 0.072906 0.531464
0.072906 0.072906 0.531465
0.072906 0.072906 0.531471
0.536015 0.072906 0.530794
0.554795 0.554795 0.554795
0.072906 0.072906 0.072906
0.072906 0.072906 0.072906
0.072906 0.072906 0.072906
0.072906 0.072906 0.531453
0.072906 0.072906 0.531453
0.072906 0.072906 0.531455
0.072906 0.072906 0.531461
0.536110 0.072906 0.530783
0.554795 0.554795 0.554795
0.072906 0.072906 0.072906
0.072906 0.072906 0.072906
0.072906 0.072906 0.072906
0.072906 0.072906 0.531405
0.072906 0.072906 0.531406
0.072906 0.072906 0.531408
0.072906 0.072906 0.531414
0.536529 0.072906 0.530732
0.554795 0.554795 0.554795
0.072906 0.072906 0.072906
0.072906 0.072906 0.072906
0.072906 0.072906 0.072906
0.072906 0.528052 0.526301
0.072906 0.528055 0.526302
0.072906 0.528060 0.526305
0.072906 0.528075 0.526313
0.526460 0.526460 0.526460
0.554795 0.554795 0.554795
0.072906 0.072906 0.072906
0.072906 0.072906 0.072906
0.072906 0.072906 0.072906
0.554795 0.554795 0.554795
0.554795 0.554795 0.554795
0.554795 0.554795 0.554795
0.554795 0.554795 0.554795
0.554795 0.554795 0.554795
0.554795 0.554795 0.554795
0.072906 0.072906 0.072906
0.072906 0.072906 0.072906
0.072906 0.072906 0.072906
0.072906 0.072906 0.072906
0.072906 0.072906 0.072906
0.072906 0.072906 0.072906
0.072906 0.072906 0.072906
0.072906 0.072906 0.072906
0.072906 0.072906 0.072906
0.072906 0.072906 0.072906
0.072906 0.072906 0.072906
0.072906 0.072906 0.072906
0.072906 0.072906 0.072906
0.072906 0.072906 0.072906
0.072906 0.072906 0.072906
0.072906 0.072906 0.072906
0.072906 0.072906 0.072906
0.072906 0.072906 0.072906
0.072906 0.072906 0.072906
0.072906 0.072906 0.072906
0.072906 0.072906 0.072906
0.072906 0.072906 0.072906
0.072906 0.072906 0.072906
0.072906 0.072906 0.072906
0.072906 0.072906 0.072906
0.072906 0.072906 0.072906
0.072906 0.072906 0.072906
0.072906 0.072906 0.072906
0.072906 0.072906 0.072906
0.072906 0.072906 0.072906
0.554795 0.554795 0.554795
0.554795 0.554795 0.554795
0.554795 0.554795 0.554795
0.554795 0.554795 0.554795
0.554795 0.554795 0.554795
0.554795 0.554795 0.554795
0.072906 0.072906 0.072906
0.072906 0.072906 0.072906
0.072906 0.072906 0.072906
0.554795 0.554795 0.554795
0.554795 0.554795 0.554795
0.554795 0.554795 0.554795
0.554795 0.554795 0.554795
0.554795 0.554795 0.554795
0.554795 0.554795 0.554795
0.072906 0.072906 0.072906
0.072906 0.072906 0.072906
0.072906 0.072906 0.072906
0.554795 0.554795 0.554795
0.554795 0.554795 0.554795
0.554795 0.554795 0.554795
0.554795 0.554795 0.554795
0.554795 0.554795 0.554795
0.554795 0.554795 0.554795
0.072906 0.072906 0.072906
0.072906 0.072906 0.072906
0.072906 0.072906 0.072906
0.554795 0.554795 0.554795
0.554795 0.554795 0.554795
0.554795 0.554795 0.554795
0.554795 0.554795 0.554795
0.554795 0.554795 0.554795
0.554795 0.554795 0.554795
0.072906 0.072906 0.072906
0.072906 0.072906 0.072906
0.072906 0.072906 0.072906
0.554795 0.554795 0.554795
0.554795 0.554795 0.554795
0.554795 0.554795 0.554795
0.554795 0.554795 0.554795
0.554795 0.554795 0.554795
0.554795 0.554795 0.554795
0.072906 0.072906 0.072906
0.072906 0.072906 0.072906
0.072906 0.072906 0.072906
0.554795 0.554795 0.554795
0.554795 0.554795 0.554795
0.554795 0.554795 0.554795
0.554795 0.554795 0.554795
0.554795 0.554795 0.554795
0.554795 0.554795 0.554795
0.072906 0.072906 0.072906
0.072906 0.072906 0.072906
0.072906 0.072906 0.072906
0.072906 0.072906 0.072906
0.072906 0.072906 0.072906
0.072906 0.072906 0.072906
0.072906 0.072906 0.072906
0.072906 0.072906 0.072906
0.072906 0.072906 0.072906
0.072906 0.072906 0.072906
0.072906 0.072906 0.072906
0.072906 0.072906 0.072906
0.072906 0.072906 0.072906
0.072906 0.072906 0.072906
0.072906 0.072906 0.072906
0.072906 0.072906 0.072906
0.072906 0.072906 0.072906
0.072906 0.072906 0.072906
0.072906 0.072906 0.072906
0.072906 0.072906 0.072906
0.072906 0.072906 0.072906
0.072906 0.072906 0.072906
0.072906 0.072906 0.072906
0.072906 0.072906 0.072906
0.072906 0.072906 0.072906
0.072906 0.072906 0.072906
0.072906 0.072906 0.072906
0.072906 0.072906 0.072906
0.072906 0.072906 0.072906
0.072906 0.072906 0.072906
0.072906 0.072906 0.072906
0.072906 0.072906 0.072906
0.072906 0.072906 0.072906
0.072906 0.072906 0.072906
0.072906 0.072906 0.072906
0.072906 0.072906 0.072906
0.072906 0.072906 0.072906
0.072906 0.072906 0.072906
0.072906 0.072906 0.072906
0.072906 0.072906 0.072906
0.072906 0.072906 0.072906
0.072906 0.072906 0.072906
0.072906 0.072906 0.072906
0.072906 0.072906 0.072906
0.072906 0.072906 0.072906
0.072906 0.072906 0.072906
0.072906 0.072906 0.072906
0.072906 0.072906 0.072906
0.072906 0.072906 0.072906
0.072906 0.072906 0.072906
0.072906 0.072906 0.072906
0.072906 0.072906 0.072906
0.072906 0.072906 0.072906
0.072906 0.072906 0.072906
0.072906 0.072906 0.072906
0.072906 0.072906 0.072906
0.072906 0.072906 0.072906
0.072906 0.072906 0.072906
0.072906 0.072906 0.072906
0.072906 0.072906 0.072906
0.072906 0.072906 0.072906
0.072906 0.072906 0.072906
0.072906 0.072906 0.072906
0.072906 0.072906 0.072906
0.072906 0.072906 0.072906
0.072906 0.072906 0.072906
0.072906 0.072906 0.072906
0.072906 0.072906 0.072906
0.072906 0.072906 0.072906
0.072906 0.072906 0.072906
0.072906 0.072906 0.072906
0.072906 0.072906 0.072906
0.072906 0.072906 0.072906
0.072906 0.072906 0.072906
0.072906 0.072906 0.072906
0.072906 0.072906 0.072906
0.072906 0.072906 0.072906
0.072906 0.072906 0.072906
0.072906 0.072906 0.072906
0.072906 0.072906 0.072906
0.072906 0.072906 0.072906
0.072906 0.072906 0.072906
0.072906 0.072906 0.072906
0.072906 0.072906 0.072906
0.072906 0.072906 0.072906
0.072906 0.072906 0.072906
0.072906 0.072906 0.072906
0.072906 0.072906 0.072906
0.072906 0.072906 0.072906
0.072906 0.072906 0.072906
0.072906 0.072906 0.072906
0.072906 0.072906 0.072906
0.072906 0.072906 0.072906
0.072906 0.072906 0.072906
0.072906 0.072906 0.072906
0.072906 0.072906 0.072906
0.072906 0.072906 0.072906
0.072906 0.072906 0.072906
0.072906 0.072906 0.072906
0.072906 0.072906 0.072906
0.072906 0.072906 0.072906
0.072906 0.072906 0.072906
0.072906 0.072906 0.072906
0.072906 0.072906 0.072906
0.072906 0.072906 0.072906
0.072906 0.072906 0.072906
0.072906 0.072906 0.072906
0.072906 0.072906 0.072906
0.072906 0.072906 0.072906
0.072906 0.072906 0.072906
0.072906 0.072906 0.072906
0.072906 0.072906 0.072906
0.072906 0.072906 0.072906
0.072906 0.072906 0.072906
0.072906 0.072906 0.072906
0.072906 0.072906 0.072906
0.072906 0.072906 0.072906
0.072906 0.072906 0.072906
0.072906 0.072906 0.072906
0.072906 0.072906 0.072906
0.072906 0.072906 0.072906
0.072906 0.072906 0.072906
0.072906 0.072906 0.072906
0.072906 0.072906 0.072906
0.072906 0.072906 0.072906
0.072906 0.072906 0.072906
0.072906 0.072906 0.072906
0.072906 0.072906 0.072906
0.072906 0.072906 0.072906
0.072906 0.072906 0.072906
0.072906 0.072906 0.072906
0.072906 0.072906 0.072906
0.072906 0.072906 0.072906
0.072906 0.072906 0.072906
0.072906 0.072906 0.072906
0.072906 0.072906 0.072906
0.072906 0.072906 0.072906
0.072906 0.072906 0.072906
0.072906 0.072906 0.072906
0.072906 0.072906 0.072906
0.072906 0.072906 0.072906
0.072906 0.072906 0.072906
0.072906 0.072906 0.072906
0.072906 0.072906 0.072906
0.072906 0.072906 0.072906
0.072906 0.072906 0.072906
0.072906 0.072906 0.072906
0.072906 0.072906 0.072906
0.072906 0.072906 0.072906
0.072906 0.072906 0.072906
0.072906 0.072906 0.072906
0.072906 0.072906 0.072906
0.072906 0.072906 0.072906
0.072906 0.072906 0.072906
0.072906 0.072906 0.072906
0.072906 0.072906 0.072906
0.072906 0.072906 0.072906
0.072906 0.072906 0.072906
0.072906 0.072906 0.072906
0.072906 0.072906 0.072906
0.072906 0.072906 0.072906
0.072906 0.072906 0.072906
0.072906 0.072906 0.072906
0.072906 0.072906 0.072906
0.072906 0.072906 0.072906
0.072906 0.072906 0.072906
0.072906 0.072906 0.072906
0.072906 0.072906 0.072906
0.072906 0.072906 0.072906
0.072906 0.072906 0.072906
0.072906 0.072906 0.072906
0.072906 0.072906 0.072906
0.072906 0.072906 0.072906
0.072906 0.072906 0.072906
0.072906 0.072906 0.072906
0.072906 0.072906 0.072906
0.072906 0.072906 0.072906
0.072906 0.072906 0.072906
0.072906 0.072906 0.072906
0.072906 0.072906 0.072906
0.072906 0.072906 0.072906
0.072906 0.072906 0.072906
0.072906 0.072906 0.072906
0.072906 0.072906 0.072906
0.072906 0.072906 0.072906
0.072906 0.072906 0.072906
0.072906 0.072906 0.072906
0.072906 0.072906 0.072906
0.072906 0.072906 0.072906
0.072906 0.072906 0.072906
0.072906 0.072906 0.072906
0.072906 0.072906 0.072906
0.072906 0.072906 0.072906
0.072906 0.072906 0.072906
0.072906 0.072906 0.072906
0.072906 0.072906 0.072906
0.072906 0.072906 0.072906
0.072906 0.072906 0.072906
0.072906 0.072906 0.072906
0.072906 0.072906 0.072906
0.072906 0.072906 0.072906
0.072906 0.072906 0.072906
0.072906 0.072906 0.072906
0.072906 0.072906 0.072906
0.072906 0.072906 0.072906
0.072906 0.072906 0.072906
0.072906 0.072906 0.072906
0.072906 0.072906 0.072906
0.072906 0.072906 0.072906
0.072906 0.072906 0.072906
0.072906 0.072906 0.072906
0.072906 0.072906 0.072906
0.072906 0.072906 0.072906
0.072906 0.072906 0.072906
0.072906 0.072906 0.072906
0.072906 0.072906 0.072906
0.072906 0.072906 0.072906
0.072906 0.072906 0.072906
0.072906 0.072906 0.072906
0.072906 0.072906 0.072906
0.072906 0.072906 0.072906
0.072906 0.072906 0.072906
0.072906 0.072906 0.072906
0.072906 0.072906 0.072906
0.072906 0.072906 0.072906
0.072906 0.072906 0.072906
0.072906 0.072906 0.072906
0.072906 0.072906 0.072906
0.072906 0.072906 0.072906
0.072906 0.072906 0.072906
0.072906 0.072906 0.072906
0.072906 0.072906 0.072906
0.072906 0.072906 0.072906
0.072906 0.072906 0.072906
0.072906 0.072906 0.072906
0.072906 0.072906 0.072906
0.072906 0.072906 0.072906
0.072906 0.072906 0.072906
0.072906 0.072906 0.072906
0.072906 0.072906 0.072906
0.072906 0.072906 0.072906
0.072906 0.072906 0.072906
0.072906 0.072906 0.072906
0.072906 0.072906 0.072906
0.072906 0.072906 0.072906
0.072906 0.072906 0.072906
0.072906 0.072906 0.072906
0.072906 0.072906 0.072906
0.072906 0.072906 0.072906
0.072906 0.072906 0.072906
0.072906 0.072906 0.072906
0.072906 0.072906 0.072906
0.072906 0.072906 0.072906
0.072906 0.072906 0.072906
0.072906 0.072906 0.072906
0.072906 0.072906 0.072906
0.072906 0.072906 0.072906
0.072906 0.072906 0.072906
0.072906 0.072906 0.072906
0.072906 0.072906 0.072906
0.072906 0.072906 0.072906
0.072906 0.072906 0.072906
0.072906 0.072906 0.072906
0.072906 0.072906 0.072906
0.072906 0.072906 0.072906
0.072906 0.072906 0.072906
0.072906 0.072906 0.072906
0.072906 0.072906 0.072906
0.072906 0.072906 0.072906
0.072906 0.072906 0.072906
0.072906 0.072906 0.072906
0.072906 0.072906 0.072906
0.072906 0.072906 0.072906
