software/Premiere/untitled folder/ARRILogC3_to_ACES-Rec709.cube
TITLE "Generated by Foundry::LUT"
LUT_3D_SIZE 33
0.075155 0.075155 0.075155
0.075155 0.075155 0.075155
0.075155 0.075155 0.075155
0.075155 0.075155 0.075155
0.075155 0.075155 0.075155
0.075155 0.075155 0.075155
0.075155 0.075155 0.075155
0.075155 0.075155 0.075155
0.075155 0.075155 0.075155
0.075155 0.075155 0.075155
0.075155 0.075155 0.075155
0.075155 0.075155 0.075155
0.075155 0.075155 0.075155
0.312905 0.072906 0.072906
0.399377 0.072906 0.072906
0.463444 0.072906 0.072906
0.535234 0.072906 0.072906
0.554795 0.494107 0.391190
0.554795 0.553555 0.547053
0.554795 0.554795 0.554795
0.554795 0.554795 0.554795
0.554795 0.554795 0.554795
0.554795 0.554795 0.554795
0.075155 0.075155 0.075155
0.072906 0.072906 0.072906
0.072906 0.072906 0.072906
0.072906 0.072906 0.072906
0.072906 0.072906 0.072906
0.072906 0.072906 0.072906
0.072906 0.072906 0.072906
0.072906 0.072906 0.072906
0.072906 0.072906 0.072906
0.072906 0.072906 0.072906
0.075155 0.075155 0.075155
0.075155 0.075155 0.075155
0.075155 0.075155 0.075155
0.075155 0.075155 0.075155
0.075155 0.075155 0.075155
0.075155 0.075155 0.075155
0.075155 0.075155 0.075155
0.075155 0.075155 0.075155
0.075155 0.075155 0.075155
0.075155 0.075155 0.075155
0.075155 0.075155 0.075155
0.075155 0.075155 0.075155
0.075155 0.075155 0.075155
0.314750 0.072906 0.072906
0.399608 0.072906 0.072906
0.463552 0.072906 0.072906
0.535240 0.072906 0.072906
0.554795 0.494231 0.391067
0.554795 0.553555 0.547053
0.554795 0.554795 0.554795
0.554795 0.554795 0.554795
0.554795 0.554795 0.554795
0.554795 0.554795 0.554795
0.075155 0.075155 0.075155
0.072906 0.072906 0.072906
0.072906 0.072906 0.072906
0.072906 0.072906 0.072906
0.072906 0.072906 0.072906
0.072906 0.072906 0.072906
0.072906 0.072906 0.072906
0.072906 0.072906 0.072906
0.072906 0.072906 0.072906
0.072906 0.072906 0.072906
0.075155 0.075155 0.075155
0.075155 0.075155 0.075155
0.075155 0.075155 0.075155
0.075155 0.075155 0.075155
0.075155 0.075155 0.075155
0.075155 0.075155 0.075155
0.075155 0.075155 0.075155
0.075155 0.075155 0.075155
0.075155 0.075155 0.075155
0.075155 0.075155 0.075155
0.075155 0.075155 0.075155
0.075155 0.075155 0.075155
0.075155 0.075155 0.075155
0.316400 0.072906 0.072906
0.399834 0.072906 0.072906
0.463662 0.072906 0.072906
0.535246 0.072906 0.072906
0.554795 0.494354 0.390943
0.554795 0.553556 0.547053
0.554795 0.554795 0.554795
0.554795 0.554795 0.554795
0.554795 0.554795 0.554795
0.554795 0.554795 0.554795
0.075155 0.075155 0.075155
0.072906 0.072906 0.072906
0.072906 0.072906 0.072906
0.072906 0.072906 0.072906
0.072906 0.072906 0.072906
0.072906 0.072906 0.072906
0.072906 0.072906 0.072906
0.072906 0.072906 0.072906
0.072906 0.072906 0.072906
0.072906 0.072906 0.072906
0.075155 0.075155 0.075155
0.075155 0.075155 0.075155
0.075155 0.075155 0.075155
0.075155 0.075155 0.075155
0.075155 0.075155 0.075155
0.075155 0.075155 0.075155
0.075155 0.075155 0.075155
0.075155 0.075155 0.075155
0.075155 0.075155 0.075155
0.075155 0.075155 0.075155
0.075155 0.075155 0.075155
0.075155 0.075155 0.075155
0.075155 0.075155 0.075155
0.317889 0.072906 0.072906
0.400055 0.072906 0.072906
0.463774 0.072906 0.072906
0.535251 0.072906 0.072906
0.554795 0.494477 0.390818
0.554795 0.553556 0.547053
0.554795 0.554795 0.554795
0.554795 0.554795 0.554795
0.554795 0.554795 0.554795
0.554795 0.554795 0.554795
0.075155 0.075155 0.075155
0.072906 0.072906 0.072906
0.072906 0.072906 0.072906
0.072906 0.072906 0.072906
0.072906 0.072906 0.072906
0.072906 0.072906 0.072906
0.072906 0.072906 0.072906
0.072906 0.072906 0.072906
0.072906 0.072906 0.072906
0.072906 0.072906 0.072906
0.075155 0.075155 0.075155
0.075155 0.075155 0.075155
0.075155 0.075155 0.075155
0.075155 0.075155 0.075155
0.075155 0.075155 0.075155
0.075155 0.075155 0.075155
0.075155 0.075155 0.075155
0.075155 0.075155 0.075155
0.075155 0.075155 0.075155
0.075155 0.075155 0.075155
0.075155 0.075155 0.075155
0.075155 0.075155 0.075155
0.075155 0.075155 0.075155
0.319243 0.072906 0.072906
0.400273 0.072906 0.072906
0.463887 0.072906 0.072906
0.535257 0.072906 0.072906
0.554795 0.494599 0.390694
0.554795 0.553556 0.547053
0.554795 0.554795 0.554795
0.554795 0.554795 0.554795
0.554795 0.554795 0.554795
0.554795 0.554795 0.554795
0.075155 0.075155 0.075155
0.072906 0.072906 0.072906
0.072906 0.072906 0.072906
0.072906 0.072906 0.072906
0.072906 0.072906 0.072906
0.072906 0.072906 0.072906
0.072906 0.072906 0.072906
0.072906 0.072906 0.072906
0.072906 0.072906 0.072906
0.072906 0.072906 0.072906
0.075155 0.075155 0.075155
0.075155 0.075155 0.075155
0.075155 0.075155 0.075155
0.075155 0.075155 0.075155
0.075155 0.075155 0.075155
0.075155 0.075155 0.075155
0.075155 0.075155 0.075155
0.075155 0.075155 0.075155
0.075155 0.075155 0.075155
0.075155 0.075155 0.075155
0.075155 0.075155 0.075155
0.075155 0.075155 0.075155
0.075155 0.075155 0.075155
0.320475 0.072906 0.072906
0.400488 0.072906 0.072906
0.464000 0.072906 0.072906
0.535263 0.072906 0.072906
0.554795 0.494721 0.390569
0.554795 0.553556 0.547052
0.554795 0.554795 0.554795
0.554795 0.554795 0.554795
0.554795 0.554795 0.554795
0.554795 0.554795 0.554795
0.075155 0.075155 0.075155
0.072906 0.072906 0.072906
0.072906 0.072906 0.072906
0.072906 0.072906 0.072906
0.072906 0.072906 0.072906
0.072906 0.072906 0.072906
0.072906 0.072906 0.072906
0.072906 0.072906 0.072906
0.072906 0.072906 0.072906
0.072906 0.072906 0.072906
0.075155 0.075155 0.075155
0.075155 0.075155 0.075155
0.075155 0.075155 0.075155
0.075155 0.075155 0.075155
0.075155 0.075155 0.075155
0.075155 0.075155 0.075155
0.075155 0.075155 0.075155
0.075155 0.075155 0.075155
0.075155 0.075155 0.075155
0.075155 0.075155 0.075155
0.075155 0.075155 0.075155
0.075155 0.075155 0.075155
0.075155 0.075155 0.075155
0.321837 0.072906 0.072906
0.400748 0.072906 0.072906
0.464142 0.072906 0.072906
0.535270 0.072906 0.072906
0.554795 0.494870 0.390414
0.554795 0.553556 0.547052
0.554795 0.554795 0.554795
0.554795 0.554795 0.554795
0.554795 0.554795 0.554795
0.554795 0.554795 0.554795
0.075155 0.075155 0.075155
0.072906 0.072906 0.072906
0.072906 0.072906 0.072906
0.072906 0.072906 0.072906
0.072906 0.072906 0.072906
0.072906 0.072906 0.072906
0.072906 0.072906 0.072906
0.072906 0.072906 0.072906
0.072906 0.072906 0.072906
0.072906 0.072906 0.072906
0.075155 0.075155 0.075155
0.075155 0.075155 0.075155
0.075155 0.075155 0.075155
0.075155 0.075155 0.075155
0.075155 0.075155 0.075155
0.075155 0.075155 0.075155
0.075155 0.075155 0.075155
0.075155 0.075155 0.075155
0.075155 0.075155 0.075155
0.075155 0.075155 0.075155
0.075155 0.075155 0.075155
0.075155 0.075155 0.075155
0.075155 0.075155 0.075155
0.323559 0.072906 0.072906
0.401123 0.072906 0.072906
0.464353 0.072906 0.072906
0.535280 0.072906 0.072906
0.554795 0.495087 0.390188
0.554795 0.553557 0.547052
0.554795 0.554795 0.554795
0.554795 0.554795 0.554795
0.554795 0.554795 0.554795
0.554795 0.554795 0.554795
0.075155 0.075155 0.075155
0.072906 0.072906 0.072906
0.072906 0.072906 0.072906
0.072906 0.072906 0.072906
0.072906 0.072906 0.072906
0.072906 0.072906 0.072906
0.072906 0.072906 0.072906
0.072906 0.072906 0.072906
0.072906 0.072906 0.072906
0.072906 0.072906 0.072906
0.075155 0.075155 0.075155
0.075155 0.075155 0.075155
0.075155 0.075155 0.075155
0.075155 0.075155 0.075155
0.075155 0.075155 0.075155
0.075155 0.075155 0.075155
0.075155 0.075155 0.075155
0.075155 0.075155 0.075155
0.075155 0.075155 0.075155
0.075155 0.075155 0.075155
0.075155 0.075155 0.075155
0.075155 0.075155 0.075155
0.075155 0.075155 0.075155
0.325631 0.072906 0.072906
0.401664 0.072906 0.072906
0.464667 0.072906 0.072906
0.535294 0.072906 0.072906
0.554795 0.495401 0.389854
0.554795 0.553557 0.547052
0.554795 0.554795 0.554795
0.554795 0.554795 0.554795
0.554795 0.554795 0.554795
0.554795 0.554795 0.554795
0.075155 0.075155 0.075155
0.072906 0.072906 0.072906
0.072906 0.072906 0.072906
0.072906 0.072906 0.072906
0.072906 0.072906 0.072906
0.072906 0.072906 0.072906
0.072906 0.072906 0.072906
0.072906 0.072906 0.072906
0.072906 0.072906 0.072906
0.072906 0.072906 0.072906
0.075155 0.075155 0.075155
0.075155 0.075155 0.075155
0.075155 0.075155 0.075155
0.075155 0.075155 0.075155
0.075155 0.075155 0.075155
0.075155 0.075155 0.075155
0.075155 0.075155 0.075155
0.075155 0.075155 0.075155
0.075155 0.075155 0.075155
0.075155 0.075155 0.075155
0.075155 0.075155 0.075155
0.075155 0.075155 0.075155
0.075155 0.075155 0.075155
0.328107 0.072906 0.072906
0.402456 0.072906 0.072906
0.464949 0.072906 0.072906
0.535315 0.072906 0.072906
0.554795 0.495854 0.389361
0.554795 0.553558 0.547052
0.554795 0.554795 0.554795
0.554795 0.554795 0.554795
0.554795 0.554795 0.554795
0.554795 0.554795 0.554795
0.075155 0.075155 0.075155
0.072906 0.072906 0.072906
0.072906 0.072906 0.072906
0.072906 0.072906 0.072906
0.072906 0.072906 0.072906
0.072906 0.072906 0.072906
0.072906 0.072906 0.072906
0.072906 0.072906 0.072906
0.072906 0.072906 0.072906
0.072906 0.072906 0.072906
0.075155 0.075155 0.075155
0.075155 0.075155 0.075155
0.075155 0.075155 0.075155
0.075155 0.075155 0.075155
0.075155 0.075155 0.075155
0.075155 0.075155 0.075155
0.075155 0.075155 0.075155
0.075155 0.075155 0.075155
0.075155 0.075155 0.075155
0.075155 0.075155 0.075155
0.075155 0.075155 0.075155
0.075155 0.075155 0.075155
0.075155 0.075155 0.075155
0.331680 0.072906 0.072906
0.403652 0.072906 0.072906
0.465290 0.072906 0.072906
0.535346 0.072906 0.072906
0.554795 0.496505 0.388631
0.554795 0.553559 0.547051
0.554795 0.554795 0.554795
0.554795 0.554795 0.554795
0.554795 0.554795 0.554795
0.554795 0.554795 0.554795
0.075155 0.075155 0.075155
0.072906 0.072906 0.072906
0.072906 0.072906 0.072906
0.072906 0.072906 0.072906
0.072906 0.072906 0.072906
0.072906 0.072906 0.072906
0.072906 0.072906 0.072906
0.072906 0.072906 0.072906
0.072906 0.072906 0.072906
0.072906 0.072906 0.072906
0.075155 0.075155 0.075155
0.075155 0.075155 0.075155
0.075155 0.075155 0.075155
0.075155 0.075155 0.075155
0.075155 0.075155 0.075155
0.075155 0.075155 0.075155
0.075155 0.075155 0.075155
0.075155 0.075155 0.075155
0.075155 0.075155 0.075155
0.075155 0.075155 0.075155
0.075155 0.075155 0.075155
0.075155 0.075155 0.075155
0.075155 0.075155 0.075155
0.338066 0.072906 0.072906
0.404757 0.072906 0.072906
0.465790 0.072906 0.072906
0.535389 0.072906 0.072906
0.554795 0.497432 0.387539
0.554795 0.553560 0.547051
0.554795 0.554795 0.554795
0.554795 0.554795 0.554795
0.554795 0.554795 0.554795
0.554795 0.554795 0.554795
0.075155 0.075155 0.075155
0.072906 0.072906 0.072906
0.072906 0.072906 0.072906
0.072906 0.072906 0.072906
0.072906 0.072906 0.072906
0.072906 0.072906 0.072906
0.072906 0.072906 0.072906
0.072906 0.072906 0.072906
0.072906 0.072906 0.072906
0.072906 0.072906 0.072906
0.072906 0.274982 0.072906
0.072906 0.275987 0.072906
0.072906 0.276967 0.072906
0.072906 0.277923 0.072906
0.072906 0.278855 0.072906
0.072906 0.279766 0.072906
0.072906 0.280859 0.072906
0.072906 0.282402 0.072906
0.072906 0.284555 0.072906
0.072906 0.287502 0.072906
0.072906 0.291415 0.072906
0.072906 0.296451 0.072906
0.072906 0.301647 0.072906
0.334438 0.299766 0.072906
0.404329 0.244206 0.072906
0.466431 0.072906 0.072906
0.535450 0.072906 0.072906
0.554795 0.498737 0.385891
0.554795 0.553562 0.547050
0.554795 0.554795 0.554795
0.554795 0.554795 0.554795
0.554795 0.554795 0.554795
0.554795 0.554795 0.554795
0.075155 0.075155 0.075155
0.072906 0.072906 0.072906
0.072906 0.072906 0.072906
0.072906 0.072906 0.072906
0.072906 0.072906 0.072906
0.072906 0.072906 0.072906
0.072906 0.072906 0.072906
0.072906 0.072906 0.072906
0.072906 0.072906 0.072906
0.072906 0.072906 0.072906
0.072906 0.353013 0.072906
0.072906 0.353203 0.072906
0.072906 0.353392 0.072906
0.072906 0.353580 0.072906
0.072906 0.353767 0.072906
0.072906 0.353954 0.072906
0.072906 0.354183 0.072906
0.072906 0.354516 0.072906
0.072906 0.355000 0.072906
0.072906 0.355698 0.072906
0.072906 0.356702 0.072906
0.072906 0.358137 0.072906
0.072906 0.359246 0.072906
0.302861 0.359438 0.072906
0.402054 0.356023 0.072906
0.467204 0.267325 0.072906
0.535538 0.072906 0.072906
0.554795 0.500584 0.383302
0.554795 0.553566 0.547048
0.554795 0.554795 0.554795
0.554795 0.554795 0.554795
0.554795 0.554795 0.554795
0.554795 0.554795 0.554795
0.075155 0.075155 0.075155
0.072906 0.072906 0.072906
0.072906 0.072906 0.072906
0.072906 0.072906 0.072906
0.072906 0.072906 0.072906
0.072906 0.072906 0.072906
0.072906 0.072906 0.072906
0.072906 0.072906 0.072906
0.072906 0.072906 0.072906
0.072906 0.072906 0.072906
0.072906 0.408820 0.072906
0.072906 0.408889 0.072906
0.072906 0.408958 0.072906
0.072906 0.409027 0.072906
0.072906 0.409096 0.072906
0.072906 0.409164 0.072906
0.072906 0.409249 0.072906
0.072906 0.409372 0.072906
0.072906 0.409552 0.072906
0.072906 0.409808 0.072906
0.072906 0.409992 0.072906
0.072906 0.410259 0.072906
0.072906 0.410610 0.072906
0.072906 0.410883 0.072906
0.387656 0.410730 0.072906
0.467626 0.403230 0.072906
0.535756 0.072906 0.072906
0.554795 0.504586 0.376338
0.554795 0.553573 0.547045
0.554795 0.554795 0.554795
0.554795 0.554795 0.554795
0.554795 0.554795 0.554795
0.554795 0.554795 0.554795
0.075155 0.075155 0.075155
0.072906 0.072906 0.072906
0.072906 0.072906 0.072906
0.072906 0.072906 0.072906
0.072906 0.072906 0.072906
0.072906 0.072906 0.072906
0.072906 0.072906 0.072906
0.072906 0.072906 0.072906
0.072906 0.072906 0.072906
0.072906 0.072906 0.072906
0.072906 0.469475 0.072906
0.072906 0.469483 0.072906
0.072906 0.469491 0.072906
0.072906 0.469499 0.072906
0.072906 0.469507 0.072906
0.072906 0.469514 0.072906
0.072906 0.469524 0.072906
0.072906 0.469538 0.072906
0.072906 0.469559 0.072906
0.072906 0.469589 0.072906
0.072906 0.469629 0.072906
0.072906 0.469683 0.072906
0.072906 0.469744 0.072906
0.072906 0.469806 0.072906
0.072906 0.469839 0.072906
0.456168 0.469174 0.072906
0.536337 0.465390 0.072906
0.554795 0.515492 0.329613
0.554795 0.553600 0.547033
0.554795 0.554795 0.554795
0.554795 0.554795 0.554795
0.554795 0.554795 0.554795
0.554795 0.554795 0.554795
0.075155 0.075155 0.075155
0.072906 0.072906 0.072906
0.072906 0.072906 0.072906
0.072906 0.072906 0.072906
0.072906 0.072906 0.072906
0.072906 0.072906 0.072906
0.072906 0.072906 0.072906
0.072906 0.072906 0.072906
0.072906 0.072906 0.072906
0.072906 0.072906 0.072906
0.072906 0.534421 0.072906
0.072906 0.534420 0.072906
0.072906 0.534420 0.072906
0.072906 0.534419 0.072906
0.072906 0.534419 0.072906
0.072906 0.534418 0.072906
0.072906 0.534418 0.072906
0.072906 0.534417 0.072906
0.072906 0.534415 0.072906
0.072906 0.534413 0.072906
0.072906 0.534410 0.072906
0.072906 0.534404 0.072906
0.072906 0.534395 0.072906
0.072906 0.534380 0.072906
0.072906 0.534336 0.072906
0.072906 0.534090 0.072906
0.528731 0.532631 0.072906
0.554795 0.537682 0.072906
0.554795 0.553736 0.546969
0.554795 0.554795 0.554795
0.554795 0.554795 0.554795
0.554795 0.554795 0.554795
0.554795 0.554795 0.554795
0.075155 0.075155 0.075155
0.072906 0.072906 0.072906
0.072906 0.072906 0.072906
0.072906 0.072906 0.072906
0.072906 0.072906 0.072906
0.072906 0.072906 0.072906
0.072906 0.072906 0.072906
0.072906 0.072906 0.072906
0.072906 0.072906 0.072906
0.072906 0.072906 0.072906
0.511399 0.554795 0.440016
0.511454 0.554795 0.440021
0.511509 0.554795 0.440026
0.511563 0.554795 0.440031
0.511618 0.554795 0.440036
0.511672 0.554795 0.440041
0.511738 0.554795 0.440047
0.511835 0.554795 0.440056
0.511976 0.554795 0.440069
0.512180 0.554795 0.440088
0.512475 0.554795 0.440115
0.512899 0.554795 0.440155
0.513502 0.554795 0.440215
0.514370 0.554795 0.440303
0.516304 0.554783 0.440514
0.521901 0.554650 0.441273
0.536785 0.554172 0.445375
0.554528 0.553327 0.475489
0.554795 0.554565 0.546646
0.554795 0.554795 0.554795
0.554795 0.554795 0.554795
0.554795 0.554795 0.554795
0.554795 0.554795 0.554795
0.075155 0.075155 0.075155
0.072906 0.072906 0.072906
0.072906 0.072906 0.072906
0.072906 0.072906 0.072906
0.072906 0.072906 0.072906
0.072906 0.072906 0.072906
0.072906 0.072906 0.072906
0.072906 0.072906 0.072906
0.072906 0.072906 0.072906
0.072906 0.072906 0.072906
0.554077 0.554795 0.551260
0.554077 0.554795 0.551260
0.554077 0.554795 0.551260
0.554077 0.554795 0.551260
0.554077 0.554795 0.551260
0.554077 0.554795 0.551260
0.554077 0.554795 0.551260
0.554078 0.554795 0.551260
0.554078 0.554795 0.551260
0.554078 0.554795 0.551260
0.554078 0.554795 0.551260
0.554079 0.554795 0.551260
0.554079 0.554795 0.551260
0.554080 0.554795 0.551260
0.554082 0.554795 0.551260
0.554090 0.554795 0.551261
0.554133 0.554795 0.551267
0.554513 0.554795 0.551321
0.554795 0.554795 0.552529
0.554795 0.554795 0.554795
0.554795 0.554795 0.554795
0.554795 0.554795 0.554795
0.554795 0.554795 0.554795
0.075155 0.075155 0.075155
0.072906 0.072906 0.072906
0.072906 0.072906 0.072906
0.072906 0.072906 0.072906
0.072906 0.072906 0.072906
0.072906 0.072906 0.072906
0.072906 0.072906 0.072906
0.072906 0.072906 0.072906
0.072906 0.072906 0.072906
0.072906 0.072906 0.072906
0.554795 0.554795 0.554795
0.554795 0.554795 0.554795
0.554795 0.554795 0.554795
0.554795 0.554795 0.554795
0.554795 0.554795 0.554795
0.554795 0.554795 0.554795
0.554795 0.554795 0.554795
0.554795 0.554795 0.554795
0.554795 0.554795 0.554795
0.554795 0.554795 0.554795
0.554795 0.554795 0.554795
0.554795 0.554795 0.554795
0.554795 0.554795 0.554795
0.554795 0.554795 0.554795
0.554795 0.554795 0.554795
0.554795 0.554795 0.554795
0.554795 0.554795 0.554795
0.554795 0.554795 0.554795
0.554795 0.554795 0.554795
0.554795 0.554795 0.554795
0.554795 0.554795 0.554795
0.554795 0.554795 0.554795
0.554795 0.554795 0.554795
0.075155 0.075155 0.075155
0.072906 0.072906 0.072906
0.072906 0.072906 0.072906
0.072906 0.072906 0.072906
0.072906 0.072906 0.072906
0.072906 0.072906 0.072906
0.072906 0.072906 0.072906
0.072906 0.072906 0.072906
0.072906 0.072906 0.072906
0.072906 0.072906 0.072906
0.554795 0.554795 0.554795
0.554795 0.554795 0.554795
0.554795 0.554795 0.554795
0.554795 0.554795 0.554795
0.554795 0.554795 0.554795
0.554795 0.554795 0.554795
0.554795 0.554795 0.554795
0.554795 0.554795 0.554795
0.554795 0.554795 0.554795
0.554795 0.554795 0.554795
0.554795 0.554795 0.554795
0.554795 0.554795 0.554795
0.554795 0.554795 0.554795
0.554795 0.554795 0.554795
0.554795 0.554795 0.554795
0.554795 0.554795 0.554795
0.554795 0.554795 0.554795
0.554795 0.554795 0.554795
0.554795 0.554795 0.554795
0.554795 0.554795 0.554795
0.554795 0.554795 0.554795
0.554795 0.554795 0.554795
0.554795 0.554795 0.554795
0.075155 0.075155 0.075155
0.072906 0.072906 0.072906
0.072906 0.072906 0.072906
0.072906 0.072906 0.072906
0.072906 0.072906 0.072906
0.072906 0.072906 0.072906
0.072906 0.072906 0.072906
0.072906 0.072906 0.072906
0.072906 0.072906 0.072906
0.072906 0.072906 0.072906
0.554795 0.554795 0.554795
0.554795 0.554795 0.554795
0.554795 0.554795 0.554795
0.554795 0.554795 0.554795
0.554795 0.554795 0.554795
0.554795 0.554795 0.554795
0.554795 0.554795 0.554795
0.554795 0.554795 0.554795
0.554795 0.554795 0.554795
0.554795 0.554795 0.554795
0.554795 0.554795 0.554795
0.554795 0.554795 0.554795
0.554795 0.554795 0.554795
0.554795 0.554795 0.554795
0.554795 0.554795 0.554795
0.554795 0.554795 0.554795
0.554795 0.554795 0.554795
0.554795 0.554795 0.554795
0.554795 0.554795 0.554795
0.554795 0.554795 0.554795
0.554795 0.554795 0.554795
0.554795 0.554795 0.554795
0.554795 0.554795 0.554795
0.075155 0.075155 0.075155
0.072906 0.072906 0.072906
0.072906 0.072906 0.072906
0.072906 0.072906 0.072906
0.072906 0.072906 0.072906
0.072906 0.072906 0.072906
0.072906 0.072906 0.072906
0.072906 0.072906 0.072906
0.072906 0.072906 0.072906
0.072906 0.072906 0.072906
0.554795 0.554795 0.554795
0.554795 0.554795 0.554795
0.554795 0.554795 0.554795
0.554795 0.554795 0.554795
0.554795 0.554795 0.554795
0.554795 0.554795 0.554795
0.554795 0.554795 0.554795
0.554795 0.554795 0.554795
0.554795 0.554795 0.554795
0.554795 0.554795 0.554795
0.554795 0.554795 0.554795
0.554795 0.554795 0.554795
0.554795 0.554795 0.554795
0.554795 0.554795 0.554795
0.554795 0.554795 0.554795
0.554795 0.554795 0.554795
0.554795 0.554795 0.554795
0.554795 0.554795 0.554795
0.554795 0.554795 0.554795
0.554795 0.554795 0.554795
0.554795 0.554795 0.554795
0.554795 0.554795 0.554795
0.554795 0.554795 0.554795
0.075155 0.075155 0.075155
0.072906 0.072906 0.072906
0.072906 0.072906 0.072906
0.072906 0.072906 0.072906
0.072906 0.072906 0.072906
0.072906 0.072906 0.072906
0.072906 0.072906 0.072906
0.072906 0.072906 0.072906
0.072906 0.072906 0.072906
0.072906 0.072906 0.072906
0.554795 0.554795 0.554795
0.554795 0.554795 0.554795
0.554795 0.554795 0.554795
0.554795 0.554795 0.554795
0.554795 0.554795 0.554795
0.554795 0.554795 0.554795
0.554795 0.554795 0.554795
0.554795 0.554795 0.554795
0.554795 0.554795 0.554795
0.554795 0.554795 0.554795
0.554795 0.554795 0.554795
0.554795 0.554795 0.554795
0.554795 0.554795 0.554795
0.554795 0.554795 0.554795
0.554795 0.554795 0.554795
0.554795 0.554795 0.554795
0.554795 0.554795 0.554795
0.554795 0.554795 0.554795
0.554795 0.554795 0.554795
0.554795 0.554795 0.554795
0.554795 0.554795 0.554795
0.554795 0.554795 0.554795
0.554795 0.554795 0.554795
0.554795 0.554795 0.554795
0.072906 0.072906 0.072906
0.072906 0.072906 0.072906
0.072906 0.072906 0.072906
0.072906 0.072906 0.072906
0.072906 0.072906 0.072906
0.072906 0.072906 0.072906
0.072906 0.072906 0.072906
0.072906 0.072906 0.072906
0.072906 0.072906 0.072906
0.072906 0.072906 0.072906
0.072906 0.072906 0.072906
0.072906 0.072906 0.072906
0.072906 0.072906 0.072906
0.072906 0.072906 0.072906
0.072906 0.072906 0.072906
0.072906 0.072906 0.072906
0.072906 0.072906 0.072906
0.072906 0.072906 0.072906
0.072906 0.072906 0.072906
0.072906 0.072906 0.072906
0.072906 0.072906 0.072906
0.072906 0.072906 0.072906
0.072906 0.072906 0.072906
0.072906 0.072906 0.072906
0.072906 0.072906 0.072906
0.072906 0.072906 0.072906
0.072906 0.072906 0.072906
0.072906 0.072906 0.072906
0.072906 0.072906 0.072906
0.072906 0.072906 0.072906
0.072906 0.072906 0.072906
0.072906 0.072906 0.072906
0.072906 0.072906 0.072906
0.072906 0.072906 0.072906
0.072906 0.072906 0.072906
0.072906 0.072906 0.072906
0.072906 0.072906 0.072906
0.072906 0.072906 0.072906
0.072906 0.072906 0.072906
0.072906 0.072906 0.072906
0.072906 0.072906 0.072906
0.072906 0.072906 0.072906
0.072906 0.072906 0.072906
0.072906 0.072906 0.072906
0.072906 0.072906 0.072906
0.072906 0.072906 0.072906
0.072906 0.072906 0.072906
0.072906 0.072906 0.072906
0.072906 0.072906 0.072906
0.072906 0.072906 0.072906
0.072906 0.072906 0.072906
0.072906 0.072906 0.072906
0.072906 0.072906 0.072906
0.072906 0.072906 0.072906
0.072906 0.072906 0.072906
0.072906 0.072906 0.072906
0.072906 0.072906 0.072906
0.072906 0.072906 0.072906
0.072906 0.072906 0.072906
0.072906 0.072906 0.072906
0.072906 0.072906 0.072906
0.072906 0.072906 0.072906
0.072906 0.072906 0.072906
0.072906 0.072906 0.072906
0.072906 0.072906 0.072906
0.072906 0.072906 0.072906
0.072906 0.072906 0.072906
0.072906 0.072906 0.072906
0.072906 0.072906 0.072906
0.072906 0.072906 0.072906
0.072906 0.072906 0.072906
0.072906 0.072906 0.072906
0.072906 0.072906 0.072906
0.072906 0.072906 0.072906
0.072906 0.072906 0.072906
0.072906 0.072906 0.072906
0.072906 0.072906 0.072906
0.072906 0.072906 0.072906
0.072906 0.072906 0.072906
0.072906 0.072906 0.072906
0.072906 0.072906 0.072906
0.072906 0.072906 0.072906
0.072906 0.072906 0.072906
0.072906 0.072906 0.072906
0.072906 0.072906 0.072906
0.072906 0.072906 0.072906
0.072906 0.072906 0.072906
0.072906 0.072906 0.072906
0.072906 0.072906 0.072906
0.072906 0.072906 0.072906
0.072906 0.072906 0.072906
0.072906 0.072906 0.072906
0.072906 0.072906 0.072906
0.072906 0.072906 0.072906
0.072906 0.072906 0.072906
0.072906 0.072906 0.072906
0.072906 0.072906 0.072906
0.072906 0.072906 0.072906
0.072906 0.072906 0.072906
0.072906 0.072906 0.072906
0.072906 0.072906 0.072906
0.072906 0.072906 0.072906
0.072906 0.072906 0.072906
0.072906 0.072906 0.072906
