software/Premiere/untitled folder/ARRILogC3_to_ACES-Rec709_v4.cube
TITLE "Generated by Foundry::LUT"
LUT_3D_SIZE 9
0.093955 0.093955 0.093955
0.093955 0.093955 0.093955
0.093955 0.093955 0.093955
0.093955 0.093955 0.093955
0.541265 -0.080334 0.054284
0.570631 0.570631 0.570631
0.570631 0.570631 0.570631
0.092809 0.092809 0.092809
0.092809 0.092809 0.092809
0.093955 0.093955 0.093955
0.093955 0.093955 0.093955
0.093955 0.093955 0.093955
0.232727 0.085059 0.091085
0.542615 -0.082552 0.053790
0.570631 0.570631 0.570631
0.570631 0.570631 0.570631
0.092809 0.092809 0.092809
0.092809 0.092809 0.092809
0.093955 0.093955 0.093955
0.093955 0.093955 0.093955
0.093955 0.093955 0.093955
0.277516 0.079934 0.089944
0.544622 -0.085901 0.053045
0.570631 0.570631 0.570631
0.570631 0.570631 0.570631
0.092809 0.092809 0.092809
0.092809 0.092809 0.092809
0.035875 0.324935 0.124557
0.034592 0.327110 0.125272
0.032649 0.330321 0.126355
0.028640 0.336659 0.128591
0.550617 -0.096287 0.050734
0.570631 0.570631 0.570631
0.570631 0.570631 0.570631
0.092809 0.092809 0.092809
0.092809 0.092809 0.092809
-0.396653 0.546799 0.268055
-0.397111 0.546899 0.268140
-0.397801 0.547048 0.268267
-0.399830 0.547486 0.268641
0.539516 0.541844 0.252811
0.570631 0.570631 0.570631
0.570631 0.570631 0.570631
0.092809 0.092809 0.092809
0.092809 0.092809 0.092809
0.570631 0.570631 0.570631
0.570631 0.570631 0.570631
0.570631 0.570631 0.570631
0.570631 0.570631 0.570631
0.570631 0.570631 0.570631
0.570631 0.570631 0.570631
0.570631 0.570631 0.570631
0.092809 0.092809 0.092809
0.092809 0.092809 0.092809
0.570631 0.570631 0.570631
0.570631 0.570631 0.570631
0.570631 0.570631 0.570631
0.570631 0.570631 0.570631
0.570631 0.570631 0.570631
0.570631 0.570631 0.570631
0.570631 0.570631 0.570631
0.092809 0.092809 0.092809
0.092809 0.092809 0.092809
0.092809 0.092809 0.092809
0.092809 0.092809 0.092809
0.092809 0.092809 0.092809
0.092809 0.092809 0.092809
0.092809 0.092809 0.092809
0.092809 0.092809 0.092809
0.092809 0.092809 0.092809
0.092809 0.092809 0.092809
0.092809 0.092809 0.092809
0.092809 0.092809 0.092809
0.092809 0.092809 0.092809
0.092809 0.092809 0.092809
0.092809 0.092809 0.092809
0.092809 0.092809 0.092809
0.092809 0.092809 0.092809
0.092809 0.092809 0.092809
0.092809 0.092809 0.092809
0.092809 0.092809 0.092809
0.093955 0.093955 0.093955
0.093955 0.093955 0.093955
0.093955 0.093955 0.093955
0.093955 0.093955 0.093955
0.540313 -0.078786 0.054628
0.570631 0.570631 0.570631
0.570631 0.570631 0.570631
0.092809 0.092809 0.092809
0.092809 0.092809 0.092809
0.093955 0.093955 0.093955
0.093955 0.093955 0.093955
0.093955 0.093955 0.093955
0.243767 0.083987 0.090846
0.541669 -0.080995 0.054137
0.570631 0.570631 0.570631
0.570631 0.570631 0.570631
0.092809 0.092809 0.092809
0.092809 0.092809 0.092809
0.093955 0.093955 0.093955
0.093955 0.093955 0.093955
0.093955 0.093955 0.093955
0.279652 0.079632 0.089877
0.543690 -0.084337 0.053393
0.570631 0.570631 0.570631
0.570631 0.570631 0.570631
0.092809 0.092809 0.092809
0.092809 0.092809 0.092809
0.039692 0.318191 0.122428
0.038397 0.320526 0.123150
0.036438 0.323966 0.124243
0.032466 0.330618 0.126457
0.549732 -0.094717 0.051083
0.570631 0.570631 0.570631
0.570631 0.570631 0.570631
0.092809 0.092809 0.092809
0.092809 0.092809 0.092809
-0.393920 0.546205 0.267548
-0.394411 0.546312 0.267639
-0.395141 0.546471 0.267775
-0.397282 0.546936 0.268171
0.539008 0.541343 0.252396
0.570631 0.570631 0.570631
0.570631 0.570631 0.570631
0.092809 0.092809 0.092809
0.092809 0.092809 0.092809
0.570631 0.570631 0.570631
0.570631 0.570631 0.570631
0.570631 0.570631 0.570631
0.570631 0.570631 0.570631
0.570631 0.570631 0.570631
0.570631 0.570631 0.570631
0.570631 0.570631 0.570631
0.092809 0.092809 0.092809
0.092809 0.092809 0.092809
0.570631 0.570631 0.570631
0.570631 0.570631 0.570631
0.570631 0.570631 0.570631
0.570631 0.570631 0.570631
0.570631 0.570631 0.570631
0.570631 0.570631 0.570631
0.570631 0.570631 0.570631
0.092809 0.092809 0.092809
0.092809 0.092809 0.092809
0.092809 0.092809 0.092809
0.092809 0.092809 0.092809
0.092809 0.092809 0.092809
0.092809 0.092809 0.092809
0.092809 0.092809 0.092809
0.092809 0.092809 0.092809
0.092809 0.092809 0.092809
0.092809 0.092809 0.092809
0.092809 0.092809 0.092809
0.092809 0.092809 0.092809
0.092809 0.092809 0.092809
0.092809 0.092809 0.092809
0.092809 0.092809 0.092809
0.092809 0.092809 0.092809
0.092809 0.092809 0.092809
0.092809 0.092809 0.092809
0.092809 0.092809 0.092809
0.092809 0.092809 0.092809
0.093955 0.093955 0.093955
0.093955 0.093955 0.093955
0.093955 0.093955 0.093955
0.093955 0.093955 0.093955
0.538868 -0.076464 0.055145
0.570631 0.570631 0.570631
0.570631 0.570631 0.570631
0.092809 0.092809 0.092809
0.092809 0.092809 0.092809
0.093955 0.093955 0.093955
0.093955 0.093955 0.093955
0.093955 0.093955 0.093955
0.223935 0.085837 0.091258
0.540231 -0.078653 0.054658
0.570631 0.570631 0.570631
0.570631 0.570631 0.570631
0.092809 0.092809 0.092809
0.092809 0.092809 0.092809
0.093955 0.093955 0.093955
0.093955 0.093955 0.093955
0.093955 0.093955 0.093955
0.293407 0.077537 0.089411
0.542264 -0.081972 0.053919
0.570631 0.570631 0.570631
0.570631 0.570631 0.570631
0.092809 0.092809 0.092809
0.092809 0.092809 0.092809
0.045510 0.307021 0.119184
0.044182 0.309676 0.119924
0.042182 0.313552 0.121040
0.238612 0.318533 0.120845
0.548369 -0.092324 0.051616
0.570631 0.570631 0.570631
0.570631 0.570631 0.570631
0.092809 0.092809 0.092809
0.092809 0.092809 0.092809
-0.389382 0.545211 0.266701
-0.389940 0.545334 0.266805
-0.390770 0.545516 0.266961
-0.393177 0.546043 0.267410
0.538245 0.540533 0.251720
0.570631 0.570631 0.570631
0.570631 0.570631 0.570631
0.092809 0.092809 0.092809
0.092809 0.092809 0.092809
0.570631 0.570631 0.570631
0.570631 0.570631 0.570631
0.570631 0.570631 0.570631
0.570631 0.570631 0.570631
0.570631 0.570631 0.570631
0.570631 0.570631 0.570631
0.570631 0.570631 0.570631
0.092809 0.092809 0.092809
0.092809 0.092809 0.092809
0.570631 0.570631 0.570631
0.570631 0.570631 0.570631
0.570631 0.570631 0.570631
0.570631 0.570631 0.570631
0.570631 0.570631 0.570631
0.570631 0.570631 0.570631
0.570631 0.570631 0.570631
0.092809 0.092809 0.092809
0.092809 0.092809 0.092809
0.092809 0.092809 0.092809
0.092809 0.092809 0.092809
0.092809 0.092809 0.092809
0.092809 0.092809 0.092809
0.092809 0.092809 0.092809
0.092809 0.092809 0.092809
0.092809 0.092809 0.092809
0.092809 0.092809 0.092809
0.092809 0.092809 0.092809
0.092809 0.092809 0.092809
0.092809 0.092809 0.092809
0.092809 0.092809 0.092809
0.092809 0.092809 0.092809
0.092809 0.092809 0.092809
0.092809 0.092809 0.092809
0.092809 0.092809 0.092809
0.092809 0.092809 0.092809
0.092809 0.092809 0.092809
0.119032 0.172596 0.309280
0.119071 0.172693 0.309420
0.119129 0.172841 0.309633
0.119315 0.173311 0.310309
0.535174 0.020263 0.309602
0.570631 0.570631 0.570631
0.570631 0.570631 0.570631
0.092809 0.092809 0.092809
0.092809 0.092809 0.092809
0.118260 0.170618 0.306418
0.118299 0.170717 0.306561
0.118357 0.170868 0.306781
0.118558 0.171386 0.307532
0.536663 0.015768 0.306956
0.570631 0.570631 0.570631
0.570631 0.570631 0.570631
0.092809 0.092809 0.092809
0.092809 0.092809 0.092809
0.117065 0.167483 0.301832
0.117104 0.167585 0.301983
0.117163 0.167741 0.302212
0.117411 0.168400 0.303180
0.538610 0.008788 0.302104
0.570631 0.570631 0.570631
0.570631 0.570631 0.570631
0.092809 0.092809 0.092809
0.092809 0.092809 0.092809
0.087393 0.272025 0.287504
0.085768 0.276455 0.287716
0.083368 0.282670 0.288016
0.285377 0.285377 0.285377
0.544528 -0.022832 0.270386
0.570631 0.570631 0.570631
0.570631 0.570631 0.570631
0.092809 0.092809 0.092809
0.092809 0.092809 0.092809
-0.372012 0.541319 0.263395
-0.372778 0.541494 0.263543
-0.373923 0.541755 0.263764
-0.377344 0.542529 0.264421
0.535966 0.537562 0.249196
0.570631 0.570631 0.570631
0.570631 0.570631 0.570631
0.092809 0.092809 0.092809
0.092809 0.092809 0.092809
0.570631 0.570631 0.570631
0.570631 0.570631 0.570631
0.570631 0.570631 0.570631
0.570631 0.570631 0.570631
0.570631 0.570631 0.570631
0.570631 0.570631 0.570631
0.570631 0.570631 0.570631
0.092809 0.092809 0.092809
0.092809 0.092809 0.092809
0.570631 0.570631 0.570631
0.570631 0.570631 0.570631
0.570631 0.570631 0.570631
0.570631 0.570631 0.570631
0.570631 0.570631 0.570631
0.570631 0.570631 0.570631
0.570631 0.570631 0.570631
0.092809 0.092809 0.092809
0.092809 0.092809 0.092809
0.092809 0.092809 0.092809
0.092809 0.092809 0.092809
0.092809 0.092809 0.092809
0.092809 0.092809 0.092809
0.092809 0.092809 0.092809
0.092809 0.092809 0.092809
0.092809 0.092809 0.092809
0.092809 0.092809 0.092809
0.092809 0.092809 0.092809
0.092809 0.092809 0.092809
0.092809 0.092809 0.092809
0.092809 0.092809 0.092809
0.092809 0.092809 0.092809
0.092809 0.092809 0.092809
0.092809 0.092809 0.092809
0.092809 0.092809 0.092809
0.092809 0.092809 0.092809
0.092809 0.092809 0.092809
0.264099 0.374475 0.545261
0.264136 0.374517 0.545305
0.264193 0.374581 0.545372
0.264371 0.374781 0.545582
0.508111 0.359698 0.545048
0.570631 0.570631 0.570631
0.570631 0.570631 0.570631
0.092809 0.092809 0.092809
0.092809 0.092809 0.092809
0.263747 0.374079 0.544846
0.263785 0.374121 0.544890
0.263843 0.374186 0.544959
0.264024 0.374391 0.545173
0.511713 0.358598 0.544594
0.570631 0.570631 0.570631
0.570631 0.570631 0.570631
0.092809 0.092809 0.092809
0.092809 0.092809 0.092809
0.263196 0.373460 0.544196
0.263235 0.373504 0.544242
0.263295 0.373571 0.544312
0.263482 0.373781 0.544533
0.516772 0.356927 0.543890
0.570631 0.570631 0.570631
0.570631 0.570631 0.570631
0.092809 0.092809 0.092809
0.092809 0.092809 0.092809
0.261355 0.371385 0.542017
0.261398 0.371433 0.542068
0.261462 0.371506 0.542144
0.261666 0.371735 0.542385
0.530157 0.351644 0.541562
0.570631 0.570631 0.570631
0.570631 0.570631 0.570631
0.092809 0.092809 0.092809
0.092809 0.092809 0.092809
-0.017008 0.528793 0.533870
-0.019148 0.529351 0.533917
-0.022393 0.530190 0.533989
-0.032370 0.532736 0.534213
0.533855 0.533855 0.533855
0.570631 0.570631 0.570631
0.570631 0.570631 0.570631
0.092809 0.092809 0.092809
0.092809 0.092809 0.092809
0.570631 0.570631 0.570631
0.570631 0.570631 0.570631
0.570631 0.570631 0.570631
0.570631 0.570631 0.570631
0.570631 0.570631 0.570631
0.570631 0.570631 0.570631
0.570631 0.570631 0.570631
0.092809 0.092809 0.092809
0.092809 0.092809 0.092809
0.570631 0.570631 0.570631
0.570631 0.570631 0.570631
0.570631 0.570631 0.570631
0.570631 0.570631 0.570631
0.570631 0.570631 0.570631
0.570631 0.570631 0.570631
0.570631 0.570631 0.570631
0.092809 0.092809 0.092809
0.092809 0.092809 0.092809
0.092809 0.092809 0.092809
0.092809 0.092809 0.092809
0.092809 0.092809 0.092809
0.092809 0.092809 0.092809
0.092809 0.092809 0.092809
0.092809 0.092809 0.092809
0.092809 0.092809 0.092809
0.092809 0.092809 0.092809
0.092809 0.092809 0.092809
0.092809 0.092809 0.092809
0.092809 0.092809 0.092809
0.092809 0.092809 0.092809
0.092809 0.092809 0.092809
0.092809 0.092809 0.092809
0.092809 0.092809 0.092809
0.092809 0.092809 0.092809
0.092809 0.092809 0.092809
0.092809 0.092809 0.092809
0.570631 0.570631 0.570631
0.570631 0.570631 0.570631
0.570631 0.570631 0.570631
0.570631 0.570631 0.570631
0.570631 0.570631 0.570631
0.570631 0.570631 0.570631
0.570631 0.570631 0.570631
0.092809 0.092809 0.092809
0.092809 0.092809 0.092809
0.570631 0.570631 0.570631
0.570631 0.570631 0.570631
0.570631 0.570631 0.570631
0.570631 0.570631 0.570631
0.570631 0.570631 0.570631
0.570631 0.570631 0.570631
0.570631 0.570631 0.570631
0.092809 0.092809 0.092809
0.092809 0.092809 0.092809
0.570631 0.570631 0.570631
0.570631 0.570631 0.570631
0.570631 0.570631 0.570631
0.570631 0.570631 0.570631
0.570631 0.570631 0.570631
0.570631 0.570631 0.570631
0.570631 0.570631 0.570631
0.092809 0.092809 0.092809
0.092809 0.092809 0.092809
0.570631 0.570631 0.570631
0.570631 0.570631 0.570631
0.570631 0.570631 0.570631
0.570631 0.570631 0.570631
0.570631 0.570631 0.570631
0.570631 0.570631 0.570631
0.570631 0.570631 0.570631
0.092809 0.092809 0.092809
0.092809 0.092809 0.092809
0.570631 0.570631 0.570631
0.570631 0.570631 0.570631
0.570631 0.570631 0.570631
0.570631 0.570631 0.570631
0.570631 0.570631 0.570631
0.570631 0.570631 0.570631
0.570631 0.570631 0.570631
0.092809 0.092809 0.092809
0.092809 0.092809 0.092809
0.570631 0.570631 0.570631
0.570631 0.570631 0.570631
0.570631 0.570631 0.570631
0.570631 0.570631 0.570631
0.570631 0.570631 0.570631
0.570631 0.570631 0.570631
0.570631 0.570631 0.570631
0.092809 0.092809 0.092809
0.092809 0.092809 0.092809
0.570631 0.570631 0.570631
0.570631 0.570631 0.570631
0.570631 0.570631 0.570631
0.570631 0.570631 0.570631
0.570631 0.570631 0.570631
0.570631 0.570631 0.570631
0.570631 0.570631 0.570631
0.092809 0.092809 0.092809
0.092809 0.092809 0.092809
0.092809 0.092809 0.092809
0.092809 0.092809 0.092809
0.092809 0.092809 0.092809
0.092809 0.092809 0.092809
0.092809 0.092809 0.092809
0.092809 0.092809 0.092809
0.092809 0.092809 0.092809
0.092809 0.092809 0.092809
0.092809 0.092809 0.092809
0.092809 0.092809 0.092809
0.092809 0.092809 0.092809
0.092809 0.092809 0.092809
0.092809 0.092809 0.092809
0.092809 0.092809 0.092809
0.092809 0.092809 0.092809
0.092809 0.092809 0.092809
0.092809 0.092809 0.092809
0.092809 0.092809 0.092809
0.093955 0.093955 0.093955
0.093955 0.093955 0.093955
0.093955 0.093955 0.093955
0.093955 0.093955 0.093955
0.093955 0.093955 0.093955
0.093955 0.093955 0.093955
0.093955 0.093955 0.093955
0.092809 0.092809 0.092809
0.092809 0.092809 0.092809
0.093955 0.093955 0.093955
0.093955 0.093955 0.093955
0.093955 0.093955 0.093955
0.093955 0.093955 0.093955
0.093955 0.093955 0.093955
0.093955 0.093955 0.093955
0.093955 0.093955 0.093955
0.092809 0.092809 0.092809
0.092809 0.092809 0.092809
0.093955 0.093955 0.093955
0.093955 0.093955 0.093955
0.093955 0.093955 0.093955
0.093955 0.093955 0.093955
0.093955 0.093955 0.093955
0.093955 0.093955 0.093955
0.093955 0.093955 0.093955
0.092809 0.092809 0.092809
0.092809 0.092809 0.092809
0.093955 0.093955 0.093955
0.093955 0.093955 0.093955
0.093955 0.093955 0.093955
0.093955 0.093955 0.093955
0.093955 0.093955 0.093955
0.093955 0.093955 0.093955
0.093955 0.093955 0.093955
0.092809 0.092809 0.092809
0.092809 0.092809 0.092809
0.093955 0.093955 0.093955
0.093955 0.093955 0.093955
0.093955 0.093955 0.093955
0.093955 0.093955 0.093955
0.093955 0.093955 0.093955
0.093955 0.093955 0.093955
0.093955 0.093955 0.093955
0.092809 0.092809 0.092809
0.092809 0.092809 0.092809
0.093955 0.093955 0.093955
0.093955 0.093955 0.093955
0.093955 0.093955 0.093955
0.093955 0.093955 0.093955
0.093955 0.093955 0.093955
0.093955 0.093955 0.093955
0.093955 0.093955 0.093955
0.092809 0.092809 0.092809
0.092809 0.092809 0.092809
0.570631 0.570631 0.570631
0.570631 0.570631 0.570631
0.570631 0.570631 0.570631
0.570631 0.570631 0.570631
0.570631 0.570631 0.570631
0.570631 0.570631 0.570631
0.570631 0.570631 0.570631
0.092809 0.092809 0.092809
0.092809 0.092809 0.092809
0.092809 0.092809 0.092809
0.092809 0.092809 0.092809
0.092809 0.092809 0.092809
0.092809 0.092809 0.092809
0.092809 0.092809 0.092809
0.092809 0.092809 0.092809
0.092809 0.092809 0.092809
0.092809 0.092809 0.092809
0.092809 0.092809 0.092809
0.092809 0.092809 0.092809
0.092809 0.092809 0.092809
0.092809 0.092809 0.092809
0.092809 0.092809 0.092809
0.092809 0.092809 0.092809
0.092809 0.092809 0.092809
0.092809 0.092809 0.092809
0.092809 0.092809 0.092809
0.092809 0.092809 0.092809
0.092809 0.092809 0.092809
0.092809 0.092809 0.092809
0.092809 0.092809 0.092809
0.092809 0.092809 0.092809
0.092809 0.092809 0.092809
0.092809 0.092809 0.092809
0.092809 0.092809 0.092809
0.092809 0.092809 0.092809
0.092809 0.092809 0.092809
0.092809 0.092809 0.092809
0.092809 0.092809 0.092809
0.092809 0.092809 0.092809
0.092809 0.092809 0.092809
0.092809 0.092809 0.092809
0.092809 0.092809 0.092809
0.092809 0.092809 0.092809
0.092809 0.092809 0.092809
0.092809 0.092809 0.092809
0.092809 0.092809 0.092809
0.092809 0.092809 0.092809
0.092809 0.092809 0.092809
0.092809 0.092809 0.092809
0.092809 0.092809 0.092809
0.092809 0.092809 0.092809
0.092809 0.092809 0.092809
0.092809 0.092809 0.092809
0.092809 0.092809 0.092809
0.092809 0.092809 0.092809
0.092809 0.092809 0.092809
0.092809 0.092809 0.092809
0.092809 0.092809 0.092809
0.092809 0.092809 0.092809
0.092809 0.092809 0.092809
0.092809 0.092809 0.092809
0.092809 0.092809 0.092809
0.092809 0.092809 0.092809
0.092809 0.092809 0.092809
0.092809 0.092809 0.092809
0.092809 0.092809 0.092809
0.092809 0.092809 0.092809
0.092809 0.092809 0.092809
0.092809 0.092809 0.092809
0.092809 0.092809 0.092809
0.092809 0.092809 0.092809
0.092809 0.092809 0.092809
0.092809 0.092809 0.092809
0.092809 0.092809 0.092809
0.092809 0.092809 0.092809
0.092809 0.092809 0.092809
0.092809 0.092809 0.092809
0.092809 0.092809 0.092809
0.092809 0.092809 0.092809
0.092809 0.092809 0.092809
0.092809 0.092809 0.092809
0.092809 0.092809 0.092809
0.092809 0.092809 0.092809
0.092809 0.092809 0.092809
0.092809 0.092809 0.092809
0.092809 0.092809 0.092809
0.092809 0.092809 0.092809
0.092809 0.092809 0.092809
0.092809 0.092809 0.092809
0.092809 0.092809 0.092809
0.092809 0.092809 0.092809
0.092809 0.092809 0.092809
0.092809 0.092809 0.092809
0.092809 0.092809 0.092809
0.092809 0.092809 0.092809
0.092809 0.092809 0.092809
0.092809 0.092809 0.092809
0.092809 0.092809 0.092809
0.092809 0.092809 0.092809
0.092809 0.092809 0.092809
0.092809 0.092809 0.092809
0.092809 0.092809 0.092809
0.092809 0.092809 0.092809
0.092809 0.092809 0.092809
0.092809 0.092809 0.092809
0.092809 0.092809 0.092809
0.092809 0.092809 0.092809
0.092809 0.092809 0.092809
0.092809 0.092809 0.092809
0.092809 0.092809 0.092809
0.092809 0.092809 0.092809
0.092809 0.092809 0.092809
0.092809 0.092809 0.092809
0.092809 0.092809 0.092809
0.092809 0.092809 0.092809
0.092809 0.092809 0.092809
0.092809 0.092809 0.092809
0.092809 0.092809 0.092809
0.092809 0.092809 0.092809
0.092809 0.092809 0.092809
0.092809 0.092809 0.092809
0.092809 0.092809 0.092809
0.092809 0.092809 0.092809
0.092809 0.092809 0.092809
0.092809 0.092809 0.092809
0.092809 0.092809 0.092809
0.092809 0.092809 0.092809
0.092809 0.092809 0.092809
0.092809 0.092809 0.092809
0.092809 0.092809 0.092809
0.092809 0.092809 0.092809
0.092809 0.092809 0.092809
0.092809 0.092809 0.092809
0.092809 0.092809 0.092809
0.092809 0.092809 0.092809
0.092809 0.092809 0.092809
0.092809 0.092809 0.092809
0.092809 0.092809 0.092809
0.092809 0.092809 0.092809
0.092809 0.092809 0.092809
0.092809 0.092809 0.092809
0.092809 0.092809 0.092809
0.092809 0.092809 0.092809
0.092809 0.092809 0.092809
0.092809 0.092809 0.092809
0.092809 0.092809 0.092809
0.092809 0.092809 0.092809
0.092809 0.092809 0.092809
0.092809 0.092809 0.092809
0.092809 0.092809 0.092809
0.092809 0.092809 0.092809
0.092809 0.092809 0.092809
0.092809 0.092809 0.092809
0.092809 0.092809 0.092809
0.092809 0.092809 0.092809
0.092809 0.092809 0.092809
0.092809 0.092809 0.092809
0.092809 0.092809 0.092809
0.092809 0.092809 0.092809
0.092809 0.092809 0.092809
0.092809 0.092809 0.092809
0.092809 0.092809 0.092809
0.092809 0.092809 0.092809
0.092809 0.092809 0.092809
0.092809 0.092809 0.092809
0.092809 0.092809 0.092809
0.092809 0.092809 0.092809
0.092809 0.092809 0.092809
0.092809 0.092809 0.092809
0.092809 0.092809 0.092809
0.092809 0.092809 0.092809
0.092809 0.092809 0.092809
0.092809 0.092809 0.092809
0.092809 0.092809 0.092809
0.092809 0.092809 0.092809
0.092809 0.092809 0.092809
0.092809 0.092809 0.092809
0.092809 0.092809 0.092809
0.092809 0.092809 0.092809
0.092809 0.092809 0.092809
0.092809 0.092809 0.092809
0.092809 0.092809 0.092809
0.092809 0.092809 0.092809
0.092809 0.092809 0.092809
0.092809 0.092809 0.092809
0.092809 0.092809 0.092809
0.092809 0.092809 0.092809
0.092809 0.092809 0.092809
0.092809 0.092809 0.092809
