software/Premiere/untitled folder/ARRILogC3_to_ACES-Rec709_v2.cube
TITLE "Generated by Foundry::LUT"
LUT_3D_SIZE 9
0.000213 0.000213 0.000213
0.000213 0.000213 0.000213
0.164602 0.000000 0.000000
0.380320 0.000000 0.000000
0.743499 0.000000 0.000000
1.000000 0.000000 0.000000
1.000000 0.475363 0.134783
1.000000 0.818951 0.434453
1.000000 0.945325 0.782067
0.000000 0.049179 0.000000
0.000000 0.058099 0.000000
0.173991 0.042005 0.000000
0.390905 0.000000 0.000000
0.746408 0.000000 0.000000
1.000000 0.000000 0.000000
1.000000 0.504538 0.125555
1.000000 0.823256 0.432876
1.000000 0.945814 0.781863
0.000000 0.182609 0.000000
0.000000 0.185814 0.000000
0.143808 0.185037 0.000000
0.400144 0.165636 0.000000
0.750872 0.064971 0.000000
1.000000 0.194783 0.000000
1.000000 0.544047 0.109943
1.000000 0.829466 0.430509
1.000000 0.946547 0.781552
0.000000 0.408678 0.000000
0.000000 0.409745 0.000000
0.000000 0.410281 0.000000
0.352779 0.408327 0.000000
0.757987 0.396906 0.000000
1.000000 0.448924 0.000000
1.000000 0.641893 0.000000
1.000000 0.846617 0.423310
1.000000 0.948772 0.780575
0.000000 0.746909 0.000000
0.000000 0.746778 0.000000
0.000000 0.746335 0.000000
0.000000 0.743383 0.000000
0.691052 0.732894 0.000000
0.969970 0.738159 0.000000
1.000000 0.795183 0.000000
1.000000 0.883734 0.422334
1.000000 0.955072 0.777490
0.000000 0.942599 0.000000
0.000000 0.941698 0.000000
0.000000 0.940315 0.000000
0.000000 0.936022 0.000000
0.668795 0.924928 0.000000
0.917293 0.914476 0.000000
1.000000 0.916648 0.112712
1.000000 0.937338 0.460292
1.000000 0.969307 0.770205
0.585386 1.000000 0.242421
0.601732 1.000000 0.243060
0.624307 0.999479 0.244040
0.681282 0.997382 0.247182
0.787832 0.992773 0.257419
0.910511 0.986430 0.288693
0.996317 0.981930 0.377162
1.000000 0.982442 0.575628
1.000000 0.989208 0.796237
0.881516 1.000000 0.663006
0.882928 1.000000 0.663149
0.885033 1.000000 0.663367
0.891321 1.000000 0.664057
0.908340 1.000000 0.666263
0.942970 1.000000 0.673236
0.986864 1.000000 0.694114
1.000000 1.000000 0.751680
1.000000 1.000000 0.854719
0.968568 1.000000 0.887694
0.968725 1.000000 0.887709
0.968964 1.000000 0.887733
0.969704 1.000000 0.887809
0.971947 1.000000 0.888052
0.978028 1.000000 0.888829
0.990335 1.000000 0.891288
1.000000 1.000000 0.898665
1.000000 1.000000 0.919179
0.000000 0.000000 0.048128
0.000000 0.000000 0.048370
0.164368 0.000000 0.049007
0.381192 0.000000 0.050198
0.743368 0.000000 0.053920
1.000000 0.000000 0.087004
1.000000 0.469913 0.193659
1.000000 0.818000 0.463386
1.000000 0.945201 0.787481
0.000000 0.028566 0.040013
0.038670 0.038670 0.038670
0.180854 0.000000 0.041225
0.386441 0.000000 0.039423
0.744617 0.000000 0.026483
1.000000 0.000000 0.063314
1.000000 0.499795 0.184334
1.000000 0.822344 0.461940
1.000000 0.945691 0.787286
0.000000 0.174654 0.000000
0.000000 0.177401 0.000000
0.160051 0.176818 0.000000
0.398142 0.157170 0.000000
0.747455 0.000000 0.000000
1.000000 0.181768 0.000000
1.000000 0.540154 0.169056
1.000000 0.828609 0.459771
1.000000 0.946426 0.786988
0.000000 0.404606 0.000000
0.000000 0.405610 0.000000
0.000000 0.406008 0.000000
0.363001 0.403666 0.000000
0.757153 0.393104 0.000000
1.000000 0.445830 0.000000
1.000000 0.639701 0.104567
1.000000 0.845907 0.453192
1.000000 0.948656 0.786055
0.000000 0.745507 0.000000
0.000000 0.745358 0.000000
0.000000 0.744893 0.000000
0.000000 0.741896 0.000000
0.694294 0.731474 0.000000
0.970065 0.737186 0.000000
1.000000 0.794659 0.000000
1.000000 0.883462 0.434199
1.000000 0.954971 0.783113
0.000000 0.942310 0.000000
0.000000 0.941408 0.000000
0.000000 0.940024 0.000000
0.000000 0.935737 0.000000
0.670919 0.924693 0.000000
0.917647 0.914315 0.000000
1.000000 0.916541 0.112142
1.000000 0.937279 0.460127
1.000000 0.969254 0.773960
0.587895 1.000000 0.242291
0.604048 1.000000 0.242931
0.626368 0.999389 0.243913
0.682763 0.997306 0.247059
0.788562 0.992720 0.257307
0.910718 0.986400 0.288602
0.996361 0.981910 0.377145
1.000000 0.982430 0.575550
1.000000 0.989201 0.796208
0.881729 1.000000 0.662981
0.883137 1.000000 0.663124
0.885236 1.000000 0.663343
0.891508 1.000000 0.664033
0.908485 1.000000 0.666239
0.943048 1.000000 0.673214
0.986888 1.000000 0.694094
1.000000 1.000000 0.751676
1.000000 1.000000 0.854709
0.968592 1.000000 0.887691
0.968749 1.000000 0.887707
0.968987 1.000000 0.887731
0.969727 1.000000 0.887806
0.971968 1.000000 0.888049
0.978045 1.000000 0.888826
0.990343 1.000000 0.891285
1.000000 1.000000 0.898662
1.000000 1.000000 0.919178
0.000000 0.000000 0.168208
0.000000 0.000000 0.168403
0.145510 0.000000 0.168143
0.391483 0.000000 0.165301
0.743227 0.000000 0.170563
1.000000 0.000000 0.198546
1.000000 0.460055 0.277195
1.000000 0.816533 0.502796
1.000000 0.945013 0.795229
0.000000 0.000000 0.164485
0.000000 0.000000 0.164825
0.169771 0.000000 0.164276
0.390115 0.000000 0.161650
0.746008 0.000000 0.166475
1.000000 0.000000 0.191842
1.000000 0.490942 0.271351
1.000000 0.820938 0.501504
1.000000 0.945505 0.795044
0.000000 0.153064 0.153760
0.000000 0.155086 0.153447
0.149960 0.149960 0.149960
0.384458 0.134674 0.152441
0.744230 0.000000 0.156027
1.000000 0.143457 0.179453
1.000000 0.532484 0.262287
1.000000 0.827290 0.499566
1.000000 0.946243 0.794762
0.000000 0.393263 0.076280
0.000000 0.394418 0.077282
0.000000 0.394937 0.078608
0.362883 0.392173 0.081467
0.751240 0.382397 0.086437
1.000000 0.435633 0.118630
1.000000 0.634390 0.232346
1.000000 0.844815 0.493716
1.000000 0.948482 0.793878
0.000000 0.742873 0.000000
0.000000 0.742713 0.000000
0.000000 0.742233 0.000000
0.000000 0.739206 0.000000
0.697158 0.728837 0.000000
0.969899 0.735107 0.000000
1.000000 0.793273 0.126683
1.000000 0.882809 0.476988
1.000000 0.954820 0.791106
0.000000 0.941867 0.000000
0.000000 0.940964 0.000000
0.000000 0.939580 0.000000
0.111185 0.935302 0.000000
0.674118 0.924336 0.000000
0.918184 0.914068 0.000000
1.000000 0.916377 0.111235
1.000000 0.937188 0.459875
1.000000 0.969147 0.782596
0.591666 1.000000 0.242094
0.607528 1.000000 0.242735
0.629469 0.999253 0.243719
0.684995 0.997190 0.246873
0.789669 0.992639 0.257138
0.911033 0.986355 0.288462
0.996426 0.981881 0.377118
1.000000 0.982411 0.575431
1.000000 0.989191 0.796162
0.882052 1.000000 0.662944
0.883454 1.000000 0.663087
0.885545 1.000000 0.663306
0.891792 1.000000 0.663996
0.908707 1.000000 0.666203
0.943168 1.000000 0.673180
0.986925 1.000000 0.694065
1.000000 1.000000 0.751670
1.000000 1.000000 0.854693
0.968628 1.000000 0.887687
0.968785 1.000000 0.887703
0.969023 1.000000 0.887726
0.969761 1.000000 0.887802
0.972000 1.000000 0.888045
0.978069 1.000000 0.888822
0.990356 1.000000 0.891282
1.000000 1.000000 0.898659
1.000000 1.000000 0.919178
0.000000 0.000000 0.377941
0.000000 0.000000 0.378076
0.000000 0.000000 0.378165
0.369923 0.000000 0.376769
0.764263 0.000000 0.379602
1.000000 0.000000 0.399272
1.000000 0.425992 0.456555
1.000000 0.811778 0.601566
1.000000 0.944428 0.816696
0.000000 0.000000 0.375879
0.000000 0.000000 0.376075
0.065940 0.000000 0.376003
0.384548 0.000000 0.374564
0.761754 0.000000 0.377297
1.000000 0.000000 0.396596
1.000000 0.460655 0.453355
1.000000 0.816383 0.600568
1.000000 0.944926 0.816536
0.000000 0.058276 0.372270
0.000000 0.063555 0.372437
0.095726 0.058936 0.372313
0.390251 0.000000 0.371124
0.754794 0.000000 0.373814
1.000000 0.000000 0.391883
1.000000 0.506498 0.448511
1.000000 0.823017 0.599077
1.000000 0.945673 0.816293
0.000000 0.352621 0.350108
0.000000 0.354216 0.350410
0.000000 0.355261 0.350992
0.352371 0.352371 0.352371
0.732172 0.343441 0.355781
1.000000 0.399615 0.372786
1.000000 0.616530 0.433620
1.000000 0.841290 0.594603
1.000000 0.947940 0.815533
0.000000 0.730642 0.268773
0.000000 0.730571 0.269422
0.000000 0.730205 0.270375
0.000000 0.727419 0.273154
0.692361 0.717163 0.281967
0.967107 0.725374 0.311186
1.000000 0.787453 0.395453
1.000000 0.880727 0.582096
1.000000 0.954352 0.813161
0.000000 0.940610 0.000000
0.000000 0.939706 0.000000
0.000000 0.938321 0.000000
0.136144 0.934047 0.000000
0.675044 0.923123 0.000000
0.917551 0.912921 0.138647
1.000000 0.915391 0.317895
1.000000 0.936404 0.549364
1.000000 0.968821 0.805986
0.603138 1.000000 0.241469
0.618137 0.999556 0.242115
0.638940 0.998829 0.243108
0.691841 0.996830 0.246285
0.793107 0.992387 0.256601
0.912022 0.986213 0.288019
0.996634 0.981788 0.377036
1.000000 0.982353 0.575045
1.000000 0.989159 0.796019
0.883063 1.000000 0.662827
0.884448 1.000000 0.662971
0.886512 1.000000 0.663189
0.892682 1.000000 0.663880
0.909402 1.000000 0.666090
0.943543 1.000000 0.673072
0.987041 1.000000 0.693971
1.000000 1.000000 0.751652
1.000000 1.000000 0.854643
0.968742 1.000000 0.887674
0.968898 1.000000 0.887690
0.969136 1.000000 0.887714
0.969871 1.000000 0.887790
0.972101 1.000000 0.888033
0.978149 1.000000 0.888810
0.990398 1.000000 0.891270
1.000000 1.000000 0.898649
1.000000 1.000000 0.919176
0.000000 0.000000 0.715927
0.000000 0.000000 0.716022
0.000000 0.000000 0.716169
0.221257 0.000000 0.715058
0.750142 0.000000 0.710816
1.000000 0.000000 0.715580
1.000000 0.271392 0.733818
1.000000 0.795305 0.775532
1.000000 0.942605 0.863972
0.000000 0.000000 0.715172
0.000000 0.000000 0.715268
0.000000 0.000000 0.715415
0.247667 0.000000 0.714103
0.756754 0.000000 0.710021
1.000000 0.000000 0.714776
1.000000 0.331640 0.732113
1.000000 0.800644 0.774919
1.000000 0.943124 0.863862
0.000000 0.000000 0.714015
0.000000 0.000000 0.714112
0.000000 0.000000 0.714266
0.281803 0.000000 0.712646
0.760561 0.000000 0.708751
1.000000 0.000000 0.713464
1.000000 0.401497 0.729528
1.000000 0.808306 0.774014
1.000000 0.943903 0.863695
0.000000 0.194442 0.707261
0.000000 0.197044 0.707280
0.000000 0.200296 0.707283
0.289768 0.192247 0.706002
0.759679 0.076485 0.703125
1.000000 0.210034 0.706089
1.000000 0.548792 0.721679
1.000000 0.829278 0.771369
1.000000 0.946262 0.863176
0.000000 0.684231 0.671163
0.000000 0.684567 0.671309
0.000000 0.684636 0.671489
0.000000 0.682791 0.671874
0.672981 0.672981 0.672981
0.957646 0.688663 0.678741
1.000000 0.766102 0.701865
1.000000 0.873882 0.764507
1.000000 0.952920 0.861582
0.000000 0.936433 0.620127
0.000000 0.935543 0.620323
0.000000 0.934164 0.620619
0.000000 0.929834 0.621563
0.642091 0.918444 0.624831
0.906131 0.907765 0.637372
1.000000 0.911061 0.672780
1.000000 0.933614 0.749173
1.000000 0.967864 0.856957
0.597852 0.999026 0.512932
0.612845 0.998529 0.513301
0.633631 0.997810 0.513868
0.686445 0.995833 0.515682
0.787730 0.991424 0.521617
0.906682 0.985277 0.540613
0.991258 0.980849 0.595480
1.000000 0.981550 0.710677
1.000000 0.988715 0.843987
0.886220 1.000000 0.662452
0.887550 1.000000 0.662596
0.889533 1.000000 0.662816
0.895464 1.000000 0.663509
0.911578 1.000000 0.665726
0.944729 1.000000 0.672727
0.987409 1.000000 0.693670
1.000000 1.000000 0.751592
1.000000 1.000000 0.854478
0.969105 1.000000 0.887633
0.969259 1.000000 0.887649
0.969493 1.000000 0.887673
0.970219 1.000000 0.887749
0.972422 1.000000 0.887992
0.978401 1.000000 0.888770
0.990530 1.000000 0.891232
1.000000 1.000000 0.898616
1.000000 1.000000 0.919169
0.000000 0.000000 0.941978
0.000000 0.000000 0.941989
0.000000 0.000000 0.942006
0.000000 0.000000 0.942059
0.614449 0.000000 0.935389
1.000000 0.000000 0.929569
1.000000 0.000000 0.930655
1.000000 0.720368 0.918173
1.000000 0.936694 0.928087
0.000000 0.000000 0.941892
0.000000 0.000000 0.941903
0.000000 0.000000 0.941920
0.000000 0.000000 0.941973
0.623879 0.000000 0.935160
1.000000 0.000000 0.929475
1.000000 0.000000 0.930564
1.000000 0.730320 0.917562
1.000000 0.937296 0.928017
0.000000 0.000000 0.941761
0.000000 0.000000 0.941772
0.000000 0.000000 0.941789
0.000000 0.000000 0.941842
0.637804 0.000000 0.934817
1.000000 0.000000 0.929331
1.000000 0.000000 0.930426
1.000000 0.744188 0.916690
1.000000 0.938194 0.927913
0.000000 0.000000 0.941344
0.000000 0.000000 0.941355
0.000000 0.000000 0.941372
0.000000 0.000000 0.941131
0.671915 0.000000 0.933868
1.000000 0.000000 0.928868
1.000000 0.000000 0.927851
1.000000 0.779440 0.914351
1.000000 0.940897 0.927593
0.000000 0.453895 0.926883
0.000000 0.455292 0.926825
0.000000 0.457411 0.926736
0.000000 0.461327 0.926043
0.650604 0.449610 0.921942
1.000000 0.474954 0.916901
1.000000 0.653304 0.911089
1.000000 0.847528 0.909247
1.000000 0.948456 0.926651
0.000000 0.921668 0.892599
0.000000 0.921082 0.892554
0.000000 0.920031 0.892471
0.000000 0.915860 0.892132
0.550371 0.903222 0.891202
0.890908 0.890908 0.890908
0.999765 0.897442 0.893061
1.000000 0.925430 0.901544
1.000000 0.965113 0.924209
0.476475 0.998281 0.873234
0.500881 0.997682 0.873216
0.533502 0.996815 0.873194
0.611680 0.994420 0.873153
0.744529 0.989287 0.873252
0.884849 0.982485 0.874371
0.977827 0.978015 0.879079
1.000000 0.979413 0.891711
1.000000 0.987567 0.918851
0.878099 1.000000 0.828518
0.879434 1.000000 0.828575
0.881425 1.000000 0.828661
0.887385 1.000000 0.828937
0.903584 1.000000 0.829824
0.937000 1.000000 0.832681
0.980314 1.000000 0.841468
1.000000 1.000000 0.864616
1.000000 1.000000 0.905605
0.970237 1.000000 0.887501
0.970385 1.000000 0.887517
0.970610 1.000000 0.887541
0.971308 1.000000 0.887617
0.973427 1.000000 0.887862
0.979190 1.000000 0.888643
0.990946 1.000000 0.891111
1.000000 1.000000 0.898511
1.000000 1.000000 0.919148
0.000000 0.000000 1.000000
0.000000 0.000000 1.000000
0.000000 0.000000 1.000000
0.000000 0.000000 1.000000
0.000000 0.000000 1.000000
0.988200 0.000000 1.000000
1.000000 0.000000 1.000000
1.000000 0.000000 1.000000
1.000000 0.910400 0.982158
0.000000 0.000000 1.000000
0.000000 0.000000 1.000000
0.000000 0.000000 1.000000
0.000000 0.000000 1.000000
0.000000 0.000000 1.000000
0.989778 0.000000 1.000000
1.000000 0.000000 1.000000
1.000000 0.000000 1.000000
1.000000 0.911484 0.982077
0.000000 0.000000 1.000000
0.000000 0.000000 1.000000
0.000000 0.000000 1.000000
0.000000 0.000000 1.000000
0.000000 0.000000 1.000000
0.992144 0.000000 1.000000
1.000000 0.000000 1.000000
1.000000 0.000000 1.000000
1.000000 0.913096 0.981956
0.000000 0.000000 1.000000
0.000000 0.000000 1.000000
0.000000 0.000000 1.000000
0.000000 0.000000 1.000000
0.000000 0.000000 1.000000
0.999316 0.000000 1.000000
1.000000 0.000000 1.000000
1.000000 0.000000 1.000000
1.000000 0.917870 0.981595
0.000000 0.000000 1.000000
0.000000 0.000000 1.000000
0.000000 0.000000 1.000000
0.000000 0.000000 1.000000
0.200625 0.000000 1.000000
1.000000 0.000000 1.000000
1.000000 0.000000 1.000000
1.000000 0.561985 0.997345
1.000000 0.930484 0.980619
0.000000 0.791626 0.992568
0.000000 0.791983 0.992544
0.000000 0.792524 0.992509
0.000000 0.794221 0.992398
0.000000 0.789159 0.990903
0.899318 0.775172 0.987033
1.000000 0.809096 0.983727
1.000000 0.886289 0.979610
1.000000 0.955129 0.978583
0.000000 1.000000 0.973554
0.000000 1.000000 0.973476
0.000000 0.999635 0.973359
0.000000 0.995767 0.973014
0.622817 0.986570 0.972231
0.857794 0.976489 0.971477
0.971358 0.971359 0.971358
1.000000 0.974207 0.972243
1.000000 0.984537 0.975606
0.846557 1.000000 0.964819
0.848326 1.000000 0.964815
0.850957 1.000000 0.964811
0.858782 1.000000 0.964797
0.879692 1.000000 0.964771
0.920863 1.000000 0.964792
0.970712 1.000000 0.965214
1.000000 1.000000 0.967073
1.000000 1.000000 0.972039
0.966703 1.000000 0.947831
0.966851 1.000000 0.947837
0.967076 1.000000 0.947847
0.967772 1.000000 0.947878
0.969889 1.000000 0.947978
0.975653 1.000000 0.948300
0.987450 1.000000 0.949343
1.000000 1.000000 0.952577
1.000000 1.000000 0.961214
0.000000 0.087038 1.000000
0.000000 0.087040 1.000000
0.000000 0.087043 1.000000
0.000000 0.087052 1.000000
0.000000 0.087081 1.000000
0.000000 0.087175 1.000000
1.000000 0.000000 1.000000
1.000000 0.219343 1.000000
1.000000 0.642959 1.000000
0.000000 0.087023 1.000000
0.000000 0.087025 1.000000
0.000000 0.087028 1.000000
0.000000 0.087037 1.000000
0.000000 0.087066 1.000000
0.000000 0.087160 1.000000
1.000000 0.000000 1.000000
1.000000 0.219636 1.000000
1.000000 0.642933 1.000000
0.000000 0.087000 1.000000
0.000000 0.087002 1.000000
0.000000 0.087005 1.000000
0.000000 0.087014 1.000000
0.000000 0.087044 1.000000
0.000000 0.087137 1.000000
1.000000 0.000000 1.000000
1.000000 0.220082 1.000000
1.000000 0.642893 1.000000
0.000000 0.086929 1.000000
0.000000 0.086930 1.000000
0.000000 0.086933 1.000000
0.000000 0.086943 1.000000
0.000000 0.086972 1.000000
0.000000 0.087066 1.000000
1.000000 0.000000 1.000000
1.000000 0.221484 1.000000
1.000000 0.642766 1.000000
0.000000 0.086698 1.000000
0.000000 0.086700 1.000000
0.000000 0.086703 1.000000
0.000000 0.086712 1.000000
0.000000 0.086742 1.000000
0.000000 0.086836 1.000000
1.000000 0.000000 1.000000
1.000000 0.224026 1.000000
1.000000 0.642357 1.000000
0.000000 0.085956 1.000000
0.000000 0.085957 1.000000
0.000000 0.085960 1.000000
0.000000 0.085970 1.000000
0.000000 0.085999 1.000000
0.700238 0.000000 1.000000
1.000000 0.000000 1.000000
1.000000 0.228163 1.000000
1.000000 0.854709 1.000000
0.000000 0.960598 1.000000
0.000000 0.960638 1.000000
0.000000 0.960698 1.000000
0.000000 0.960888 1.000000
0.000000 0.961491 1.000000
0.701245 0.937146 1.000000
0.975194 0.928191 1.000000
1.000000 0.941131 1.000000
1.000000 0.969959 1.000000
0.681025 1.000000 1.000000
0.688357 1.000000 1.000000
0.698926 1.000000 1.000000
0.728117 1.000000 1.000000
0.792366 1.000000 1.000000
0.882879 1.000000 1.000000
0.960733 1.000000 1.000000
1.000000 1.000000 1.000000
1.000000 1.000000 1.000000
0.955665 1.000000 0.998257
0.955861 1.000000 0.998256
0.956159 1.000000 0.998255
0.957079 1.000000 0.998253
0.959835 1.000000 0.998246
0.967182 1.000000 0.998230
0.981704 1.000000 0.998221
0.998299 1.000000 0.998339
1.000000 1.000000 0.998858
0.000000 0.293766 1.000000
0.000000 0.293767 1.000000
0.000000 0.293768 1.000000
0.000000 0.293771 1.000000
0.000000 0.293781 1.000000
0.000000 0.293813 1.000000
0.000000 0.293917 1.000000
1.000000 0.328965 1.000000
1.000000 0.693573 1.000000
0.000000 0.293761 1.000000
0.000000 0.293762 1.000000
0.000000 0.293763 1.000000
0.000000 0.293766 1.000000
0.000000 0.293776 1.000000
0.000000 0.293808 1.000000
0.000000 0.293912 1.000000
1.000000 0.329129 1.000000
1.000000 0.693612 1.000000
0.000000 0.293753 1.000000
0.000000 0.293754 1.000000
0.000000 0.293755 1.000000
0.000000 0.293758 1.000000
0.000000 0.293768 1.000000
0.000000 0.293800 1.000000
0.000000 0.293904 1.000000
1.000000 0.329378 1.000000
1.000000 0.693671 1.000000
0.000000 0.293729 1.000000
0.000000 0.293729 1.000000
0.000000 0.293730 1.000000
0.000000 0.293734 1.000000
0.000000 0.293743 1.000000
0.000000 0.293776 1.000000
0.000000 0.293879 1.000000
1.000000 0.330165 1.000000
1.000000 0.693857 1.000000
0.000000 0.293650 1.000000
0.000000 0.293650 1.000000
0.000000 0.293651 1.000000
0.000000 0.293654 1.000000
0.000000 0.293664 1.000000
0.000000 0.293697 1.000000
0.000000 0.293800 1.000000
1.000000 0.332672 1.000000
1.000000 0.694452 1.000000
0.000000 0.293396 1.000000
0.000000 0.293397 1.000000
0.000000 0.293398 1.000000
0.000000 0.293401 1.000000
0.000000 0.293411 1.000000
0.000000 0.293443 1.000000
0.000000 0.291429 1.000000
1.000000 0.340538 1.000000
1.000000 0.695515 1.000000
0.000000 0.292582 1.000000
0.000000 0.292582 1.000000
0.000000 0.292583 1.000000
0.000000 0.292586 1.000000
0.000000 0.292597 1.000000
0.000000 0.292629 1.000000
1.000000 0.000000 1.000000
1.000000 0.358889 1.000000
1.000000 0.697304 1.000000
0.000000 1.000000 1.000000
0.000000 1.000000 1.000000
0.000000 1.000000 1.000000
0.000000 1.000000 1.000000
0.000000 1.000000 1.000000
0.000000 1.000000 1.000000
0.904750 0.989285 1.000000
1.000000 0.985610 1.000000
1.000000 0.990186 1.000000
0.900785 1.000000 1.000000
0.901482 1.000000 1.000000
0.902530 1.000000 1.000000
0.905723 1.000000 1.000000
0.914881 1.000000 1.000000
0.936342 1.000000 1.000000
0.968589 1.000000 1.000000
0.994874 1.000000 1.000000
1.000000 1.000000 1.000000
