software/Premiere/untitled folder/ARRILogC3_to_ACES-Rec709_v3.cube
TITLE "Generated by Foundry::LUT"
LUT_3D_SIZE 8
0.000213 0.000213 0.000213
0.000213 0.000213 0.000213
0.000213 0.000213 0.000213
0.000213 0.000213 0.000213
0.000213 0.000213 0.000213
0.000213 0.000213 0.000213
0.000213 0.000213 0.000213
0.000213 0.000213 0.000213
0.000213 0.000213 0.000213
0.000213 0.000213 0.000213
0.000213 0.000213 0.000213
0.000213 0.000213 0.000213
0.000213 0.000213 0.000213
0.000213 0.000213 0.000213
0.000213 0.000213 0.000213
0.000213 0.000213 0.000213
0.000213 0.000213 0.000213
0.000213 0.000213 0.000213
0.000213 0.000213 0.000213
0.000213 0.000213 0.000213
0.000213 0.000213 0.000213
0.000213 0.000213 0.000213
0.000213 0.000213 0.000213
0.000213 0.000213 0.000213
0.000213 0.000213 0.000213
0.000213 0.000213 0.000213
0.000213 0.000213 0.000213
0.000213 0.000213 0.000213
0.000213 0.000213 0.000213
0.000213 0.000213 0.000213
0.000213 0.000213 0.000213
0.000213 0.000213 0.000213
0.000213 0.000213 0.000213
0.000213 0.000213 0.000213
0.000213 0.000213 0.000213
0.000213 0.000213 0.000213
0.000213 0.000213 0.000213
0.000213 0.000213 0.000213
0.000213 0.000213 0.000213
0.000213 0.000213 0.000213
0.000213 0.000213 0.000213
0.000213 0.000213 0.000213
0.000213 0.000213 0.000213
0.000213 0.000213 0.000213
0.000213 0.000213 0.000213
0.000213 0.000213 0.000213
0.000213 0.000213 0.000213
0.000213 0.000213 0.000213
0.000213 0.000213 0.000213
0.000213 0.000213 0.000213
0.000213 0.000213 0.000213
0.000213 0.000213 0.000213
0.000213 0.000213 0.000213
0.000213 0.000213 0.000213
0.000213 0.000213 0.000213
0.000213 0.000213 0.000213
0.000213 0.000213 0.000213
0.000213 0.000213 0.000213
0.000213 0.000213 0.000213
0.000213 0.000213 0.000213
0.000213 0.000213 0.000213
0.000213 0.000213 0.000213
0.000213 0.000213 0.000213
0.000213 0.000213 0.000213
0.790373 0.771458 0.818578
0.629043 0.558889 0.528788
0.800272 0.786794 0.837090
0.826126 0.815963 0.863984
0.805846 0.795170 0.845677
0.816272 0.803568 0.852381
0.796251 0.792438 0.847466
0.791255 0.782025 0.837541
0.759148 0.696161 0.743395
0.741907 0.692905 0.733897
0.779081 0.758335 0.796237
0.819049 0.799678 0.831039
0.824097 0.801035 0.825970
0.815437 0.805265 0.853691
0.805518 0.787267 0.835441
0.803886 0.791668 0.849026
0.414058 0.362834 0.340444
0.649078 0.575229 0.609907
0.710076 0.645624 0.668782
0.760847 0.713401 0.758226
0.793187 0.757431 0.798244
0.797243 0.764443 0.808666
0.727680 0.669856 0.677801
0.825883 0.809584 0.839674
0.596279 0.530341 0.545903
0.446450 0.308535 0.201300
0.618126 0.552748 0.572135
0.658061 0.584726 0.611876
0.531291 0.391564 0.292258
0.731985 0.669740 0.713134
0.767136 0.704519 0.756764
0.788860 0.763992 0.810496
0.582235 0.504125 0.509013
0.618463 0.529391 0.548929
0.584841 0.506682 0.511571
0.603761 0.522502 0.538240
0.592210 0.538130 0.553604
0.534216 0.435736 0.364089
0.649713 0.583952 0.614766
0.696446 0.566198 0.443344
0.526985 0.469557 0.470567
0.564282 0.484914 0.496899
0.562461 0.479301 0.480784
0.570325 0.486684 0.502329
0.584287 0.509279 0.514112
0.570325 0.486684 0.502329
0.618150 0.538912 0.562146
0.617475 0.542308 0.573141
0.540392 0.464793 0.476638
0.524353 0.453016 0.461254
0.519783 0.445514 0.453794
0.523368 0.457404 0.469044
0.545041 0.472369 0.484187
0.573135 0.496401 0.487371
0.576019 0.489394 0.490921
0.605676 0.520853 0.544053
0.533117 0.457400 0.455357
0.551462 0.456332 0.472025
0.516904 0.441689 0.429713
0.565095 0.481159 0.486155
0.537495 0.464326 0.465642
0.540587 0.448897 0.464481
0.546636 0.464710 0.476673
0.562571 0.495343 0.493022
0.302296 0.251695 0.248504
0.625804 0.504288 0.475673
0.540584 0.434004 0.436064
0.552475 0.481990 0.483232
0.474231 0.400401 0.401840
0.470640 0.380374 0.372799
0.515102 0.410015 0.379975
0.448906 0.342869 0.331224
0.335037 0.302426 0.300520
0.320056 0.270814 0.289520
0.317480 0.261365 0.267424
0.300230 0.257560 0.258556
0.487860 0.407530 0.409094
0.541273 0.461521 0.476969
0.533443 0.453579 0.458497
0.552819 0.467296 0.465403
0.417834 0.278065 0.221307
0.436318 0.359081 0.379899
0.337968 0.305209 0.328085
0.385997 0.296284 0.329053
0.348591 0.290810 0.308013
0.416409 0.349870 0.351331
0.358081 0.299056 0.303032
0.540172 0.450961 0.456061
0.306099 0.250619 0.261132
0.245973 0.239034 0.358738
0.182418 0.226038 0.368949
0.268759 0.241016 0.252910
0.280469 0.239069 0.244426
0.244187 0.221549 0.224136
0.292532 0.242747 0.252893
0.303014 0.245292 0.258050
0.740856 0.704314 0.759053
0.708673 0.593709 0.602710
0.343897 0.321304 0.375766
0.589597 0.431843 0.399093
0.242110 0.238574 0.375086
0.176016 0.187383 0.273194
0.691641 0.645023 0.671610
0.639098 0.583424 0.617642
0.387918 0.313204 0.340914
0.464848 0.405170 0.419876
0.456810 0.396948 0.404764
0.455950 0.387257 0.395232
0.715791 0.610875 0.638098
0.678978 0.481640 0.431918
0.146143 0.170112 0.273182
0.223294 0.220636 0.342263
0.419887 0.361444 0.372079
0.403147 0.334149 0.360025
0.423029 0.351074 0.378101
0.422784 0.361392 0.372094
0.413765 0.351958 0.375484
0.398017 0.354678 0.355562
0.641604 0.398130 0.292251
0.648869 0.545594 0.584305
0.477001 0.400846 0.412384
0.454297 0.396388 0.418033
0.483070 0.415479 0.426931
0.521957 0.458410 0.488219
0.514236 0.450886 0.469651
0.516803 0.453374 0.472163
0.526089 0.459404 0.460603
0.476751 0.405069 0.430595
0.994137 0.996691 0.998712
0.521042 0.538781 0.245255
0.859185 0.862473 0.898482
0.990889 0.994320 0.997322
0.990621 0.993492 0.996878
0.989611 0.992858 0.996584
0.989233 0.992183 0.996284
0.988274 0.991287 0.995809
0.348572 0.266719 0.259669
0.534157 0.533871 0.234705
0.406368 0.321400 0.280150
0.442955 0.451184 0.302990
0.573263 0.584073 0.321282
0.990909 0.994374 0.997142
0.990602 0.993434 0.997061
0.989782 0.993376 0.996531
0.454219 0.395207 0.399661
0.388473 0.323495 0.308910
0.486599 0.412963 0.424521
0.500618 0.411544 0.403423
0.864932 0.797942 0.763954
0.329822 0.300178 0.175103
0.466724 0.471467 0.316369
0.991358 0.994790 0.997273
0.436035 0.325032 0.256284
0.351754 0.356652 0.259438
0.408513 0.337333 0.260338
0.463243 0.400342 0.425660
0.507287 0.422800 0.445139
0.484348 0.409401 0.414199
0.465969 0.402934 0.360186
0.614732 0.542276 0.519190
0.811645 0.710295 0.654281
0.830839 0.749331 0.638227
0.820124 0.734311 0.674509
0.297455 0.290540 0.136308
0.354104 0.371692 0.214880
0.486368 0.414294 0.419038
0.515487 0.436671 0.451944
0.509756 0.416922 0.453804
0.408997 0.314864 0.289019
0.407714 0.325550 0.308714
0.531456 0.463829 0.317957
0.453483 0.407034 0.261928
0.522323 0.587521 0.000000
0.630159 0.585750 0.551494
0.322915 0.289380 0.138008
0.215410 0.195023 0.181054
0.678546 0.748220 0.836136
0.215954 0.218682 0.214591
0.386417 0.366746 0.225238
0.471968 0.383533 0.312910
0.415146 0.317837 0.309582
0.546703 0.509165 0.402497
0.832302 0.752757 0.705441
0.697639 0.657503 0.522622
0.261160 0.223290 0.191540
0.158025 0.165904 0.146339
0.553918 0.577231 0.583744
0.228267 0.210745 0.209198
0.223337 0.202903 0.183161
0.373504 0.332662 0.264856
0.288275 0.261899 0.125810
0.461458 0.370739 0.337361
0.000000 0.000000 0.000000
0.000000 0.000000 0.000000
0.000000 0.000000 0.000000
0.000000 0.000000 0.000000
0.000000 0.000000 0.000000
0.000000 0.000000 0.000000
0.000000 0.000000 0.000000
0.000000 0.000000 0.000000
0.000000 0.000000 0.000000
0.000000 0.000000 0.000000
0.000000 0.000000 0.000000
0.000000 0.000000 0.000000
0.000000 0.000000 0.000000
0.000000 0.000000 0.000000
0.000000 0.000000 0.000000
0.000000 0.000000 0.000000
0.000000 0.000000 0.000000
0.000000 0.000000 0.000000
0.000000 0.000000 0.000000
0.000000 0.000000 0.000000
0.000000 0.000000 0.000000
0.000000 0.000000 0.000000
0.000000 0.000000 0.000000
0.000000 0.000000 0.000000
0.000000 0.000000 0.000000
0.000000 0.000000 0.000000
0.000000 0.000000 0.000000
0.000000 0.000000 0.000000
0.000000 0.000000 0.000000
0.000000 0.000000 0.000000
0.000000 0.000000 0.000000
0.000000 0.000000 0.000000
0.000000 0.000000 0.000000
0.000000 0.000000 0.000000
0.000000 0.000000 0.000000
0.000000 0.000000 0.000000
0.000000 0.000000 0.000000
0.000000 0.000000 0.000000
0.000000 0.000000 0.000000
0.000000 0.000000 0.000000
0.000000 0.000000 0.000000
0.000000 0.000000 0.000000
0.000000 0.000000 0.000000
0.000000 0.000000 0.000000
0.000000 0.000000 0.000000
0.000000 0.000000 0.000000
0.000000 0.000000 0.000000
0.000000 0.000000 0.000000
0.000000 0.000000 0.000000
0.000000 0.000000 0.000000
0.000000 0.000000 0.000000
0.000000 0.000000 0.000000
0.000000 0.000000 0.000000
0.000000 0.000000 0.000000
0.000000 0.000000 0.000000
0.000000 0.000000 0.000000
0.000000 0.000000 0.000000
0.000000 0.000000 0.000000
0.000000 0.000000 0.000000
0.000000 0.000000 0.000000
0.000000 0.000000 0.000000
0.000000 0.000000 0.000000
0.000000 0.000000 0.000000
0.000000 0.000000 0.000000
0.000000 0.000000 0.000000
0.000000 0.000000 0.000000
0.000000 0.000000 0.000000
0.000000 0.000000 0.000000
0.000000 0.000000 0.000000
0.000000 0.000000 0.000000
0.000000 0.000000 0.000000
0.000000 0.000000 0.000000
0.000000 0.000000 0.000000
0.000000 0.000000 0.000000
0.000000 0.000000 0.000000
0.000000 0.000000 0.000000
0.000000 0.000000 0.000000
0.000000 0.000000 0.000000
0.000000 0.000000 0.000000
0.000000 0.000000 0.000000
0.000000 0.000000 0.000000
0.000000 0.000000 0.000000
0.000000 0.000000 0.000000
0.000000 0.000000 0.000000
0.000000 0.000000 0.000000
0.000000 0.000000 0.000000
0.000000 0.000000 0.000000
0.000000 0.000000 0.000000
0.000000 0.000000 0.000000
0.000000 0.000000 0.000000
0.000000 0.000000 0.000000
0.000000 0.000000 0.000000
0.000000 0.000000 0.000000
0.000000 0.000000 0.000000
0.000000 0.000000 0.000000
0.000000 0.000000 0.000000
0.000000 0.000000 0.000000
0.000000 0.000000 0.000000
0.000000 0.000000 0.000000
0.000000 0.000000 0.000000
0.000000 0.000000 0.000000
0.000000 0.000000 0.000000
0.000000 0.000000 0.000000
0.000000 0.000000 0.000000
0.000000 0.000000 0.000000
0.000000 0.000000 0.000000
0.000000 0.000000 0.000000
0.000000 0.000000 0.000000
0.000000 0.000000 0.000000
0.000000 0.000000 0.000000
0.000000 0.000000 0.000000
0.000000 0.000000 0.000000
0.000000 0.000000 0.000000
0.000000 0.000000 0.000000
0.000000 0.000000 0.000000
0.000000 0.000000 0.000000
0.000000 0.000000 0.000000
0.000000 0.000000 0.000000
0.000000 0.000000 0.000000
0.000000 0.000000 0.000000
0.000000 0.000000 0.000000
0.000000 0.000000 0.000000
0.000000 0.000000 0.000000
0.000000 0.000000 0.000000
0.000000 0.000000 0.000000
0.000000 0.000000 0.000000
0.000000 0.000000 0.000000
0.000000 0.000000 0.000000
0.000000 0.000000 0.000000
0.000000 0.000000 0.000000
0.000000 0.000000 0.000000
0.000000 0.000000 0.000000
0.000000 0.000000 0.000000
0.000000 0.000000 0.000000
0.000000 0.000000 0.000000
0.000000 0.000000 0.000000
0.000000 0.000000 0.000000
0.000000 0.000000 0.000000
0.000000 0.000000 0.000000
0.000000 0.000000 0.000000
0.000000 0.000000 0.000000
0.000000 0.000000 0.000000
0.000000 0.000000 0.000000
0.000000 0.000000 0.000000
0.000000 0.000000 0.000000
0.000000 0.000000 0.000000
0.000000 0.000000 0.000000
0.000000 0.000000 0.000000
0.000000 0.000000 0.000000
0.000000 0.000000 0.000000
0.000000 0.000000 0.000000
0.000000 0.000000 0.000000
0.000000 0.000000 0.000000
0.000000 0.000000 0.000000
0.000000 0.000000 0.000000
0.000000 0.000000 0.000000
0.000000 0.000000 0.000000
0.000000 0.000000 0.000000
0.000000 0.000000 0.000000
0.000000 0.000000 0.000000
0.000000 0.000000 0.000000
0.000000 0.000000 0.000000
0.000000 0.000000 0.000000
0.000000 0.000000 0.000000
0.000000 0.000000 0.000000
0.000000 0.000000 0.000000
0.000000 0.000000 0.000000
0.000000 0.000000 0.000000
0.000000 0.000000 0.000000
0.000000 0.000000 0.000000
0.000000 0.000000 0.000000
0.000000 0.000000 0.000000
0.000000 0.000000 0.000000
0.000000 0.000000 0.000000
0.000000 0.000000 0.000000
0.000000 0.000000 0.000000
0.000000 0.000000 0.000000
0.000000 0.000000 0.000000
0.000000 0.000000 0.000000
0.000000 0.000000 0.000000
0.000000 0.000000 0.000000
0.000000 0.000000 0.000000
0.000000 0.000000 0.000000
0.000000 0.000000 0.000000
0.000000 0.000000 0.000000
0.000000 0.000000 0.000000
0.000000 0.000000 0.000000
0.000000 0.000000 0.000000
0.000000 0.000000 0.000000
0.000000 0.000000 0.000000
0.000000 0.000000 0.000000
0.000000 0.000000 0.000000
0.000000 0.000000 0.000000
0.000000 0.000000 0.000000
0.000000 0.000000 0.000000
0.000000 0.000000 0.000000
0.000000 0.000000 0.000000
0.000000 0.000000 0.000000
0.000000 0.000000 0.000000
0.000000 0.000000 0.000000
0.000000 0.000000 0.000000
0.000000 0.000000 0.000000
0.000000 0.000000 0.000000
0.000000 0.000000 0.000000
0.000000 0.000000 0.000000
0.000000 0.000000 0.000000
0.000000 0.000000 0.000000
0.000000 0.000000 0.000000
0.000000 0.000000 0.000000
0.000000 0.000000 0.000000
0.000000 0.000000 0.000000
0.000000 0.000000 0.000000
0.000000 0.000000 0.000000
0.000000 0.000000 0.000000
0.000000 0.000000 0.000000
0.000000 0.000000 0.000000
0.000000 0.000000 0.000000
0.000000 0.000000 0.000000
0.000000 0.000000 0.000000
0.000000 0.000000 0.000000
0.000000 0.000000 0.000000
0.000000 0.000000 0.000000
0.000000 0.000000 0.000000
0.000000 0.000000 0.000000
0.000000 0.000000 0.000000
0.000000 0.000000 0.000000
0.000000 0.000000 0.000000
0.000000 0.000000 0.000000
0.000000 0.000000 0.000000
0.000000 0.000000 0.000000
0.000000 0.000000 0.000000
0.000000 0.000000 0.000000
0.000000 0.000000 0.000000
0.000000 0.000000 0.000000
0.000000 0.000000 0.000000
0.000000 0.000000 0.000000
0.000000 0.000000 0.000000
0.000000 0.000000 0.000000
0.000000 0.000000 0.000000
0.000000 0.000000 0.000000
0.000000 0.000000 0.000000
0.000000 0.000000 0.000000
0.000000 0.000000 0.000000
0.000000 0.000000 0.000000
0.000000 0.000000 0.000000
0.000000 0.000000 0.000000
0.000000 0.000000 0.000000
0.000000 0.000000 0.000000
0.000000 0.000000 0.000000
0.000000 0.000000 0.000000
0.000000 0.000000 0.000000
0.000000 0.000000 0.000000
0.000000 0.000000 0.000000
0.000000 0.000000 0.000000
0.000000 0.000000 0.000000
0.000000 0.000000 0.000000
