software/Premiere/untitled folder/ARRILogC3_to_ACES-Rec709_v2.cube
TITLE "Generated by Foundry::LUT"
LUT_3D_SIZE 33
0.000213 0.000213 0.000213
0.000213 0.000213 0.000213
0.000213 0.000213 0.000213
0.000213 0.000213 0.000213
0.000213 0.000213 0.000213
0.042718 0.000000 0.000000
0.092611 0.000000 0.000000
0.128426 0.000000 0.000000
0.164602 0.000000 0.000000
0.207787 0.000000 0.000000
0.258589 0.000000 0.000000
0.315259 0.000000 0.000000
0.380320 0.000000 0.000000
0.457650 0.000000 0.000000
0.546977 0.000000 0.000000
0.643791 0.000000 0.000000
0.743499 0.000000 0.000000
0.843409 0.000000 0.000000
0.931588 0.000000 0.000000
0.999503 0.000000 0.000000
1.000000 0.000000 0.000000
1.000000 0.000000 0.000000
1.000000 0.211743 0.055827
1.000000 0.357418 0.093105
1.000000 0.475363 0.134783
1.000000 0.583147 0.184374
1.000000 0.681638 0.251543
1.000000 0.760231 0.339796
1.000000 0.818951 0.434453
1.000000 0.864364 0.529899
1.000000 0.898011 0.624706
1.000000 0.924665 0.712479
1.000000 0.945325 0.782067
0.000213 0.000213 0.000213
0.000213 0.000213 0.000213
0.000213 0.000213 0.000213
0.000213 0.000213 0.000213
0.000213 0.000213 0.000213
0.053688 0.000000 0.000000
0.096328 0.000000 0.000000
0.131335 0.000000 0.000000
0.169243 0.000000 0.000000
0.213274 0.000000 0.000000
0.264153 0.000000 0.000000
0.320201 0.000000 0.000000
0.383586 0.000000 0.000000
0.459713 0.000000 0.000000
0.548764 0.000000 0.000000
0.645037 0.000000 0.000000
0.744243 0.000000 0.000000
0.843713 0.000000 0.000000
0.931413 0.000000 0.000000
0.998982 0.000000 0.000000
1.000000 0.000000 0.000000
1.000000 0.000000 0.000000
1.000000 0.234072 0.046348
1.000000 0.368985 0.088911
1.000000 0.482938 0.132537
1.000000 0.588380 0.183168
1.000000 0.685000 0.250237
1.000000 0.762138 0.339098
1.000000 0.820046 0.434057
1.000000 0.864981 0.529659
1.000000 0.898368 0.624552
1.000000 0.924876 0.712387
1.000000 0.945448 0.782016
0.000213 0.000213 0.000213
0.000213 0.000213 0.000213
0.000213 0.000213 0.000213
0.000213 0.000213 0.000213
0.000213 0.000213 0.000213
0.060104 0.000000 0.000000
0.097430 0.000000 0.000000
0.134126 0.000000 0.000000
0.174075 0.000000 0.000000
0.218552 0.000000 0.000000
0.268592 0.000000 0.000000
0.322945 0.000000 0.000000
0.386109 0.000000 0.000000
0.461961 0.000000 0.000000
0.550581 0.000000 0.000000
0.646265 0.000000 0.000000
0.744972 0.000000 0.000000
0.843985 0.000000 0.000000
0.931203 0.000000 0.000000
0.998432 0.000000 0.000000
1.000000 0.000000 0.000000
1.000000 0.000000 0.000000
1.000000 0.253897 0.032691
1.000000 0.380048 0.084436
1.000000 0.490318 0.130251
1.000000 0.593518 0.181962
1.000000 0.688295 0.248933
1.000000 0.764012 0.338405
1.000000 0.821128 0.433662
1.000000 0.865593 0.529419
1.000000 0.898722 0.624399
1.000000 0.925086 0.712295
1.000000 0.945570 0.781965
0.000213 0.000213 0.000213
0.000213 0.000213 0.000213
0.000213 0.000213 0.000213
0.000000 0.006655 0.000000
0.021791 0.011204 0.000000
0.064876 0.000000 0.000000
0.098282 0.000000 0.000000
0.134532 0.000000 0.000000
0.174976 0.000000 0.000000
0.220549 0.000000 0.000000
0.271321 0.000000 0.000000
0.325322 0.000000 0.000000
0.388550 0.000000 0.000000
0.464227 0.000000 0.000000
0.552414 0.000000 0.000000
0.647508 0.000000 0.000000
0.745693 0.000000 0.000000
0.844227 0.000000 0.000000
0.930968 0.000000 0.000000
0.997855 0.000000 0.000000
1.000000 0.000000 0.000000
1.000000 0.089808 0.000000
1.000000 0.271838 0.000000
1.000000 0.390665 0.079613
1.000000 0.497514 0.127925
1.000000 0.598566 0.180757
1.000000 0.691527 0.247633
1.000000 0.765855 0.337715
1.000000 0.822198 0.433268
1.000000 0.866199 0.529180
1.000000 0.899074 0.624245
1.000000 0.925296 0.712203
1.000000 0.945692 0.781914
0.000000 0.049179 0.000000
0.000000 0.051916 0.000000
0.000000 0.054572 0.000000
0.000000 0.057120 0.000000
0.000000 0.058099 0.000000
0.057311 0.057595 0.000000
0.094041 0.055807 0.000000
0.131947 0.051553 0.000000
0.173991 0.042005 0.000000
0.221312 0.000000 0.000000
0.272974 0.000000 0.000000
0.327421 0.000000 0.000000
0.390905 0.000000 0.000000
0.466529 0.000000 0.000000
0.554290 0.000000 0.000000
0.648770 0.000000 0.000000
0.746408 0.000000 0.000000
0.844447 0.000000 0.000000
0.930711 0.000000 0.000000
0.997254 0.000000 0.000000
1.000000 0.000000 0.000000
1.000000 0.140697 0.000000
1.000000 0.288320 0.000000
1.000000 0.400878 0.074356
1.000000 0.504538 0.125555
1.000000 0.603526 0.179552
1.000000 0.694696 0.246337
1.000000 0.767666 0.337029
1.000000 0.823256 0.432876
1.000000 0.866799 0.528941
1.000000 0.899424 0.624092
1.000000 0.925504 0.712111
1.000000 0.945814 0.781863
0.000000 0.078529 0.000000
0.000000 0.080729 0.000000
0.000000 0.082890 0.000000
0.000000 0.084612 0.000000
0.000000 0.085419 0.000000
0.039953 0.085457 0.000000
0.087215 0.084828 0.000000
0.128010 0.083059 0.000000
0.171871 0.079223 0.000000
0.220959 0.071620 0.000000
0.273563 0.056668 0.000000
0.329185 0.000000 0.000000
0.393183 0.000000 0.000000
0.468870 0.000000 0.000000
0.556212 0.000000 0.000000
0.650056 0.000000 0.000000
0.747120 0.000000 0.000000
0.844662 0.000000 0.000000
0.930432 0.000000 0.000000
0.996624 0.000000 0.000000
1.000000 0.000000 0.000000
1.000000 0.174630 0.000000
1.000000 0.303719 0.000000
1.000000 0.410784 0.068497
1.000000 0.511438 0.123121
1.000000 0.608434 0.178339
1.000000 0.697824 0.245034
1.000000 0.769458 0.336342
1.000000 0.824310 0.432482
1.000000 0.867397 0.528702
1.000000 0.899774 0.623938
1.000000 0.925713 0.712018
1.000000 0.945936 0.781811
0.000000 0.108141 0.000000
0.000000 0.110001 0.000000
0.000000 0.111846 0.000000
0.000000 0.112918 0.000000
0.000000 0.113595 0.000000
0.000000 0.113817 0.000000
0.073552 0.113630 0.000000
0.121060 0.112789 0.000000
0.167892 0.110738 0.000000
0.219204 0.106604 0.000000
0.273120 0.098719 0.000000
0.330701 0.085620 0.000000
0.395730 0.059966 0.000000
0.471715 0.000000 0.000000
0.558583 0.000000 0.000000
0.651641 0.000000 0.000000
0.748001 0.000000 0.000000
0.844919 0.000000 0.000000
0.930067 0.000000 0.000000
0.995816 0.000000 0.000000
1.000000 0.000000 0.000000
1.000000 0.207268 0.000000
1.000000 0.321260 0.000000
1.000000 0.422465 0.060224
1.000000 0.519681 0.120067
1.000000 0.614341 0.176851
1.000000 0.701578 0.243441
1.000000 0.771614 0.335504
1.000000 0.825585 0.432001
1.000000 0.868123 0.528409
1.000000 0.900200 0.623749
1.000000 0.925968 0.711905
1.000000 0.946085 0.781748
0.000000 0.142277 0.000000
0.000000 0.143901 0.000000
0.000000 0.145205 0.000000
0.000000 0.145998 0.000000
0.000000 0.146562 0.000000
0.000000 0.146860 0.000000
0.027753 0.146917 0.000000
0.106941 0.146588 0.000000
0.160054 0.145513 0.000000
0.214326 0.142782 0.000000
0.270600 0.137373 0.000000
0.331222 0.129453 0.000000
0.398420 0.117311 0.000000
0.475283 0.095914 0.000000
0.561706 0.044567 0.000000
0.653789 0.000000 0.000000
0.749212 0.000000 0.000000
0.845257 0.000000 0.000000
0.929543 0.000000 0.000000
0.994676 0.000000 0.000000
1.000000 0.123542 0.000000
1.000000 0.243022 0.000000
1.000000 0.342853 0.000000
1.000000 0.437360 0.045811
1.000000 0.530355 0.115851
1.000000 0.622057 0.174859
1.000000 0.706443 0.242249
1.000000 0.774428 0.334393
1.000000 0.827266 0.431360
1.000000 0.869081 0.528019
1.000000 0.900766 0.623497
1.000000 0.926306 0.711753
1.000000 0.946284 0.781664
0.000000 0.182609 0.000000
0.000000 0.183941 0.000000
0.000000 0.184631 0.000000
0.000000 0.185336 0.000000
0.000000 0.185814 0.000000
0.000000 0.186134 0.000000
0.000000 0.186324 0.000000
0.072167 0.186287 0.000000
0.143808 0.185037 0.000000
0.203786 0.182727 0.000000
0.264466 0.179088 0.000000
0.329133 0.173664 0.000000
0.400144 0.165636 0.000000
0.479260 0.153469 0.000000
0.565700 0.136111 0.000000
0.656683 0.110261 0.000000
0.750872 0.064971 0.000000
0.845700 0.000000 0.000000
0.928766 0.000000 0.000000
0.993047 0.104244 0.000000
1.000000 0.194783 0.000000
1.000000 0.282413 0.000000
1.000000 0.369072 0.000000
1.000000 0.456131 0.000000
1.000000 0.544047 0.109943
1.000000 0.632037 0.172206
1.000000 0.712707 0.241354
1.000000 0.778072 0.332920
1.000000 0.829466 0.430509
1.000000 0.870340 0.527499
1.000000 0.901515 0.623161
1.000000 0.926755 0.711551
1.000000 0.946547 0.781552
0.000000 0.228896 0.000000
0.000000 0.229267 0.000000
0.000000 0.229628 0.000000
0.000000 0.229940 0.000000
0.000000 0.230113 0.000000
0.000000 0.230155 0.000000
0.000000 0.230070 0.000000
0.000000 0.229750 0.000000
0.109701 0.229009 0.000000
0.185395 0.227577 0.000000
0.252924 0.225159 0.000000
0.322840 0.221326 0.000000
0.398929 0.215472 0.000000
0.482386 0.206886 0.000000
0.570263 0.196785 0.000000
0.660387 0.184533 0.000000
0.753092 0.170763 0.000000
0.846225 0.159200 0.000000
0.927583 0.165553 0.000000
0.990696 0.200643 0.000000
1.000000 0.256855 0.000000
1.000000 0.325769 0.000000
1.000000 0.400473 0.000000
1.000000 0.479437 0.000000
1.000000 0.561412 0.101456
1.000000 0.644687 0.168733
1.000000 0.720691 0.240239
1.000000 0.782740 0.330977
1.000000 0.832331 0.429378
1.000000 0.871984 0.526808
1.000000 0.902502 0.622712
1.000000 0.927348 0.711281
1.000000 0.946897 0.781401
0.000000 0.278636 0.000000
0.000000 0.279010 0.000000
0.000000 0.279379 0.000000
0.000000 0.279666 0.000000
0.000000 0.279864 0.000000
0.000000 0.279977 0.000000
0.000000 0.280018 0.000000
0.000000 0.279924 0.000000
0.000000 0.279557 0.000000
0.150867 0.278737 0.000000
0.232703 0.277229 0.000000
0.310159 0.274634 0.000000
0.392599 0.270381 0.000000
0.482481 0.264347 0.000000
0.573809 0.257510 0.000000
0.664394 0.250503 0.000000
0.755744 0.244248 0.000000
0.846695 0.241212 0.000000
0.925735 0.249611 0.000000
0.987254 0.276002 0.000000
1.000000 0.318711 0.000000
1.000000 0.373689 0.000000
1.000000 0.437523 0.000000
1.000000 0.507926 0.000000
1.000000 0.583115 0.088673
1.000000 0.660424 0.164251
1.000000 0.730719 0.238894
1.000000 0.788694 0.328408
1.000000 0.836021 0.427881
1.000000 0.874113 0.525891
1.000000 0.903797 0.622114
1.000000 0.928129 0.710920
1.000000 0.947360 0.781201
0.000000 0.337794 0.000000
0.000000 0.338157 0.000000
0.000000 0.338492 0.000000
0.000000 0.338766 0.000000
0.000000 0.338969 0.000000
0.000000 0.339120 0.000000
0.000000 0.339236 0.000000
0.000000 0.339283 0.000000
0.000000 0.339169 0.000000
0.000000 0.338781 0.000000
0.194742 0.337945 0.000000
0.287082 0.336348 0.000000
0.378552 0.333725 0.000000
0.476016 0.329810 0.000000
0.572720 0.325015 0.000000
0.666692 0.320519 0.000000
0.758076 0.317754 0.000000
0.846671 0.318629 0.000000
0.922776 0.328083 0.000000
0.982390 0.349282 0.000000
1.000000 0.382227 0.000000
1.000000 0.426626 0.000000
1.000000 0.480521 0.000000
1.000000 0.542131 0.000000
1.000000 0.609804 0.066990
1.000000 0.679581 0.158574
1.000000 0.743067 0.237352
1.000000 0.796214 0.325017
1.000000 0.840721 0.425906
1.000000 0.876842 0.524677
1.000000 0.905486 0.621318
1.000000 0.929152 0.710439
1.000000 0.947971 0.780932
0.000000 0.408678 0.000000
0.000000 0.409012 0.000000
0.000000 0.409305 0.000000
0.000000 0.409545 0.000000
0.000000 0.409745 0.000000
0.000000 0.409907 0.000000
0.000000 0.410058 0.000000
0.000000 0.410181 0.000000
0.000000 0.410281 0.000000
0.000000 0.410370 0.000000
0.090514 0.410251 0.000000
0.244469 0.409702 0.000000
0.352779 0.408327 0.000000
0.459590 0.405685 0.000000
0.563348 0.402243 0.000000
0.663137 0.398873 0.000000
0.757987 0.396906 0.000000
0.845432 0.398322 0.000000
0.918582 0.406262 0.000000
0.976014 0.422967 0.000000
1.000000 0.448924 0.000000
1.000000 0.484741 0.000000
1.000000 0.529535 0.000000
1.000000 0.582372 0.000000
1.000000 0.641893 0.000000
1.000000 0.702267 0.151606
1.000000 0.757884 0.235732
1.000000 0.805512 0.323398
1.000000 0.846617 0.423310
1.000000 0.880293 0.523075
1.000000 0.907669 0.620260
1.000000 0.930483 0.709799
1.000000 0.948772 0.780575
0.000000 0.490001 0.000000
0.000000 0.490268 0.000000
0.000000 0.490499 0.000000
0.000000 0.490701 0.000000
0.000000 0.490874 0.000000
0.000000 0.491023 0.000000
0.000000 0.491171 0.000000
0.000000 0.491313 0.000000
0.000000 0.491425 0.000000
0.000000 0.491461 0.000000
0.000000 0.491332 0.000000
0.153272 0.490851 0.000000
0.310059 0.489715 0.000000
0.432041 0.487628 0.000000
0.544484 0.484776 0.000000
0.651604 0.481620 0.000000
0.752506 0.479214 0.000000
0.841711 0.479665 0.000000
0.912710 0.485775 0.000000
0.967844 0.498829 0.000000
1.000000 0.519199 0.000000
1.000000 0.547775 0.000000
1.000000 0.584362 0.000000
1.000000 0.628668 0.000000
1.000000 0.678228 0.000000
1.000000 0.728217 0.143517
1.000000 0.775076 0.234314
1.000000 0.816769 0.323994
1.000000 0.853866 0.419911
1.000000 0.884631 0.520961
1.000000 0.910462 0.618856
1.000000 0.932198 0.708946
1.000000 0.949816 0.780097
0.000000 0.575395 0.000000
0.000000 0.575552 0.000000
0.000000 0.575686 0.000000
0.000000 0.575800 0.000000
0.000000 0.575893 0.000000
0.000000 0.575967 0.000000
0.000000 0.576033 0.000000
0.000000 0.576088 0.000000
0.000000 0.576108 0.000000
0.000000 0.576052 0.000000
0.000000 0.575837 0.000000
0.000000 0.575310 0.000000
0.238853 0.574219 0.000000
0.392117 0.572403 0.000000
0.516242 0.569948 0.000000
0.631216 0.567001 0.000000
0.739241 0.564193 0.000000
0.832310 0.563475 0.000000
0.903757 0.567356 0.000000
0.957449 0.577048 0.000000
1.000000 0.592728 0.000000
1.000000 0.615143 0.000000
1.000000 0.644349 0.000000
1.000000 0.679066 0.000000
1.000000 0.717304 0.000000
1.000000 0.756664 0.135121
1.000000 0.794349 0.233586
1.000000 0.830066 0.325180
1.000000 0.862547 0.416371
1.000000 0.890034 0.518173
1.000000 0.913983 0.616997
1.000000 0.934383 0.707813
1.000000 0.951166 0.779461
0.000000 0.662288 0.000000
0.000000 0.662356 0.000000
0.000000 0.662407 0.000000
0.000000 0.662443 0.000000
0.000000 0.662465 0.000000
0.000000 0.662475 0.000000
0.000000 0.662474 0.000000
0.000000 0.662448 0.000000
0.000000 0.662375 0.000000
0.000000 0.662214 0.000000
0.000000 0.661883 0.000000
0.000000 0.661253 0.000000
0.000000 0.660116 0.000000
0.335117 0.658413 0.000000
0.478903 0.656149 0.000000
0.602839 0.653396 0.000000
0.717632 0.650438 0.000000
0.815278 0.648834 0.000000
0.889138 0.650696 0.000000
0.943795 0.657107 0.000000
0.985518 0.668294 0.000000
1.000000 0.684366 0.000000
1.000000 0.704887 0.000000
1.000000 0.729472 0.000000
1.000000 0.757141 0.000000
1.000000 0.786172 0.128576
1.000000 0.815804 0.234069
1.000000 0.845238 0.327364
1.000000 0.872558 0.418756
1.000000 0.896627 0.514506
1.000000 0.918345 0.614542
1.000000 0.937123 0.706310
1.000000 0.952894 0.778615
0.000000 0.746909 0.000000
0.000000 0.746890 0.000000
0.000000 0.746862 0.000000
0.000000 0.746824 0.000000
0.000000 0.746778 0.000000
0.000000 0.746724 0.000000
0.000000 0.746646 0.000000
0.000000 0.746526 0.000000
0.000000 0.746335 0.000000
0.000000 0.746024 0.000000
0.000000 0.745517 0.000000
0.000000 0.744687 0.000000
0.000000 0.743383 0.000000
0.254483 0.741571 0.000000
0.434419 0.739188 0.000000
0.570302 0.736243 0.000000
0.691052 0.732894 0.000000
0.792311 0.730238 0.000000
0.869346 0.729755 0.000000
0.927021 0.732227 0.000000
0.969970 0.738159 0.000000
1.000000 0.747819 0.000000
1.000000 0.760756 0.000000
1.000000 0.776732 0.000000
1.000000 0.795183 0.000000
1.000000 0.816092 0.126719
1.000000 0.838758 0.236816
1.000000 0.861825 0.331159
1.000000 0.883734 0.422334
1.000000 0.904446 0.512687
1.000000 0.923630 0.611306
1.000000 0.940494 0.704319
1.000000 0.955072 0.777490
0.000000 0.817435 0.000000
0.000000 0.817342 0.000000
0.000000 0.817243 0.000000
0.000000 0.817137 0.000000
0.000000 0.817026 0.000000
0.000000 0.816907 0.000000
0.000000 0.816753 0.000000
0.000000 0.816531 0.000000
0.000000 0.816209 0.000000
0.000000 0.815734 0.000000
0.000000 0.815024 0.000000
0.000000 0.813960 0.000000
0.000000 0.812470 0.000000
0.163804 0.810462 0.000000
0.398473 0.807846 0.000000
0.544735 0.804586 0.000000
0.669086 0.800797 0.000000
0.770811 0.797379 0.000000
0.849246 0.795278 0.000000
0.909718 0.794954 0.000000
0.954772 0.796921 0.000000
0.987598 0.801541 0.000000
1.000000 0.808817 0.000000
1.000000 0.818740 0.000000
1.000000 0.831153 0.000000
1.000000 0.845772 0.133054
1.000000 0.862051 0.243344
1.000000 0.879037 0.337412
1.000000 0.896147 0.427550
1.000000 0.913420 0.516860
1.000000 0.929857 0.607053
1.000000 0.944576 0.701681
1.000000 0.957772 0.775995
0.000000 0.871029 0.000000
0.000000 0.870883 0.000000
0.000000 0.870731 0.000000
0.000000 0.870573 0.000000
0.000000 0.870410 0.000000
0.000000 0.870240 0.000000
0.000000 0.870025 0.000000
0.000000 0.869726 0.000000
0.000000 0.869303 0.000000
0.000000 0.868702 0.000000
0.000000 0.867849 0.000000
0.000000 0.866680 0.000000
0.000000 0.865104 0.000000
0.130350 0.863015 0.000000
0.387534 0.860320 0.000000
0.535061 0.856958 0.000000
0.657374 0.853079 0.000000
0.756039 0.849436 0.000000
0.832709 0.846696 0.000000
0.893880 0.845060 0.000000
0.940320 0.844997 0.000000
0.974939 0.846783 0.000000
1.000000 0.850518 0.000000
1.000000 0.856331 0.000000
1.000000 0.864034 0.000000
1.000000 0.873444 0.150854
1.000000 0.884238 0.255479
1.000000 0.896345 0.347057
1.000000 0.909606 0.435034
1.000000 0.923404 0.522690
1.000000 0.936885 0.610338
1.000000 0.949431 0.698180
1.000000 0.961048 0.774010
0.000000 0.912513 0.000000
0.000000 0.912320 0.000000
0.000000 0.912122 0.000000
0.000000 0.911921 0.000000
0.000000 0.911714 0.000000
0.000000 0.911502 0.000000
0.000000 0.911237 0.000000
0.000000 0.910873 0.000000
0.000000 0.910382 0.000000
0.000000 0.909718 0.000000
0.000000 0.908823 0.000000
0.000000 0.907625 0.000000
0.000000 0.906032 0.000000
0.206755 0.903948 0.000000
0.406747 0.901279 0.000000
0.543734 0.897949 0.000000
0.656770 0.894222 0.000000
0.748697 0.890633 0.000000
0.821401 0.887650 0.000000
0.880898 0.885359 0.000000
0.927248 0.884100 0.000000
0.963303 0.884003 0.000000
0.991322 0.885208 0.000000
1.000000 0.887900 0.000000
1.000000 0.892127 0.000000
1.000000 0.897889 0.180197
1.000000 0.905162 0.274507
1.000000 0.913800 0.360994
1.000000 0.923567 0.445620
1.000000 0.934042 0.530790
1.000000 0.944586 0.616490
1.000000 0.954996 0.698563
1.000000 0.964913 0.771374
0.000000 0.942599 0.000000
0.000000 0.942375 0.000000
0.000000 0.942150 0.000000
0.000000 0.941924 0.000000
0.000000 0.941698 0.000000
0.000000 0.941471 0.000000
0.000000 0.941191 0.000000
0.000000 0.940817 0.000000
0.000000 0.940315 0.000000
0.000000 0.939646 0.000000
0.000000 0.938754 0.000000
0.000000 0.937572 0.000000
0.000000 0.936022 0.000000
0.316478 0.934010 0.000000
0.456191 0.931446 0.000000
0.571345 0.928317 0.000000
0.668795 0.924928 0.000000
0.750175 0.921622 0.000000
0.816900 0.918691 0.000000
0.872920 0.916210 0.000000
0.917293 0.914476 0.000000
0.953412 0.913490 0.000000
0.982208 0.913402 0.000000
1.000000 0.914430 0.000000
1.000000 0.916648 0.112712
1.000000 0.920120 0.218262
1.000000 0.924794 0.301072
1.000000 0.930574 0.380385
1.000000 0.937338 0.460292
1.000000 0.944847 0.541920
1.000000 0.952882 0.624848
1.000000 0.961159 0.704013
1.000000 0.969307 0.770205
0.000000 0.965404 0.000000
0.000000 0.965181 0.000000
0.000000 0.964957 0.000000
0.000000 0.964734 0.000000
0.000000 0.964512 0.000000
0.000000 0.964289 0.000000
0.000000 0.964015 0.000000
0.000000 0.963651 0.000000
0.000000 0.963167 0.000000
0.000000 0.962524 0.000000
0.000000 0.961674 0.000000
0.161265 0.960556 0.000000
0.316941 0.959097 0.000000
0.426143 0.957216 0.000000
0.523495 0.954857 0.000000
0.611476 0.952137 0.000000
0.690402 0.949215 0.000000
0.758625 0.946345 0.000000
0.818123 0.943625 0.000000
0.869119 0.941208 0.000000
0.910456 0.939329 0.000000
0.945280 0.937935 0.000000
0.973876 0.937136 0.000000
0.996223 0.937086 0.042731
1.000000 0.937869 0.184799
1.000000 0.939599 0.263439
1.000000 0.942285 0.335014
1.000000 0.945850 0.406220
1.000000 0.950315 0.480061
1.000000 0.955608 0.556922
1.000000 0.961489 0.636095
1.000000 0.967739 0.711237
1.000000 0.974090 0.774426
0.000000 0.981811 0.000000
0.000000 0.981601 0.000000
0.000000 0.981391 0.000000
0.000000 0.981183 0.000000
0.000000 0.980975 0.000000
0.000000 0.980767 0.000000
0.094537 0.980513 0.000000
0.175646 0.980175 0.000000
0.235772 0.979726 0.000000
0.291950 0.979133 0.000000
0.348421 0.978351 0.000000
0.407140 0.977327 0.000000
0.468837 0.976002 0.000000
0.532209 0.974364 0.000000
0.596279 0.972410 0.000000
0.659441 0.970182 0.000000
0.719279 0.967797 0.000000
0.774253 0.965378 0.000000
0.825144 0.962963 0.000000
0.869750 0.960747 0.000000
0.907241 0.958884 0.000000
0.939954 0.957326 0.000000
0.967268 0.956188 0.078063
0.989440 0.955544 0.178170
1.000000 0.955462 0.248116
1.000000 0.956075 0.312804
1.000000 0.957442 0.375352
1.000000 0.959568 0.438821
1.000000 0.962427 0.505735
1.000000 0.965958 0.576709
1.000000 0.970000 0.650841
1.000000 0.974440 0.720682
1.000000 0.979104 0.779963
0.396100 0.993185 0.000000
0.406069 0.992998 0.000000
0.415636 0.992812 0.000000
0.424822 0.992628 0.000000
0.433653 0.992445 0.000000
0.442215 0.992264 0.000000
0.452300 0.992043 0.000000
0.465138 0.991752 0.000000
0.481271 0.991370 0.000000
0.501235 0.990872 0.000000
0.525488 0.990229 0.000000
0.554319 0.989409 0.000000
0.587763 0.988380 0.000000
0.625433 0.987121 0.000000
0.666407 0.985627 0.000000
0.709106 0.983935 0.050662
0.752182 0.982085 0.073151
0.795462 0.980087 0.093626
0.836864 0.978053 0.114398
0.874083 0.976146 0.136505
0.907337 0.974406 0.160603
0.937171 0.972854 0.187291
0.962587 0.971607 0.217251
0.983803 0.970693 0.260901
1.000000 0.970150 0.311542
1.000000 0.970088 0.364754
1.000000 0.970561 0.420144
1.000000 0.971610 0.477574
1.000000 0.973251 0.537760
1.000000 0.975413 0.602104
1.000000 0.977979 0.669552
1.000000 0.980912 0.732782
1.000000 0.984205 0.787097
0.585386 1.000000 0.242421
0.589598 1.000000 0.242580
0.593725 1.000000 0.242740
0.597769 1.000000 0.242900
0.601732 1.000000 0.243060
0.605643 1.000000 0.243221
0.610334 0.999955 0.243419
0.616437 0.999749 0.243684
0.624307 0.999479 0.244040
0.634343 0.999128 0.244518
0.646956 0.998676 0.245159
0.662520 0.998100 0.246021
0.681282 0.997382 0.247182
0.703238 0.996506 0.248744
0.728382 0.995456 0.250847
0.756835 0.994207 0.253663
0.787832 0.992773 0.257419
0.820095 0.991202 0.262407
0.851904 0.989578 0.268990
0.881843 0.987993 0.277595
0.910511 0.986430 0.288693
0.936851 0.984976 0.302827
0.959825 0.983727 0.320579
0.979728 0.982701 0.342547
0.996317 0.981930 0.377162
1.000000 0.981477 0.420532
1.000000 0.981378 0.468850
1.000000 0.981684 0.520819
1.000000 0.982442 0.575628
1.000000 0.983618 0.633489
1.000000 0.985140 0.692432
1.000000 0.987010 0.747828
1.000000 0.989208 0.796237
0.702208 1.000000 0.362861
0.704263 1.000000 0.362962
0.706293 1.000000 0.363063
0.708298 1.000000 0.363163
0.710280 1.000000 0.363264
0.712252 1.000000 0.363366
0.714638 1.000000 0.363490
0.717777 1.000000 0.363657
0.721885 1.000000 0.363881
0.727223 1.000000 0.364180
0.734092 1.000000 0.364581
0.742827 1.000000 0.365119
0.753772 1.000000 0.365840
0.767215 1.000000 0.366808
0.783339 1.000000 0.368106
0.802097 1.000000 0.369847
0.823128 1.000000 0.372182
0.845668 0.999226 0.375308
0.868810 0.997999 0.379478
0.892702 0.996691 0.385003
0.916435 0.995356 0.392267
0.938829 0.994072 0.401758
0.959026 0.992907 0.414036
0.977129 0.991876 0.429731
0.992626 0.991036 0.449525
1.000000 0.990418 0.481348
1.000000 0.990029 0.521987
1.000000 0.989920 0.567899
1.000000 0.990138 0.617679
1.000000 0.990653 0.669209
1.000000 0.991449 0.718989
1.000000 0.992518 0.765761
1.000000 0.993848 0.807709
0.782636 1.000000 0.468369
0.783773 1.000000 0.468440
0.784899 1.000000 0.468511
0.786015 1.000000 0.468583
0.787121 1.000000 0.468654
0.788224 1.000000 0.468726
0.789562 1.000000 0.468815
0.791330 1.000000 0.468933
0.793653 1.000000 0.469091
0.796689 1.000000 0.469303
0.800628 1.000000 0.469587
0.805688 1.000000 0.469967
0.812102 1.000000 0.470477
0.820099 1.000000 0.471159
0.829857 1.000000 0.472075
0.841439 1.000000 0.473302
0.854785 1.000000 0.474947
0.870113 1.000000 0.477145
0.887220 1.000000 0.480077
0.905556 1.000000 0.483978
0.924320 1.000000 0.489147
0.942551 1.000000 0.495960
0.959859 0.999827 0.504876
0.975832 0.998862 0.516435
0.989805 0.998025 0.531261
1.000000 0.997357 0.550030
1.000000 0.996835 0.580353
1.000000 0.996494 0.619233
1.000000 0.996376 0.662483
