software/Premiere/untitled folder/ARRILogC3_to_ACES-Rec709_v4.cube
TITLE "Generated by Foundry::LUT"
LUT_3D_SIZE 33
0.093955 0.093955 0.093955
0.093955 0.093955 0.093955
0.093955 0.093955 0.093955
0.093955 0.093955 0.093955
0.093955 0.093955 0.093955
0.093955 0.093955 0.093955
0.093955 0.093955 0.093955
0.093955 0.093955 0.093955
0.093955 0.093955 0.093955
0.093955 0.093955 0.093955
0.093955 0.093955 0.093955
0.093955 0.093955 0.093955
0.093955 0.093955 0.093955
0.342521 0.067432 0.087163
0.402504 0.046829 0.082578
0.468246 0.006167 0.073531
0.541265 -0.080334 0.054284
0.574696 -0.144377 0.040034
0.568997 0.543855 0.498755
0.570450 0.570061 0.567663
0.570631 0.570631 0.570631
0.570631 0.570631 0.570631
0.570631 0.570631 0.570631
0.570631 0.570631 0.570631
0.570631 0.570631 0.570631
0.093955 0.093955 0.093955
0.093955 0.093955 0.093955
0.092809 0.092809 0.092809
0.092809 0.092809 0.092809
0.092809 0.092809 0.092809
0.092809 0.092809 0.092809
0.092809 0.092809 0.092809
0.092809 0.092809 0.092809
0.093955 0.093955 0.093955
0.093955 0.093955 0.093955
0.093955 0.093955 0.093955
0.093955 0.093955 0.093955
0.093955 0.093955 0.093955
0.093955 0.093955 0.093955
0.093955 0.093955 0.093955
0.093955 0.093955 0.093955
0.093955 0.093955 0.093955
0.093955 0.093955 0.093955
0.093955 0.093955 0.093955
0.093955 0.093955 0.093955
0.147061 0.090502 0.092296
0.343411 0.067202 0.087112
0.403625 0.046324 0.082466
0.468974 0.005564 0.073397
0.541605 -0.080890 0.054160
0.574012 0.167553 0.059984
0.568998 0.544032 0.499150
0.570451 0.570066 0.567690
0.570631 0.570631 0.570631
0.570631 0.570631 0.570631
0.570631 0.570631 0.570631
0.570631 0.570631 0.570631
0.570631 0.570631 0.570631
0.093955 0.093955 0.093955
0.093955 0.093955 0.093955
0.092809 0.092809 0.092809
0.092809 0.092809 0.092809
0.092809 0.092809 0.092809
0.092809 0.092809 0.092809
0.092809 0.092809 0.092809
0.092809 0.092809 0.092809
0.093955 0.093955 0.093955
0.093955 0.093955 0.093955
0.093955 0.093955 0.093955
0.093955 0.093955 0.093955
0.093955 0.093955 0.093955
0.093955 0.093955 0.093955
0.093955 0.093955 0.093955
0.093955 0.093955 0.093955
0.093955 0.093955 0.093955
0.093955 0.093955 0.093955
0.093955 0.093955 0.093955
0.093955 0.093955 0.093955
0.192074 0.088179 0.091779
0.344210 0.066995 0.087065
0.404751 0.045811 0.082352
0.469706 0.004952 0.073261
0.541943 -0.081445 0.054037
0.573723 0.243998 0.068363
0.568999 0.544208 0.499545
0.570453 0.570071 0.567717
0.570631 0.570631 0.570631
0.570631 0.570631 0.570631
0.570631 0.570631 0.570631
0.570631 0.570631 0.570631
0.570631 0.570631 0.570631
0.093955 0.093955 0.093955
0.093955 0.093955 0.093955
0.092809 0.092809 0.092809
0.092809 0.092809 0.092809
0.092809 0.092809 0.092809
0.092809 0.092809 0.092809
0.092809 0.092809 0.092809
0.092809 0.092809 0.092809
0.093955 0.093955 0.093955
0.093955 0.093955 0.093955
0.093955 0.093955 0.093955
0.093955 0.093955 0.093955
0.093955 0.093955 0.093955
0.093955 0.093955 0.093955
0.093955 0.093955 0.093955
0.093955 0.093955 0.093955
0.093955 0.093955 0.093955
0.093955 0.093955 0.093955
0.093955 0.093955 0.093955
0.093955 0.093955 0.093955
0.216353 0.086459 0.091396
0.344978 0.066794 0.087021
0.405882 0.045291 0.082236
0.470276 0.004473 0.073154
0.542280 -0.081999 0.053913
0.573519 0.276965 0.074276
0.569000 0.544382 0.499938
0.570455 0.570076 0.567744
0.570631 0.570631 0.570631
0.570631 0.570631 0.570631
0.570631 0.570631 0.570631
0.570631 0.570631 0.570631
0.570631 0.570631 0.570631
0.093955 0.093955 0.093955
0.093955 0.093955 0.093955
0.092809 0.092809 0.092809
0.092809 0.092809 0.092809
0.092809 0.092809 0.092809
0.092809 0.092809 0.092809
0.092809 0.092809 0.092809
0.092809 0.092809 0.092809
0.093955 0.093955 0.093955
0.093955 0.093955 0.093955
0.093955 0.093955 0.093955
0.093955 0.093955 0.093955
0.093955 0.093955 0.093955
0.093955 0.093955 0.093955
0.093955 0.093955 0.093955
0.093955 0.093955 0.093955
0.093955 0.093955 0.093955
0.093955 0.093955 0.093955
0.093955 0.093955 0.093955
0.093955 0.093955 0.093955
0.232727 0.085059 0.091085
0.345762 0.066588 0.086975
0.407020 0.044762 0.082118
0.470838 0.003998 0.073048
0.542615 -0.082552 0.053790
0.573352 0.297841 0.079076
0.569001 0.544555 0.500330
0.570456 0.570081 0.567770
0.570631 0.570631 0.570631
0.570631 0.570631 0.570631
0.570631 0.570631 0.570631
0.570631 0.570631 0.570631
0.570631 0.570631 0.570631
0.093955 0.093955 0.093955
0.093955 0.093955 0.093955
0.092809 0.092809 0.092809
0.092809 0.092809 0.092809
0.092809 0.092809 0.092809
0.092809 0.092809 0.092809
0.092809 0.092809 0.092809
0.092809 0.092809 0.092809
0.093955 0.093955 0.093955
0.093955 0.093955 0.093955
0.093955 0.093955 0.093955
0.093955 0.093955 0.093955
0.093955 0.093955 0.093955
0.093955 0.093955 0.093955
0.093955 0.093955 0.093955
0.093955 0.093955 0.093955
0.093955 0.093955 0.093955
0.093955 0.093955 0.093955
0.093955 0.093955 0.093955
0.093955 0.093955 0.093955
0.244111 0.083951 0.090838
0.346610 0.066363 0.086925
0.408169 0.044221 0.081998
0.471409 0.003513 0.072940
0.542950 -0.083107 0.053667
0.573208 0.313146 0.083238
0.569002 0.544728 0.500723
0.570458 0.570086 0.567797
0.570631 0.570631 0.570631
0.570631 0.570631 0.570631
0.570631 0.570631 0.570631
0.570631 0.570631 0.570631
0.570631 0.570631 0.570631
0.093955 0.093955 0.093955
0.093955 0.093955 0.093955
0.092809 0.092809 0.092809
0.092809 0.092809 0.092809
0.092809 0.092809 0.092809
0.092809 0.092809 0.092809
0.092809 0.092809 0.092809
0.092809 0.092809 0.092809
0.093955 0.093955 0.093955
0.093955 0.093955 0.093955
0.093955 0.093955 0.093955
0.093955 0.093955 0.093955
0.093955 0.093955 0.093955
0.093955 0.093955 0.093955
0.093955 0.093955 0.093955
0.093955 0.093955 0.093955
0.093955 0.093955 0.093955
0.093955 0.093955 0.093955
0.093955 0.093955 0.093955
0.093955 0.093955 0.093955
0.254500 0.082833 0.090590
0.347771 0.066052 0.086856
0.409582 0.043549 0.081849
0.472120 0.002906 0.072805
0.543359 -0.083787 0.053516
0.573052 0.327546 0.087735
0.569004 0.544938 0.501204
0.570460 0.570092 0.567829
0.570631 0.570631 0.570631
0.570631 0.570631 0.570631
0.570631 0.570631 0.570631
0.570631 0.570631 0.570631
0.570631 0.570631 0.570631
0.093955 0.093955 0.093955
0.093955 0.093955 0.093955
0.092809 0.092809 0.092809
0.092809 0.092809 0.092809
0.092809 0.092809 0.092809
0.092809 0.092809 0.092809
0.092809 0.092809 0.092809
0.092809 0.092809 0.092809
0.093955 0.093955 0.093955
0.093955 0.093955 0.093955
0.093955 0.093955 0.093955
0.093955 0.093955 0.093955
0.093955 0.093955 0.093955
0.093955 0.093955 0.093955
0.093955 0.093955 0.093955
0.093955 0.093955 0.093955
0.093955 0.093955 0.093955
0.093955 0.093955 0.093955
0.093955 0.093955 0.093955
0.093955 0.093955 0.093955
0.265574 0.081516 0.090296
0.349590 0.065558 0.086746
0.411476 0.042634 0.081645
0.473075 0.002083 0.072622
0.543903 -0.084694 0.053314
0.572868 0.342364 0.093037
0.569006 0.545215 0.501845
0.570462 0.570100 0.567872
0.570631 0.570631 0.570631
0.570631 0.570631 0.570631
0.570631 0.570631 0.570631
0.570631 0.570631 0.570631
0.570631 0.570631 0.570631
0.093955 0.093955 0.093955
0.093955 0.093955 0.093955
0.092809 0.092809 0.092809
0.092809 0.092809 0.092809
0.092809 0.092809 0.092809
0.092809 0.092809 0.092809
0.092809 0.092809 0.092809
0.092809 0.092809 0.092809
0.093955 0.093955 0.093955
0.093955 0.093955 0.093955
0.093955 0.093955 0.093955
0.093955 0.093955 0.093955
0.093955 0.093955 0.093955
0.093955 0.093955 0.093955
0.093955 0.093955 0.093955
0.093955 0.093955 0.093955
0.093955 0.093955 0.093955
0.093955 0.093955 0.093955
0.093955 0.093955 0.093955
0.093955 0.093955 0.093955
0.277516 0.079934 0.089944
0.352529 0.064742 0.086564
0.413321 0.041727 0.081443
0.474310 0.001009 0.072383
0.544622 -0.085901 0.053045
0.572650 0.357518 0.099272
0.569010 0.545580 0.502697
0.570466 0.570111 0.567929
0.570631 0.570631 0.570631
0.570631 0.570631 0.570631
0.570631 0.570631 0.570631
0.570631 0.570631 0.570631
0.570631 0.570631 0.570631
0.093955 0.093955 0.093955
0.093955 0.093955 0.093955
0.092809 0.092809 0.092809
0.092809 0.092809 0.092809
0.092809 0.092809 0.092809
0.092809 0.092809 0.092809
0.092809 0.092809 0.092809
0.092809 0.092809 0.092809
0.093955 0.093955 0.093955
0.093955 0.093955 0.093955
0.093955 0.093955 0.093955
0.093955 0.093955 0.093955
0.093955 0.093955 0.093955
0.093955 0.093955 0.093955
0.093955 0.093955 0.093955
0.093955 0.093955 0.093955
0.093955 0.093955 0.093955
0.093955 0.093955 0.093955
0.093955 0.093955 0.093955
0.093955 0.093955 0.093955
0.289148 0.078215 0.089562
0.355388 0.063926 0.086383
0.415366 0.040703 0.081215
0.475951 -0.000438 0.072061
0.545572 -0.087508 0.052688
0.572395 0.372958 0.106597
0.569016 0.546059 0.503828
0.570470 0.570125 0.568003
0.570631 0.570631 0.570631
0.570631 0.570631 0.570631
0.570631 0.570631 0.570631
0.570631 0.570631 0.570631
0.570631 0.570631 0.570631
0.093955 0.093955 0.093955
0.093955 0.093955 0.093955
0.092809 0.092809 0.092809
0.092809 0.092809 0.092809
0.092809 0.092809 0.092809
0.092809 0.092809 0.092809
0.092809 0.092809 0.092809
0.092809 0.092809 0.092809
0.088611 0.129598 0.095150
0.087315 0.140953 0.095873
0.086127 0.151352 0.096536
0.085018 0.160517 0.097154
0.083969 0.168518 0.097739
0.082961 0.175680 0.098301
0.081779 0.183518 0.098960
0.080267 0.192772 0.099803
0.078349 0.203469 0.100873
0.076128 0.214656 0.102111
0.073598 0.226122 0.103522
0.071147 0.236169 0.104888
0.282040 0.232881 0.102127
0.353363 0.214670 0.097481
0.417640 0.039542 0.080957
0.478101 -0.002368 0.071632
0.546820 -0.089641 0.052213
0.572096 0.388546 0.115144
0.569026 0.546682 0.505327
0.570476 0.570144 0.568101
0.570631 0.570631 0.570631
0.570631 0.570631 0.570631
0.570631 0.570631 0.570631
0.570631 0.570631 0.570631
0.570631 0.570631 0.570631
0.093955 0.093955 0.093955
0.093955 0.093955 0.093955
0.092809 0.092809 0.092809
0.092809 0.092809 0.092809
0.092809 0.092809 0.092809
0.092809 0.092809 0.092809
0.092809 0.092809 0.092809
0.092809 0.092809 0.092809
0.059696 0.273626 0.111273
0.059331 0.274631 0.111477
0.058966 0.275623 0.111681
0.058603 0.276603 0.111883
0.058241 0.277570 0.112085
0.057878 0.278532 0.112287
0.057435 0.279695 0.112535
0.056844 0.281226 0.112864
0.056059 0.283228 0.113302
0.055016 0.285830 0.113883
0.053698 0.289030 0.114618
0.052515 0.291825 0.115278
0.258907 0.290513 0.113023
0.350142 0.285666 0.109215
0.417323 0.260832 0.100165
0.480922 -0.004959 0.071055
0.548453 -0.092470 0.051583
0.571738 0.404581 0.125329
0.569040 0.547494 0.507298
0.570484 0.570168 0.568227
0.570631 0.570631 0.570631
0.570631 0.570631 0.570631
0.570631 0.570631 0.570631
0.570631 0.570631 0.570631
0.570631 0.570631 0.570631
0.093955 0.093955 0.093955
0.093955 0.093955 0.093955
0.092809 0.092809 0.092809
0.092809 0.092809 0.092809
0.092809 0.092809 0.092809
0.092809 0.092809 0.092809
0.092809 0.092809 0.092809
0.092809 0.092809 0.092809
0.035875 0.324935 0.124557
0.035553 0.325484 0.124736
0.035232 0.326029 0.124915
0.034912 0.326571 0.125094
0.034592 0.327110 0.125272
0.034270 0.327648 0.125452
0.033876 0.328304 0.125671
0.033351 0.329173 0.125964
0.032649 0.330321 0.126355
0.031787 0.331717 0.126836
0.030899 0.333135 0.127332
0.029804 0.334857 0.127942
0.028640 0.336659 0.128591
0.341361 0.333261 0.122951
0.417116 0.325456 0.115877
0.482783 0.276063 0.095653
0.550617 -0.096287 0.050734
0.571226 0.423959 0.139854
0.569058 0.548570 0.509859
0.570494 0.570199 0.568389
0.570631 0.570631 0.570631
0.570631 0.570631 0.570631
0.570631 0.570631 0.570631
0.570631 0.570631 0.570631
0.570631 0.570631 0.570631
0.093955 0.093955 0.093955
0.093955 0.093955 0.093955
0.092809 0.092809 0.092809
0.092809 0.092809 0.092809
0.092809 0.092809 0.092809
0.092809 0.092809 0.092809
0.092809 0.092809 0.092809
0.092809 0.092809 0.092809
-0.004927 0.378743 0.147308
-0.005265 0.379094 0.147497
-0.005604 0.379444 0.147686
-0.005943 0.379792 0.147875
-0.006254 0.380111 0.148048
-0.006521 0.380385 0.148197
-0.006849 0.380719 0.148380
-0.007288 0.381165 0.148625
-0.007876 0.381760 0.148953
-0.008663 0.382550 0.149391
-0.009704 0.383587 0.149972
-0.011006 0.384872 0.150694
-0.012606 0.386428 0.151573
0.261720 0.386117 0.148970
0.410304 0.382204 0.140593
0.485478 0.369831 0.125802
0.551649 0.324046 0.093402
0.570423 0.448560 0.161789
0.569076 0.550026 0.513133
0.570506 0.570238 0.568596
0.570631 0.570631 0.570631
0.570631 0.570631 0.570631
0.570631 0.570631 0.570631
0.570631 0.570631 0.570631
0.570631 0.570631 0.570631
0.093955 0.093955 0.093955
0.093955 0.093955 0.093955
0.092809 0.092809 0.092809
0.092809 0.092809 0.092809
0.092809 0.092809 0.092809
0.092809 0.092809 0.092809
0.092809 0.092809 0.092809
0.092809 0.092809 0.092809
-0.079669 0.437098 0.183167
-0.079997 0.437296 0.183301
-0.080326 0.437493 0.183435
-0.080655 0.437691 0.183569
-0.080985 0.437888 0.183703
-0.081317 0.438087 0.183838
-0.081725 0.438330 0.184003
-0.082265 0.438651 0.184222
-0.082988 0.439079 0.184513
-0.083950 0.439647 0.184900
-0.085225 0.440394 0.185411
-0.086920 0.441380 0.186086
-0.089181 0.442681 0.186981
-0.092168 0.444375 0.188151
0.351151 0.444097 0.183913
0.483534 0.440805 0.172620
0.552194 0.436767 0.156638
0.569053 0.480433 0.191435
0.569074 0.552103 0.517176
0.570522 0.570288 0.568855
0.570631 0.570631 0.570631
0.570631 0.570631 0.570631
0.570631 0.570631 0.570631
0.570631 0.570631 0.570631
0.570631 0.570631 0.570631
0.093955 0.093955 0.093955
0.093955 0.093955 0.093955
0.092809 0.092809 0.092809
0.092809 0.092809 0.092809
0.092809 0.092809 0.092809
0.092809 0.092809 0.092809
0.092809 0.092809 0.092809
0.092809 0.092809 0.092809
-0.235977 0.504692 0.233233
-0.236395 0.504826 0.233340
-0.236813 0.504960 0.233447
-0.237231 0.505093 0.233553
-0.237648 0.505227 0.233660
-0.238067 0.505360 0.233767
-0.238581 0.505524 0.233897
-0.239267 0.505742 0.234072
-0.240183 0.506033 0.234304
-0.241406 0.506420 0.234614
-0.243036 0.506934 0.235025
-0.245209 0.507615 0.235571
-0.248104 0.508515 0.236294
-0.251926 0.509692 0.237241
-0.256769 0.511165 0.238428
0.446660 0.509662 0.231030
0.546917 0.506965 0.219833
0.566818 0.517498 0.226582
0.568990 0.555254 0.521698
0.570541 0.570349 0.569170
0.570631 0.570631 0.570631
0.570631 0.570631 0.570631
0.570631 0.570631 0.570631
0.570631 0.570631 0.570631
0.570631 0.570631 0.570631
0.093955 0.093955 0.093955
0.093955 0.093955 0.093955
0.092809 0.092809 0.092809
0.092809 0.092809 0.092809
0.092809 0.092809 0.092809
0.092809 0.092809 0.092809
0.092809 0.092809 0.092809
0.092809 0.092809 0.092809
-0.396653 0.546799 0.268055
-0.396768 0.546824 0.268076
-0.396882 0.546849 0.268097
-0.396997 0.546874 0.268119
-0.397111 0.546899 0.268140
-0.397226 0.546923 0.268161
-0.397366 0.546954 0.268187
-0.397552 0.546994 0.268221
-0.397801 0.547048 0.268267
-0.398131 0.547119 0.268328
-0.398568 0.547214 0.268409
-0.399139 0.547337 0.268514
-0.399830 0.547486 0.268641
-0.400569 0.547645 0.268777
-0.401038 0.547746 0.268863
0.462384 0.544974 0.260849
0.539516 0.541844 0.252811
0.565268 0.542021 0.321018
0.568986 0.560768 0.531990
0.570563 0.570418 0.569533
0.570631 0.570631 0.570631
0.570631 0.570631 0.570631
0.570631 0.570631 0.570631
0.570631 0.570631 0.570631
0.570631 0.570631 0.570631
0.093955 0.093955 0.093955
0.093955 0.093955 0.093955
0.092809 0.092809 0.092809
0.092809 0.092809 0.092809
0.092809 0.092809 0.092809
0.092809 0.092809 0.092809
0.092809 0.092809 0.092809
0.092809 0.092809 0.092809
0.542080 0.561209 0.501377
0.542191 0.561225 0.501553
0.542302 0.561241 0.501728
0.542412 0.561257 0.501903
0.542521 0.561273 0.502077
0.542631 0.561289 0.502253
0.542764 0.561309 0.502468
0.542941 0.561336 0.502754
0.543174 0.561371 0.503135
0.543482 0.561419 0.503643
0.543887 0.561483 0.504317
0.544442 0.561567 0.505214
0.545222 0.561680 0.506405
0.546365 0.561827 0.507988
0.548164 0.562018 0.510105
0.551392 0.562257 0.513008
0.557730 0.562572 0.517387
0.566872 0.563418 0.526444
0.569562 0.567235 0.551873
0.570583 0.570482 0.569862
0.570631 0.570631 0.570631
0.570631 0.570631 0.570631
0.570631 0.570631 0.570631
0.570631 0.570631 0.570631
0.570631 0.570631 0.570631
0.093955 0.093955 0.093955
0.093955 0.093955 0.093955
0.092809 0.092809 0.092809
0.092809 0.092809 0.092809
0.092809 0.092809 0.092809
0.092809 0.092809 0.092809
0.092809 0.092809 0.092809
0.092809 0.092809 0.092809
0.569453 0.569865 0.566428
0.569458 0.569867 0.566442
0.569463 0.569870 0.566456
0.569468 0.569872 0.566470
0.569473 0.569875 0.566484
0.569478 0.569877 0.566498
0.569484 0.569880 0.566515
0.569493 0.569884 0.566538
0.569504 0.569889 0.566568
0.569519 0.569896 0.566608
0.569539 0.569906 0.566662
0.569566 0.569918 0.566733
0.569602 0.569935 0.566827
0.569652 0.569956 0.566949
0.569722 0.569984 0.567110
0.569827 0.570020 0.567318
0.570017 0.570064 0.567587
0.570467 0.570115 0.567947
0.570507 0.570240 0.568606
0.570631 0.570631 0.570631
0.570631 0.570631 0.570631
0.570631 0.570631 0.570631
0.570631 0.570631 0.570631
0.570631 0.570631 0.570631
0.570631 0.570631 0.570631
0.093955 0.093955 0.093955
0.093955 0.093955 0.093955
0.092809 0.092809 0.092809
0.092809 0.092809 0.092809
0.092809 0.092809 0.092809
0.092809 0.092809 0.092809
0.092809 0.092809 0.092809
0.092809 0.092809 0.092809
0.570631 0.570631 0.570631
0.570631 0.570631 0.570631
0.570631 0.570631 0.570631
0.570631 0.570631 0.570631
0.570631 0.570631 0.570631
0.570631 0.570631 0.570631
0.570631 0.570631 0.570631
0.570631 0.570631 0.570631
0.570631 0.570631 0.570631
0.570631 0.570631 0.570631
0.570631 0.570631 0.570631
0.570631 0.570631 0.570631
0.570631 0.570631 0.570631
0.570631 0.570631 0.570631
0.570631 0.570631 0.570631
0.570631 0.570631 0.570631
0.570631 0.570631 0.570631
0.570631 0.570631 0.570631
0.570631 0.570631 0.570631
0.570631 0.570631 0.570631
0.570631 0.570631 0.570631
0.570631 0.570631 0.570631
0.570631 0.570631 0.570631
0.570631 0.570631 0.570631
0.570631 0.570631 0.570631
0.093955 0.093955 0.093955
0.093955 0.093955 0.093955
0.092809 0.092809 0.092809
0.092809 0.092809 0.092809
0.092809 0.092809 0.092809
0.092809 0.092809 0.092809
0.092809 0.092809 0.092809
0.092809 0.092809 0.092809
0.570631 0.570631 0.570631
0.570631 0.570631 0.570631
0.570631 0.570631 0.570631
0.570631 0.570631 0.570631
0.570631 0.570631 0.570631
0.570631 0.570631 0.570631
0.570631 0.570631 0.570631
0.570631 0.570631 0.570631
0.570631 0.570631 0.570631
0.570631 0.570631 0.570631
0.570631 0.570631 0.570631
0.570631 0.570631 0.570631
0.570631 0.570631 0.570631
0.570631 0.570631 0.570631
0.570631 0.570631 0.570631
0.570631 0.570631 0.570631
0.570631 0.570631 0.570631
0.570631 0.570631 0.570631
0.570631 0.570631 0.570631
0.570631 0.570631 0.570631
0.570631 0.570631 0.570631
0.570631 0.570631 0.570631
0.570631 0.570631 0.570631
0.570631 0.570631 0.570631
0.570631 0.570631 0.570631
0.093955 0.093955 0.093955
0.093955 0.093955 0.093955
0.092809 0.092809 0.092809
0.092809 0.092809 0.092809
0.092809 0.092809 0.092809
0.092809 0.092809 0.092809
0.092809 0.092809 0.092809
0.092809 0.092809 0.092809
0.570631 0.570631 0.570631
0.570631 0.570631 0.570631
0.570631 0.570631 0.570631
0.570631 0.570631 0.570631
0.570631 0.570631 0.570631
0.570631 0.570631 0.570631
0.570631 0.570631 0.570631
0.570631 0.570631 0.570631
0.570631 0.570631 0.570631
0.570631 0.570631 0.570631
0.570631 0.570631 0.570631
0.570631 0.570631 0.570631
0.570631 0.570631 0.570631
0.570631 0.570631 0.570631
0.570631 0.570631 0.570631
0.570631 0.570631 0.570631
0.570631 0.570631 0.570631
0.570631 0.570631 0.570631
0.570631 0.570631 0.570631
0.570631 0.570631 0.570631
0.570631 0.570631 0.570631
0.570631 0.570631 0.570631
0.570631 0.570631 0.570631
0.570631 0.570631 0.570631
0.570631 0.570631 0.570631
0.093955 0.093955 0.093955
0.093955 0.093955 0.093955
0.092809 0.092809 0.092809
0.092809 0.092809 0.092809
0.092809 0.092809 0.092809
0.092809 0.092809 0.092809
0.092809 0.092809 0.092809
0.092809 0.092809 0.092809
0.570631 0.570631 0.570631
0.570631 0.570631 0.570631
0.570631 0.570631 0.570631
0.570631 0.570631 0.570631
0.570631 0.570631 0.570631
0.570631 0.570631 0.570631
0.570631 0.570631 0.570631
0.570631 0.570631 0.570631
0.570631 0.570631 0.570631
0.570631 0.570631 0.570631
0.570631 0.570631 0.570631
0.570631 0.570631 0.570631
0.570631 0.570631 0.570631
0.570631 0.570631 0.570631
0.570631 0.570631 0.570631
0.570631 0.570631 0.570631
0.570631 0.570631 0.570631
0.570631 0.570631 0.570631
0.570631 0.570631 0.570631
0.570631 0.570631 0.570631
0.570631 0.570631 0.570631
0.570631 0.570631 0.570631
0.570631 0.570631 0.570631
0.570631 0.570631 0.570631
0.093955 0.093955 0.093955
0.093955 0.093955 0.093955
0.093955 0.093955 0.093955
0.092809 0.092809 0.092809
0.092809 0.092809 0.092809
0.092809 0.092809 0.092809
0.092809 0.092809 0.092809
0.092809 0.092809 0.092809
0.092809 0.092809 0.092809
0.570631 0.570631 0.570631
0.570631 0.570631 0.570631
0.570631 0.570631 0.570631
0.570631 0.570631 0.570631
0.570631 0.570631 0.570631
0.570631 0.570631 0.570631
0.570631 0.570631 0.570631
0.570631 0.570631 0.570631
0.570631 0.570631 0.570631
0.570631 0.570631 0.570631
0.570631 0.570631 0.570631
0.570631 0.570631 0.570631
0.570631 0.570631 0.570631
0.570631 0.570631 0.570631
0.570631 0.570631 0.570631
0.570631 0.570631 0.570631
0.570631 0.570631 0.570631
0.570631 0.570631 0.570631
0.570631 0.570631 0.570631
0.570631 0.570631 0.570631
0.570631 0.570631 0.570631
0.570631 0.570631 0.570631
0.570631 0.570631 0.570631
0.570631 0.570631 0.570631
0.093955 0.093955 0.093955
0.093955 0.093955 0.093955
0.093955 0.093955 0.093955
0.092809 0.092809 0.092809
0.092809 0.092809 0.092809
0.092809 0.092809 0.092809
0.092809 0.092809 0.092809
0.092809 0.092809 0.092809
0.092809 0.092809 0.092809
0.570631 0.570631 0.570631
0.570631 0.570631 0.570631
0.570631 0.570631 0.570631
0.570631 0.570631 0.570631
0.570631 0.570631 0.570631
0.570631 0.570631 0.570631
0.570631 0.570631 0.570631
0.570631 0.570631 0.570631
0.570631 0.570631 0.570631
0.570631 0.570631 0.570631
0.570631 0.570631 0.570631
0.570631 0.570631 0.570631
0.570631 0.570631 0.570631
0.570631 0.570631 0.570631
0.570631 0.570631 0.570631
0.570631 0.570631 0.570631
0.570631 0.570631 0.570631
0.570631 0.570631 0.570631
0.570631 0.570631 0.570631
0.570631 0.570631 0.570631
0.570631 0.570631 0.570631
0.570631 0.570631 0.570631
0.570631 0.570631 0.570631
0.570631 0.570631 0.570631
0.570631 0.570631 0.570631
0.093955 0.093955 0.093955
0.093955 0.093955 0.093955
0.092809 0.092809 0.092809
0.092809 0.092809 0.092809
0.092809 0.092809 0.092809
0.092809 0.092809 0.092809
0.092809 0.092809 0.092809
0.092809 0.092809 0.092809
0.570631 0.570631 0.570631
0.570631 0.570631 0.570631
0.570631 0.570631 0.570631
0.570631 0.570631 0.570631
0.570631 0.570631 0.570631
0.570631 0.570631 0.570631
0.570631 0.570631 0.570631
0.570631 0.570631 0.570631
0.570631 0.570631 0.570631
0.570631 0.570631 0.570631
0.570631 0.570631 0.570631
0.570631 0.570631 0.570631
0.570631 0.570631 0.570631
0.570631 0.570631 0.570631
0.570631 0.570631 0.570631
0.570631 0.570631 0.570631
0.570631 0.570631 0.570631
0.570631 0.570631 0.570631
0.570631 0.570631 0.570631
0.570631 0.570631 0.570631
0.570631 0.570631 0.570631
0.570631 0.570631 0.570631
0.570631 0.570631 0.570631
0.570631 0.570631 0.570631
0.570631 0.570631 0.570631
0.570631 0.570631 0.570631
0.092809 0.092809 0.092809
0.092809 0.092809 0.092809
0.092809 0.092809 0.092809
0.092809 0.092809 0.092809
0.092809 0.092809 0.092809
0.092809 0.092809 0.092809
0.092809 0.092809 0.092809
0.092809 0.092809 0.092809
0.092809 0.092809 0.092809
0.092809 0.092809 0.092809
0.092809 0.092809 0.092809
0.092809 0.092809 0.092809
0.092809 0.092809 0.092809
0.092809 0.092809 0.092809
0.092809 0.092809 0.092809
0.092809 0.092809 0.092809
0.092809 0.092809 0.092809
0.092809 0.092809 0.092809
0.092809 0.092809 0.092809
0.092809 0.092809 0.092809
0.092809 0.092809 0.092809
0.092809 0.092809 0.092809
0.092809 0.092809 0.092809
0.092809 0.092809 0.092809
0.092809 0.092809 0.092809
0.092809 0.092809 0.092809
0.092809 0.092809 0.092809
0.092809 0.092809 0.092809
0.092809 0.092809 0.092809
0.092809 0.092809 0.092809
0.092809 0.092809 0.092809
0.092809 0.092809 0.092809
0.092809 0.092809 0.092809
