software/Premiere/untitled folder/ARRILogC3_to_ACES-Rec709_v4.cube
TITLE "Generated by Foundry::LUT"
LUT_3D_SIZE 5
0.093955 0.093955 0.093955
0.093955 0.093955 0.093955
0.541265 -0.080334 0.054284
0.570631 0.570631 0.570631
0.092809 0.092809 0.092809
0.093955 0.093955 0.093955
0.093955 0.093955 0.093955
0.544622 -0.085901 0.053045
0.570631 0.570631 0.570631
0.092809 0.092809 0.092809
-0.396653 0.546799 0.268055
-0.397801 0.547048 0.268267
0.539516 0.541844 0.252811
0.570631 0.570631 0.570631
0.092809 0.092809 0.092809
0.570631 0.570631 0.570631
0.570631 0.570631 0.570631
0.570631 0.570631 0.570631
0.570631 0.570631 0.570631
0.092809 0.092809 0.092809
0.092809 0.092809 0.092809
0.092809 0.092809 0.092809
0.092809 0.092809 0.092809
0.092809 0.092809 0.092809
0.092809 0.092809 0.092809
0.093955 0.093955 0.093955
0.093955 0.093955 0.093955
0.538868 -0.076464 0.055145
0.570631 0.570631 0.570631
0.092809 0.092809 0.092809
0.093955 0.093955 0.093955
0.093955 0.093955 0.093955
0.542264 -0.081972 0.053919
0.570631 0.570631 0.570631
0.092809 0.092809 0.092809
-0.389382 0.545211 0.266701
-0.390770 0.545516 0.266961
0.538245 0.540533 0.251720
0.570631 0.570631 0.570631
0.092809 0.092809 0.092809
0.570631 0.570631 0.570631
0.570631 0.570631 0.570631
0.570631 0.570631 0.570631
0.570631 0.570631 0.570631
0.092809 0.092809 0.092809
0.092809 0.092809 0.092809
0.092809 0.092809 0.092809
0.092809 0.092809 0.092809
0.092809 0.092809 0.092809
0.092809 0.092809 0.092809
0.264099 0.374475 0.545261
0.264193 0.374581 0.545372
0.508111 0.359698 0.545048
0.570631 0.570631 0.570631
0.092809 0.092809 0.092809
0.263196 0.373460 0.544196
0.263295 0.373571 0.544312
0.516772 0.356927 0.543890
0.570631 0.570631 0.570631
0.092809 0.092809 0.092809
-0.017008 0.528793 0.533870
-0.022393 0.530190 0.533989
0.533855 0.533855 0.533855
0.570631 0.570631 0.570631
0.092809 0.092809 0.092809
0.570631 0.570631 0.570631
0.570631 0.570631 0.570631
0.570631 0.570631 0.570631
0.570631 0.570631 0.570631
0.092809 0.092809 0.092809
0.092809 0.092809 0.092809
0.092809 0.092809 0.092809
0.092809 0.092809 0.092809
0.092809 0.092809 0.092809
0.092809 0.092809 0.092809
0.093955 0.093955 0.093955
0.093955 0.093955 0.093955
0.093955 0.093955 0.093955
0.093955 0.093955 0.093955
0.092809 0.092809 0.092809
0.093955 0.093955 0.093955
0.093955 0.093955 0.093955
0.093955 0.093955 0.093955
0.093955 0.093955 0.093955
0.092809 0.092809 0.092809
0.093955 0.093955 0.093955
0.093955 0.093955 0.093955
0.093955 0.093955 0.093955
0.093955 0.093955 0.093955
0.092809 0.092809 0.092809
0.570631 0.570631 0.570631
0.570631 0.570631 0.570631
0.570631 0.570631 0.570631
0.570631 0.570631 0.570631
0.092809 0.092809 0.092809
0.092809 0.092809 0.092809
0.092809 0.092809 0.092809
0.092809 0.092809 0.092809
0.092809 0.092809 0.092809
0.092809 0.092809 0.092809
0.092809 0.092809 0.092809
0.092809 0.092809 0.092809
0.092809 0.092809 0.092809
0.092809 0.092809 0.092809
0.092809 0.092809 0.092809
0.092809 0.092809 0.092809
0.092809 0.092809 0.092809
0.092809 0.092809 0.092809
0.092809 0.092809 0.092809
0.092809 0.092809 0.092809
0.092809 0.092809 0.092809
0.092809 0.092809 0.092809
0.092809 0.092809 0.092809
0.092809 0.092809 0.092809
0.092809 0.092809 0.092809
0.092809 0.092809 0.092809
0.092809 0.092809 0.092809
0.092809 0.092809 0.092809
0.092809 0.092809 0.092809
0.092809 0.092809 0.092809
0.092809 0.092809 0.092809
0.092809 0.092809 0.092809
0.092809 0.092809 0.092809
0.092809 0.092809 0.092809
0.092809 0.092809 0.092809
