software/Premiere/untitled folder/ARRILogC3_to_ACES-Rec709_v3.cube
TITLE "Generated by Foundry::LUT"
LUT_3D_SIZE 43
0.000213 0.000213 0.000213
0.000213 0.000213 0.000213
0.000213 0.000213 0.000213
0.000213 0.000213 0.000213
0.000213 0.000213 0.000213
0.000213 0.000213 0.000213
0.000213 0.000213 0.000213
0.000213 0.000213 0.000213
0.000213 0.000213 0.000213
0.000213 0.000213 0.000213
0.000213 0.000213 0.000213
0.000213 0.000213 0.000213
0.000213 0.000213 0.000213
0.000213 0.000213 0.000213
0.000213 0.000213 0.000213
0.000213 0.000213 0.000213
0.000213 0.000213 0.000213
0.000213 0.000213 0.000213
0.000213 0.000213 0.000213
0.000213 0.000213 0.000213
0.000213 0.000213 0.000213
0.000213 0.000213 0.000213
0.000213 0.000213 0.000213
0.000213 0.000213 0.000213
0.000213 0.000213 0.000213
0.000213 0.000213 0.000213
0.000213 0.000213 0.000213
0.000213 0.000213 0.000213
0.000213 0.000213 0.000213
0.000213 0.000213 0.000213
0.000213 0.000213 0.000213
0.000213 0.000213 0.000213
0.000213 0.000213 0.000213
0.000213 0.000213 0.000213
0.000213 0.000213 0.000213
0.000213 0.000213 0.000213
0.000213 0.000213 0.000213
0.000213 0.000213 0.000213
0.000213 0.000213 0.000213
0.000213 0.000213 0.000213
0.000213 0.000213 0.000213
0.000213 0.000213 0.000213
0.000213 0.000213 0.000213
0.000213 0.000213 0.000213
0.000213 0.000213 0.000213
0.000213 0.000213 0.000213
0.000213 0.000213 0.000213
0.000213 0.000213 0.000213
0.000213 0.000213 0.000213
0.000213 0.000213 0.000213
0.000213 0.000213 0.000213
0.000213 0.000213 0.000213
0.000213 0.000213 0.000213
0.000213 0.000213 0.000213
0.000213 0.000213 0.000213
0.000213 0.000213 0.000213
0.000213 0.000213 0.000213
0.000213 0.000213 0.000213
0.000213 0.000213 0.000213
0.000213 0.000213 0.000213
0.000213 0.000213 0.000213
0.000213 0.000213 0.000213
0.000213 0.000213 0.000213
0.000213 0.000213 0.000213
0.000213 0.000213 0.000213
0.000213 0.000213 0.000213
0.000213 0.000213 0.000213
0.000213 0.000213 0.000213
0.000213 0.000213 0.000213
0.000213 0.000213 0.000213
0.000213 0.000213 0.000213
0.000213 0.000213 0.000213
0.000213 0.000213 0.000213
0.000213 0.000213 0.000213
0.000213 0.000213 0.000213
0.000213 0.000213 0.000213
0.000213 0.000213 0.000213
0.000213 0.000213 0.000213
0.000213 0.000213 0.000213
0.000213 0.000213 0.000213
0.000213 0.000213 0.000213
0.000213 0.000213 0.000213
0.000213 0.000213 0.000213
0.000213 0.000213 0.000213
0.000213 0.000213 0.000213
0.000213 0.000213 0.000213
0.000213 0.000213 0.000213
0.000213 0.000213 0.000213
0.000213 0.000213 0.000213
0.000213 0.000213 0.000213
0.000213 0.000213 0.000213
0.000213 0.000213 0.000213
0.000213 0.000213 0.000213
0.000213 0.000213 0.000213
0.000213 0.000213 0.000213
0.000213 0.000213 0.000213
0.000213 0.000213 0.000213
0.000213 0.000213 0.000213
0.000213 0.000213 0.000213
0.000213 0.000213 0.000213
0.000213 0.000213 0.000213
0.000213 0.000213 0.000213
0.000213 0.000213 0.000213
0.000213 0.000213 0.000213
0.000213 0.000213 0.000213
0.000213 0.000213 0.000213
0.000213 0.000213 0.000213
0.000213 0.000213 0.000213
0.000213 0.000213 0.000213
0.000213 0.000213 0.000213
0.000213 0.000213 0.000213
0.000213 0.000213 0.000213
0.000213 0.000213 0.000213
0.000213 0.000213 0.000213
0.000213 0.000213 0.000213
0.000213 0.000213 0.000213
0.000213 0.000213 0.000213
0.000213 0.000213 0.000213
0.000213 0.000213 0.000213
0.000213 0.000213 0.000213
0.000213 0.000213 0.000213
0.000213 0.000213 0.000213
0.000213 0.000213 0.000213
0.000213 0.000213 0.000213
0.000213 0.000213 0.000213
0.000213 0.000213 0.000213
0.000213 0.000213 0.000213
0.000213 0.000213 0.000213
0.000213 0.000213 0.000213
0.000213 0.000213 0.000213
0.000213 0.000213 0.000213
0.000213 0.000213 0.000213
0.000213 0.000213 0.000213
0.000213 0.000213 0.000213
0.000213 0.000213 0.000213
0.000213 0.000213 0.000213
0.000213 0.000213 0.000213
0.000213 0.000213 0.000213
0.000213 0.000213 0.000213
0.000213 0.000213 0.000213
0.000213 0.000213 0.000213
0.000213 0.000213 0.000213
0.000213 0.000213 0.000213
0.000213 0.000213 0.000213
0.000213 0.000213 0.000213
0.000213 0.000213 0.000213
0.000213 0.000213 0.000213
0.000213 0.000213 0.000213
0.000213 0.000213 0.000213
0.000213 0.000213 0.000213
0.000213 0.000213 0.000213
0.000213 0.000213 0.000213
0.000213 0.000213 0.000213
0.000213 0.000213 0.000213
0.000213 0.000213 0.000213
0.000213 0.000213 0.000213
0.000213 0.000213 0.000213
0.000213 0.000213 0.000213
0.000213 0.000213 0.000213
0.000213 0.000213 0.000213
0.000213 0.000213 0.000213
0.000213 0.000213 0.000213
0.000213 0.000213 0.000213
0.000213 0.000213 0.000213
0.000213 0.000213 0.000213
0.000213 0.000213 0.000213
0.000213 0.000213 0.000213
0.000213 0.000213 0.000213
0.000213 0.000213 0.000213
0.000213 0.000213 0.000213
0.000213 0.000213 0.000213
0.000213 0.000213 0.000213
0.000213 0.000213 0.000213
0.000213 0.000213 0.000213
0.000213 0.000213 0.000213
0.000213 0.000213 0.000213
0.000213 0.000213 0.000213
0.000213 0.000213 0.000213
0.000213 0.000213 0.000213
0.000213 0.000213 0.000213
0.000213 0.000213 0.000213
0.000213 0.000213 0.000213
0.000213 0.000213 0.000213
0.000213 0.000213 0.000213
0.000213 0.000213 0.000213
0.000213 0.000213 0.000213
0.000213 0.000213 0.000213
0.000213 0.000213 0.000213
0.000213 0.000213 0.000213
0.000213 0.000213 0.000213
0.000213 0.000213 0.000213
0.000213 0.000213 0.000213
0.000213 0.000213 0.000213
0.000213 0.000213 0.000213
0.000213 0.000213 0.000213
0.000213 0.000213 0.000213
0.000213 0.000213 0.000213
0.000213 0.000213 0.000213
0.000213 0.000213 0.000213
0.000213 0.000213 0.000213
0.000213 0.000213 0.000213
0.000213 0.000213 0.000213
0.000213 0.000213 0.000213
0.000213 0.000213 0.000213
0.000213 0.000213 0.000213
0.000213 0.000213 0.000213
0.000213 0.000213 0.000213
0.000213 0.000213 0.000213
0.000213 0.000213 0.000213
0.000213 0.000213 0.000213
0.000213 0.000213 0.000213
0.000213 0.000213 0.000213
0.000213 0.000213 0.000213
0.000213 0.000213 0.000213
0.000213 0.000213 0.000213
0.000213 0.000213 0.000213
0.000213 0.000213 0.000213
0.000213 0.000213 0.000213
0.000213 0.000213 0.000213
0.000213 0.000213 0.000213
0.000213 0.000213 0.000213
0.000213 0.000213 0.000213
0.000213 0.000213 0.000213
0.000213 0.000213 0.000213
0.000213 0.000213 0.000213
0.000213 0.000213 0.000213
0.000213 0.000213 0.000213
0.000213 0.000213 0.000213
0.000213 0.000213 0.000213
0.000213 0.000213 0.000213
0.000213 0.000213 0.000213
0.000213 0.000213 0.000213
0.000213 0.000213 0.000213
0.000213 0.000213 0.000213
0.000213 0.000213 0.000213
0.000213 0.000213 0.000213
0.000213 0.000213 0.000213
0.000213 0.000213 0.000213
0.000213 0.000213 0.000213
0.000213 0.000213 0.000213
0.000213 0.000213 0.000213
0.000213 0.000213 0.000213
0.000213 0.000213 0.000213
0.000213 0.000213 0.000213
0.000213 0.000213 0.000213
0.000213 0.000213 0.000213
0.000213 0.000213 0.000213
0.000213 0.000213 0.000213
0.000213 0.000213 0.000213
0.000213 0.000213 0.000213
0.000213 0.000213 0.000213
0.000213 0.000213 0.000213
0.000213 0.000213 0.000213
0.000213 0.000213 0.000213
0.000213 0.000213 0.000213
0.000213 0.000213 0.000213
0.000213 0.000213 0.000213
0.000213 0.000213 0.000213
0.000213 0.000213 0.000213
0.000213 0.000213 0.000213
0.000213 0.000213 0.000213
0.000213 0.000213 0.000213
0.000213 0.000213 0.000213
0.000213 0.000213 0.000213
0.000213 0.000213 0.000213
0.000213 0.000213 0.000213
0.000213 0.000213 0.000213
0.000213 0.000213 0.000213
0.000213 0.000213 0.000213
0.000213 0.000213 0.000213
0.000213 0.000213 0.000213
0.000213 0.000213 0.000213
0.000213 0.000213 0.000213
0.000213 0.000213 0.000213
0.000213 0.000213 0.000213
0.000213 0.000213 0.000213
0.000213 0.000213 0.000213
0.000213 0.000213 0.000213
0.000213 0.000213 0.000213
0.000213 0.000213 0.000213
0.000213 0.000213 0.000213
0.000213 0.000213 0.000213
0.000213 0.000213 0.000213
0.000213 0.000213 0.000213
0.000213 0.000213 0.000213
0.000213 0.000213 0.000213
0.000213 0.000213 0.000213
0.000213 0.000213 0.000213
0.000213 0.000213 0.000213
0.000213 0.000213 0.000213
0.000213 0.000213 0.000213
0.000213 0.000213 0.000213
0.000213 0.000213 0.000213
0.000213 0.000213 0.000213
0.000213 0.000213 0.000213
0.000213 0.000213 0.000213
0.000213 0.000213 0.000213
0.000213 0.000213 0.000213
0.000213 0.000213 0.000213
0.000213 0.000213 0.000213
0.000213 0.000213 0.000213
0.000213 0.000213 0.000213
0.000213 0.000213 0.000213
0.000213 0.000213 0.000213
0.000213 0.000213 0.000213
0.000213 0.000213 0.000213
0.000213 0.000213 0.000213
0.000213 0.000213 0.000213
0.000213 0.000213 0.000213
0.000213 0.000213 0.000213
0.000213 0.000213 0.000213
0.000213 0.000213 0.000213
0.000213 0.000213 0.000213
0.000213 0.000213 0.000213
0.000213 0.000213 0.000213
0.000213 0.000213 0.000213
0.000213 0.000213 0.000213
0.000213 0.000213 0.000213
0.000213 0.000213 0.000213
0.000213 0.000213 0.000213
0.000213 0.000213 0.000213
0.000213 0.000213 0.000213
0.000213 0.000213 0.000213
0.000213 0.000213 0.000213
0.000213 0.000213 0.000213
0.000213 0.000213 0.000213
0.000213 0.000213 0.000213
0.000213 0.000213 0.000213
0.000213 0.000213 0.000213
0.000213 0.000213 0.000213
0.000213 0.000213 0.000213
0.000213 0.000213 0.000213
0.000213 0.000213 0.000213
0.000213 0.000213 0.000213
0.000213 0.000213 0.000213
0.000213 0.000213 0.000213
0.000213 0.000213 0.000213
0.000213 0.000213 0.000213
0.000213 0.000213 0.000213
0.000213 0.000213 0.000213
0.000213 0.000213 0.000213
0.000213 0.000213 0.000213
0.000213 0.000213 0.000213
0.000213 0.000213 0.000213
0.000213 0.000213 0.000213
0.000213 0.000213 0.000213
0.000213 0.000213 0.000213
0.000213 0.000213 0.000213
0.000213 0.000213 0.000213
0.000213 0.000213 0.000213
0.000213 0.000213 0.000213
0.000213 0.000213 0.000213
0.000213 0.000213 0.000213
0.000213 0.000213 0.000213
0.000213 0.000213 0.000213
0.000213 0.000213 0.000213
0.000213 0.000213 0.000213
0.000213 0.000213 0.000213
0.000213 0.000213 0.000213
0.000213 0.000213 0.000213
0.000213 0.000213 0.000213
0.000213 0.000213 0.000213
0.000213 0.000213 0.000213
0.000213 0.000213 0.000213
0.000213 0.000213 0.000213
0.000213 0.000213 0.000213
0.000213 0.000213 0.000213
0.000213 0.000213 0.000213
0.000213 0.000213 0.000213
0.000213 0.000213 0.000213
0.000213 0.000213 0.000213
0.000213 0.000213 0.000213
0.000213 0.000213 0.000213
0.000213 0.000213 0.000213
0.000213 0.000213 0.000213
0.000213 0.000213 0.000213
0.000213 0.000213 0.000213
0.000213 0.000213 0.000213
0.000213 0.000213 0.000213
0.000213 0.000213 0.000213
0.000213 0.000213 0.000213
0.000213 0.000213 0.000213
0.000213 0.000213 0.000213
0.000213 0.000213 0.000213
0.000213 0.000213 0.000213
0.000213 0.000213 0.000213
0.000213 0.000213 0.000213
0.000213 0.000213 0.000213
0.000213 0.000213 0.000213
0.000213 0.000213 0.000213
0.000213 0.000213 0.000213
0.000213 0.000213 0.000213
0.000213 0.000213 0.000213
0.000213 0.000213 0.000213
0.000213 0.000213 0.000213
0.000213 0.000213 0.000213
0.000213 0.000213 0.000213
0.000213 0.000213 0.000213
0.000213 0.000213 0.000213
0.000213 0.000213 0.000213
0.000213 0.000213 0.000213
0.000213 0.000213 0.000213
0.000213 0.000213 0.000213
0.000213 0.000213 0.000213
0.000213 0.000213 0.000213
0.000213 0.000213 0.000213
0.000213 0.000213 0.000213
0.000213 0.000213 0.000213
0.000213 0.000213 0.000213
0.000213 0.000213 0.000213
0.000213 0.000213 0.000213
0.000213 0.000213 0.000213
0.000213 0.000213 0.000213
0.000213 0.000213 0.000213
0.000213 0.000213 0.000213
0.000213 0.000213 0.000213
0.000213 0.000213 0.000213
0.000213 0.000213 0.000213
0.000213 0.000213 0.000213
0.000213 0.000213 0.000213
0.000213 0.000213 0.000213
0.000213 0.000213 0.000213
0.000213 0.000213 0.000213
0.000213 0.000213 0.000213
0.000213 0.000213 0.000213
0.000213 0.000213 0.000213
0.000213 0.000213 0.000213
0.000213 0.000213 0.000213
0.000213 0.000213 0.000213
0.000213 0.000213 0.000213
0.000213 0.000213 0.000213
0.000213 0.000213 0.000213
0.000213 0.000213 0.000213
0.000213 0.000213 0.000213
0.000213 0.000213 0.000213
0.000213 0.000213 0.000213
0.000213 0.000213 0.000213
0.000213 0.000213 0.000213
0.000213 0.000213 0.000213
0.000213 0.000213 0.000213
0.000213 0.000213 0.000213
0.000213 0.000213 0.000213
0.000213 0.000213 0.000213
0.000213 0.000213 0.000213
0.000213 0.000213 0.000213
0.000213 0.000213 0.000213
0.000213 0.000213 0.000213
0.000213 0.000213 0.000213
0.000213 0.000213 0.000213
0.000213 0.000213 0.000213
0.000213 0.000213 0.000213
0.000213 0.000213 0.000213
0.000213 0.000213 0.000213
0.000213 0.000213 0.000213
0.000213 0.000213 0.000213
0.000213 0.000213 0.000213
0.000213 0.000213 0.000213
0.000213 0.000213 0.000213
0.000213 0.000213 0.000213
0.000213 0.000213 0.000213
0.000213 0.000213 0.000213
0.000213 0.000213 0.000213
0.000213 0.000213 0.000213
0.000213 0.000213 0.000213
0.000213 0.000213 0.000213
0.000213 0.000213 0.000213
0.000213 0.000213 0.000213
0.000213 0.000213 0.000213
0.000213 0.000213 0.000213
0.000213 0.000213 0.000213
0.000213 0.000213 0.000213
0.000213 0.000213 0.000213
0.000213 0.000213 0.000213
0.000213 0.000213 0.000213
0.000213 0.000213 0.000213
0.000213 0.000213 0.000213
0.000213 0.000213 0.000213
0.000213 0.000213 0.000213
0.000213 0.000213 0.000213
0.000213 0.000213 0.000213
0.000213 0.000213 0.000213
0.000213 0.000213 0.000213
0.000213 0.000213 0.000213
0.000213 0.000213 0.000213
0.000213 0.000213 0.000213
0.000213 0.000213 0.000213
0.000213 0.000213 0.000213
0.000213 0.000213 0.000213
0.000213 0.000213 0.000213
0.000213 0.000213 0.000213
0.000213 0.000213 0.000213
0.000213 0.000213 0.000213
0.000213 0.000213 0.000213
0.000213 0.000213 0.000213
0.000213 0.000213 0.000213
0.000213 0.000213 0.000213
0.000213 0.000213 0.000213
0.000213 0.000213 0.000213
0.000213 0.000213 0.000213
0.000213 0.000213 0.000213
0.000213 0.000213 0.000213
0.000213 0.000213 0.000213
0.000213 0.000213 0.000213
0.000213 0.000213 0.000213
0.000213 0.000213 0.000213
0.000213 0.000213 0.000213
0.000213 0.000213 0.000213
0.000213 0.000213 0.000213
0.000213 0.000213 0.000213
0.000213 0.000213 0.000213
0.000213 0.000213 0.000213
0.000213 0.000213 0.000213
0.000213 0.000213 0.000213
0.000213 0.000213 0.000213
0.000213 0.000213 0.000213
0.000213 0.000213 0.000213
0.000213 0.000213 0.000213
0.000213 0.000213 0.000213
0.000213 0.000213 0.000213
0.000213 0.000213 0.000213
0.000213 0.000213 0.000213
0.000213 0.000213 0.000213
0.000213 0.000213 0.000213
0.000213 0.000213 0.000213
0.000213 0.000213 0.000213
0.000213 0.000213 0.000213
0.000213 0.000213 0.000213
0.000213 0.000213 0.000213
0.000213 0.000213 0.000213
0.000213 0.000213 0.000213
0.000213 0.000213 0.000213
0.000213 0.000213 0.000213
0.000213 0.000213 0.000213
0.000213 0.000213 0.000213
0.000213 0.000213 0.000213
0.000213 0.000213 0.000213
0.000213 0.000213 0.000213
0.000213 0.000213 0.000213
0.000213 0.000213 0.000213
0.000213 0.000213 0.000213
0.000213 0.000213 0.000213
0.000213 0.000213 0.000213
0.000213 0.000213 0.000213
0.000213 0.000213 0.000213
0.000213 0.000213 0.000213
0.000213 0.000213 0.000213
0.000213 0.000213 0.000213
0.000213 0.000213 0.000213
0.000213 0.000213 0.000213
0.000213 0.000213 0.000213
0.000213 0.000213 0.000213
0.000213 0.000213 0.000213
0.000213 0.000213 0.000213
0.000213 0.000213 0.000213
0.000213 0.000213 0.000213
0.000213 0.000213 0.000213
0.000213 0.000213 0.000213
0.000213 0.000213 0.000213
0.000213 0.000213 0.000213
0.000213 0.000213 0.000213
0.000213 0.000213 0.000213
0.000213 0.000213 0.000213
0.000213 0.000213 0.000213
0.000213 0.000213 0.000213
0.000213 0.000213 0.000213
0.000213 0.000213 0.000213
0.000213 0.000213 0.000213
0.000213 0.000213 0.000213
0.000213 0.000213 0.000213
0.000213 0.000213 0.000213
0.000213 0.000213 0.000213
0.000213 0.000213 0.000213
0.000213 0.000213 0.000213
0.000213 0.000213 0.000213
0.000213 0.000213 0.000213
0.000213 0.000213 0.000213
0.000213 0.000213 0.000213
0.000213 0.000213 0.000213
0.000213 0.000213 0.000213
0.000213 0.000213 0.000213
0.000213 0.000213 0.000213
0.000213 0.000213 0.000213
0.000213 0.000213 0.000213
0.000213 0.000213 0.000213
0.000213 0.000213 0.000213
0.000213 0.000213 0.000213
0.000213 0.000213 0.000213
0.000213 0.000213 0.000213
0.000213 0.000213 0.000213
0.000213 0.000213 0.000213
0.000213 0.000213 0.000213
0.000213 0.000213 0.000213
0.000213 0.000213 0.000213
0.000213 0.000213 0.000213
0.000213 0.000213 0.000213
0.000213 0.000213 0.000213
0.000213 0.000213 0.000213
0.000213 0.000213 0.000213
0.000213 0.000213 0.000213
0.000213 0.000213 0.000213
0.000213 0.000213 0.000213
0.000213 0.000213 0.000213
0.000213 0.000213 0.000213
0.000213 0.000213 0.000213
0.000213 0.000213 0.000213
0.000213 0.000213 0.000213
0.000213 0.000213 0.000213
0.000213 0.000213 0.000213
0.000213 0.000213 0.000213
0.000213 0.000213 0.000213
0.000213 0.000213 0.000213
0.000213 0.000213 0.000213
0.000213 0.000213 0.000213
0.000213 0.000213 0.000213
0.000213 0.000213 0.000213
0.000213 0.000213 0.000213
0.000213 0.000213 0.000213
0.000213 0.000213 0.000213
0.000213 0.000213 0.000213
0.000213 0.000213 0.000213
0.000213 0.000213 0.000213
0.000213 0.000213 0.000213
0.000213 0.000213 0.000213
0.000213 0.000213 0.000213
0.000213 0.000213 0.000213
0.000213 0.000213 0.000213
0.000213 0.000213 0.000213
0.000213 0.000213 0.000213
0.000213 0.000213 0.000213
0.000213 0.000213 0.000213
0.000213 0.000213 0.000213
0.000213 0.000213 0.000213
0.000213 0.000213 0.000213
0.000213 0.000213 0.000213
0.000213 0.000213 0.000213
0.000213 0.000213 0.000213
0.000213 0.000213 0.000213
0.000213 0.000213 0.000213
0.000213 0.000213 0.000213
0.000213 0.000213 0.000213
0.000213 0.000213 0.000213
0.000213 0.000213 0.000213
0.000213 0.000213 0.000213
0.000213 0.000213 0.000213
0.000213 0.000213 0.000213
0.000213 0.000213 0.000213
0.000213 0.000213 0.000213
0.000213 0.000213 0.000213
0.000213 0.000213 0.000213
0.000213 0.000213 0.000213
0.000213 0.000213 0.000213
0.000213 0.000213 0.000213
0.000213 0.000213 0.000213
0.000213 0.000213 0.000213
0.000213 0.000213 0.000213
0.000213 0.000213 0.000213
0.000213 0.000213 0.000213
0.000213 0.000213 0.000213
0.000213 0.000213 0.000213
0.000213 0.000213 0.000213
0.000213 0.000213 0.000213
0.000213 0.000213 0.000213
0.000213 0.000213 0.000213
0.000213 0.000213 0.000213
0.000213 0.000213 0.000213
0.000213 0.000213 0.000213
0.000213 0.000213 0.000213
0.000213 0.000213 0.000213
0.000213 0.000213 0.000213
0.000213 0.000213 0.000213
0.000213 0.000213 0.000213
0.000213 0.000213 0.000213
0.000213 0.000213 0.000213
0.000213 0.000213 0.000213
0.000213 0.000213 0.000213
0.000213 0.000213 0.000213
0.000213 0.000213 0.000213
0.000213 0.000213 0.000213
0.000213 0.000213 0.000213
0.000213 0.000213 0.000213
0.000213 0.000213 0.000213
0.000213 0.000213 0.000213
0.000213 0.000213 0.000213
0.000213 0.000213 0.000213
0.000213 0.000213 0.000213
0.000213 0.000213 0.000213
0.000213 0.000213 0.000213
0.000213 0.000213 0.000213
0.000213 0.000213 0.000213
0.000213 0.000213 0.000213
0.000213 0.000213 0.000213
0.000213 0.000213 0.000213
0.000213 0.000213 0.000213
0.000213 0.000213 0.000213
0.000213 0.000213 0.000213
0.000213 0.000213 0.000213
0.000213 0.000213 0.000213
0.000213 0.000213 0.000213
0.000213 0.000213 0.000213
0.000213 0.000213 0.000213
0.000213 0.000213 0.000213
0.000213 0.000213 0.000213
0.000213 0.000213 0.000213
0.000213 0.000213 0.000213
0.000213 0.000213 0.000213
0.000213 0.000213 0.000213
0.000213 0.000213 0.000213
0.000213 0.000213 0.000213
0.000213 0.000213 0.000213
0.000213 0.000213 0.000213
0.000213 0.000213 0.000213
0.000213 0.000213 0.000213
0.000213 0.000213 0.000213
0.000213 0.000213 0.000213
0.000213 0.000213 0.000213
0.000213 0.000213 0.000213
0.000213 0.000213 0.000213
0.000213 0.000213 0.000213
0.000213 0.000213 0.000213
0.000213 0.000213 0.000213
0.000213 0.000213 0.000213
0.000213 0.000213 0.000213
0.000213 0.000213 0.000213
0.000213 0.000213 0.000213
0.000213 0.000213 0.000213
0.000213 0.000213 0.000213
0.000213 0.000213 0.000213
0.000213 0.000213 0.000213
0.000213 0.000213 0.000213
0.000213 0.000213 0.000213
0.000213 0.000213 0.000213
0.000213 0.000213 0.000213
0.000213 0.000213 0.000213
0.000213 0.000213 0.000213
0.000213 0.000213 0.000213
0.000213 0.000213 0.000213
0.000213 0.000213 0.000213
0.000213 0.000213 0.000213
0.000213 0.000213 0.000213
0.000213 0.000213 0.000213
0.000213 0.000213 0.000213
0.000213 0.000213 0.000213
0.000213 0.000213 0.000213
0.000213 0.000213 0.000213
0.000213 0.000213 0.000213
0.000213 0.000213 0.000213
0.000213 0.000213 0.000213
0.000213 0.000213 0.000213
0.000213 0.000213 0.000213
0.000213 0.000213 0.000213
0.000213 0.000213 0.000213
0.000213 0.000213 0.000213
0.000213 0.000213 0.000213
0.000213 0.000213 0.000213
0.000213 0.000213 0.000213
0.000213 0.000213 0.000213
0.000213 0.000213 0.000213
0.000213 0.000213 0.000213
0.000213 0.000213 0.000213
0.000213 0.000213 0.000213
0.000213 0.000213 0.000213
0.000213 0.000213 0.000213
0.000213 0.000213 0.000213
0.000213 0.000213 0.000213
0.000213 0.000213 0.000213
0.000213 0.000213 0.000213
0.000213 0.000213 0.000213
0.000213 0.000213 0.000213
0.000213 0.000213 0.000213
0.000213 0.000213 0.000213
0.000213 0.000213 0.000213
0.000213 0.000213 0.000213
0.000213 0.000213 0.000213
0.000213 0.000213 0.000213
0.000213 0.000213 0.000213
0.000213 0.000213 0.000213
0.000213 0.000213 0.000213
0.000213 0.000213 0.000213
0.000213 0.000213 0.000213
0.000213 0.000213 0.000213
0.000213 0.000213 0.000213
0.000213 0.000213 0.000213
0.000213 0.000213 0.000213
0.000213 0.000213 0.000213
0.000213 0.000213 0.000213
0.000213 0.000213 0.000213
0.000213 0.000213 0.000213
0.000213 0.000213 0.000213
0.000213 0.000213 0.000213
0.000213 0.000213 0.000213
0.000213 0.000213 0.000213
0.000213 0.000213 0.000213
0.000213 0.000213 0.000213
0.000213 0.000213 0.000213
0.000213 0.000213 0.000213
0.000213 0.000213 0.000213
0.000213 0.000213 0.000213
0.000213 0.000213 0.000213
0.000213 0.000213 0.000213
0.000213 0.000213 0.000213
0.000213 0.000213 0.000213
0.000213 0.000213 0.000213
0.000213 0.000213 0.000213
0.000213 0.000213 0.000213
0.000213 0.000213 0.000213
0.000213 0.000213 0.000213
0.000213 0.000213 0.000213
0.000213 0.000213 0.000213
0.000213 0.000213 0.000213
0.000213 0.000213 0.000213
0.000213 0.000213 0.000213
0.000213 0.000213 0.000213
0.000213 0.000213 0.000213
0.000213 0.000213 0.000213
0.000213 0.000213 0.000213
0.000213 0.000213 0.000213
0.000213 0.000213 0.000213
0.000213 0.000213 0.000213
0.000213 0.000213 0.000213
0.000213 0.000213 0.000213
0.000213 0.000213 0.000213
0.000213 0.000213 0.000213
0.000213 0.000213 0.000213
0.000213 0.000213 0.000213
0.000213 0.000213 0.000213
0.000213 0.000213 0.000213
0.000213 0.000213 0.000213
0.000213 0.000213 0.000213
0.000213 0.000213 0.000213
0.000213 0.000213 0.000213
0.000213 0.000213 0.000213
0.000213 0.000213 0.000213
0.000213 0.000213 0.000213
0.000213 0.000213 0.000213
0.000213 0.000213 0.000213
0.000213 0.000213 0.000213
0.000213 0.000213 0.000213
0.000213 0.000213 0.000213
0.000213 0.000213 0.000213
0.000213 0.000213 0.000213
0.000213 0.000213 0.000213
0.000213 0.000213 0.000213
0.000213 0.000213 0.000213
0.000213 0.000213 0.000213
0.000213 0.000213 0.000213
0.000213 0.000213 0.000213
0.000213 0.000213 0.000213
0.000213 0.000213 0.000213
0.000213 0.000213 0.000213
0.000213 0.000213 0.000213
0.000213 0.000213 0.000213
0.000213 0.000213 0.000213
0.000213 0.000213 0.000213
0.000213 0.000213 0.000213
0.000213 0.000213 0.000213
0.000213 0.000213 0.000213
0.000213 0.000213 0.000213
0.000213 0.000213 0.000213
0.000213 0.000213 0.000213
0.000213 0.000213 0.000213
0.000213 0.000213 0.000213
0.000213 0.000213 0.000213
0.000213 0.000213 0.000213
0.000213 0.000213 0.000213
0.000213 0.000213 0.000213
0.000213 0.000213 0.000213
0.000213 0.000213 0.000213
0.000213 0.000213 0.000213
0.000213 0.000213 0.000213
0.000213 0.000213 0.000213
0.000213 0.000213 0.000213
0.000213 0.000213 0.000213
0.000213 0.000213 0.000213
0.000213 0.000213 0.000213
0.000213 0.000213 0.000213
0.000213 0.000213 0.000213
0.000213 0.000213 0.000213
0.000213 0.000213 0.000213
0.000213 0.000213 0.000213
0.000213 0.000213 0.000213
0.000213 0.000213 0.000213
0.000213 0.000213 0.000213
0.000213 0.000213 0.000213
0.000213 0.000213 0.000213
0.000213 0.000213 0.000213
0.000213 0.000213 0.000213
0.000213 0.000213 0.000213
