software/Premiere/untitled folder/ARRILogC3_to_ACES-Rec709.cube
TITLE "Generated by Foundry::LUT"
LUT_3D_SIZE 5
0.075155 0.075155 0.075155
0.075155 0.075155 0.075155
0.535234 0.072906 0.072906
0.072906 0.072906 0.072906
0.072906 0.072906 0.072906
0.075155 0.075155 0.075155
0.075155 0.075155 0.075155
0.535294 0.072906 0.072906
0.072906 0.072906 0.072906
0.072906 0.072906 0.072906
0.072906 0.534421 0.072906
0.072906 0.534415 0.072906
0.528731 0.532631 0.072906
0.072906 0.072906 0.072906
0.072906 0.072906 0.072906
0.072906 0.072906 0.072906
0.072906 0.072906 0.072906
0.072906 0.072906 0.072906
0.072906 0.072906 0.072906
0.072906 0.072906 0.072906
0.072906 0.072906 0.072906
0.072906 0.072906 0.072906
0.072906 0.072906 0.072906
0.072906 0.072906 0.072906
0.072906 0.072906 0.072906
0.075155 0.075155 0.075155
0.075155 0.075155 0.075155
0.535211 0.072906 0.072906
0.072906 0.072906 0.072906
0.072906 0.072906 0.072906
0.075155 0.075155 0.075155
0.075155 0.075155 0.075155
0.535263 0.072906 0.072906
0.072906 0.072906 0.072906
0.072906 0.072906 0.072906
0.072906 0.534391 0.072906
0.072906 0.534385 0.072906
0.528805 0.532601 0.072906
0.072906 0.072906 0.072906
0.072906 0.072906 0.072906
0.072906 0.072906 0.072906
0.072906 0.072906 0.072906
0.072906 0.072906 0.072906
0.072906 0.072906 0.072906
0.072906 0.072906 0.072906
0.072906 0.072906 0.072906
0.072906 0.072906 0.072906
0.072906 0.072906 0.072906
0.072906 0.072906 0.072906
0.072906 0.072906 0.072906
0.072906 0.072906 0.531470
0.072906 0.072906 0.531472
0.535958 0.072906 0.530801
0.072906 0.072906 0.072906
0.072906 0.072906 0.072906
0.072906 0.072906 0.531453
0.072906 0.072906 0.531455
0.536110 0.072906 0.530783
0.072906 0.072906 0.072906
0.072906 0.072906 0.072906
0.072906 0.528052 0.526301
0.072906 0.528060 0.526305
0.526460 0.526460 0.526460
0.072906 0.072906 0.072906
0.072906 0.072906 0.072906
0.072906 0.072906 0.072906
0.072906 0.072906 0.072906
0.072906 0.072906 0.072906
0.072906 0.072906 0.072906
0.072906 0.072906 0.072906
0.072906 0.072906 0.072906
0.072906 0.072906 0.072906
0.072906 0.072906 0.072906
0.072906 0.072906 0.072906
0.072906 0.072906 0.072906
0.072906 0.072906 0.072906
0.072906 0.072906 0.072906
0.072906 0.072906 0.072906
0.072906 0.072906 0.072906
0.072906 0.072906 0.072906
0.072906 0.072906 0.072906
0.072906 0.072906 0.072906
0.072906 0.072906 0.072906
0.072906 0.072906 0.072906
0.072906 0.072906 0.072906
0.072906 0.072906 0.072906
0.072906 0.072906 0.072906
0.072906 0.072906 0.072906
0.072906 0.072906 0.072906
0.072906 0.072906 0.072906
0.072906 0.072906 0.072906
0.072906 0.072906 0.072906
0.072906 0.072906 0.072906
0.072906 0.072906 0.072906
0.072906 0.072906 0.072906
0.072906 0.072906 0.072906
0.072906 0.072906 0.072906
0.072906 0.072906 0.072906
0.072906 0.072906 0.072906
0.072906 0.072906 0.072906
0.072906 0.072906 0.072906
0.072906 0.072906 0.072906
0.072906 0.072906 0.072906
0.072906 0.072906 0.072906
0.072906 0.072906 0.072906
0.072906 0.072906 0.072906
0.072906 0.072906 0.072906
0.072906 0.072906 0.072906
0.072906 0.072906 0.072906
0.072906 0.072906 0.072906
0.072906 0.072906 0.072906
0.072906 0.072906 0.072906
0.072906 0.072906 0.072906
0.072906 0.072906 0.072906
0.072906 0.072906 0.072906
0.072906 0.072906 0.072906
0.072906 0.072906 0.072906
0.072906 0.072906 0.072906
0.072906 0.072906 0.072906
0.072906 0.072906 0.072906
0.072906 0.072906 0.072906
0.072906 0.072906 0.072906
0.072906 0.072906 0.072906
0.072906 0.072906 0.072906
0.072906 0.072906 0.072906
