software/Premiere/untitled folder/ARRILogC3_to_ACES-Rec709_v3.cube
TITLE "Generated by Foundry::LUT"
LUT_3D_SIZE 4
0.000213 0.000213 0.000213
0.000213 0.000213 0.000213
0.000213 0.000213 0.000213
0.000213 0.000213 0.000213
0.000213 0.000213 0.000213
0.000213 0.000213 0.000213
0.000213 0.000213 0.000213
0.000213 0.000213 0.000213
0.000213 0.000213 0.000213
0.000213 0.000213 0.000213
0.000213 0.000213 0.000213
0.000213 0.000213 0.000213
0.000213 0.000213 0.000213
0.000213 0.000213 0.000213
0.000213 0.000213 0.000213
0.000213 0.000213 0.000213
0.877665 0.849567 0.848026
1.000000 0.998900 0.996336
0.983940 0.976920 0.967727
0.998273 0.995673 0.993777
0.587873 0.616069 0.373889
0.278753 0.297536 0.115601
0.495278 0.321694 0.251204
0.675575 0.687313 0.686966
0.361732 0.421289 0.352624
0.230435 0.237646 0.195587
0.308020 0.306659 0.293775
0.405558 0.326351 0.317285
0.471324 0.399388 0.348327
0.252003 0.252537 0.248084
0.389241 0.480031 0.076933
0.397192 0.316391 0.318330
0.000000 0.000000 0.000000
0.000000 0.000000 0.000000
0.000000 0.000000 0.000000
0.000000 0.000000 0.000000
0.000000 0.000000 0.000000
0.000000 0.000000 0.000000
0.000000 0.000000 0.000000
0.000000 0.000000 0.000000
0.000000 0.000000 0.000000
0.000000 0.000000 0.000000
0.000000 0.000000 0.000000
0.000000 0.000000 0.000000
0.000000 0.000000 0.000000
0.000000 0.000000 0.000000
0.000000 0.000000 0.000000
0.000000 0.000000 0.000000
0.000000 0.000000 0.000000
0.000000 0.000000 0.000000
0.000000 0.000000 0.000000
0.000000 0.000000 0.000000
0.000000 0.000000 0.000000
0.000000 0.000000 0.000000
0.000000 0.000000 0.000000
0.000000 0.000000 0.000000
0.000000 0.000000 0.000000
0.000000 0.000000 0.000000
0.000000 0.000000 0.000000
0.000000 0.000000 0.000000
0.000000 0.000000 0.000000
0.000000 0.000000 0.000000
0.000000 0.000000 0.000000
0.000000 0.000000 0.000000
