legacy/legacy-OCIOv2/StdX-ACES-ANM/studio/aces_gm_lut_shaper_to_linear_v01.spi1d
Version 1
From 0 1
Length 16384
Components 1
{
		 -26.45333862
		 -26.4180584
		 -26.38284302
		 -26.34767342
		 -26.31253433
		 -26.2774601
		 -26.24243164
		 -26.20743179
		 -26.17249679
		 -26.13760948
		 -26.10276604
		 -26.06795502
		 -26.03320503
		 -25.9984684
		 -25.96379471
		 -25.92918396
		 -25.89462089
		 -25.86008453
		 -25.82561302
		 -25.79118728
		 -25.75680732
		 -25.72245598
		 -25.68816757
		 -25.65392494
		 -25.61971092
		 -25.58555984
		 -25.55145263
		 -25.51737594
		 -25.48336029
		 -25.44935798
		 -25.41543388
		 -25.38153648
		 -25.34770393
		 -25.31391525
		 -25.28015327
		 -25.24645614
		 -25.21280098
		 -25.17917633
		 -25.1456108
		 -25.11209297
		 -25.07861709
		 -25.04516983
		 -25.0117855
		 -24.97844314
		 -24.9451313
		 -24.91184616
		 -24.87863731
		 -24.84545707
		 -24.81233787
		 -24.77926254
		 -24.74621581
		 -24.71322822
		 -24.6802864
		 -24.64738654
		 -24.6145153
		 -24.58170318
		 -24.54893684
		 -24.51619529
		 -24.48351478
		 -24.45087814
		 -24.4182682
		 -24.38568687
		 -24.35317992
		 -24.32071685
		 -24.28828239
		 -24.25590514
		 -24.22357177
		 -24.1912651
		 -24.15901755
		 -24.12681388
		 -24.09463691
		 -24.06251906
		 -24.03044318
		 -23.99840926
		 -23.96640395
		 -23.93445586
		 -23.90255164
		 -23.8706417
		 -23.8388214
		 -23.80704497
		 -23.77529334
		 -23.74360084
		 -23.71195029
		 -23.68034171
		 -23.64875983
		 -23.61723708
		 -23.58575438
		 -23.55429839
		 -23.52290152
		 -23.49154471
		 -23.4602146
		 -23.42894172
		 -23.39771079
		 -23.36649131
		 -23.33532714
		 -23.3042221
		 -23.27315711
		 -23.24211882
		 -23.21113585
		 -23.18019484
		 -23.14928054
		 -23.11842154
		 -23.08760451
		 -23.05681418
		 -23.02607917
		 -22.99538611
		 -22.96473311
		 -22.93410491
		 -22.90353392
		 -22.87297248
		 -22.84246825
		 -22.81201934
		 -22.78161048
		 -22.75122641
		 -22.72089957
		 -22.69061278
		 -22.66036605
		 -22.63014411
		 -22.59997748
		 -22.56985282
		 -22.53975104
		 -22.50970648
		 -22.47970007
		 -22.44972037
		 -22.41979407
		 -22.38987921
		 -22.36003302
		 -22.33021163
		 -22.30044554
		 -22.27071951
		 -22.24101828
		 -22.21137045
		 -22.18176268
		 -22.1521797
		 -22.12265013
		 -22.09316061
		 -22.06369589
		 -22.03428458
		 -22.00491331
		 -21.9755802
		 -21.94627188
		 -21.91698836
		 -21.8877735
		 -21.85858343
		 -21.82944487
		 -21.80034636
		 -21.77127264
		 -21.74225043
		 -21.71326826
		 -21.68432425
		 -21.65540503
		 -21.62653731
		 -21.59770964
		 -21.56890677
		 -21.54015349
		 -21.51144217
		 -21.48275183
		 -21.45408819
		 -21.42548941
		 -21.39692877
		 -21.36839293
		 -21.33990858
		 -21.31146239
		 -21.28303908
		 -21.25466917
		 -21.22633742
		 -21.19802855
		 -21.16977118
		 -21.14155195
		 -21.11337088
		 -21.08521269
		 -21.057106
		 -21.02903746
		 -21.00096319
		 -20.97296904
		 -20.94501112
		 -20.917078
		 -20.88919638
		 -20.86135099
		 -20.83354185
		 -20.8057575
		 -20.77802275
		 -20.75032614
		 -20.72265242
		 -20.69502829
		 -20.6674423
		 -20.63987921
		 -20.6123657
		 -20.58489035
		 -20.55742262
		 -20.53000639
		 -20.50263975
		 -20.47531126
		 -20.44800375
		 -20.42074583
		 -20.39352606
		 -20.36632727
		 -20.33917807
		 -20.31206701
		 -20.28497694
		 -20.25793836
		 -20.23093412
		 -20.20396612
		 -20.17702101
		 -20.15012548
		 -20.12323759
		 -20.09640119
		 -20.06961248
		 -20.04286001
		 -20.01612852
		 -19.98944853
		 -19.96280287
		 -19.93619154
		 -19.9096031
		 -19.88306425
		 -19.85655973
		 -19.8300781
		 -19.80364416
		 -19.77724645
		 -19.75087164
		 -19.7245426
		 -19.698225
		 -19.67196653
		 -19.64573095
		 -19.61954305
		 -19.5933914
		 -19.56725881
		 -19.54117582
		 -19.51512907
		 -19.48910139
		 -19.4631233
		 -19.43717954
		 -19.41125677
		 -19.38538168
		 -19.35954092
		 -19.33373449
		 -19.30795095
		 -19.28218649
		 -19.25648496
		 -19.23080251
		 -19.20516775
		 -19.17956731
		 -19.15398977
		 -19.12845609
		 -19.10295866
		 -19.07749555
		 -19.05205152
		 -19.02665517
		 -19.00129316
		 -18.97595212
		 -18.95065687
		 -18.92539594
		 -18.900156
		 -18.87493703
		 -18.8497772
		 -18.82465169
		 -18.79954526
		 -18.77448652
		 -18.7494602
		 -18.72445486
		 -18.69949529
		 -18.67456815
		 -18.6496639
		 -18.62480352
		 -18.59997747
		 -18.57518384
		 -18.5504112
		 -18.52568242
		 -18.50098798
		 -18.47628972
		 -18.45166204
		 -18.42706487
		 -18.40249059
		 -18.37796018
		 -18.35346219
		 -18.32899663
		 -18.30455205
		 -18.28015325
		 -18.25578496
		 -18.23143957
		 -18.20713613
		 -18.18286702
		 -18.15861699
		 -18.13441274
		 -18.110239
		 -18.0860748
		 -18.06195447
		 -18.03787801
		 -18.01383397
		 -17.98980901
		 -17.96582982
		 -17.94188115
		 -17.91795347
		 -17.89406774
		 -17.87021634
		 -17.84638402
		 -17.82259366
		 -17.79883764
		 -17.77511213
		 -17.75140569
		 -17.72774312
		 -17.70409009
		 -17.68047902
		 -17.65690992
		 -17.63337323
		 -17.60985753
		 -17.58638379
		 -17.56294057
		 -17.53952977
		 -17.51613805
		 -17.4927902
		 -17.46947286
		 -17.44617459
		 -17.42291829
		 -17.39969442
		 -17.37648961
		 -17.35332677
		 -17.33017156
		 -17.30707166
		 -17.28398893
		 -17.26095006
		 -17.23794171
		 -17.21495244
		 -17.19200513
		 -17.16908834
		 -17.14619062
		 -17.12333676
		 -17.10051152
		 -17.07770536
		 -17.05494115
		 -17.03220746
		 -17.00950238
		 -16.98681829
		 -16.96415326
		 -16.94153974
		 -16.91894528
		 -16.89639279
		 -16.87387082
		 -16.85136792
		 -16.82890508
		 -16.80647275
		 -16.78406903
		 -16.7616863
		 -16.73934171
		 -16.71702954
		 -16.69473454
		 -16.67248151
		 -16.65025708
		 -16.62805173
		 -16.60586545
		 -16.58372876
		 -16.5616245
		 -16.5395374
		 -16.51749036
		 -16.49547193
		 -16.47347257
		 -16.45151517
		 -16.42958447
		 -16.40767285
		 -16.38580319
		 -16.36396024
		 -16.3421478
		 -16.32035443
		 -16.29859921
		 -16.27687261
		 -16.25514409
		 -16.23347661
		 -16.21183774
		 -16.19021603
		 -16.16863629
		 -16.14708325
		 -16.12555882
		 -16.10405347
		 -16.08258817
		 -16.06114957
		 -16.03973004
		 -16.01835057
		 -15.9969978
		 -15.97566316
		 -15.95436856
		 -15.93310162
		 -15.91183183
		 -15.89062116
		 -15.86944005
		 -15.8482866
		 -15.82715031
		 -15.80605313
		 -15.78498456
		 -15.76393315
		 -15.74291989
		 -15.72193524
		 -15.70096776
		 -15.68003842
		 -15.6591377
		 -15.63826463
		 -15.61740872
		 -15.59659097
		 -15.57578084
		 -15.55500886
		 -15.53427407
		 -15.51356694
		 -15.49287793
		 -15.47222611
		 -15.45160195
		 -15.43100545
		 -15.41042611
		 -15.38988492
		 -15.36937043
		 -15.34887311
		 -15.32841393
		 -15.30798146
		 -15.28756615
		 -15.26718899
		 -15.24681756
		 -15.2264938
		 -15.20618722
		 -15.18591782
		 -15.16567609
		 -15.14545056
		 -15.12526223
		 -15.1051006
		 -15.08495614
		 -15.06484791
		 -15.04476735
		 -15.02470299
		 -15.00467583
		 -14.98467538
		 -14.96470067
		 -14.94474312
		 -14.92480275
		 -14.9049091
		 -14.88503071
		 -14.86518952
		 -14.84537503
		 -14.82557675
		 -14.80581471
		 -14.78607937
		 -14.76636979
		 -14.74667737
		 -14.72702023
		 -14.7073898
		 -14.68777558
		 -14.66819665
		 -14.64864537
		 -14.62910935
		 -14.60958954
		 -14.59011551
		 -14.57066723
		 -14.55123612
		 -14.53183934
		 -14.51246926
		 -14.49311444
		 -14.47379586
		 -14.45450303
		 -14.43522641
		 -14.41598412
		 -14.39676854
		 -14.37757775
		 -14.35840413
		 -14.33926484
		 -14.3201513
		 -14.30103394
		 -14.2819719
		 -14.26293465
		 -14.24391266
		 -14.22492596
		 -14.20596501
		 -14.18701932
		 -14.16810891
		 -14.14922329
		 -14.13036343
		 -14.11151883
		 -14.09270855
		 -14.07392308
		 -14.05515381
		 -14.03641888
		 -14.01770875
		 -13.9989967
		 -13.98033616
		 -13.96170136
		 -13.94309041
		 -13.92449566
		 -13.90593525
		 -13.88739869
		 -13.86887833
		 -13.85039231
		 -13.83193013
		 -13.8134832
		 -13.79507061
		 -13.77668282
		 -13.75831887
		 -13.73997017
		 -13.72165581
		 -13.70334717
		 -13.68507191
		 -13.66683003
		 -13.64861294
		 -13.63041111
		 -13.61224266
		 -13.59409806
		 -13.57597729
		 -13.55787274
		 -13.53980061
		 -13.52175232
		 -13.5037193
		 -13.48571965
		 -13.46774384
		 -13.44978329
		 -13.43185517
		 -13.41393372
		 -13.39605328
		 -13.3781881
		 -13.36035534
		 -13.34254643
		 -13.32475277
		 -13.30699154
		 -13.28925415
		 -13.27153107
		 -13.25384137
		 -13.23617455
		 -13.21852204
		 -13.2009029
		 -13.18330666
		 -13.1657333
		 -13.14817616
		 -13.13063237
		 -13.11312958
		 -13.09564206
		 -13.078186
		 -13.06075379
		 -13.04333588
		 -13.02594944
		 -13.00858685
		 -12.99124714
		 -12.97392174
		 -12.95662781
		 -12.93935772
		 -12.92210194
		 -12.90487667
		 -12.88767525
		 -12.87048813
		 -12.85331532
		 -12.83618256
		 -12.81907269
		 -12.80197712
		 -12.78491303
		 -12.76787087
		 -12.75084397
		 -12.73384758
		 -12.71687409
		 -12.6999149
		 -12.68298622
		 -12.66608044
		 -12.64919754
		 -12.63232895
		 -12.61548992
		 -12.59867474
		 -12.58185669
		 -12.56508538
		 -12.54833695
		 -12.53160187
		 -12.51489827
		 -12.49821659
		 -12.48154923
		 -12.46491143
		 -12.44829651
		 -12.43170353
		 -12.41512486
		 -12.39857575
		 -12.38204953
		 -12.36553665
		 -12.3490543
		 -12.33259388
		 -12.3161306
		 -12.29971405
		 -12.28331944
		 -12.2669458
		 -12.25058647
		 -12.23425766
		 -12.21794983
		 -12.20165631
		 -12.18539234
		 -12.16914936
		 -12.15292069
		 -12.13672158
		 -12.1205444
		 -12.1043882
		 -12.08824536
		 -12.07213303
		 -12.05602547
		 -12.03994747
		 -12.02389904
		 -12.00787159
		 -11.99185845
		 -11.97587391
		 -11.95991036
		 -11.94396874
		 -11.92804047
		 -11.91214081
		 -11.89626309
		 -11.88039776
		 -11.864562
		 -11.84874722
		 -11.83294579
		 -11.81717392
		 -11.80140587
		 -11.78567597
		 -11.76995846
		 -11.75426956
		 -11.7386026
		 -11.72294804
		 -11.70732209
		 -11.69171616
		 -11.67612454
		 -11.66056057
		 -11.64501854
		 -11.62948891
		 -11.61398693
		 -11.59850689
		 -11.58304688
		 -11.56759926
		 -11.552165
		 -11.53676697
		 -11.52138134
		 -11.50602432
		 -11.49068733
		 -11.4753637
		 -11.46006771
		 -11.44479271
		 -11.42953678
		 -11.41429516
		 -11.39908024
		 -11.3838863
		 -11.36870476
		 -11.35355088
		 -11.33841797
		 -11.32329651
		 -11.3081884
		 -11.29311558
		 -11.27806278
		 -11.26302239
		 -11.24800965
		 -11.23301693
		 -11.21803662
		 -11.20308396
		 -11.18815037
		 -11.17323014
		 -11.15833756
		 -11.14346405
		 -11.12860295
		 -11.1137695
		 -11.09895607
		 -11.08416172
		 -11.06936547
		 -11.05461022
		 -11.03987595
		 -11.02515312
		 -11.010457
		 -10.99578091
		 -10.98111721
		 -10.96648022
		 -10.95186325
		 -10.93726441
		 -10.92267891
		 -10.90812012
		 -10.8935804
		 -10.87905308
		 -10.86455151
		 -10.85006996
		 -10.83558651
		 -10.82114311
		 -10.80671974
		 -10.79231545
		 -10.77792259
		 -10.76355644
		 -10.74920937
		 -10.73487469
		 -10.72056576
		 -10.7062759
		 -10.69199845
		 -10.67774674
		 -10.6635141
		 -10.64930054
		 -10.63509842
		 -10.62092301
		 -10.60675236
		 -10.59260746
		 -10.57848831
		 -10.56438824
		 -10.55029961
		 -10.53623673
		 -10.52219292
		 -10.50816723
		 -10.49415394
		 -10.4801664
		 -10.46619698
		 -10.45223995
		 -10.43830773
		 -10.42439457
		 -10.41049191
		 -10.39661595
		 -10.38274475
		 -10.36890503
		 -10.35507771
		 -10.34127518
		 -10.32749077
		 -10.31371876
		 -10.29997154
		 -10.28624245
		 -10.2725248
		 -10.25883194
		 -10.24515816
		 -10.23149582
		 -10.21785732
		 -10.2042379
		 -10.1906366
		 -10.17704674
		 -10.16346832
		 -10.14992138
		 -10.13638588
		 -10.12287422
		 -10.10938164
		 -10.0959005
		 -10.0824432
		 -10.06900402
		 -10.05558296
		 -10.04217335
		 -10.02878758
		 -10.01542088
		 -10.00206467
		 -9.988732302
		 -9.975418055
		 -9.962115252
		 -9.948823893
		 -9.935563051
		 -9.922319376
		 -9.909087145
		 -9.895879709
		 -9.88268944
		 -9.869509661
		 -9.856354677
		 -9.84321686
		 -9.830090487
		 -9.816987955
		 -9.80390259
		 -9.790828669
		 -9.777778589
		 -9.764745676
		 -9.751729929
		 -9.738712275
		 -9.725731813
		 -9.712768518
		 -9.699815714
		 -9.686886751
		 -9.673974955
		 -9.661074602
		 -9.648197138
		 -9.63533684
		 -9.622493708
		 -9.60966202
		 -9.59685322
		 -9.584061586
		 -9.571280443
		 -9.558522188
		 -9.545782053
		 -9.53304001
		 -9.520333254
		 -9.507643663
		 -9.494970285
		 -9.482308352
		 -9.469669306
		 -9.457047426
		 -9.444436037
		 -9.431847536
		 -9.419275248
		 -9.406714403
		 -9.394176447
		 -9.381654703
		 -9.369150126
		 -9.356656038
		 -9.344183886
		 -9.331716501
		 -9.319272959
		 -9.306851351
		 -9.294445955
		 -9.28205105
		 -9.269679033
		 -9.257323229
		 -9.244984591
		 -9.232655489
		 -9.220349276
		 -9.208060228
		 -9.195780718
		 -9.183523142
		 -9.171282732
		 -9.159051859
		 -9.146843874
		 -9.134640657
		 -9.122458422
		 -9.110300028
		 -9.098156893
		 -9.08602997
		 -9.073912584
		 -9.061818087
		 -9.049739801
		 -9.037672007
		 -9.025625193
		 -9.013595545
		 -9.001575434
		 -8.989577257
		 -8.977595293
		 -8.965628588
		 -8.953672373
		 -8.941726648
		 -8.929808581
		 -8.917900049
		 -8.906013453
		 -8.894142115
		 -8.882282221
		 -8.870442354
		 -8.858619654
		 -8.846812212
		 -8.835014307
		 -8.823238337
		 -8.811477625
		 -8.799727404
		 -8.787998163
		 -8.776285135
		 -8.764580691
		 -8.75288769
		 -8.741220438
		 -8.729569399
		 -8.71792885
		 -8.706308329
		 -8.69470402
		 -8.683109247
		 -8.671535456
		 -8.659977877
		 -8.648428881
		 -8.636901819
		 -8.625390017
		 -8.613887751
		 -8.602406466
		 -8.590940439
		 -8.579489672
		 -8.568036997
		 -8.556616747
		 -8.545211756
		 -8.533816302
		 -8.522441828
		 -8.511082613
		 -8.499732935
		 -8.488403284
		 -8.477089846
		 -8.465790713
		 -8.454501116
		 -8.4432325
		 -8.43197819
		 -8.42073437
		 -8.409510577
		 -8.398301089
		 -8.387090647
		 -8.375911677
		 -8.364747965
		 -8.353598559
		 -8.342458689
		 -8.331338847
		 -8.320234263
		 -8.309139216
		 -8.298064196
		 -8.287004435
		 -8.275953257
		 -8.264922106
		 -8.253906214
		 -8.242904627
		 -8.231912577
		 -8.220940554
		 -8.209972346
		 -8.199024165
		 -8.188095057
		 -8.177182162
		 -8.166276896
		 -8.155392611
		 -8.144522631
		 -8.133666956
		 -8.122820818
		 -8.111993754
		 -8.101181948
		 -8.090378726
		 -8.079594576
		 -8.068825686
		 -8.058066332
		 -8.047325099
		 -8.036588633
		 -8.025872195
		 -8.01517483
		 -8.00449177
		 -7.993823016
		 -7.983162844
		 -7.972522223
		 -7.961895907
		 -7.951278651
		 -7.940680468
		 -7.930096591
		 -7.919521773
		 -7.908966029
		 -7.89842459
		 -7.887896979
		 -7.877378428
		 -7.86686846
		 -7.856382811
		 -7.845906222
		 -7.835448706
		 -7.825005019
		 -7.814570391
		 -7.804154837
		 -7.793752635
		 -7.783364737
		 -7.772985423
		 -7.762625182
		 -7.752278769
		 -7.74194094
		 -7.731622184
		 -7.721316779
		 -7.711020434
		 -7.700732196
		 -7.690468276
		 -7.680218184
		 -7.669976199
		 -7.659753287
		 -7.649544204
		 -7.639343226
		 -7.629160846
		 -7.618992293
		 -7.608832324
		 -7.598690951
		 -7.58856293
		 -7.578443492
		 -7.56834265
		 -7.55825516
		 -7.548181022
		 -7.538105453
		 -7.528058017
		 -7.518024409
		 -7.507998908
		 -7.497992004
		 -7.48799845
		 -7.478013003
		 -7.468045676
		 -7.458092178
		 -7.448151553
		 -7.438219512
		 -7.428305114
		 -7.418404544
		 -7.40851208
		 -7.39863726
		 -7.388776267
		 -7.378913367
		 -7.369078601
		 -7.359256709
		 -7.349447692
		 -7.339647258
		 -7.329864467
		 -7.320095027
		 -7.310333694
		 -7.300590003
		 -7.290859664
		 -7.281136955
		 -7.271432365
		 -7.26174065
		 -7.252061809
		 -7.242391551
		 -7.23273846
		 -7.223088706
		 -7.213456596
		 -7.203842128
		 -7.194240535
		 -7.184647048
		 -7.175071205
		 -7.165507759
		 -7.155952896
		 -7.146414722
		 -7.1368899
		 -7.127377475
		 -7.117873157
		 -7.108386005
		 -7.098911727
		 -7.089445556
		 -7.079996551
		 -7.070550407
		 -7.061121906
		 -7.051710571
		 -7.042311634
		 -7.032925571
		 -7.023547138
		 -7.014185871
		 -7.004837001
		 -6.995496238
		 -6.986172165
		 -6.976860965
		 -6.967557396
		 -6.958270515
		 -6.948996509
		 -6.939734424
		 -6.930480446
		 -6.921234096
		 -6.912009205
		 -6.902792419
		 -6.893591846
		 -6.884404148
		 -6.875223602
		 -6.866060222
		 -6.856908764
		 -6.847769703
		 -6.838638271
		 -6.829523529
		 -6.820420708
		 -6.811325992
		 -6.80224749
		 -6.793181385
		 -6.784122909
		 -6.775071587
		 -6.766041721
		 -6.757023777
		 -6.748013462
		 -6.739018811
		 -6.730037655
		 -6.72106365
		 -6.71210524
		 -6.703158275
		 -6.694220509
		 -6.685298476
		 -6.676387753
		 -6.667484183
		 -6.658598389
		 -6.649724037
		 -6.640860523
		 -6.631996057
		 -6.62315699
		 -6.614330319
		 -6.605509724
		 -6.596704866
		 -6.587913479
		 -6.579129244
		 -6.570359673
		 -6.561602024
		 -6.552857365
		 -6.544119857
		 -6.535397019
		 -6.526686103
		 -6.517983403
		 -6.509296436
		 -6.500620331
		 -6.491942797
		 -6.483290638
		 -6.474650399
		 -6.466020073
		 -6.457397378
		 -6.44879147
		 -6.440197005
		 -6.431608643
		 -6.423035542
		 -6.414475407
		 -6.405922424
		 -6.397384133
		 -6.388857288
		 -6.38034245
		 -6.371834763
		 -6.363341775
		 -6.354852125
		 -6.346378293
		 -6.337920194
		 -6.329472508
		 -6.321031976
		 -6.312607732
		 -6.30419493
		 -6.295787778
		 -6.287396362
		 -6.279016938
		 -6.27064848
		 -6.262286153
		 -6.253939563
		 -6.245604481
		 -6.237277028
		 -6.228963342
		 -6.220652517
		 -6.212357964
		 -6.204078669
		 -6.195809331
		 -6.187550961
		 -6.179300752
		 -6.171065323
		 -6.162839856
		 -6.154621543
		 -6.146419015
		 -6.138227929
		 -6.130042043
		 -6.121871417
		 -6.113712754
		 -6.105565058
		 -6.097423043
		 -6.089287705
		 -6.081172433
		 -6.073063835
		 -6.06496903
		 -6.056885193
		 -6.048809018
		 -6.040748101
		 -6.032696214
		 -6.024655295
		 -6.01662251
		 -6.008604029
		 -6.00059506
		 -5.992593244
		 -5.98460671
		 -5.976631141
		 -5.968660798
		 -5.960697609
		 -5.952753511
		 -5.944820378
		 -5.936892476
		 -5.928979358
		 -5.921078172
		 -5.913183184
		 -5.905301538
		 -5.897430384
		 -5.889566865
		 -5.881718128
		 -5.873878446
		 -5.866045441
		 -5.858227697
		 -5.850420441
		 -5.842622247
		 -5.834823577
		 -5.827047315
		 -5.819281542
		 -5.811521497
		 -5.803775282
		 -5.796040502
		 -5.788312397
		 -5.780597654
		 -5.772892449
		 -5.765199152
		 -5.757512052
		 -5.749837843
		 -5.742174125
		 -5.734518018
		 -5.726875262
		 -5.71924254
		 -5.711607912
		 -5.703996149
		 -5.696394398
		 -5.68880221
		 -5.681215745
		 -5.67364451
		 -5.666083288
		 -5.658527342
		 -5.650985225
		 -5.643454519
		 -5.635929534
		 -5.628417459
		 -5.620915877
		 -5.613420931
		 -5.605940289
		 -5.598468271
		 -5.590999115
		 -5.583544222
		 -5.576103155
		 -5.568670717
		 -5.561244956
		 -5.553833452
		 -5.546431961
		 -5.539035765
		 -5.531652922
		 -5.524280993
		 -5.516919076
		 -5.509561983
		 -5.50221872
		 -5.494885889
		 -5.487559256
		 -5.480245081
		 -5.472933768
		 -5.465636221
		 -5.458352024
		 -5.451076952
		 -5.443811418
		 -5.436552969
		 -5.429307871
		 -5.422071425
		 -5.414841179
		 -5.40762469
		 -5.400418212
		 -5.393216578
		 -5.386028296
		 -5.378850428
		 -5.371682096
		 -5.364519087
		 -5.357361802
		 -5.350222556
		 -5.343088553
		 -5.335967032
		 -5.328855049
		 -5.321750132
		 -5.314657612
		 -5.30757424
		 -5.30049993
		 -5.293432681
		 -5.286378305
		 -5.279332606
		 -5.27229263
		 -5.265266387
		 -5.258249202
		 -5.251237361
		 -5.244231719
		 -5.237242667
		 -5.230263151
		 -5.223288505
		 -5.216326734
		 -5.20937535
		 -5.20242921
		 -5.195495574
		 -5.188570522
		 -5.181652514
		 -5.17474738
		 -5.167849986
		 -5.160958792
		 -5.154080836
		 -5.147212416
		 -5.140351741
		 -5.13349059
		 -5.126649348
		 -5.119817166
		 -5.112989871
		 -5.106175453
		 -5.099370448
		 -5.092571165
		 -5.085783927
		 -5.079005274
		 -5.072236984
		 -5.065473938
		 -5.058722465
		 -5.051980053
		 -5.045244186
		 -5.038520715
		 -5.031805007
		 -5.025088824
		 -5.018392055
		 -5.011704345
		 -5.005024402
		 -4.998350182
		 -4.991689174
		 -4.985037225
		 -4.978389709
		 -4.971754115
		 -4.965128868
		 -4.958508387
		 -4.951899974
		 -4.945299669
		 -4.938706367
		 -4.932124508
		 -4.925550907
		 -4.91897969
		 -4.912421196
		 -4.905874621
		 -4.89933583
		 -4.892802763
		 -4.886282413
		 -4.879770645
		 -4.873263805
		 -4.86676841
		 -4.860282867
		 -4.853805907
		 -4.847333401
		 -4.840872817
		 -4.834421604
		 -4.827976112
		 -4.821541279
		 -4.81510883
		 -4.80868861
		 -4.80228031
		 -4.79587981
		 -4.789487895
		 -4.783102005
		 -4.776728035
		 -4.770361393
		 -4.764000474
		 -4.757651775
		 -4.751311659
		 -4.744975536
		 -4.738651813
		 -4.732336968
		 -4.726030227
		 -4.71972844
		 -4.713431421
		 -4.707150429
		 -4.700874204
		 -4.694609135
		 -4.688352173
		 -4.682101219
		 -4.675861709
		 -4.669629544
		 -4.663405962
		 -4.657188385
		 -4.650981775
		 -4.64478299
		 -4.638589451
		 -4.632408112
		 -4.626234878
		 -4.620065659
		 -4.613902163
		 -4.607753724
		 -4.601610052
		 -4.595477074
		 -4.589352204
		 -4.583236188
		 -4.577125415
		 -4.571025342
		 -4.564932899
		 -4.558846921
		 -4.552771432
		 -4.546703786
		 -4.540640908
		 -4.534589738
		 -4.528547149
		 -4.522511452
		 -4.516474803
		 -4.510456055
		 -4.504445413
		 -4.498439282
		 -4.492443643
		 -4.486456841
		 -4.480475284
		 -4.474503964
		 -4.468540275
		 -4.46258542
		 -4.456635332
		 -4.450695962
		 -4.444764223
		 -4.438837976
		 -4.432922695
		 -4.427014798
		 -4.421105472
		 -4.415214032
		 -4.409330221
		 -4.403453797
		 -4.397582144
		 -4.391721696
		 -4.385869354
		 -4.380021066
		 -4.374183269
		 -4.368354291
		 -4.362530081
		 -4.35671565
		 -4.350909326
		 -4.34510848
		 -4.339318123
		 -4.333534688
		 -4.327753639
		 -4.321983308
		 -4.316223944
		 -4.310471506
		 -4.304723837
		 -4.29898736
		 -4.293258511
		 -4.287533731
		 -4.281819443
		 -4.276113481
		 -4.270415148
		 -4.264720888
		 -4.259037119
		 -4.253361673
		 -4.247690518
		 -4.242029638
		 -4.23637019
		 -4.230722398
		 -4.225084143
		 -4.219453306
		 -4.213830099
		 -4.20821187
		 -4.20260413
		 -4.197002859
		 -4.191406357
		 -4.185821028
		 -4.180243327
		 -4.174669237
		 -4.169105162
		 -4.163549871
		 -4.158001256
		 -4.152457209
		 -4.146917454
		 -4.141391249
		 -4.135869811
		 -4.130357714
		 -4.12485277
		 -4.119353743
		 -4.113864251
		 -4.108381243
		 -4.102905865
		 -4.097435923
		 -4.091975517
		 -4.086522074
		 -4.081072924
		 -4.075634928
		 -4.070203607
		 -4.064776392
		 -4.059353946
		 -4.053944559
		 -4.048539463
		 -4.043143721
		 -4.037755609
		 -4.032374831
		 -4.026998819
		 -4.021631689
		 -4.01627219
		 -4.010917635
		 -4.005572617
		 -4.000234099
		 -3.994900112
		 -3.98957655
		 -3.98426014
		 -3.978950234
		 -3.973639613
		 -3.968344422
		 -3.963056382
		 -3.957771989
		 -3.952497371
		 -3.947230311
		 -3.94196778
		 -3.936714144
		 -3.931467662
		 -3.926228734
		 -3.920994335
		 -3.915768595
		 -3.91055001
		 -3.905336352
		 -3.90013223
		 -3.894934388
		 -3.889735831
		 -3.884552689
		 -3.879376223
		 -3.874206038
		 -3.869040385
		 -3.86388466
		 -3.858735848
		 -3.853590461
		 -3.84845485
		 -3.843326541
		 -3.838202523
		 -3.833087417
		 -3.827978987
		 -3.822875472
		 -3.817781255
		 -3.81269333
		 -3.807607075
		 -3.802530738
		 -3.797463699
		 -3.792402717
		 -3.787346027
		 -3.782299253
		 -3.777259153
		 -3.77222273
		 -3.767195368
		 -3.762175294
		 -3.757162134
		 -3.752152416
		 -3.747151996
		 -3.742158624
		 -3.737169781
		 -3.732189151
		 -3.727210191
		 -3.722241136
		 -3.71728114
		 -3.712327215
		 -3.707379727
		 -3.702437135
		 -3.697503364
		 -3.692575666
		 -3.687652261
		 -3.682738277
		 -3.677830968
		 -3.672927114
		 -3.668032082
		 -3.663144323
		 -3.658263239
		 -3.653385374
		 -3.648511801
		 -3.643650028
		 -3.638792307
		 -3.633943054
		 -3.6291
		 -3.624261829
		 -3.61943224
		 -3.614608738
		 -3.609789289
		 -3.604979011
		 -3.600175409
		 -3.595377418
		 -3.590583482
		 -3.585798952
		 -3.581020858
		 -3.576246235
		 -3.571475427
		 -3.566716406
		 -3.561961437
		 -3.557214472
		 -3.552473706
		 -3.547739956
		 -3.543010258
