StdX-ACES/studio/LMT_neutral_ACEScct_33.cube
TITLE "Generated by Foundry::LUT"
LUT_3D_SIZE 5
0.065250 0.065250 0.065250
0.262907 0.117690 0.119847
0.488685 0.198196 0.173491
0.696344 0.489950 0.452266
0.906688 0.715919 0.671328
0.149389 0.269605 0.119226
0.274285 0.278991 0.127177
0.488275 0.312254 0.184278
0.696308 0.494422 0.452839
0.906689 0.716062 0.671342
0.267078 0.489086 0.234415
0.327241 0.489240 0.233086
0.490154 0.490325 0.220156
0.696629 0.538227 0.456799
0.906718 0.718554 0.671516
0.512333 0.700874 0.476858
0.514965 0.700890 0.476714
0.546550 0.701131 0.474528
0.702750 0.702802 0.441847
0.908315 0.753139 0.669622
0.731050 0.913141 0.690428
0.731128 0.913143 0.690417
0.732843 0.913159 0.690325
0.762205 0.913421 0.688273
0.915164 0.915324 0.661252
0.116641 0.120373 0.208117
0.270924 0.115061 0.269173
0.490237 0.150358 0.299230
0.696736 0.485351 0.455097
0.906693 0.715811 0.671528
0.126160 0.275155 0.274907
0.277750 0.277750 0.277750
0.490148 0.281015 0.280656
0.696692 0.490170 0.455666
0.906695 0.715973 0.671543
-0.030684 0.491994 0.278593
0.252234 0.491029 0.269636
0.490894 0.490206 0.239474
0.696824 0.536707 0.460289
0.906726 0.718453 0.671721
0.508536 0.700971 0.478204
0.511299 0.700987 0.478054
0.544408 0.701220 0.475836
0.702788 0.702794 0.442480
0.908328 0.753060 0.669789
0.730772 0.913152 0.690482
0.730914 0.913149 0.690491
0.732631 0.913166 0.690389
0.762113 0.913427 0.688324
0.915171 0.915318 0.661260
0.217756 0.278867 0.467444
0.297103 0.217661 0.481595
0.490847 0.124702 0.491010
0.696287 0.487376 0.523396
0.906732 0.714578 0.674826
0.233267 0.326280 0.474748
0.288312 0.300427 0.482810
0.489263 0.290426 0.489007
0.695990 0.492384 0.523324
0.906734 0.714743 0.674845
0.278316 0.489344 0.489244
0.331646 0.488745 0.488597
0.490249 0.490249 0.490249
0.692987 0.541163 0.523561
0.906754 0.717317 0.675041
0.159539 0.703409 0.502545
0.309814 0.703347 0.502063
0.495693 0.702774 0.496104
0.703513 0.702646 0.452788
0.908158 0.753092 0.674176
0.727933 0.913233 0.691416
0.728010 0.913237 0.691406
0.729867 0.913250 0.691291
0.760348 0.913507 0.689225
0.915204 0.915313 0.661651
0.463615 0.525709 0.656691
0.465335 0.524601 0.657291
0.504116 0.508326 0.670126
0.694257 0.527998 0.691791
0.903673 0.728940 0.744853
0.464345 0.527092 0.657870
0.466105 0.526020 0.658427
0.503573 0.509747 0.670467
0.694114 0.530533 0.691623
0.903659 0.729079 0.744850
0.475234 0.548568 0.669950
0.476991 0.547835 0.670320
0.504908 0.535326 0.677123
0.692640 0.560482 0.689996
0.903422 0.731593 0.744846
0.595140 0.696459 0.695851
0.595827 0.696446 0.695837
0.606000 0.696263 0.695671
0.702751 0.702751 0.702751
0.900309 0.768112 0.745928
-0.146516 0.916041 0.713971
-0.146516 0.916037 0.713954
0.332217 0.915984 0.713626
0.706577 0.915323 0.707995
0.916048 0.915108 0.670530
0.678030 0.745991 0.858314
0.678076 0.745948 0.858351
0.679120 0.745272 0.858860
0.714558 0.731655 0.874107
0.903898 0.756812 0.900361
0.678045 0.746055 0.858388
0.678129 0.746002 0.858423
0.679130 0.745341 0.858929
0.714535 0.731715 0.874125
0.903897 0.756899 0.900357
0.678628 0.746943 0.859443
0.678700 0.746902 0.859469
0.679751 0.746242 0.859961
0.714185 0.732570 0.874439
0.903791 0.758361 0.900237
0.690507 0.765777 0.874330
0.690548 0.765758 0.874345
0.691665 0.765272 0.874674
0.716915 0.754037 0.882758
0.902453 0.782690 0.898873
0.816774 0.907865 0.907113
0.816800 0.907867 0.907113
0.817252 0.907854 0.907104
0.825851 0.907734 0.907017
0.915252 0.915252 0.915252
