StdX-ACES/studio/LMT_neutral_ACEScct_33.cube
TITLE "Generated by Foundry::LUT"
LUT_3D_SIZE 33
0.065250 0.065250 0.065250
0.092856 0.092856 0.092856
0.120462 0.120462 0.120462
0.134307 0.121931 0.122290
0.138885 0.123691 0.124364
0.154721 0.120918 0.125311
0.193595 0.116383 0.124025
0.231623 0.116338 0.121680
0.262907 0.117690 0.119847
0.292344 0.120851 0.118055
0.321020 0.126162 0.115954
0.349565 0.133136 0.112836
0.379725 0.131677 0.110385
0.408437 0.130841 0.118255
0.435637 0.140617 0.128614
0.462321 0.160969 0.145609
0.488685 0.198196 0.173491
0.514829 0.243681 0.215949
0.540830 0.284960 0.256612
0.566776 0.322992 0.293283
0.592700 0.358730 0.327405
0.618613 0.392930 0.359948
0.644511 0.426129 0.391468
0.670414 0.458461 0.422227
0.696344 0.489950 0.452266
0.722316 0.520712 0.481688
0.748351 0.550726 0.510520
0.774467 0.580038 0.538761
0.800686 0.608586 0.566394
0.827026 0.636354 0.593379
0.853505 0.663298 0.619705
0.880091 0.689638 0.645533
0.906688 0.715919 0.671328
0.091828 0.091828 0.091828
0.092555 0.092555 0.092555
0.120161 0.120161 0.120161
0.142346 0.126317 0.122436
0.163801 0.128744 0.121905
0.183256 0.131502 0.122756
0.207446 0.134461 0.122816
0.234930 0.137871 0.122083
0.263046 0.142136 0.120806
0.291454 0.147602 0.118924
0.320021 0.154475 0.116206
0.348783 0.162320 0.111950
0.379870 0.156772 0.112304
0.408311 0.157983 0.119293
0.435528 0.168115 0.129632
0.462239 0.188693 0.146680
0.488623 0.221424 0.174662
0.514787 0.256742 0.216902
0.540801 0.292531 0.257204
0.566748 0.327571 0.293709
0.592679 0.361534 0.327691
0.618597 0.394684 0.360153
0.644503 0.427205 0.391604
0.670408 0.459138 0.422307
0.696339 0.490393 0.452325
0.722312 0.521003 0.481725
0.748349 0.550916 0.510540
0.774468 0.580145 0.538770
0.800685 0.608661 0.566406
0.827026 0.636413 0.593395
0.853505 0.663345 0.619707
0.880093 0.689642 0.645520
0.906687 0.715936 0.671327
0.118406 0.118406 0.118406
0.118388 0.118388 0.118388
0.119859 0.119859 0.119859
0.144212 0.136068 0.123572
0.163968 0.144319 0.124819
0.183802 0.149977 0.124418
0.207858 0.155185 0.123703
0.234455 0.160974 0.122598
0.262000 0.167445 0.120992
0.290240 0.174776 0.118676
0.318923 0.183060 0.115374
0.348070 0.191174 0.111213
0.379870 0.182694 0.113867
0.408201 0.184980 0.120356
0.435435 0.195420 0.130626
0.462163 0.214067 0.147730
0.488570 0.238709 0.175802
0.514747 0.267744 0.217830
0.540773 0.299350 0.257768
0.566723 0.331848 0.294101
0.592660 0.364242 0.328004
0.618584 0.396376 0.360344
0.644491 0.428308 0.391759
0.670402 0.459815 0.422377
0.696335 0.490819 0.452367
0.722311 0.521267 0.481765
0.748347 0.551103 0.510570
0.774467 0.580261 0.538789
0.800687 0.608726 0.566410
0.827029 0.636449 0.593380
0.853505 0.663377 0.619721
0.880094 0.689675 0.645531
0.906690 0.715938 0.671321
0.121627 0.140933 0.124008
0.129204 0.142097 0.124320
0.136854 0.143020 0.124958
0.145216 0.145484 0.125644
0.166341 0.158789 0.124710
0.186403 0.167278 0.124110
0.209705 0.174827 0.123427
0.235033 0.182988 0.122371
0.261637 0.191770 0.120735
0.289411 0.201028 0.118361
0.318068 0.209669 0.115168
0.347563 0.216228 0.111479
0.379844 0.207870 0.115357
0.408103 0.210516 0.121432
0.435350 0.218904 0.131626
0.462095 0.232877 0.148746
0.488516 0.252558 0.176907
0.514708 0.277222 0.218714
0.540746 0.305539 0.258337
0.566702 0.335836 0.294491
0.592637 0.366850 0.328304
0.618570 0.398030 0.360537
0.644483 0.429342 0.391876
0.670396 0.460483 0.422465
0.696332 0.491260 0.452436
0.722308 0.521542 0.481796
0.748347 0.551266 0.510582
0.774468 0.580367 0.538798
0.800687 0.608800 0.566418
0.827028 0.636495 0.593389
0.853506 0.663396 0.619711
0.880095 0.689695 0.645520
0.906693 0.715938 0.671338
0.124987 0.162943 0.124700
0.136529 0.164860 0.124749
0.147575 0.166902 0.124588
0.158193 0.169015 0.124724
0.169703 0.172447 0.124888
0.190284 0.183586 0.124453
0.212910 0.193254 0.123972
0.236902 0.203285 0.123154
0.262289 0.212704 0.121677
0.289236 0.221377 0.119283
0.317579 0.229019 0.115987
0.347363 0.234014 0.112528
0.379818 0.227252 0.116823
0.408019 0.229743 0.122526
0.435278 0.236379 0.132612
0.462037 0.247612 0.149748
0.488471 0.264025 0.177972
0.514677 0.285504 0.219555
0.540722 0.311212 0.258877
0.566682 0.339602 0.294869
0.592617 0.369353 0.328581
0.618555 0.399653 0.360752
0.644475 0.430366 0.392005
0.670392 0.461134 0.422553
0.696328 0.491682 0.452490
0.722306 0.521818 0.481839
0.748348 0.551441 0.510614
0.774466 0.580497 0.538814
0.800685 0.608888 0.566435
0.827025 0.636570 0.593403
0.853505 0.663443 0.619709
0.880094 0.689709 0.645534
0.906691 0.715956 0.671341
0.128495 0.186392 0.123667
0.142334 0.188599 0.123524
0.155671 0.190883 0.123725
0.168543 0.193275 0.124109
0.181058 0.195755 0.124560
0.194502 0.199455 0.124900
0.216497 0.209907 0.124576
0.239412 0.219400 0.124048
0.263666 0.228231 0.122915
0.289658 0.236426 0.120732
0.317494 0.243551 0.117427
0.347657 0.247196 0.114286
0.379803 0.242367 0.118270
0.407947 0.244750 0.123617
0.435213 0.250308 0.133599
0.461984 0.259743 0.150726
0.488427 0.273857 0.178997
0.514644 0.292925 0.220369
0.540698 0.316431 0.259368
0.566664 0.343153 0.295222
0.592601 0.371727 0.328859
0.618544 0.401224 0.360933
0.644465 0.431390 0.392134
0.670384 0.461803 0.422655
0.696325 0.492102 0.452553
0.722306 0.522080 0.481865
0.748347 0.551615 0.510632
0.774467 0.580602 0.538833
0.800688 0.608951 0.566437
0.827027 0.636603 0.593414
0.853506 0.663461 0.619714
0.880094 0.689744 0.645530
0.906690 0.715974 0.671325
0.133094 0.213731 0.122221
0.148776 0.215496 0.122438
0.163946 0.217308 0.122870
0.178649 0.219168 0.123433
0.192977 0.221053 0.124050
0.206405 0.222939 0.124656
0.220779 0.226003 0.125211
0.242735 0.234884 0.124964
0.265894 0.243096 0.124321
0.290794 0.250783 0.122645
0.317909 0.257451 0.119594
0.349887 0.257436 0.118114
0.379808 0.257299 0.120012
0.407879 0.259592 0.124957
0.435145 0.264278 0.134770
0.461928 0.272200 0.151902
0.488383 0.284260 0.180253
0.514614 0.300993 0.221293
0.540675 0.322331 0.259980
0.566644 0.347293 0.295651
0.592580 0.374566 0.329196
0.618527 0.403114 0.361161
0.644455 0.432621 0.392292
0.670379 0.462591 0.422748
0.696321 0.492610 0.452606
0.722304 0.522425 0.481911
0.748348 0.551820 0.510657
0.774466 0.580750 0.538840
0.800688 0.609042 0.566442
0.827029 0.636652 0.593401
0.853500 0.663537 0.619730
0.880095 0.689763 0.645512
0.906692 0.715993 0.671333
0.139949 0.241734 0.120723
0.157285 0.242919 0.121206
0.174165 0.244151 0.121831
0.190621 0.245424 0.122549
0.206117 0.246731 0.123312
0.218809 0.248055 0.124072
0.231636 0.249686 0.124954
0.247358 0.252547 0.125925
0.269442 0.260018 0.125835
0.293154 0.266984 0.125031
0.319465 0.272876 0.122771
0.350958 0.273061 0.121522
0.379867 0.274496 0.122453
0.407811 0.276730 0.126883
0.435071 0.280613 0.136446
0.461863 0.287072 0.153529
0.488332 0.297060 0.181947
0.514572 0.311322 0.222614
0.540646 0.330110 0.260791
0.566618 0.352869 0.296226
0.592556 0.378453 0.329629
0.618508 0.405753 0.361492
0.644439 0.434382 0.392508
0.670370 0.463741 0.422893
0.696317 0.493342 0.452701
0.722301 0.522901 0.481962
0.748345 0.552139 0.510700
0.774466 0.580941 0.538868
0.800688 0.609179 0.566446
0.827029 0.636745 0.593417
0.853509 0.663560 0.619732
0.880092 0.689810 0.645535
0.906689 0.716028 0.671327
0.149389 0.269605 0.119226
0.168141 0.270381 0.119919
0.186525 0.271188 0.120698
0.204196 0.272024 0.121536
0.218649 0.272882 0.122404
0.230463 0.273757 0.123275
0.242571 0.274843 0.124316
0.257041 0.276424 0.125701
0.274285 0.278991 0.127177
0.297257 0.284904 0.127221
0.324386 0.288521 0.126129
0.352048 0.291454 0.125187
0.380064 0.293646 0.125697
0.407785 0.295859 0.129570
0.435006 0.299064 0.138768
0.461800 0.304211 0.155731
0.488275 0.312254 0.184278
0.514524 0.324027 0.224364
0.540613 0.340057 0.261917
0.566590 0.360233 0.297014
0.592527 0.383726 0.330225
0.618475 0.409464 0.361967
0.644418 0.436876 0.392840
0.670355 0.465384 0.423114
0.696308 0.494422 0.452839
0.722297 0.523588 0.482061
0.748342 0.552588 0.510747
0.774467 0.581236 0.538903
0.800687 0.609374 0.566480
0.827026 0.636883 0.593433
0.853506 0.663670 0.619736
0.880096 0.689865 0.645548
0.906689 0.716062 0.671342
0.159325 0.297662 0.118367
0.179008 0.298183 0.119240
0.198387 0.298724 0.120159
0.215004 0.299286 0.121114
0.228213 0.299869 0.122099
0.238871 0.300534 0.123172
0.249954 0.301363 0.124474
0.264753 0.302204 0.125784
0.282313 0.303271 0.127291
0.302556 0.304854 0.128726
0.327290 0.308742 0.128837
0.353423 0.311910 0.128856
0.380522 0.314402 0.129590
0.407873 0.316606 0.133078
0.434994 0.319285 0.141842
0.461765 0.323331 0.158622
0.488235 0.329643 0.187294
0.514486 0.339078 0.226619
0.540580 0.352339 0.263412
0.566562 0.369699 0.298043
0.592496 0.390719 0.331037
0.618437 0.414496 0.362642
0.644394 0.440309 0.393276
0.670340 0.467677 0.423410
0.696298 0.495950 0.453047
0.722291 0.524593 0.482190
0.748335 0.553272 0.510836
0.774463 0.581673 0.538948
0.800689 0.609646 0.566503
0.827029 0.637071 0.593457
0.853505 0.663798 0.619747
0.880095 0.689949 0.645550
0.906690 0.716133 0.671357
0.149095 0.327236 0.122768
0.171062 0.327448 0.123376
0.193037 0.327656 0.123973
0.213050 0.327864 0.124557
0.228664 0.328069 0.125128
0.241427 0.328270 0.125685
0.254479 0.328517 0.126348
0.270012 0.328871 0.127269
0.287880 0.329376 0.128504
0.307822 0.330083 0.130061
0.329738 0.331201 0.131646
0.355032 0.334095 0.132305
0.381316 0.336526 0.133668
0.408173 0.338653 0.137159
0.435099 0.340928 0.145533
0.461805 0.344086 0.162085
0.488249 0.348935 0.190886
0.514482 0.356309 0.229216
0.540569 0.366950 0.265195
0.566549 0.381406 0.299317
0.592474 0.399680 0.332017
0.618398 0.421154 0.363476
0.644359 0.445032 0.393913
0.670316 0.470915 0.423840
0.696287 0.498101 0.453320
0.722285 0.526023 0.482371
0.748335 0.554201 0.510951
0.774463 0.582300 0.539024
0.800688 0.610078 0.566556
0.827029 0.637348 0.593487
0.853507 0.663978 0.619767
0.880097 0.690070 0.645553
0.906691 0.716225 0.671345
0.152169 0.354927 0.127628
0.175393 0.355029 0.128028
0.198643 0.355129 0.128425
0.218359 0.355228 0.128819
0.233708 0.355327 0.129206
0.246289 0.355425 0.129589
0.259188 0.355546 0.130051
0.274570 0.355722 0.130708
0.292293 0.355973 0.131636
0.312077 0.356336 0.132908
0.333594 0.356843 0.134562
0.356659 0.357661 0.136265
0.382362 0.359854 0.137806
0.408739 0.361778 0.141384
0.435406 0.363696 0.149418
0.461995 0.366135 0.165666
0.488373 0.369794 0.194596
0.514562 0.375410 0.231955
0.540613 0.383743 0.267221
0.566574 0.395405 0.300793
0.592477 0.410789 0.333182
0.618374 0.429665 0.364479
0.644319 0.451341 0.394757
0.670289 0.475341 0.424410
0.696266 0.501145 0.453709
0.722275 0.528060 0.482635
0.748332 0.555541 0.511110
0.774464 0.583183 0.539133
0.800693 0.610648 0.566614
0.827032 0.637737 0.593525
0.853511 0.664238 0.619788
0.880098 0.690273 0.645562
0.906687 0.716364 0.671359
0.160960 0.382138 0.135352
0.184879 0.382194 0.135603
0.207956 0.382249 0.135844
0.225953 0.382305 0.136097
0.240266 0.382359 0.136338
0.252130 0.382414 0.136577
0.264433 0.382479 0.136867
0.279227 0.382576 0.137294
0.296413 0.382714 0.137890
0.315777 0.382909 0.138747
0.336942 0.383183 0.139947
0.359576 0.383561 0.141611
0.383468 0.384163 0.143276
0.409453 0.385870 0.146125
0.435882 0.387452 0.153230
0.462375 0.389269 0.168543
0.488687 0.391928 0.197245
0.514796 0.396094 0.234009
0.540773 0.402440 0.268986
0.566676 0.411614 0.302329
0.592541 0.424143 0.334391
0.618399 0.440209 0.365539
0.644293 0.459477 0.395789
0.670264 0.481260 0.425185
0.696248 0.505290 0.454241
0.722265 0.530908 0.482984
0.748331 0.557460 0.511347
0.774467 0.584462 0.539272
0.800690 0.611533 0.566722
0.827035 0.638323 0.593580
0.853515 0.664627 0.619835
0.880101 0.690528 0.645597
0.906696 0.716514 0.671370
0.177037 0.409079 0.147786
0.201149 0.409116 0.147905
0.220980 0.409152 0.148015
0.236416 0.409188 0.148135
0.249077 0.409223 0.148254
0.259820 0.409256 0.148373
0.271075 0.409298 0.148510
0.284858 0.409357 0.148722
0.301108 0.409443 0.149006
0.319644 0.409563 0.149417
0.340165 0.409726 0.150003
0.362306 0.409947 0.150910
0.385722 0.410238 0.152379
0.410200 0.410688 0.153685
0.436400 0.412049 0.158404
0.462846 0.413400 0.170938
0.489183 0.415198 0.197607
0.515252 0.418101 0.234130
0.541131 0.422765 0.269661
0.566929 0.429772 0.303345
0.592714 0.439686 0.335453
0.618510 0.452903 0.366522
0.644336 0.469505 0.396790
0.670249 0.488984 0.426146
0.696240 0.510868 0.454936
0.722259 0.534817 0.483455
0.748329 0.560162 0.511661
0.774467 0.586294 0.539475
0.800701 0.612741 0.566844
0.827038 0.639163 0.593676
0.853519 0.665204 0.619886
0.880104 0.690935 0.645622
0.906699 0.716782 0.671395
0.203589 0.435852 0.167524
0.222795 0.435881 0.167507
0.238011 0.435903 0.167523
0.250462 0.435928 0.167539
0.260994 0.435953 0.167534
0.270200 0.435978 0.167544
0.280073 0.436007 0.167521
0.292397 0.436050 0.167526
0.307245 0.436108 0.167488
0.324497 0.436191 0.167494
0.343943 0.436305 0.167444
0.365242 0.436457 0.167470
0.388043 0.436647 0.167707
0.412001 0.436883 0.168524
0.436879 0.437229 0.168989
0.463245 0.438341 0.176315
0.489694 0.439539 0.197017
0.515883 0.441360 0.231288
0.541751 0.444508 0.267894
0.567430 0.449627 0.302916
0.593077 0.457236 0.335850
0.618758 0.467783 0.367189
0.644501 0.481561 0.397524
0.670312 0.498554 0.427075
0.696256 0.518143 0.455772
0.722269 0.540078 0.484057
0.748339 0.563848 0.512057
0.774478 0.588844 0.539750
0.800703 0.614518 0.567021
0.827050 0.640336 0.593771
0.853527 0.666020 0.619954
0.880108 0.691492 0.645673
0.906702 0.717173 0.671425
0.235051 0.462509 0.198442
0.247980 0.462529 0.198293
0.258881 0.462547 0.198231
0.268277 0.462568 0.198111
0.276621 0.462584 0.197950
0.284071 0.462603 0.197895
0.292265 0.462624 0.197711
0.302740 0.462657 0.197552
0.315703 0.462702 0.197240
0.331219 0.462765 0.196823
0.349077 0.462853 0.196240
0.369058 0.462972 0.195421
0.390824 0.463123 0.194302
0.414048 0.463303 0.193105
0.438365 0.463500 0.192751
0.463535 0.463770 0.191404
0.490008 0.464716 0.202141
0.516458 0.465805 0.227498
0.542535 0.467657 0.262660
0.568215 0.471050 0.299574
0.593723 0.476583 0.334434
0.619233 0.484720 0.366967
0.644831 0.495805 0.397793
0.670530 0.510035 0.427570
0.696348 0.527272 0.456578
0.722315 0.546959 0.484750
0.748367 0.568845 0.512580
0.774501 0.592367 0.540091
0.800724 0.616955 0.567249
0.827066 0.642032 0.593913
0.853538 0.667193 0.620049
0.880118 0.692299 0.645730
0.906708 0.717742 0.671456
0.267078 0.489086 0.234415
0.275503 0.489101 0.234290
0.283023 0.489115 0.234185
0.289756 0.489131 0.234064
0.295940 0.489144 0.233922
0.301610 0.489160 0.233782
0.308072 0.489177 0.233661
0.316414 0.489206 0.233414
0.327241 0.489240 0.233086
0.340510 0.489293 0.232616
0.356323 0.489361 0.231909
0.374486 0.489458 0.230881
0.394733 0.489589 0.229489
0.416770 0.489747 0.227507
0.440235 0.489925 0.225105
0.464786 0.490102 0.223291
0.490154 0.490325 0.220156
0.516716 0.491145 0.230604
0.543174 0.492148 0.256466
0.569149 0.494050 0.292414
0.594673 0.497662 0.329753
0.620027 0.503562 0.364662
0.645425 0.512144 0.396982
0.670951 0.523661 0.427475
0.696629 0.538227 0.456799
0.722452 0.555648 0.485358
0.748447 0.575385 0.513117
0.774552 0.597126 0.540512
0.800759 0.620344 0.567523
0.827092 0.644406 0.594107
0.853557 0.668841 0.620152
0.880132 0.693465 0.645822
0.906718 0.718554 0.671516
0.299079 0.515611 0.268124
0.304466 0.515622 0.267991
0.309497 0.515633 0.267882
0.314158 0.515645 0.267754
0.318506 0.515659 0.267650
0.322695 0.515667 0.267535
0.327431 0.515683 0.267410
0.333891 0.515701 0.267194
0.342336 0.515733 0.266916
0.353090 0.515776 0.266497
0.366440 0.515832 0.265886
0.382263 0.515914 0.264966
0.400525 0.516020 0.263632
0.420868 0.516159 0.261733
0.442998 0.516333 0.259125
0.466575 0.516518 0.255872
0.491251 0.516692 0.252982
0.516756 0.516878 0.248474
0.543395 0.517609 0.258255
0.569852 0.518556 0.284439
0.595746 0.520498 0.321039
0.621142 0.524291 0.358807
0.646361 0.530512 0.393878
0.671661 0.539461 0.426101
0.697136 0.551327 0.456331
0.722798 0.566129 0.485314
0.748643 0.583628 0.513457
0.774666 0.603374 0.540894
0.800837 0.624898 0.567848
0.827140 0.647694 0.594347
0.853593 0.671183 0.620335
0.880157 0.695114 0.645918
0.906733 0.719711 0.671592
0.330790 0.542102 0.300252
0.334230 0.542112 0.300157
0.337568 0.542119 0.300051
0.340719 0.542127 0.299981
0.343683 0.542137 0.299889
0.346545 0.542147 0.299781
0.350023 0.542154 0.299685
0.354653 0.542171 0.299513
0.360926 0.542197 0.299289
0.369345 0.542226 0.298937
0.379994 0.542274 0.298446
0.393142 0.542340 0.297707
0.408869 0.542431 0.296620
0.426982 0.542554 0.295068
0.447273 0.542711 0.292825
0.469397 0.542896 0.289718
0.493005 0.543097 0.285805
0.517762 0.543269 0.281998
0.543352 0.543433 0.276360
0.570036 0.544103 0.285436
0.596499 0.545006 0.311737
0.622338 0.546975 0.348806
0.647629 0.550916 0.387004
0.672742 0.557387 0.422257
0.697956 0.566646 0.454440
0.723385 0.578776 0.484489
0.749051 0.593710 0.513160
0.774926 0.611223 0.540956
0.800985 0.630911 0.568083
0.827240 0.652110 0.594581
0.853649 0.674409 0.620507
0.880196 0.697432 0.646068
0.906762 0.721342 0.671689
0.362218 0.568569 0.331288
0.364457 0.568576 0.331236
0.366580 0.568583 0.331164
0.368593 0.568590 0.331087
0.370610 0.568597 0.331006
0.372570 0.568604 0.330947
0.374861 0.568614 0.330849
0.378163 0.568625 0.330752
0.382677 0.568644 0.330576
0.388838 0.568669 0.330282
0.396970 0.568704 0.329921
0.407362 0.568759 0.329335
0.420337 0.568829 0.328513
0.435786 0.568933 0.327314
0.453728 0.569070 0.325547
0.473888 0.569240 0.323029
0.495909 0.569448 0.319555
0.519507 0.569661 0.315058
0.544297 0.569835 0.310540
0.569929 0.569993 0.304078
0.596663 0.570614 0.312358
0.623133 0.571481 0.338607
0.648928 0.573468 0.375980
0.674141 0.577525 0.414492
0.699160 0.584194 0.449931
0.724311 0.593677 0.482130
0.749714 0.605986 0.512019
0.775396 0.620969 0.540395
0.801304 0.638427 0.567858
0.827413 0.657970 0.594695
0.853758 0.678778 0.620681
0.880261 0.700633 0.646227
0.906801 0.723673 0.671815
0.393177 0.595027 0.361541
0.394554 0.595032 0.361485
0.395909 0.595039 0.361454
0.397287 0.595043 0.361406
0.398645 0.595048 0.361332
0.399922 0.595055 0.361289
0.401440 0.595062 0.361220
0.403739 0.595069 0.361125
0.406864 0.595082 0.360988
0.411238 0.595103 0.360798
0.417142 0.595131 0.360520
0.425013 0.595172 0.360085
0.435122 0.595231 0.359489
0.447760 0.595312 0.358560
0.462963 0.595423 0.357244
0.480649 0.595573 0.355351
0.500595 0.595764 0.352632
0.522520 0.595987 0.348823
0.546055 0.596215 0.343914
0.570826 0.596404 0.338842
0.596509 0.596550 0.331631
0.623272 0.597136 0.339176
0.649756 0.597978 0.365211
0.675523 0.599972 0.402703
0.700675 0.604100 0.441437
0.725631 0.610920 0.477038
0.750729 0.620561 0.509239
0.776122 0.632962 0.538952
0.801828 0.647921 0.567061
0.827785 0.665237 0.594230
0.853962 0.684492 0.620682
0.880377 0.704996 0.646332
0.906876 0.726863 0.671923
0.423615 0.621484 0.391132
0.424583 0.621485 0.391088
0.425448 0.621490 0.391050
0.426343 0.621492 0.391002
0.427145 0.621499 0.390978
0.428070 0.621501 0.390921
0.429095 0.621507 0.390887
0.430608 0.621514 0.390830
0.432680 0.621525 0.390724
0.435728 0.621540 0.390584
0.439911 0.621560 0.390378
0.445625 0.621591 0.390073
0.453215 0.621636 0.389618
0.463050 0.621698 0.388967
0.475342 0.621789 0.388003
0.490222 0.621911 0.386598
0.507647 0.622072 0.384599
0.527387 0.622278 0.381671
0.549172 0.622520 0.377616
0.572617 0.622770 0.372391
0.597387 0.622964 0.366831
0.623074 0.623112 0.359187
0.649859 0.623680 0.366025
0.676362 0.624489 0.391682
0.702119 0.626478 0.429107
0.727237 0.630645 0.467969
0.752141 0.637561 0.503654
0.777215 0.647284 0.535836
0.802612 0.659695 0.565394
0.828356 0.674538 0.593189
0.854369 0.691639 0.620023
0.880592 0.710692 0.646262
0.907000 0.731178 0.672011
0.453724 0.647936 0.420175
0.454263 0.647942 0.420139
0.454854 0.647945 0.420105
0.455338 0.647950 0.420089
0.456023 0.647949 0.420057
0.456547 0.647953 0.420020
0.457272 0.647956 0.420001
0.458253 0.647960 0.419974
0.459670 0.647970 0.419870
0.461750 0.647979 0.419774
0.464622 0.647995 0.419626
0.468617 0.648019 0.419416
0.474131 0.648052 0.419076
0.481408 0.648102 0.418616
0.490943 0.648169 0.417932
0.502990 0.648262 0.416920
0.517569 0.648394 0.415464
0.534723 0.648570 0.413333
0.554252 0.648789 0.410296
0.575858 0.649050 0.406111
0.599229 0.649313 0.400603
0.623941 0.649524 0.394718
0.649634 0.649676 0.386741
0.676444 0.650221 0.392908
0.702965 0.651008 0.418092
0.728721 0.652983 0.455299
0.753816 0.657170 0.494167
0.778694 0.664120 0.529872
0.803759 0.673860 0.561987
0.829176 0.686217 0.591364
0.854976 0.700854 0.618836
0.881031 0.717764 0.645502
0.907228 0.736861 0.671892
0.483325 0.674400 0.448726
0.483608 0.674403 0.448718
0.483981 0.674406 0.448693
0.484454 0.674405 0.448669
0.484728 0.674411 0.448650
0.485155 0.674410 0.448631
0.485624 0.674413 0.448614
0.486255 0.674419 0.448585
0.487237 0.674422 0.448528
0.488523 0.674432 0.448447
0.490566 0.674442 0.448342
0.493282 0.674462 0.448197
0.497182 0.674485 0.447965
0.502477 0.674521 0.447636
0.509556 0.674572 0.447149
0.518853 0.674644 0.446431
0.530568 0.674747 0.445399
0.544850 0.674885 0.443892
0.561763 0.675070 0.441701
0.581078 0.675307 0.438580
0.602552 0.675580 0.434242
0.625823 0.675860 0.428584
0.650501 0.676085 0.422431
0.676195 0.676239 0.414300
0.703015 0.676778 0.419892
0.729554 0.677541 0.444561
0.755323 0.679493 0.481394
0.780414 0.683667 0.520119
0.805290 0.690602 0.555763
0.830361 0.700302 0.587738
0.855820 0.712494 0.616863
0.881647 0.726985 0.644224
0.907683 0.743914 0.670993
0.512333 0.700874 0.476858
0.512603 0.700874 0.476844
0.512872 0.700876 0.476823
0.513090 0.700879 0.476836
0.513311 0.700880 0.476801
0.513577 0.700882 0.476797
0.513899 0.700883 0.476779
0.514281 0.700888 0.476750
0.514965 0.700890 0.476714
0.515905 0.700896 0.476665
0.517251 0.700903 0.476586
0.519076 0.700919 0.476462
0.521778 0.700933 0.476322
0.525509 0.700961 0.476076
0.530601 0.701000 0.475739
0.537537 0.701054 0.475261
0.546550 0.701131 0.474528
0.558065 0.701233 0.473482
0.572100 0.701384 0.471926
0.588802 0.701575 0.469694
0.607915 0.701824 0.466520
0.629246 0.702111 0.462085
0.652435 0.702404 0.456318
0.677072 0.702640 0.450005
0.702750 0.702802 0.441847
0.729587 0.703331 0.446985
0.756136 0.704084 0.471101
0.781916 0.706013 0.507443
0.807027 0.710146 0.545906
0.831917 0.717024 0.581377
0.857020 0.726595 0.613140
0.882496 0.738686 0.642206
0.908315 0.753139 0.669622
0.540979 0.727361 0.504579
0.541150 0.727360 0.504566
0.541310 0.727362 0.504553
0.541479 0.727364 0.504544
0.541639 0.727364 0.504530
0.541812 0.727365 0.504526
0.542023 0.727366 0.504516
0.542294 0.727368 0.504507
0.542733 0.727372 0.504473
0.543328 0.727378 0.504434
0.544236 0.727380 0.504391
0.545499 0.727390 0.504311
0.547308 0.727405 0.504200
0.549917 0.727423 0.504037
0.553538 0.727449 0.503801
0.558559 0.727489 0.503464
0.565293 0.727545 0.502953
0.574136 0.727624 0.502212
0.585408 0.727737 0.501135
0.599276 0.727887 0.499576
0.615751 0.728090 0.497353
0.634735 0.728345 0.494130
0.655936 0.728647 0.489673
0.679044 0.728951 0.483858
0.703643 0.729198 0.477451
0.729302 0.729365 0.469401
0.756139 0.729896 0.474253
0.782705 0.730636 0.497787
0.808512 0.732531 0.533533
0.833644 0.736616 0.571549
0.858570 0.743383 0.606771
0.883691 0.752863 0.638474
0.909169 0.764880 0.667579
0.569081 0.753865 0.531889
0.569245 0.753862 0.531890
0.569361 0.753863 0.531872
0.569423 0.753866 0.531874
0.569535 0.753867 0.531878
0.569645 0.753867 0.531869
0.569708 0.753871 0.531866
0.569984 0.753869 0.531836
0.570262 0.753871 0.531832
0.570700 0.753873 0.531804
0.571312 0.753877 0.531761
0.572135 0.753885 0.531717
0.573381 0.753894 0.531638
0.575181 0.753906 0.531513
0.577751 0.753925 0.531377
0.581319 0.753952 0.531129
0.586246 0.753992 0.530767
0.592794 0.754052 0.530274
0.601522 0.754133 0.529528
0.612560 0.754252 0.528459
0.626306 0.754405 0.526901
0.642647 0.754614 0.524643
0.661484 0.754878 0.521411
0.682597 0.755187 0.516973
0.705660 0.755498 0.511169
0.730213 0.755755 0.504741
0.755861 0.755929 0.496934
0.782692 0.756462 0.501638
0.809267 0.757194 0.524657
