StdX-ACES/studio/LMT_neutral_ACEScct_33.cube
TITLE "Generated by Foundry::LUT"
LUT_3D_SIZE 9
0.065250 0.065250 0.065250
0.138885 0.123691 0.124364
0.262907 0.117690 0.119847
0.379725 0.131677 0.110385
0.488685 0.198196 0.173491
0.592700 0.358730 0.327405
0.696344 0.489950 0.452266
0.800686 0.608586 0.566394
0.906688 0.715919 0.671328
0.124987 0.162943 0.124700
0.169703 0.172447 0.124888
0.262289 0.212704 0.121677
0.379818 0.227252 0.116823
0.488471 0.264025 0.177972
0.592617 0.369353 0.328581
0.696328 0.491682 0.452490
0.800685 0.608888 0.566435
0.906691 0.715956 0.671341
0.149389 0.269605 0.119226
0.218649 0.272882 0.122404
0.274285 0.278991 0.127177
0.380064 0.293646 0.125697
0.488275 0.312254 0.184278
0.592527 0.383726 0.330225
0.696308 0.494422 0.452839
0.800687 0.609374 0.566480
0.906689 0.716062 0.671342
0.160960 0.382138 0.135352
0.240266 0.382359 0.136338
0.296413 0.382714 0.137890
0.383468 0.384163 0.143276
0.488687 0.391928 0.197245
0.592541 0.424143 0.334391
0.696248 0.505290 0.454241
0.800690 0.611533 0.566722
0.906696 0.716514 0.671370
0.267078 0.489086 0.234415
0.295940 0.489144 0.233922
0.327241 0.489240 0.233086
0.394733 0.489589 0.229489
0.490154 0.490325 0.220156
0.594673 0.497662 0.329753
0.696629 0.538227 0.456799
0.800759 0.620344 0.567523
0.906718 0.718554 0.671516
0.393177 0.595027 0.361541
0.398645 0.595048 0.361332
0.406864 0.595082 0.360988
0.435122 0.595231 0.359489
0.500595 0.595764 0.352632
0.596509 0.596550 0.331631
0.700675 0.604100 0.441437
0.801828 0.647921 0.567061
0.906876 0.726863 0.671923
0.512333 0.700874 0.476858
0.513311 0.700880 0.476801
0.514965 0.700890 0.476714
0.521778 0.700933 0.476322
0.546550 0.701131 0.474528
0.607915 0.701824 0.466520
0.702750 0.702802 0.441847
0.807027 0.710146 0.545906
0.908315 0.753139 0.669622
0.623901 0.806924 0.585349
0.624080 0.806924 0.585313
0.624445 0.806925 0.585297
0.625934 0.806936 0.585187
0.632113 0.806989 0.584797
0.655497 0.807201 0.582997
0.714862 0.807963 0.575063
0.808949 0.809067 0.551927
0.913509 0.816004 0.648580
0.731050 0.913141 0.690428
0.730987 0.913145 0.690453
0.731128 0.913143 0.690417
0.731280 0.913152 0.690426
0.732843 0.913159 0.690325
0.739137 0.913204 0.689940
0.762205 0.913421 0.688273
0.821328 0.914183 0.680972
0.915164 0.915324 0.661252
0.112686 0.116239 0.135187
0.153876 0.120760 0.150020
0.267601 0.115253 0.192144
0.382348 0.114218 0.210365
0.490524 0.143202 0.236997
0.593400 0.346322 0.333118
0.696503 0.488165 0.453269
0.800709 0.608328 0.566660
0.906691 0.715877 0.671396
0.123513 0.166657 0.166226
0.171501 0.171498 0.171499
0.280983 0.167284 0.168135
0.386869 0.157501 0.164904
0.490330 0.219608 0.220106
0.593291 0.358976 0.334096
0.696489 0.489934 0.453491
0.800711 0.608631 0.566706
0.906690 0.715930 0.671406
0.121732 0.274772 0.202327
0.161280 0.279670 0.164108
0.278465 0.277898 0.159914
0.386854 0.273184 0.160671
0.489972 0.294675 0.224159
0.593162 0.375750 0.335751
0.696463 0.492771 0.453839
0.800708 0.609131 0.566740
0.906692 0.716022 0.671417
0.107393 0.384137 0.209624
0.148670 0.385142 0.162023
0.271352 0.384997 0.159963
0.384531 0.383989 0.154810
0.490272 0.387265 0.225401
0.592948 0.420834 0.340780
0.696398 0.503936 0.455239
0.800710 0.611309 0.566988
0.906698 0.716487 0.671449
0.186214 0.490079 0.251737
0.260068 0.489802 0.248358
0.307346 0.489877 0.247216
0.389105 0.490124 0.242035
0.490431 0.490268 0.227079
0.595066 0.496596 0.334769
0.696697 0.537676 0.458182
0.800778 0.620153 0.567816
0.906721 0.718515 0.671587
0.385457 0.595181 0.364140
0.391510 0.595205 0.363939
0.400621 0.595238 0.363577
0.431198 0.595379 0.361994
0.499329 0.595890 0.354894
0.596569 0.596537 0.332900
0.700774 0.603852 0.442414
0.801842 0.647806 0.567348
0.906875 0.726837 0.672027
0.510927 0.700911 0.477361
0.511977 0.700916 0.477308
0.513654 0.700926 0.477213
0.520541 0.700970 0.476821
0.545727 0.701165 0.475031
0.607646 0.701853 0.466947
0.702764 0.702798 0.442089
0.807050 0.710089 0.546092
0.908320 0.753100 0.669697
0.623481 0.806936 0.585450
0.623847 0.806932 0.585412
0.624092 0.806939 0.585408
0.625642 0.806943 0.585295
0.631898 0.806995 0.584930
0.655304 0.807211 0.583136
0.714791 0.807975 0.575195
0.808957 0.809064 0.551951
0.913519 0.815983 0.648625
0.730914 0.913146 0.690454
0.730917 0.913149 0.690450
0.731060 0.913147 0.690431
0.731345 0.913151 0.690430
0.732773 0.913160 0.690356
0.739077 0.913208 0.689972
0.762161 0.913426 0.688287
0.821306 0.914188 0.680987
0.915163 0.915324 0.661271
0.116641 0.120373 0.208117
0.186042 0.112765 0.260651
0.270924 0.115061 0.269173
0.382425 0.114243 0.286821
0.490237 0.150358 0.299230
0.594816 0.324568 0.347636
0.696736 0.485351 0.455097
0.800741 0.607958 0.567134
0.906693 0.715811 0.671528
0.117452 0.196573 0.266367
0.170771 0.169361 0.283466
0.280953 0.165076 0.281507
0.387022 0.155091 0.276092
0.491386 0.189484 0.286707
0.594380 0.341421 0.345972
0.696715 0.487226 0.455312
0.800742 0.608248 0.567170
0.906695 0.715867 0.671536
0.126160 0.275155 0.274907
0.160058 0.279348 0.279471
0.277750 0.277750 0.277750
0.385732 0.274460 0.275131
0.490148 0.281015 0.280656
0.593997 0.362589 0.345615
0.696692 0.490170 0.455666
0.800740 0.608763 0.567224
0.906695 0.715973 0.671543
0.124300 0.383546 0.289479
0.146768 0.385164 0.273920
0.270132 0.384948 0.272309
0.384428 0.384091 0.266865
0.490443 0.384280 0.279841
0.593652 0.414939 0.350260
0.696610 0.501818 0.457093
0.800746 0.610925 0.567456
0.906700 0.716423 0.671577
-0.030684 0.491994 0.278593
0.090393 0.491501 0.274467
0.252234 0.491029 0.269636
0.378430 0.491107 0.262570
0.490894 0.490206 0.239474
0.595680 0.494872 0.342937
0.696824 0.536707 0.460289
0.800804 0.619875 0.568331
0.906726 0.718453 0.671721
0.368864 0.595524 0.368981
0.377910 0.595461 0.368238
0.388932 0.595493 0.367881
0.424077 0.595628 0.366200
0.497159 0.596105 0.358681
0.596683 0.596515 0.335064
0.700940 0.603429 0.444026
0.801869 0.647610 0.567823
0.906875 0.726795 0.672148
0.508536 0.700971 0.478204
0.509566 0.700979 0.478145
0.511299 0.700987 0.478054
0.518492 0.701030 0.477647
0.544408 0.701220 0.475836
0.607144 0.701907 0.467681
0.702788 0.702794 0.442480
0.807094 0.709982 0.546429
0.908328 0.753060 0.669789
0.623063 0.806950 0.585621
0.623251 0.806952 0.585621
0.623611 0.806951 0.585594
0.625059 0.806965 0.585491
0.631419 0.807014 0.585080
0.654988 0.807224 0.583276
0.714677 0.807984 0.575309
0.808958 0.809064 0.552043
0.913527 0.815969 0.648685
0.730772 0.913152 0.690482
0.730846 0.913150 0.690498
0.730914 0.913149 0.690491
0.731204 0.913153 0.690473
0.732631 0.913166 0.690389
0.738949 0.913210 0.690010
0.762113 0.913427 0.688324
0.821304 0.914185 0.681013
0.915171 0.915318 0.661260
0.119712 0.135525 0.373094
0.205423 0.108106 0.382191
0.285172 0.111439 0.381346
0.383404 0.110186 0.383235
0.490231 0.150099 0.388378
0.595049 0.320046 0.405659
0.697382 0.478822 0.469444
0.800847 0.606470 0.569410
0.906714 0.715515 0.672073
0.128511 0.225541 0.373643
0.178647 0.177908 0.384516
0.279088 0.165115 0.387205
0.386407 0.151242 0.386997
0.491327 0.189385 0.385952
0.594610 0.337909 0.405181
0.697290 0.480853 0.469147
0.800842 0.606807 0.569451
0.906710 0.715603 0.672085
0.134768 0.289945 0.378356
0.176763 0.279386 0.385309
0.277434 0.276792 0.385805
0.385284 0.273981 0.385518
0.490407 0.277899 0.384156
0.593934 0.359940 0.404437
0.697138 0.484088 0.468634
0.800844 0.607317 0.569515
0.906715 0.715695 0.672102
0.152784 0.383082 0.382989
0.172239 0.384300 0.384328
0.273265 0.384425 0.384458
0.384001 0.384001 0.384001
0.488856 0.386472 0.385973
0.591956 0.414140 0.402948
0.696847 0.496577 0.468267
0.800845 0.609557 0.569758
0.906719 0.716146 0.672144
0.203729 0.490013 0.390556
0.261726 0.489691 0.389688
0.308078 0.489308 0.388544
0.388743 0.489597 0.387454
0.490239 0.490249 0.384285
0.592934 0.496776 0.407059
0.697047 0.533689 0.470954
0.800883 0.618761 0.570663
0.906738 0.718194 0.672269
-0.083046 0.597520 0.391782
0.035968 0.597415 0.390933
0.227141 0.597247 0.389535
0.378604 0.596828 0.384868
0.486409 0.597145 0.375726
0.597216 0.596424 0.345224
0.701652 0.601581 0.451198
0.801781 0.647467 0.571020
0.906883 0.726619 0.672731
0.496432 0.701264 0.482030
0.497969 0.701248 0.481865
0.500000 0.701258 0.481771
0.508436 0.701301 0.481357
0.537783 0.701487 0.479446
0.604960 0.702131 0.470919
0.702920 0.702763 0.444229
0.807281 0.709528 0.547880
0.908361 0.752844 0.670274
0.620805 0.807012 0.586405
0.621052 0.807013 0.586370
0.621367 0.807015 0.586346
0.622922 0.807023 0.586226
0.629344 0.807079 0.585887
0.653596 0.807288 0.584005
0.714192 0.808038 0.575971
0.809005 0.809048 0.552358
0.913577 0.815850 0.648996
0.730340 0.913165 0.690643
0.730274 0.913169 0.690634
0.730414 0.913167 0.690638
0.730777 0.913166 0.690648
0.732211 0.913179 0.690551
0.738501 0.913225 0.690179
0.761825 0.913440 0.688479
0.821215 0.914196 0.681149
0.915180 0.915316 0.661314
0.217756 0.278867 0.467444
0.245478 0.260214 0.470293
0.297103 0.217661 0.481595
0.387929 0.157786 0.489369
0.490847 0.124702 0.491010
0.595337 0.315109 0.494235
0.696287 0.487376 0.523396
0.799602 0.612475 0.589763
0.906732 0.714578 0.674826
0.225417 0.300187 0.470372
0.250168 0.286155 0.473729
0.289904 0.255915 0.481294
0.385521 0.233454 0.487721
0.490479 0.207285 0.490535
0.595017 0.332449 0.493991
0.696172 0.489321 0.523377
0.799586 0.612755 0.589704
0.906738 0.714618 0.674830
0.233267 0.326280 0.474748
0.255711 0.317741 0.477472
0.288312 0.300427 0.482810
0.382830 0.293595 0.485265
0.489263 0.290426 0.489007
0.594395 0.355723 0.493683
0.695990 0.492384 0.523324
0.799549 0.613270 0.589625
0.906734 0.714743 0.674845
0.248165 0.392221 0.483443
0.265368 0.389989 0.485027
0.291854 0.386368 0.487900
0.384797 0.386446 0.485319
0.488331 0.389151 0.487968
0.592407 0.412008 0.493068
0.695227 0.504430 0.523110
0.799398 0.615438 0.589247
0.906737 0.715215 0.674879
0.278316 0.489344 0.489244
0.302591 0.489105 0.488985
0.331646 0.488745 0.488597
0.397473 0.488776 0.488660
0.490249 0.490249 0.490249
0.590777 0.499580 0.497811
0.692987 0.541163 0.523561
0.799126 0.624295 0.589083
0.906754 0.717317 0.675041
0.430381 0.593310 0.505383
0.433498 0.593255 0.505227
0.438357 0.593174 0.504970
0.456878 0.592922 0.504072
0.507941 0.593779 0.503533
0.595884 0.596377 0.503138
0.694929 0.609086 0.530806
0.800009 0.651434 0.590135
0.906884 0.725920 0.675555
0.159539 0.703409 0.502545
0.249506 0.703386 0.502360
0.309814 0.703347 0.502063
0.398066 0.703183 0.500744
0.495693 0.702774 0.496104
0.593741 0.703258 0.486026
0.703513 0.702646 0.452788
0.808135 0.707448 0.554600
0.908158 0.753092 0.674176
0.609166 0.807317 0.589915
0.609532 0.807310 0.589868
0.610116 0.807307 0.589841
0.611912 0.807317 0.589726
0.619572 0.807366 0.589327
0.646957 0.807570 0.587423
0.711911 0.808281 0.578962
0.809136 0.809016 0.553947
0.913802 0.815339 0.650380
0.727933 0.913233 0.691416
0.728008 0.913231 0.691386
0.728010 0.913237 0.691406
0.728312 0.913239 0.691406
0.729867 0.913250 0.691291
0.736407 0.913295 0.690916
0.760348 0.913507 0.689225
0.820676 0.914257 0.681781
0.915204 0.915313 0.661651
0.349613 0.409218 0.560824
0.353448 0.406655 0.561845
0.359935 0.402189 0.563514
0.398900 0.383075 0.574376
0.489136 0.372026 0.583662
0.592720 0.376992 0.591619
0.696828 0.485450 0.602220
0.798495 0.618028 0.637449
0.904871 0.723479 0.697356
0.350833 0.412064 0.562459
0.354706 0.409678 0.563383
0.361243 0.405493 0.564922
0.397711 0.386679 0.574712
0.488639 0.379049 0.583107
0.592470 0.385095 0.591308
0.696731 0.487334 0.602194
0.798466 0.618336 0.637453
0.904866 0.723529 0.697340
0.352911 0.416918 0.564751
0.356806 0.414753 0.565574
0.363235 0.410986 0.566971
0.395842 0.392650 0.575213
0.487900 0.389253 0.582287
0.592087 0.396695 0.590833
0.696570 0.490372 0.602153
0.798422 0.618842 0.637458
0.904856 0.723641 0.697324
0.360904 0.437355 0.571886
0.364552 0.435866 0.572513
0.370574 0.433286 0.573608
0.397005 0.420407 0.579196
0.486167 0.422434 0.580170
0.590884 0.432615 0.589411
0.695898 0.502365 0.602004
0.798231 0.621016 0.637458
0.904823 0.724082 0.697228
0.377442 0.498318 0.585854
0.380355 0.497872 0.586178
0.385250 0.497122 0.586727
0.409747 0.494347 0.587636
0.492408 0.496436 0.582752
0.590509 0.504793 0.589391
0.693765 0.539295 0.602027
0.797423 0.630004 0.637471
0.904669 0.726135 0.696828
0.460654 0.592631 0.592234
0.462668 0.592585 0.592189
0.465863 0.592514 0.592114
0.478559 0.592280 0.591875
0.519323 0.592862 0.592586
0.596499 0.596499 0.596499
0.692581 0.611827 0.609110
0.795119 0.659406 0.638698
0.904434 0.734320 0.696509
0.571927 0.696939 0.618845
0.572292 0.696930 0.618815
0.572921 0.696916 0.618769
0.575671 0.696856 0.618570
0.587027 0.696717 0.617844
0.624160 0.698087 0.617837
0.701572 0.702500 0.619645
0.798127 0.719137 0.646743
0.905649 0.759388 0.696618
0.345882 0.809628 0.609380
0.360039 0.809623 0.609324
0.378159 0.809613 0.609281
0.428209 0.809569 0.608979
0.508195 0.809403 0.607705
0.603729 0.808968 0.603176
0.700091 0.809494 0.593121
0.809793 0.808869 0.561691
0.914771 0.813047 0.656812
0.715823 0.913560 0.694875
0.715913 0.913556 0.694833
0.716082 0.913554 0.694826
0.716440 0.913558 0.694804
0.718266 0.913567 0.694721
0.725867 0.913616 0.694342
0.753363 0.913816 0.692546
0.818244 0.914522 0.684711
0.915340 0.915278 0.663170
0.463615 0.525709 0.656691
0.464242 0.525300 0.656917
0.465335 0.524601 0.657291
0.470395 0.521415 0.658931
0.504116 0.508326 0.670126
0.591517 0.511449 0.677823
0.694257 0.527998 0.691791
0.799247 0.616780 0.709801
0.903673 0.728940 0.744853
0.463864 0.526228 0.657146
0.464512 0.525820 0.657365
0.465634 0.525126 0.657729
0.470690 0.521984 0.659333
0.503910 0.508860 0.670256
0.591433 0.512358 0.677715
0.694203 0.528964 0.691727
0.799224 0.617069 0.709798
0.903669 0.728987 0.744849
0.464345 0.527092 0.657870
0.464998 0.526688 0.658081
0.466105 0.526020 0.658427
0.471183 0.522940 0.659984
0.503573 0.509747 0.670467
0.591296 0.513842 0.677540
0.694114 0.530533 0.691623
0.799187 0.617541 0.709794
0.903659 0.729079 0.744850
0.466480 0.531024 0.660729
0.467150 0.530656 0.660912
0.468276 0.530037 0.661220
0.473397 0.527189 0.662619
0.502134 0.513808 0.671346
0.590766 0.520026 0.676833
0.693751 0.537018 0.691201
0.799029 0.619646 0.709775
0.903618 0.729550 0.744854
0.475234 0.548568 0.669950
0.475901 0.548291 0.670087
0.476991 0.547835 0.670320
0.481881 0.545742 0.671395
0.504908 0.535326 0.677123
0.589939 0.543164 0.675283
0.692640 0.560482 0.689996
0.798350 0.628344 0.709709
0.903422 0.731593 0.744846
0.495441 0.605156 0.687956
0.495989 0.605069 0.688015
0.496943 0.604918 0.688105
0.501330 0.604269 0.688444
0.528533 0.602517 0.685065
0.599890 0.605543 0.680852
0.693090 0.618118 0.691325
0.796265 0.657415 0.710111
0.902599 0.740077 0.744832
0.595140 0.696459 0.695851
0.595414 0.696452 0.695845
0.595827 0.696446 0.695837
0.597765 0.696397 0.695795
0.606000 0.696263 0.695671
0.635931 0.697329 0.696938
0.702751 0.702751 0.702751
0.795913 0.721532 0.718309
0.900309 0.768112 0.745928
0.689923 0.801920 0.728173
0.689975 0.801920 0.728170
0.690124 0.801913 0.728171
0.690618 0.801902 0.728121
0.692866 0.801853 0.727939
0.702290 0.801762 0.727290
0.734700 0.803390 0.727504
0.807559 0.808710 0.729829
0.903837 0.826003 0.753207
-0.146516 0.916041 0.713971
-0.146516 0.916039 0.713965
-0.146516 0.916037 0.713954
-0.146516 0.916031 0.713896
0.332217 0.915984 0.713626
0.593349 0.915797 0.712372
0.706577 0.915323 0.707995
0.805797 0.915809 0.698478
0.916048 0.915108 0.670530
0.571762 0.636814 0.756478
0.571897 0.636731 0.756532
0.572072 0.636608 0.756613
0.573043 0.636007 0.756998
0.577522 0.633234 0.758733
0.609433 0.621852 0.770835
0.696017 0.628273 0.777940
0.798297 0.647287 0.795106
0.904589 0.727261 0.816277
0.571823 0.636918 0.756588
0.571956 0.636837 0.756639
0.572154 0.636703 0.756727
0.573089 0.636114 0.757106
0.577583 0.633347 0.758838
0.609390 0.621947 0.770871
0.696002 0.628438 0.777916
0.798283 0.647470 0.795086
0.904582 0.727331 0.816274
0.571921 0.637091 0.756771
0.572056 0.637008 0.756825
0.572248 0.636883 0.756906
0.573183 0.636295 0.757285
0.577708 0.633534 0.758998
0.609327 0.622112 0.770924
0.695978 0.628704 0.777877
0.798262 0.647766 0.795066
0.904572 0.727432 0.816276
0.572382 0.637869 0.757565
0.572530 0.637785 0.757614
0.572746 0.637659 0.757690
0.573690 0.637080 0.758057
0.578228 0.634371 0.759715
0.609002 0.622879 0.771161
0.695862 0.629901 0.777715
0.798184 0.649008 0.794972
0.904540 0.727869 0.816271
0.574611 0.641484 0.760776
0.574752 0.641411 0.760818
0.574956 0.641293 0.760891
0.575938 0.640755 0.761211
0.580531 0.638228 0.762706
0.607735 0.626410 0.772187
0.695425 0.635068 0.777070
0.797826 0.654400 0.794569
0.904373 0.729862 0.816255
0.583918 0.657690 0.771243
0.584034 0.657641 0.771273
0.584243 0.657546 0.771331
0.585197 0.657137 0.771574
0.589660 0.655208 0.772731
0.611313 0.645641 0.778877
0.695027 0.655062 0.775896
0.796803 0.674456 0.793526
0.903701 0.738037 0.816202
0.606689 0.711898 0.791554
0.606817 0.711882 0.791557
0.607020 0.711850 0.791573
0.607934 0.711714 0.791631
0.613188 0.711174 0.791385
0.639553 0.709667 0.786860
0.706593 0.713009 0.783284
0.797767 0.727080 0.795667
0.901684 0.765696 0.816636
0.709813 0.801729 0.801017
0.709855 0.801729 0.801020
0.709902 0.801731 0.801027
0.710334 0.801712 0.801007
0.711937 0.801683 0.800977
0.719046 0.801588 0.800910
0.745808 0.802867 0.802426
0.808999 0.808999 0.808999
0.901751 0.828180 0.824748
0.797150 0.908046 0.834436
0.797178 0.908041 0.834436
0.797180 0.908044 0.834432
0.797326 0.908037 0.834431
0.797801 0.908026 0.834385
0.800042 0.907977 0.834206
0.809370 0.907885 0.833555
0.841384 0.909546 0.833755
0.913751 0.914978 0.836270
0.678030 0.745991 0.858314
0.678049 0.745973 0.858328
0.678076 0.745948 0.858351
0.678283 0.745823 0.858442
0.679120 0.745272 0.858860
0.683310 0.742668 0.860755
0.714558 0.731655 0.874107
0.801620 0.737979 0.881809
0.903898 0.756812 0.900361
0.678027 0.746017 0.858339
0.678050 0.745997 0.858357
0.678071 0.745981 0.858374
0.678280 0.745851 0.858465
0.679143 0.745291 0.858892
0.683300 0.742694 0.860786
0.714530 0.731687 0.874119
0.801618 0.738002 0.881809
0.903899 0.756839 0.900357
0.678045 0.746055 0.858388
0.678093 0.746032 0.858394
0.678129 0.746002 0.858423
0.678295 0.745887 0.858511
0.679130 0.745341 0.858929
0.683337 0.742735 0.860818
0.714535 0.731715 0.874125
0.801608 0.738072 0.881797
0.903897 0.756899 0.900357
0.678131 0.746213 0.858585
0.678154 0.746206 0.858585
0.678226 0.746163 0.858615
0.678396 0.746046 0.858705
0.679260 0.745501 0.859112
0.683445 0.742906 0.860995
0.714470 0.731864 0.874186
0.801582 0.738315 0.881768
0.903875 0.757165 0.900333
0.678628 0.746943 0.859443
0.678628 0.746929 0.859460
0.678700 0.746902 0.859469
0.678872 0.746784 0.859560
0.679751 0.746242 0.859961
0.683995 0.743691 0.861778
0.714185 0.732570 0.874439
0.801474 0.739437 0.881606
0.903791 0.758361 0.900237
0.680865 0.750373 0.862930
0.680895 0.750359 0.862938
0.680952 0.750335 0.862950
0.681137 0.750225 0.863036
0.682072 0.749713 0.863381
0.686400 0.747312 0.865026
0.712959 0.735897 0.875520
0.801066 0.744299 0.880975
0.903444 0.763478 0.899850
0.690507 0.765777 0.874330
0.690510 0.765775 0.874333
0.690548 0.765758 0.874345
0.690756 0.765667 0.874402
0.691665 0.765272 0.874674
0.695876 0.763406 0.875955
0.716915 0.754037 0.882758
0.800805 0.763298 0.879971
0.902453 0.782690 0.898873
0.714420 0.818489 0.896412
0.714480 0.818478 0.896412
0.714542 0.818473 0.896415
0.714747 0.818436 0.896434
0.715569 0.818313 0.896495
0.720663 0.817775 0.896268
0.746527 0.816321 0.891606
0.812819 0.819682 0.888348
0.903679 0.833872 0.901426
0.816774 0.907865 0.907113
0.816801 0.907863 0.907113
0.816800 0.907867 0.907113
0.816875 0.907863 0.907113
0.817252 0.907854 0.907104
0.818870 0.907822 0.907076
0.825851 0.907734 0.907017
0.852326 0.909047 0.908578
0.915252 0.915252 0.915252
