StdX_ACES/studio/Log2_48_nits_Shaper_to_linear_AL.spi1d
Version 1
From 0.000000 1.000000
Length 4096
Components 1
{
         0.0019887378
         0.001993119
         0.0019975093
         0.0020019098
         0.00200632
         0.0020107394
         0.002015169
         0.002019608
         0.002024057
         0.002028516
         0.0020329843
         0.002037463
         0.0020419515
         0.0020464493
         0.0020509576
         0.0020554753
         0.0020600036
         0.0020645417
         0.0020690893
         0.0020736475
         0.0020782156
         0.0020827933
         0.002087382
         0.0020919796
         0.0020965883
         0.0021012072
         0.0021058354
         0.0021104745
         0.0021151241
         0.002119783
         0.002124453
         0.0021291324
         0.002133823
         0.0021385239
         0.0021432342
         0.0021479558
         0.0021526876
         0.0021574295
         0.0021621822
         0.002166945
         0.0021717187
         0.002176503
         0.0021812972
         0.0021861028
         0.0021909187
         0.0021957445
         0.0022005818
         0.002205429
         0.0022102876
         0.0022151568
         0.0022200362
         0.002224927
         0.0022298286
         0.00223474
         0.0022396632
         0.0022445964
         0.0022495415
         0.0022544973
         0.002259463
         0.0022644408
         0.0022694294
         0.0022744283
         0.0022794388
         0.0022844595
         0.0022894924
         0.0022945362
         0.0022995903
         0.0023046564
         0.0023097335
         0.0023148211
         0.0023199206
         0.0023250307
         0.0023301528
         0.0023352862
         0.0023404302
         0.002345586
         0.0023507534
         0.0023559316
         0.0023611216
         0.0023663223
         0.0023715354
         0.00237676
         0.002381995
         0.0023872426
         0.0023925018
         0.0023977717
         0.0024030542
         0.002408347
         0.0024136528
         0.0024189702
         0.0024242986
         0.0024296392
         0.0024349918
         0.0024403553
         0.0024457313
         0.0024511185
         0.0024565184
         0.0024619303
         0.002467353
         0.0024727886
         0.002478236
         0.002483695
         0.0024891666
         0.0024946495
         0.0025001452
         0.002505653
         0.002511172
         0.0025167041
         0.0025222488
         0.0025278043
         0.0025333732
         0.0025389534
         0.0025445467
         0.0025501524
         0.0025557696
         0.0025614
         0.0025670428
         0.0025726971
         0.002578365
         0.0025840441
         0.0025897368
         0.002595442
         0.002601159
         0.0026068892
         0.0026126325
         0.0026183873
         0.0026241555
         0.0026299357
         0.0026357295
         0.002641536
         0.0026473545
         0.0026531867
         0.0026590317
         0.0026648887
         0.0026707593
         0.0026766432
         0.002682539
         0.0026884489
         0.0026943705
         0.0027003062
         0.002706255
         0.002712216
         0.0027181911
         0.0027241786
         0.0027301798
         0.0027361945
         0.0027422213
         0.0027482626
         0.002754317
         0.002760384
         0.002766465
         0.0027725596
         0.0027786668
         0.0027847881
         0.0027909223
         0.0027970704
         0.0028032325
         0.0028094072
         0.0028155963
         0.0028217984
         0.0028280148
         0.0028342449
         0.002840488
         0.0028467455
         0.0028530168
         0.0028593014
         0.0028656002
         0.0028719131
         0.0028782391
         0.0028845798
         0.0028909335
         0.0028973026
         0.0029036852
         0.0029100813
         0.002916492
         0.0029229163
         0.0029293555
         0.002935809
         0.0029422755
         0.0029487573
         0.0029552537
         0.002961763
         0.0029682878
         0.002974827
         0.0029813796
         0.0029879478
         0.0029945292
         0.0030011262
         0.0030077377
         0.0030143629
         0.0030210032
         0.003027658
         0.0030343279
         0.0030410122
         0.0030477108
         0.003054425
         0.003061154
         0.0030678967
         0.0030746553
         0.0030814288
         0.003088216
         0.0030950196
         0.0031018371
         0.0031086702
         0.0031155187
         0.0031223812
         0.00312926
         0.0031361526
         0.0031430617
         0.0031499858
         0.0031569242
         0.0031638788
         0.003170849
         0.0031778335
         0.0031848343
         0.0031918506
         0.0031988812
         0.0032059283
         0.0032129902
         0.003220068
         0.0032271622
         0.0032342705
         0.0032413958
         0.0032485356
         0.0032556918
         0.0032628644
         0.0032700514
         0.0032772552
         0.003284475
         0.00329171
         0.0032989616
         0.0033062291
         0.0033135116
         0.0033208115
         0.0033281264
         0.0033354582
         0.0033428061
         0.0033501694
         0.00335755
         0.0033649453
         0.0033723584
         0.0033797878
         0.0033872325
         0.0033946943
         0.003402173
         0.0034096667
         0.0034171783
         0.0034247066
         0.00343225
         0.0034398115
         0.0034473883
         0.0034549828
         0.0034625942
         0.0034702213
         0.0034778663
         0.0034855267
         0.0034932056
         0.0035009012
         0.0035086134
         0.003516342
         0.0035240885
         0.0035318509
         0.0035396316
         0.0035474293
         0.0035552434
         0.0035630758
         0.0035709238
         0.003578791
         0.0035866748
         0.0035945752
         0.0036024943
         0.0036104305
         0.0036183833
         0.0036263545
         0.0036343434
         0.0036423488
         0.0036503728
         0.0036584137
         0.0036664729
         0.0036745504
         0.0036826443
         0.0036907569
         0.0036988868
         0.0037070352
         0.003715202
         0.0037233853
         0.003731588
         0.003739809
         0.0037480462
         0.0037563033
         0.0037645788
         0.0037728709
         0.0037811822
         0.0037895113
         0.0037978597
         0.0038062264
         0.0038146104
         0.0038230137
         0.0038314348
         0.0038398753
         0.0038483348
         0.0038568114
         0.0038653081
         0.0038738234
         0.0038823562
         0.003890909
         0.0038994807
         0.0039080703
         0.0039166794
         0.0039253067
         0.003933954
         0.003942621
         0.003951305
         0.0039600097
         0.003968733
         0.0039774757
         0.003986238
         0.0039950185
         0.0040038195
         0.0040126387
         0.004021479
         0.004030338
         0.0040392173
         0.004048114
         0.004057032
         0.0040659686
         0.004074926
         0.004083903
         0.0040928987
         0.0041019153
         0.0041109505
         0.004120007
         0.0041290834
         0.0041381787
         0.004147295
         0.0041564303
         0.0041655865
         0.004174764
         0.004183961
         0.0041931765
         0.0042024143
         0.0042116707
         0.004220949
         0.0042302483
         0.004239566
         0.004248906
         0.004258265
         0.004267646
         0.0042770477
         0.0042864685
         0.0042959116
         0.0043053743
         0.004314859
         0.0043243645
         0.0043338914
         0.0043434375
         0.004353006
         0.0043625943
         0.0043722056
         0.0043818373
         0.004391489
         0.0044011637
         0.004410858
         0.004420575
         0.0044303136
         0.0044400725
         0.004449854
         0.0044596554
         0.00446948
         0.0044793263
         0.0044891946
         0.004499083
         0.0045089945
         0.004518926
         0.0045288815
         0.004538859
         0.0045488565
         0.0045588776
         0.004568919
         0.004578985
         0.0045890724
         0.0045991805
         0.004609313
         0.0046194657
         0.0046296422
         0.004639841
         0.0046500633
         0.0046603056
         0.0046705725
         0.0046808603
         0.004691172
         0.004701507
         0.004711863
         0.004722243
         0.0047326447
         0.004743071
         0.00475352
         0.00476399
         0.0047744852
         0.004785002
         0.0047955434
         0.0048061083
         0.004816696
         0.0048273057
         0.0048379404
         0.004848597
         0.0048592784
         0.0048699835
         0.0048807105
         0.0048914626
         0.004902237
         0.0049130367
         0.0049238605
         0.004934706
         0.004945577
         0.004956471
         0.00496739
         0.004978333
         0.0049893004
         0.0050002905
         0.005011306
         0.005022344
         0.0050334083
         0.0050444975
         0.0050556087
         0.0050667464
         0.005077907
         0.0050890935
         0.0051003047
         0.0051115393
         0.0051228
         0.005134084
         0.0051453942
         0.00515673
         0.00516809
         0.0051794737
         0.005190884
         0.005202318
         0.0052137785
         0.005225265
         0.0052367747
         0.005248311
         0.0052598715
         0.005271459
         0.005283072
         0.005294709
         0.0053063734
         0.0053180614
         0.0053297775
         0.0053415187
         0.0053532864
         0.005365078
         0.0053768978
         0.005388741
         0.0054006125
         0.00541251
         0.005424432
         0.0054363823
         0.005448357
         0.0054603596
         0.005472389
         0.0054844427
         0.005496525
         0.0055086324
         0.005520768
         0.00553293
         0.0055451193
         0.0055573336
         0.0055695763
         0.0055818446
         0.005594141
         0.005606465
         0.0056188144
         0.0056311926
         0.005643597
         0.0056560296
         0.0056684897
         0.005680976
         0.005693491
         0.005706032
         0.005718603
         0.0057312003
         0.0057438263
         0.0057564783
         0.0057691596
         0.005781867
         0.0057946052
         0.0058073704
         0.0058201626
         0.005832984
         0.0058458326
         0.005858711
         0.005871618
         0.005884551
         0.0058975145
         0.005910505
         0.005923526
         0.0059365756
         0.005949654
         0.0059627593
         0.0059758956
         0.0059890584
         0.0060022525
         0.0060154754
         0.0060287258
         0.0060420064
         0.006055316
         0.0060686558
         0.0060820244
         0.0060954215
         0.00610885
         0.006122306
         0.0061357934
         0.0061493106
         0.0061628576
         0.006176432
         0.006190039
         0.0062036742
         0.0062173405
         0.0062310374
         0.0062447647
         0.00625852
         0.006272307
         0.0062861233
         0.0062999716
         0.0063138506
         0.0063277576
         0.006341698
         0.006355667
         0.0063696685
         0.006383701
         0.0063977623
         0.0064118565
         0.0064259805
         0.006440136
         0.0064543243
         0.006468543
         0.0064827916
         0.006497073
         0.0065113837
         0.006525729
         0.0065401047
         0.0065545104
         0.00656895
         0.00658342
         0.006597923
         0.0066124583
         0.006627023
         0.006641623
         0.006656253
         0.0066709165
         0.0066856123
         0.0067003407
         0.0067151
         0.0067298925
         0.006744717
         0.0067595756
         0.006774467
         0.0067893886
         0.006804346
         0.0068193334
         0.0068343566
         0.0068494133
         0.0068645
         0.006879623
         0.0068947766
         0.0069099655
         0.0069251885
         0.006940445
         0.0069557326
         0.006971056
         0.0069864113
         0.0070018023
         0.007017227
         0.007032684
         0.007048177
         0.0070637017
         0.007079263
         0.0070948587
         0.0071104867
         0.0071261516
         0.0071418476
         0.007157582
         0.0071733496
         0.0071891528
         0.0072049885
         0.007220861
         0.0072367666
         0.007252709
         0.007268687
         0.0072846976
         0.0073007457
         0.0073168273
         0.0073329457
         0.007349101
         0.0073652887
         0.0073815137
         0.0073977737
         0.0074140704
         0.007430404
         0.0074467734
         0.007463176
         0.007479618
         0.0074960925
         0.0075126067
         0.0075291577
         0.0075457417
         0.0075623645
         0.0075790226
         0.0075957193
         0.007612453
         0.007629221
         0.0076460275
         0.0076628695
         0.0076797507
         0.0076966695
         0.007713625
         0.0077306163
         0.007747647
         0.0077647124
         0.007781818
         0.0077989614
         0.007816141
         0.007833359
         0.007850613
         0.007867908
         0.007885242
         0.00790261
         0.007920019
         0.007937466
         0.007954951
         0.007972476
         0.00799004
         0.008007639
         0.008025277
         0.008042958
         0.008060676
         0.0080784345
         0.008096228
         0.008114064
         0.008131937
         0.008149852
         0.008167806
         0.0081858
         0.008203831
         0.008221901
         0.008240014
         0.008258167
         0.00827636
         0.00829459
         0.0083128605
         0.008331173
         0.008349528
         0.008367922
         0.008386353
         0.008404829
         0.008423341
         0.008441898
         0.008460497
         0.008479135
         0.008497812
         0.00851653
         0.008535292
         0.008554095
         0.00857294
         0.008591823
         0.008610749
         0.008629718
         0.008648729
         0.008667783
         0.008686875
         0.008706012
         0.008725189
         0.008744411
         0.008763675
         0.008782981
         0.008802327
         0.008821716
         0.00884115
         0.008860627
         0.008880148
         0.008899708
         0.008919311
         0.00893896
         0.008958653
         0.008978389
         0.008998166
         0.009017989
         0.009037852
         0.009057763
         0.009077718
         0.009097716
         0.009117755
         0.009137838
         0.00915797
         0.009178145
         0.009198364
         0.009218626
         0.009238931
         0.0092592845
         0.009279682
         0.009300127
         0.009320611
         0.009341145
         0.009361721
         0.009382344
         0.009403014
         0.009423728
         0.009444486
         0.009465289
         0.009486142
         0.00950704
         0.009527984
         0.0095489705
         0.009570004
         0.009591087
         0.009612217
         0.009633392
         0.009654611
         0.009675881
         0.009697194
         0.009718557
         0.009739967
         0.009761424
         0.009782925
         0.009804474
         0.009826073
         0.009847721
         0.009869415
         0.009891154
         0.009912942
         0.00993478
         0.009956666
         0.009978601
         0.010000581
         0.010022612
         0.010044688
         0.010066817
         0.010088995
         0.010111221
         0.010133493
         0.010155814
         0.010178187
         0.010200609
         0.010223082
         0.0102456
         0.010268168
         0.0102907885
         0.01031346
         0.01033618
         0.010358947
         0.010381768
         0.010404636
         0.010427557
         0.01045053
         0.010473552
         0.010496622
         0.010519743
         0.010542918
         0.010566144
         0.010589422
         0.010612747
         0.010636123
         0.010659555
         0.010683037
         0.010706573
         0.010730156
         0.0107537955
         0.010777482
         0.010801225
         0.01082502
         0.010848868
         0.0108727645
         0.010896714
         0.010920719
         0.010944778
         0.010968889
         0.01099305
         0.011017265
         0.011041536
         0.01106586
         0.011090239
         0.011114667
         0.011139153
         0.011163689
         0.011188282
         0.01121293
         0.0112376325
         0.011262385
         0.011287195
         0.011312059
         0.011336979
         0.011361953
         0.011386982
         0.011412066
         0.0114372065
         0.011462401
         0.011487651
         0.011512957
         0.011538319
         0.011563737
         0.0115892105
         0.011614739
         0.011640326
         0.011665968
         0.011691666
         0.011717422
         0.011743236
         0.011769105
         0.011795029
         0.011821012
         0.011847055
         0.011873151
         0.0118993055
         0.0119255185
         0.011951791
         0.011978119
         0.012004505
         0.012030949
         0.012057452
         0.012084013
         0.012110633
         0.0121373115
         0.012164049
         0.012190846
         0.0122177
         0.012244613
         0.012271588
         0.012298621
         0.0123257125
         0.012352864
         0.012380078
         0.012407349
         0.012434681
         0.012462073
         0.012489527
         0.01251704
         0.012544613
         0.012572247
         0.012599943
         0.012627699
         0.012655515
         0.012683394
         0.012711337
         0.012739337
         0.0127674
         0.012795525
         0.012823713
         0.012851962
         0.012880272
         0.012908647
         0.012937085
         0.012965583
         0.012994144
         0.013022767
         0.013051458
         0.013080208
         0.013109021
         0.013137898
         0.013166841
         0.013195846
         0.013224915
         0.013254046
         0.013283246
         0.0133125065
         0.013341833
         0.013371223
         0.0134006785
         0.0134302
         0.013459784
         0.013489434
         0.013519151
         0.013548931
         0.013578777
         0.013608689
         0.01363867
         0.013668713
         0.013698824
         0.013729
         0.013759246
         0.013789555
         0.013819931
         0.013850375
         0.013880887
         0.013911465
         0.013942109
         0.013972823
         0.014003605
         0.014034453
         0.014065368
         0.014096351
         0.014127406
         0.014158526
         0.014189716
         0.0142209735
         0.014252303
         0.014283698
         0.014315164
         0.014346696
         0.014378304
         0.014409977
         0.014441719
         0.014473533
         0.014505418
         0.014537371
         0.014569395
         0.0146014895
         0.014633656
         0.014665891
         0.014698199
         0.014730577
         0.014763027
         0.014795548
         0.014828141
         0.014860805
         0.014893544
         0.014926352
         0.014959233
         0.014992185
         0.015025213
         0.015058313
         0.0150914835
         0.015124728
         0.015158048
         0.015191439
         0.015224903
         0.015258442
         0.015292055
         0.015325742
         0.015359501
         0.015393336
         0.015427248
         0.0154612325
         0.015495291
         0.015529425
         0.015563636
         0.015597921
         0.015632281
         0.015666716
         0.01570123
         0.015735816
         0.01577048
         0.01580522
         0.015840039
         0.015874933
         0.015909903
         0.01594495
         0.015980078
         0.016015278
         0.016050559
         0.016085915
         0.016121352
         0.016156865
         0.016192457
         0.016228126
         0.016263876
         0.016299704
         0.01633561
         0.016371595
         0.016407661
         0.016443804
         0.016480029
         0.016516332
         0.016552716
         0.01658918
         0.016625723
         0.016662346
         0.016699055
         0.016735839
         0.016772706
         0.016809653
         0.016846687
         0.016883796
         0.01692099
         0.016958265
         0.016995624
         0.017033061
         0.017070584
         0.017108187
         0.017145878
         0.017183647
         0.0172215
         0.017259436
         0.017297458
         0.017335562
         0.01737375
         0.017412022
         0.01745038
         0.017488822
         0.017527346
         0.017565956
         0.017604655
         0.017643435
         0.0176823
         0.017721253
         0.017760292
         0.017799417
         0.017838625
         0.01787792
         0.017917305
         0.017956777
         0.017996332
         0.018035974
         0.018075708
         0.018115526
         0.018155433
         0.018195426
         0.01823551
         0.01827568
         0.01831594
         0.018356286
         0.018396726
         0.018437251
         0.018477865
         0.018518569
         0.018559365
         0.018600248
         0.018641222
         0.018682286
         0.018723443
         0.018764688
         0.018806025
         0.018847452
         0.018888973
         0.018930586
         0.018972285
         0.01901408
         0.019055964
         0.019097945
         0.019140014
         0.019182177
         0.019224433
         0.019266784
         0.019309226
         0.019351762
         0.01939439
         0.019437116
         0.019479934
         0.019522846
         0.01956585
         0.019608956
         0.01965215
         0.019695442
         0.019738827
         0.019782312
         0.019825889
         0.019869562
         0.019913333
         0.019957202
         0.020001166
         0.020045225
         0.02008938
         0.020133639
         0.02017799
         0.020222438
         0.020266986
         0.020311633
         0.020356378
         0.020401219
         0.020446159
         0.020491203
         0.020536343
         0.02058158
         0.02062692
         0.02067236
         0.020717898
         0.020763537
         0.020809276
         0.02085512
         0.02090106
         0.0209471
         0.020993244
         0.021039492
         0.02108584
         0.021132289
         0.02117884
         0.021225497
         0.021272253
         0.021319112
         0.021366075
         0.021413146
         0.021460317
         0.021507591
         0.021554967
         0.021602454
         0.02165004
         0.021697732
         0.021745529
         0.021793434
         0.021841442
         0.021889556
         0.021937774
         0.021986105
         0.022034535
         0.022083076
         0.02213172
         0.022180477
         0.022229338
         0.022278305
         0.02232738
         0.022376569
         0.02242586
         0.022475261
         0.02252477
         0.022574395
         0.022624122
         0.022673959
         0.022723906
         0.022773966
         0.022824135
         0.022874413
         0.022924801
         0.022975305
         0.023025917
         0.023076639
         0.023127474
         0.023178423
         0.023229482
         0.023280652
         0.023331936
         0.023383338
         0.023434848
         0.023486473
