StdX_ACES/show/show_cin.cube
TITLE "Generated by Resolve"
LUT_3D_SIZE 5
0 0 0
0.162219 0 0
0.410819 0 0
0.652583 0 0
0.887968 0 0
0 0.149599 0
0.164355 0.147662 0
0.40708 0.149004 0
0.643442 0.151186 0
0.87599 0.153689 0
0 0.395666 0
0.16585 0.391272 0
0.40676 0.390799 0
0.641657 0.391501 0
0.872984 0.392798 0
0 0.633371 0
0.167865 0.627817 0
0.407782 0.626352 0
0.64181 0.6262 0
0.872358 0.626719 0
0 0.866545 0
0.170031 0.860258 0
0.409262 0.858106 0
0.642664 0.857328 0
0.872663 0.857282 0
0 0 0.17705
0.162356 0 0.176547
0.412177 0 0.185
0.652323 0 0.190951
0.887205 0 0.195789
0 0.149111 0.180011
0.16347 0.146777 0.177661
0.405936 0.14786 0.178744
0.642084 0.149828 0.180713
0.874479 0.152178 0.183078
0 0.394247 0.183032
0.164294 0.3897 0.178485
0.405066 0.389105 0.17789
0.639872 0.389715 0.1785
0.871107 0.390921 0.17969
0 0.63154 0.185779
0.165957 0.62591 0.180148
0.405783 0.624369 0.178607
0.63975 0.62414 0.178378
0.870237 0.624598 0.17882
0 0.864469 0.188434
0.16788 0.858106 0.182071
0.407065 0.855909 0.179873
0.640406 0.85507 0.179034
0.870344 0.854963 0.178943
0 0 0.418936
0.164492 0 0.419486
0.414099 0 0.427695
0.653346 0 0.432761
0.8878 0 0.437186
0 0.149966 0.421637
0.163958 0.147265 0.418952
0.406195 0.148119 0.419791
0.642161 0.149905 0.421576
0.874403 0.152117 0.423789
0 0.394278 0.423835
0.164172 0.389593 0.41915
0.404837 0.388876 0.418433
0.639521 0.38938 0.418952
0.87068 0.390494 0.420066
0 0.631174 0.4262
0.165499 0.625452 0.420478
0.405264 0.623835 0.41886
0.639139 0.623529 0.41857
0.869566 0.623926 0.418952
0 0.863844 0.428595
0.167193 0.85742 0.422171
0.406317 0.855161 0.419928
0.639612 0.854276 0.419028
0.869505 0.854124 0.418891
0 0 0.654643
0.168795 0 0.657679
0.416083 0 0.663584
0.654704 0 0.668009
0.888808 0 0.672084
0 0.151171 0.656733
0.164874 0.148165 0.653742
0.406882 0.148806 0.654368
0.64268 0.150423 0.656001
0.874784 0.152499 0.658061
0 0.394736 0.658198
0.164508 0.389929 0.653376
0.405066 0.389105 0.652567
0.639658 0.389517 0.652964
0.870726 0.390539 0.654002
0 0.631266 0.660197
0.165515 0.625467 0.654398
0.405203 0.623774 0.652705
0.639017 0.623407 0.652338
0.869383 0.623743 0.652659
0 0.863691 0.662348
0.166995 0.857206 0.655863
0.406058 0.854902 0.653559
0.639307 0.853956 0.652613
0.869139 0.853758 0.652415
0 0 0.886915
0.172335 0 0.891066
0.418082 0 0.89543
0.656199 0 0.899367
0.890013 0 0.903136
0 0.152544 0.887968
0.165988 0.149279 0.884703
0.407797 0.149722 0.885145
0.643442 0.151186 0.88661
0.875425 0.153124 0.888548
0 0.395453 0.888747
0.165087 0.390509 0.883818
0.405539 0.389578 0.882887
0.640055 0.389899 0.883207
0.871031 0.390845 0.884153
0 0.631632 0.890394
0.165789 0.625757 0.88452
0.405417 0.623987 0.88275
0.63917 0.62356 0.882322
0.869474 0.623819 0.882597
0 0.863813 0.892317
0.167056 0.857282 0.885771
0.406073 0.854917 0.883406
0.639261 0.853925 0.882429
0.869062 0.853681 0.88217
