StdX_ACES/show/show_cin.cube
TITLE "Generated by Resolve"
LUT_3D_SIZE 9
0 0 0
0.034638 0 0
0.162219 0 0
0.286381 0 0
0.410819 0 0
0.532937 0 0
0.652583 0 0
0.770809 0 0
0.887968 0 0
0 0.0158083 0
0.0362402 0.0180667 0
0.165011 0.0196841 0
0.288731 0.0214389 0
0.409934 0.023209 0
0.529427 0.0249943 0
0.647654 0.0267491 0
0.764858 0.0285191 0
0.881209 0.0302739 0
0 0.149599 0
0.0375219 0.147997 0
0.164355 0.147662 0
0.286824 0.148165 0
0.40708 0.149004 0
0.525841 0.150042 0
0.643442 0.151186 0
0.760113 0.152407 0
0.87599 0.153689 0
0 0.274174 0
0.0388495 0.271733 0
0.164981 0.270695 0
0.286854 0.270619 0
0.406607 0.270954 0
0.524926 0.271534 0
0.64213 0.272282 0
0.758434 0.273136 0
0.873991 0.274098 0
0 0.395666 0
0.0401465 0.392737 0
0.16585 0.391272 0
0.287343 0.390814 0
0.40676 0.390799 0
0.524742 0.391058 0
0.641657 0.391501 0
0.757687 0.392096 0
0.872984 0.392798 0
0 0.515221 0
0.0414435 0.511955 0
0.166827 0.51017 0
0.288045 0.509422 0
0.407187 0.509148 0
0.524926 0.509163 0
0.641596 0.509377 0
0.757412 0.509758 0
0.872511 0.510262 0
0 0.633371 0
0.04271 0.629831 0
0.167865 0.627817 0
0.288853 0.626856 0
0.407782 0.626352 0
0.525322 0.626169 0
0.64181 0.6262 0
0.757443 0.626398 0
0.872358 0.626719 0
0 0.750408 0
0.0439918 0.74667 0
0.168933 0.744457 0
0.289738 0.743297 0
0.408484 0.742626 0
0.525856 0.742275 0
0.642176 0.742138 0
0.757656 0.742168 0
0.872435 0.742351 0
0 0.866545 0
0.045243 0.862638 0
0.170031 0.860258 0
0.290669 0.85893 0
0.409262 0.858106 0
0.526482 0.857603 0
0.642664 0.857328 0
0.758022 0.857237 0
0.872663 0.857282 0
0 0 0.050782
0.0341497 0 0.0493019
0.161913 0 0.049897
0.286473 0 0.0525063
0.411383 0 0.0579843
0.532769 0 0.0616465
0.652171 0 0.0645914
0.77023 0 0.067216
0.887282 0 0.0696574
0 0.0162356 0.049546
0.0363775 0.0182193 0.0515297
0.164736 0.0194095 0.0527199
0.288243 0.0209659 0.0542763
0.409308 0.0225986 0.0559091
0.52871 0.0242618 0.0575875
0.646845 0.0259556 0.059266
0.763989 0.0276493 0.0609598
0.880278 0.0293431 0.0626688
0 0.14905 0.0537423
0.0368658 0.147341 0.052018
0.163607 0.146899 0.0515908
0.286 0.147341 0.052018
0.406195 0.148119 0.0527962
0.524895 0.149096 0.0537728
0.642451 0.150195 0.0548714
0.759075 0.151369 0.0560616
0.874922 0.152621 0.0572976
0 0.273335 0.0556039
0.0379339 0.270817 0.0530861
0.164019 0.269734 0.0520027
0.285847 0.269612 0.0518807
0.40557 0.269902 0.0521706
0.523842 0.270451 0.0527199
0.641001 0.271168 0.0534218
0.75729 0.271992 0.0542611
0.872816 0.272923 0.0551919
0 0.394644 0.0572061
0.0390936 0.391669 0.0542458
0.164752 0.390173 0.0527352
0.286213 0.389685 0.0522469
0.4056 0.389639 0.0522011
0.523552 0.389868 0.05243
0.640436 0.390295 0.0528573
0.756451 0.39086 0.0534371
0.871733 0.391546 0.0541085
0 0.514076 0.0587167
0.0402686 0.510781 0.0554208
0.165637 0.50898 0.0536202
0.286824 0.508202 0.052842
0.405936 0.507912 0.0525521
0.523659 0.507897 0.0525368
0.640314 0.508095 0.0527352
0.756115 0.508446 0.0530861
0.871183 0.508934 0.0535744
0 0.632136 0.0601663
0.0414588 0.62858 0.056611
0.166598 0.626551 0.0545815
0.287556 0.625559 0.0535897
0.40647 0.62504 0.0530709
0.523995 0.624842 0.0528725
0.640452 0.624842 0.0528725
0.756069 0.625025 0.0530556
0.870985 0.62533 0.0533608
0 0.749111 0.0615702
0.0426642 0.745357 0.0578164
0.167605 0.743114 0.0555886
0.28838 0.741939 0.0544137
0.407111 0.741253 0.053727
0.524468 0.740887 0.0533455
0.640772 0.740734 0.053193
0.756237 0.740764 0.0532235
0.871 0.740917 0.0533761
0 0.865187 0.0629435
0.0438697 0.861265 0.0590219
0.168643 0.858854 0.0566262
0.289265 0.857527 0.0552834
0.407843 0.856687 0.0544442
0.525048 0.856168 0.0539254
0.641215 0.855879 0.0536355
0.756558 0.855772 0.0535286
0.871183 0.855802 0.0535592
0 0 0.17705
0.0343481 0 0.175708
0.162356 0 0.176547
0.28751 0 0.179736
0.412177 0 0.185
0.533135 0 0.18822
0.652323 0 0.190951
0.77026 0 0.193454
0.887205 0 0.195789
0 0.0181277 0.177661
0.0369726 0.0188144 0.178332
0.165026 0.0196841 0.179217
0.288365 0.0210727 0.180591
0.409293 0.0225834 0.182116
0.528603 0.024155 0.183688
0.646677 0.0257725 0.185306
0.763745 0.0274052 0.186923
0.879988 0.0290532 0.188571
0 0.149111 0.180011
0.03682 0.147295 0.17818
0.16347 0.146777 0.177661
0.285786 0.147143 0.178027
0.405936 0.14786 0.178744
0.524575 0.148775 0.17966
0.642084 0.149828 0.180713
0.758679 0.150973 0.181857
0.874479 0.152178 0.183078
0 0.273106 0.181582
0.0376593 0.270542 0.179004
0.163684 0.269398 0.177874
0.285466 0.26923 0.177707
0.405158 0.26949 0.177966
0.523384 0.269993 0.17847
0.640528 0.27068 0.179156
0.756771 0.271489 0.17995
0.872267 0.272389 0.180865
0 0.394247 0.183032
0.0386511 0.391241 0.180011
0.164294 0.3897 0.178485
0.285725 0.389181 0.177951
0.405066 0.389105 0.17789
0.523003 0.389319 0.178088
0.639872 0.389715 0.1785
0.755856 0.390265 0.179034
0.871107 0.390921 0.17969
0 0.513573 0.184421
0.0397345 0.510246 0.181094
0.165072 0.508415 0.179263
0.286229 0.507622 0.17847
0.405325 0.507301 0.178149
0.523033 0.507271 0.178119
0.639658 0.507439 0.178286
0.755444 0.50779 0.178637
0.870497 0.508247 0.179095
0 0.63154 0.185779
0.0408484 0.62797 0.182208
0.165957 0.62591 0.180148
0.2869 0.624903 0.179141
0.405783 0.624369 0.178607
0.523293 0.62414 0.178378
0.63975 0.62414 0.178378
0.755352 0.624292 0.178531
0.870237 0.624598 0.17882
0 0.74844 0.187121
0.0419776 0.744671 0.183337
0.166903 0.742412 0.181094
0.287663 0.741222 0.179889
0.406378 0.74052 0.179187
0.52372 0.740139 0.178805
0.640009 0.739971 0.178637
0.755459 0.739986 0.178653
0.870207 0.740124 0.17879
0 0.864469 0.188434
0.043122 0.860517 0.184482
0.16788 0.858106 0.182071
0.288487 0.856764 0.180728
0.407065 0.855909 0.179873
0.524254 0.855375 0.179339
0.640406 0.85507 0.179034
0.755734 0.854948 0.178912
0.870344 0.854963 0.178943
0 0 0.299077
0.0349584 0 0.297902
0.163256 0 0.299031
0.289723 0 0.303563
0.413123 0 0.30753
0.533761 0 0.31043
0.652781 0 0.312993
0.770581 0 0.315373
0.887434 0 0.317617
0 0.0195926 0.30071
0.0377661 0.0196078 0.300725
0.165576 0.0202335 0.301366
0.288762 0.0214694 0.302586
0.409583 0.0228733 0.30399
0.528801 0.0243687 0.305486
0.646799 0.0259098 0.307027
0.763821 0.0274815 0.308598
0.880003 0.0290684 0.310185
0 0.149477 0.301946
0.0370794 0.147539 0.300023
0.163638 0.146944 0.299428
0.285893 0.14725 0.299733
0.405982 0.147906 0.300389
0.524575 0.148775 0.301259
0.642054 0.149783 0.302266
0.758587 0.150896 0.30338
0.874372 0.152071 0.304555
0 0.273182 0.303258
0.0376898 0.270573 0.300633
0.163668 0.269383 0.299458
0.28542 0.269184 0.299245
0.405051 0.269398 0.299458
0.523262 0.269871 0.299931
0.64036 0.270512 0.300587
0.756573 0.27129 0.301366
0.872053 0.27216 0.302235
0 0.394186 0.304555
0.0385443 0.391135 0.301503
0.164141 0.389563 0.299931
0.285557 0.389013 0.299382
0.404868 0.388907 0.299275
0.522774 0.38909 0.299458
0.639612 0.389471 0.29984
0.755581 0.38999 0.300359
0.870817 0.390631 0.300999
0 0.51339 0.305837
0.0395209 0.510033 0.30248
0.164843 0.508186 0.300618
0.285969 0.507362 0.299809
0.405051 0.507012 0.299458
0.522728 0.506966 0.299413
0.639338 0.507118 0.299565
0.755108 0.507439 0.299886
0.870146 0.507881 0.300328
0 0.631281 0.307103
0.0405585 0.62768 0.303517
0.165637 0.625605 0.301427
0.286564 0.624567 0.300404
0.405447 0.624018 0.299855
0.522927 0.623774 0.299611
0.639368 0.623758 0.29958
0.75494 0.623896 0.299733
0.869825 0.62417 0.300008
0 0.748104 0.30837
0.0416266 0.74432 0.304585
0.166522 0.742046 0.302312
0.287266 0.740841 0.301106
0.405966 0.740124 0.300374
0.523293 0.739712 0.299977
0.639582 0.739528 0.299794
0.755016 0.739528 0.299794
0.869749 0.739666 0.299931
0 0.864073 0.309636
0.04271 0.860105 0.305669
0.167452 0.857679 0.303243
0.288045 0.856321 0.301885
0.406607 0.855451 0.301015
0.523781 0.854902 0.300465
0.639933 0.854597 0.300145
0.75523 0.854459 0.300023
0.869841 0.854459 0.300023
0 0 0.418936
0.0358129 0 0.41796
0.164492 0 0.419486
0.291402 0 0.42443
0.414099 0 0.427695
0.534478 0 0.430365
0.653346 0 0.432761
0.771054 0 0.435019
0.8878 0 0.437186
0 0.0208743 0.421195
0.0386358 0.0204623 0.420783
0.166232 0.0209049 0.421225
0.289281 0.0219883 0.422309
0.41001 0.0233005 0.423621
0.529152 0.0247044 0.425025
0.647089 0.0261845 0.426505
0.764035 0.0276951 0.428016
0.880171 0.0292363 0.429557
0 0.149966 0.421637
0.0374762 0.147936 0.419623
0.163958 0.147265 0.418952
0.286152 0.147509 0.419181
0.406195 0.148119 0.419791
0.524742 0.148943 0.420615
0.642161 0.149905 0.421576
0.758679 0.150973 0.422644
0.874403 0.152117 0.423789
0 0.273426 0.42269
0.0378729 0.270756 0.42002
0.163806 0.26952 0.418784
0.285512 0.269276 0.41854
0.405127 0.269459 0.418723
0.523293 0.269902 0.419165
0.64036 0.270512 0.419776
0.756558 0.27126 0.420523
0.871992 0.272114 0.421378
0 0.394278 0.423835
0.0386053 0.391196 0.420752
0.164172 0.389593 0.41915
0.285542 0.388998 0.41857
0.404837 0.388876 0.418433
0.522713 0.389029 0.418601
0.639521 0.38938 0.418952
0.755474 0.389883 0.41944
0.87068 0.390494 0.420066
0 0.513375 0.42501
0.0394751 0.509987 0.421622
0.164767 0.50811 0.419745
0.285878 0.507271 0.418906
0.404929 0.506905 0.41854
0.522591 0.506828 0.418463
0.639185 0.506966 0.418601
0.754925 0.507271 0.418906
0.869947 0.507683 0.419333
0 0.631174 0.4262
0.0404364 0.627558 0.422583
0.165499 0.625452 0.420478
0.286397 0.624399 0.419425
0.405264 0.623835 0.41886
0.522728 0.623575 0.418601
0.639139 0.623529 0.41857
0.754711 0.623667 0.418692
0.869566 0.623926 0.418952
0 0.747936 0.427405
0.0414435 0.744121 0.42359
0.166323 0.741833 0.421302
0.287053 0.740612 0.420081
0.405737 0.739879 0.419333
0.523049 0.739452 0.418921
0.639307 0.739269 0.418723
0.754726 0.739254 0.418708
0.869444 0.739361 0.41883
0 0.863844 0.428595
0.0424659 0.859861 0.424628
0.167193 0.85742 0.422171
0.28777 0.856046 0.420798
0.406317 0.855161 0.419928
0.523491 0.854597 0.419364
0.639612 0.854276 0.419028
0.75491 0.854124 0.418891
0.869505 0.854124 0.418891
0 0 0.537331
0.0368811 0 0.536599
0.166186 0 0.538735
0.292821 0 0.543404
0.415091 0 0.546258
0.535271 0 0.548714
0.654002 0 0.550973
0.771603 0 0.55314
0.888273 0 0.555215
0 0.0220798 0.539971
0.0395361 0.0213779 0.539254
0.166964 0.0216373 0.539513
0.289891 0.0225986 0.54049
0.410529 0.0238193 0.541695
0.529595 0.0251469 0.543038
0.647456 0.026566 0.544442
0.76437 0.0280308 0.545907
0.880461 0.0295109 0.547402
0 0.15053 0.539773
0.0379644 0.148425 0.537667
0.164385 0.147677 0.536934
0.286519 0.14786 0.537102
0.4065 0.148425 0.537667
0.525002 0.149203 0.538445
0.64239 0.150118 0.539376
0.758862 0.151156 0.540398
0.874556 0.15227 0.541512
0 0.273762 0.540597
0.0381628 0.271046 0.537881
0.16405 0.26978 0.536599
0.285725 0.26949 0.536324
0.405295 0.269627 0.536461
0.52343 0.270039 0.536873
0.640467 0.270634 0.537453
0.756634 0.271351 0.53817
0.872053 0.272175 0.538994
0 0.394461 0.541588
0.0387579 0.391348 0.538476
0.164294 0.389715 0.536843
0.285634 0.389105 0.536233
0.404913 0.388952 0.53608
0.522759 0.389075 0.536202
0.639551 0.38941 0.536538
0.755474 0.389883 0.537011
0.870665 0.390478 0.537606
0 0.513466 0.542672
0.0395361 0.510048 0.539254
0.164813 0.508156 0.537346
0.285893 0.507286 0.536492
0.404929 0.506889 0.536095
0.52256 0.506798 0.536004
0.639139 0.50692 0.536126
0.754864 0.507195 0.5364
0.869871 0.507607 0.536812
0 0.631174 0.54377
0.0404212 0.627543 0.540139
0.165469 0.625422 0.538018
0.286351 0.624353 0.53695
0.405188 0.623758 0.536355
0.522637 0.623484 0.53608
0.639033 0.623438 0.536019
0.754589 0.623545 0.536141
0.869444 0.623789 0.536385
0 0.747875 0.5449
0.0413519 0.744045 0.54107
0.166217 0.741741 0.538766
0.286931 0.740505 0.53753
0.405615 0.739757 0.536782
0.522896 0.739315 0.536339
0.639155 0.739116 0.536141
0.754559 0.739071 0.53611
0.869261 0.739193 0.536217
0 0.863722 0.546044
0.0423438 0.859724 0.542062
0.167056 0.857267 0.539605
0.287617 0.855879 0.538201
0.406149 0.854994 0.537316
0.523293 0.854414 0.536736
0.639414 0.854078 0.5364
0.754696 0.85391 0.536248
0.869276 0.853895 0.536233
0 0 0.654643
0.0381628 0 0.654215
0.168795 0 0.657679
0.294133 0 0.661051
0.416083 0 0.663584
0.536095 0 0.665858
0.654704 0 0.668009
0.772198 0 0.670069
0.888808 0 0.672084
0 0.0232548 0.657465
0.0404669 0.0222934 0.656504
0.167742 0.0224002 0.656611
0.290562 0.02327 0.657481
0.411109 0.0243992 0.65861
0.530098 0.0256657 0.659876
0.647913 0.0270085 0.661219
0.764767 0.0284276 0.662638
0.880812 0.0298772 0.664088
0 0.151171 0.656733
0.0385138 0.148974 0.654551
0.164874 0.148165 0.653742
0.286946 0.148287 0.653864
0.406882 0.148806 0.654368
0.525338 0.149538 0.655116
0.64268 0.150423 0.656001
0.759121 0.151415 0.656992
0.874784 0.152499 0.658061
0 0.274174 0.657343
0.038529 0.271412 0.654566
0.16437 0.2701 0.653254
0.286015 0.26978 0.652934
0.405539 0.269886 0.65304
0.523644 0.270268 0.653422
0.640665 0.270817 0.653971
0.756802 0.271519 0.654673
0.87219 0.272312 0.655467
0 0.394736 0.658198
0.0390021 0.391592 0.655039
0.164508 0.389929 0.653376
0.285817 0.389288 0.652735
0.405066 0.389105 0.652567
0.522896 0.389212 0.652659
0.639658 0.389517 0.652964
0.75555 0.38996 0.653422
0.870726 0.390539 0.654002
0 0.513634 0.659159
0.0396887 0.510201 0.655726
0.16492 0.508263 0.653803
0.286 0.507378 0.652918
0.405005 0.506966 0.652506
0.522622 0.506859 0.652384
0.63917 0.50695 0.652491
0.754879 0.507225 0.65275
0.869871 0.507607 0.653147
0 0.631266 0.660197
0.0404822 0.627604 0.656535
0.165515 0.625467 0.654398
0.286381 0.624384 0.6533
0.405203 0.623774 0.652705
0.522637 0.623484 0.652399
0.639017 0.623407 0.652338
0.754559 0.623514 0.65243
0.869383 0.623743 0.652659
0 0.747906 0.66125
0.0413672 0.74406 0.657404
0.166217 0.741741 0.655085
0.286915 0.740475 0.653834
0.40557 0.739712 0.653071
0.52285 0.739254 0.652613
0.639078 0.73904 0.652399
0.754482 0.738994 0.652354
0.869169 0.739086 0.652445
0 0.863691 0.662348
0.042298 0.859678 0.658335
0.166995 0.857206 0.655863
0.287541 0.855802 0.654459
0.406058 0.854902 0.653559
0.523201 0.854322 0.652964
0.639307 0.853956 0.652613
0.754574 0.853788 0.652445
0.869139 0.853758 0.652415
0 0 0.771115
0.039704 0 0.771084
0.170718 0 0.774929
0.295369 0 0.77763
0.41709 0 0.779919
0.536934 0 0.782055
0.655436 0 0.784085
0.772854 0 0.786068
0.889387 0 0.788006
0 0.0243839 0.773938
0.0413977 0.0232395 0.772778
0.168551 0.023209 0.772763
0.291264 0.0239719 0.773526
0.411734 0.0250248 0.774563
0.530663 0.026215 0.775769
0.648417 0.027512 0.777066
0.765209 0.0288701 0.778424
0.881209 0.0302739 0.779828
0 0.151843 0.772747
0.0391089 0.149584 0.770489
0.165408 0.148714 0.769619
0.287434 0.148775 0.76968
0.407309 0.149233 0.770153
0.525734 0.149935 0.77084
0.643046 0.150774 0.771695
0.759441 0.151736 0.772656
0.87509 0.152789 0.773693
0 0.274647 0.773144
0.038941 0.271839 0.770321
0.164752 0.270481 0.768978
0.286351 0.270115 0.768612
0.405859 0.270191 0.768688
0.523934 0.270542 0.769039
0.640909 0.271077 0.769558
0.757031 0.271733 0.77023
0.872389 0.272511 0.771008
0 0.395071 0.773861
0.0393072 0.391882 0.770687
0.164782 0.390188 0.768994
0.286061 0.389517 0.768322
0.40528 0.389319 0.768109
0.523079 0.389395 0.7682
0.639826 0.389685 0.768475
0.755703 0.390112 0.768917
0.870848 0.390677 0.769467
0 0.513863 0.774731
0.0398871 0.510399 0.771267
0.165103 0.508446 0.769329
0.286152 0.507546 0.768414
0.405142 0.507103 0.767987
0.522744 0.506981 0.767849
0.639277 0.507057 0.767926
0.754971 0.507301 0.76817
0.869932 0.507683 0.768551
0 0.631418 0.775677
0.0406195 0.627741 0.772
0.165621 0.625589 0.769848
0.286473 0.624475 0.768734
0.40528 0.62385 0.768109
0.522698 0.623545 0.767803
0.639063 0.623453 0.767712
0.754589 0.623545 0.767803
0.869398 0.623758 0.768017
0 0.747997 0.776684
0.0414435 0.744121 0.772824
0.166262 0.741787 0.770489
0.286946 0.74052 0.769207
0.405585 0.739742 0.768429
0.52285 0.739269 0.767956
0.639078 0.73904 0.767727
0.754467 0.738979 0.767666
0.869139 0.739055 0.767758
0 0.863722 0.777722
0.0423133 0.859709 0.773693
0.166995 0.857221 0.771206
0.287526 0.855802 0.769787
0.406027 0.854871 0.768872
0.523156 0.854276 0.768277
0.639261 0.85391 0.76791
0.754513 0.853727 0.767727
0.869078 0.853697 0.767681
0 0 0.886915
0.0416419 0 0.887526
0.172335 0 0.891066
0.296574 0 0.893355
0.418082 0 0.89543
0.537804 0 0.897429
0.656199 0 0.899367
0.773541 0 0.901259
0.890013 0 0.903136
0 0.0255131 0.88957
0.0423438 0.0241855 0.888243
0.169375 0.0240482 0.88809
0.291997 0.0247044 0.888762
0.41239 0.0256809 0.889738
0.531258 0.0268254 0.890883
0.648966 0.0280613 0.892119
0.765713 0.0293736 0.893431
0.881666 0.0307317 0.894789
0 0.152544 0.887968
0.0397498 0.150225 0.885634
0.165988 0.149279 0.884703
0.287953 0.14931 0.884718
0.407797 0.149722 0.885145
0.526177 0.150378 0.885786
0.643442 0.151186 0.88661
0.759808 0.152117 0.887526
0.875425 0.153124 0.888548
0 0.275151 0.888151
0.0394141 0.272297 0.885298
0.165179 0.270909 0.883909
0.286748 0.270512 0.883513
0.40621 0.270558 0.883558
0.524254 0.270863 0.883879
0.641215 0.271366 0.884382
0.757305 0.272007 0.885023
0.872648 0.272755 0.885771
0 0.395453 0.888747
0.0396429 0.392233 0.885542
0.165087 0.390509 0.883818
0.286351 0.389822 0.883116
0.405539 0.389578 0.882887
0.523323 0.389639 0.882948
0.640055 0.389899 0.883207
0.755901 0.390311 0.883619
0.871031 0.390845 0.884153
0 0.514153 0.889525
0.0401465 0.510658 0.886046
0.165347 0.50869 0.884062
0.286366 0.507759 0.883131
0.405341 0.507301 0.882689
0.522911 0.507149 0.882536
0.639429 0.50721 0.882597
0.755108 0.507439 0.882826
0.870054 0.507805 0.883177
0 0.631632 0.890394
0.0408026 0.627924 0.886702
0.165789 0.625757 0.88452
0.286625 0.624628 0.883391
0.405417 0.623987 0.88275
0.522805 0.623667 0.882429
0.63917 0.62356 0.882322
0.754665 0.623621 0.882383
0.869474 0.623819 0.882597
0 0.748135 0.89134
0.0415656 0.744259 0.887449
0.166384 0.741894 0.8851
0.287053 0.740612 0.883818
0.405676 0.739818 0.883009
0.522927 0.73933 0.882536
0.639124 0.739086 0.882292
0.754498 0.73901 0.882216
0.869169 0.739086 0.882277
0 0.863813 0.892317
0.0423896 0.859785 0.888273
0.167056 0.857282 0.885771
0.287572 0.855848 0.884337
0.406073 0.854917 0.883406
0.523186 0.854307 0.882795
0.639261 0.853925 0.882429
0.754513 0.853727 0.882231
0.869062 0.853681 0.88217
