StdX_ACES/show/show_cin.cube
TITLE "Generated by Resolve"
LUT_3D_SIZE 33
0 0 0
0 0 0
0 0 0
0.000595102 0 0
0.034638 0 0
0.0672007 0 0
0.0991836 0 0
0.130816 0 0
0.162219 0 0
0.193423 0 0
0.224491 0 0
0.255467 0 0
0.286381 0 0
0.317266 0 0
0.34818 0 0
0.379232 0 0
0.410819 0 0
0.441749 0 0
0.472343 0 0
0.502724 0 0
0.532937 0 0
0.563012 0 0
0.592966 0 0
0.622827 0 0
0.652583 0 0
0.682261 0 0
0.711849 0 0
0.74136 0 0
0.770809 0 0
0.800183 0 0
0.829511 0 0
0.858763 0 0
0.887968 0 0
0 0 0
0 0 0
0 0 0
0.000869764 0 0
0.0350195 0 0
0.067689 0 0
0.099794 0 0
0.131579 0 0
0.163149 0 0
0.194568 0 0
0.22591 0 0
0.257252 0 0
0.288792 0 0
0.320607 0 0
0.35169 0 0
0.382467 0 0
0.413031 0 0
0.443427 0 0
0.473686 0 0
0.503807 0 0
0.533822 0 0
0.563729 0 0
0.593561 0 0
0.623285 0 0
0.652934 0 0
0.682506 0 0
0.712001 0 0
0.741436 0 0
0.770809 0 0
0.800107 0 0
0.829358 0 0
0.858564 0 0
0.887694 0 0
0 0 0
0 0 0
0 0 0
0.00109865 0 0
0.0354009 0 0
0.0682536 0 0
0.100603 0 0
0.132677 0 0
0.16466 0 0
0.197055 0 0
0.228931 0 0
0.260288 0 0
0.291341 0 0
0.322164 0 0
0.352804 0 0
0.383276 0 0
0.413611 0 0
0.443824 0 0
0.47393 0 0
0.503914 0 0
0.533806 0 0
0.563607 0 0
0.593332 0 0
0.62298 0 0
0.652537 0 0
0.682048 0 0
0.711467 0 0
0.740841 0 0
0.770153 0 0
0.799405 0 0
0.828595 0 0
0.85774 0 0
0.886839 0 0
0 0 0
0 0 0
0 0 0
0.00120546 0 0
0.0358434 0 0
0.0692149 0 0
0.102586 0 0
0.134966 0 0
0.166812 0 0
0.198306 0 0
0.229511 0 0
0.260487 0 0
0.291279 0 0
0.321889 0 0
0.352346 0 0
0.382681 0 0
0.412894 0 0
0.442985 0 0
0.472984 0 0
0.502876 0 0
0.532692 0 0
0.562417 0 0
0.592065 0 0
0.621637 0 0
0.651133 0 0
0.680583 0 0
0.709957 0 0
0.739269 0 0
0.768521 0 0
0.797726 0 0
0.826871 0 0
0.85597 0 0
0.885023 0 0
0 0.0158083 0
0 0.0164492 0
0 0.017319 0
0.00148013 0.0179294 0
0.0362402 0.0180667 0
0.0692912 0.0184329 0
0.101625 0.0188296 0
0.133501 0.0192569 0
0.165011 0.0196841 0
0.196262 0.0201267 0
0.227268 0.0205539 0
0.258091 0.0209964 0
0.288731 0.0214389 0
0.319219 0.0218814 0
0.349584 0.0223239 0
0.379812 0.0227665 0
0.409934 0.023209 0
0.439948 0.0236515 0
0.469856 0.0241093 0
0.499687 0.0245518 0
0.529427 0.0249943 0
0.559091 0.0254368 0
0.588678 0.025864 0
0.618204 0.0263066 0
0.647654 0.0267491 0
0.677043 0.0271916 0
0.706371 0.0276341 0
0.735637 0.0280766 0
0.764858 0.0285191 0
0.794018 0.0289464 0
0.823133 0.0293889 0
0.852186 0.0298314 0
0.881209 0.0302739 0
0 0.0514534 0
0 0.052079 0
0 0.052369 0
0.0021973 0.0520333 0
0.0365454 0.0517586 0
0.0693065 0.0518196 0
0.101411 0.0520027 0
0.133104 0.0522469 0
0.164462 0.0525216 0
0.195575 0.0528267 0
0.226474 0.0531472 0
0.257176 0.0534676 0
0.287724 0.0538186 0
0.318135 0.0541848 0
0.348409 0.0545357 0
0.378561 0.054902 0
0.408606 0.0552834 0
0.43856 0.0556649 0
0.468421 0.0560464 0
0.498192 0.0564279 0
0.527871 0.0568246 0
0.557488 0.0572061 0
0.58703 0.0576028 0
0.616495 0.0579995 0
0.645914 0.0583963 0
0.675258 0.058793 0
0.70454 0.0591897 0
0.733776 0.0596017 0
0.762951 0.0599985 0
0.792081 0.0603952 0
0.821149 0.0608072 0
0.850187 0.0612039 0
0.879164 0.0616159 0
0 0.085069 0
0 0.0853285 0
0 0.085359 0
0.00270085 0.0848249 0
0.0368658 0.0843824 0
0.0694743 0.0842908 0
0.101472 0.0843519 0
0.133043 0.0844739 0
0.164309 0.0846418 0
0.195315 0.0848554 0
0.226123 0.0850843 0
0.256764 0.0853437 0
0.287236 0.0856184 0
0.317571 0.0859083 0
0.347784 0.0862135 0
0.377874 0.0865187 0
0.407874 0.0868391 0
0.437766 0.0871595 0
0.467582 0.0874952 0
0.497292 0.0878309 0
0.52694 0.0881819 0
0.556512 0.0885328 0
0.586007 0.0888838 0
0.615442 0.0892348 0
0.644816 0.0895857 0
0.674128 0.0899519 0
0.70338 0.0903182 0
0.73257 0.0906844 0
0.761715 0.0910506 0
0.790814 0.0914321 0
0.819852 0.0917983 0
0.848859 0.0921798 0
0.877806 0.092546 0
0 0.117632 0
0 0.117723 0
0 0.117617 0
0.0031281 0.11696 0
0.0372015 0.116396 0
0.0697185 0.116213 0
0.10161 0.116182 0
0.133104 0.116228 0
0.164294 0.11632 0
0.195239 0.116457 0
0.225971 0.116625 0
0.25655 0.116823 0
0.286961 0.117037 0
0.31725 0.117281 0
0.347402 0.117525 0
0.377447 0.117784 0
0.407401 0.118059 0
0.437247 0.118334 0
0.467018 0.118624 0
0.496696 0.118929 0
0.526299 0.119234 0
0.55584 0.119539 0
0.58529 0.11986 0
0.614694 0.12018 0
0.644038 0.1205 0
0.673304 0.120821 0
0.702525 0.121157 0
0.731701 0.121492 0
0.760815 0.121843 0
0.789883 0.122179 0
0.818891 0.12253 0
0.847868 0.122881 0
0.876799 0.123217 0
0 0.149599 0
0 0.149584 0
0 0.149386 0
0.00354009 0.148638 0
0.0375219 0.147997 0
0.0699779 0.147753 0
0.101793 0.147646 0
0.133227 0.147616 0
0.164355 0.147662 0
0.195239 0.147738 0
0.225925 0.14786 0
0.256443 0.147997 0
0.286824 0.148165 0
0.317052 0.148348 0
0.347173 0.148562 0
0.377172 0.148775 0
0.40708 0.149004 0
0.436896 0.149248 0
0.466621 0.149508 0
0.496269 0.149767 0
0.525841 0.150042 0
0.555337 0.150317 0
0.584772 0.150591 0
0.61413 0.150881 0
0.643442 0.151186 0
0.672694 0.151476 0
0.701885 0.151781 0
0.731014 0.152102 0
0.760113 0.152407 0
0.789151 0.152728 0
0.818143 0.153048 0
0.847089 0.153368 0
0.87599 0.153689 0
0 0.181155 0
0 0.181064 0
0 0.180789 0
0.00393683 0.17998 0
0.0378576 0.179278 0
0.0702373 0.178973 0
0.102007 0.178805 0
0.133394 0.178729 0
0.164462 0.178714 0
0.1953 0.178759 0
0.225956 0.17882 0
0.256428 0.178927 0
0.286763 0.179049 0
0.31696 0.179202 0
0.347036 0.17937 0
0.377005 0.179553 0
0.406867 0.179751 0
0.436652 0.179965 0
0.466346 0.180179 0
0.495964 0.180407 0
0.52549 0.180652 0
0.554971 0.180896 0
0.584375 0.181155 0
0.613703 0.181415 0
0.642985 0.181674 0
0.672206 0.181949 0
0.701381 0.182223 0
0.730495 0.182513 0
0.759548 0.182803 0
0.788571 0.183093 0
0.817533 0.183398 0
0.846464 0.183688 0
0.875349 0.183993 0
0 0.212406 0
0 0.212253 0
0 0.211917 0
0.0043183 0.211063 0
0.0381933 0.2103 0
0.0705272 0.209949 0
0.102251 0.209735 0
0.133577 0.209613 0
0.164614 0.209567 0
0.195407 0.209552 0
0.226017 0.209583 0
0.256458 0.209659 0
0.286748 0.209751 0
0.316915 0.209857 0
0.34696 0.209995 0
0.376898 0.210132 0
0.406729 0.2103 0
0.436484 0.210483 0
0.466148 0.210666 0
0.495735 0.21088 0
0.525246 0.211093 0
0.554681 0.211307 0
0.584054 0.211536 0
0.613367 0.211765 0
0.642634 0.212009 0
0.671824 0.212268 0
0.700969 0.212512 0
0.730053 0.212772 0
0.759106 0.213046 0
0.788098 0.213321 0
0.817044 0.213596 0
0.845945 0.21387 0
0.8748 0.21416 0
0 0.243397 0
0 0.243198 0
0 0.242817 0
0.00468452 0.241917 0
0.0385138 0.241108 0
0.0708171 0.240711 0
0.102495 0.240467 0
0.133791 0.240299 0
0.164782 0.240208 0
0.195544 0.240177 0
0.226123 0.240162 0
0.256519 0.240192 0
0.286793 0.240253 0
0.316915 0.240345 0
0.346929 0.240436 0
0.376837 0.240558 0
0.406653 0.240696 0
0.436377 0.240848 0
0.466011 0.241016 0
0.495567 0.241184 0
0.525063 0.241382 0
0.554467 0.241566 0
0.583825 0.241779 0
0.613108 0.241993 0
0.642344 0.242206 0
0.671519 0.242435 0
0.700648 0.242664 0
0.729717 0.242908 0
0.75874 0.243153 0
0.787701 0.243412 0
0.816632 0.243656 0
0.845518 0.243915 0
0.874357 0.24419 0
0 0.274174 0
0 0.273945 0
0 0.273518 0
0.00505074 0.272572 0
0.0388495 0.271733 0
0.071107 0.27129 0
0.102754 0.271015 0
0.134005 0.270817 0
0.164981 0.270695 0
0.195712 0.270619 0
0.226246 0.270588 0
0.256626 0.270588 0
0.286854 0.270619 0
0.31696 0.27068 0
0.346944 0.270741 0
0.376822 0.270848 0
0.406607 0.270954 0
0.436301 0.271077 0
0.465919 0.271214 0
0.49546 0.271366 0
0.524926 0.271534 0
0.554314 0.271702 0
0.583642 0.271885 0
0.612909 0.272084 0
0.64213 0.272282 0
0.671275 0.27248 0
0.700374 0.272694 0
0.729427 0.272923 0
0.758434 0.273136 0
0.787381 0.273381 0
0.816297 0.27361 0
0.845167 0.273854 0
0.873991 0.274098 0
0 0.304784 0
0 0.304494 0
0 0.304036 0
0.00541695 0.303059 0
0.0391699 0.30219 0
0.071397 0.301717 0
0.103014 0.301396 0
0.134249 0.301183 0
0.165179 0.30103 0
0.19588 0.300923 0
0.226398 0.300862 0
0.256748 0.300832 0
0.286946 0.300847 0
0.317021 0.300877 0
0.34699 0.300923 0
0.376852 0.300984 0
0.406607 0.301076 0
0.436286 0.301183 0
0.465873 0.301305 0
0.495384 0.301427 0
0.524834 0.301564 0
0.554208 0.301717 0
0.583505 0.301885 0
0.612757 0.302052 0
0.641947 0.302235 0
0.671092 0.302419 0
0.70016 0.302617 0
0.729198 0.302815 0
0.75819 0.303029 0
0.787121 0.303243 0
0.816007 0.303456 0
0.844862 0.303685 0
0.873671 0.303914 0
0 0.33521 0
0 0.334905 0
0 0.334417 0
0.00576791 0.333394 0
0.0395056 0.332494 0
0.0716869 0.332006 0
0.103288 0.331655 0
0.134478 0.331411 0
0.165393 0.331228 0
0.196078 0.33109 0
0.226566 0.331014 0
0.256886 0.330968 0
0.287068 0.330938 0
0.317113 0.330953 0
0.347066 0.330968 0
0.376898 0.331029 0
0.406638 0.33109 0
0.436286 0.331167 0
0.465858 0.331258 0
0.495354 0.33138 0
0.524773 0.331502 0
0.554131 0.331624 0
0.583413 0.331777 0
0.61265 0.33193 0
0.641825 0.332082 0
0.670939 0.33225 0
0.699992 0.332433 0
0.729015 0.332616 0
0.757977 0.332799 0
0.786908 0.332998 0
0.815778 0.333211 0
0.844602 0.33341 0
0.873396 0.333623 0
0 0.365499 0
0 0.365164 0
0 0.364645 0
0.00611887 0.363607 0
0.039826 0.362676 0
0.0719921 0.362142 0
0.103563 0.361776 0
0.134737 0.361501 0
0.165621 0.361303 0
0.196277 0.361151 0
0.226734 0.361044 0
0.257038 0.360967 0
0.287205 0.360922 0
0.317235 0.360906 0
0.347143 0.360922 0
0.376959 0.360937 0
0.406683 0.360983 0
0.436316 0.361059 0
0.465873 0.361135 0
0.495338 0.361227 0
0.524742 0.361318 0
0.554086 0.36144 0
0.583352 0.361563 0
0.612558 0.3617 0
0.641718 0.361837 0
0.670817 0.36199 0
0.69987 0.362158 0
0.728862 0.362325 0
0.757824 0.362493 0
0.786725 0.362676 0
0.815579 0.36286 0
0.844404 0.363058 0
0.873182 0.363256 0
0 0.395666 0
0 0.3953 0
0 0.394751 0
0.00646983 0.393683 0
0.0401465 0.392737 0
0.0722972 0.392187 0
0.103838 0.391791 0
0.134981 0.391501 0
0.16585 0.391272 0
0.196475 0.391089 0
0.226932 0.390967 0
0.257206 0.390875 0
0.287343 0.390814 0
0.317357 0.390768 0
0.34725 0.390753 0
0.37705 0.390768 0
0.40676 0.390799 0
0.436362 0.390829 0
0.465904 0.39089 0
0.495354 0.390967 0
0.524742 0.391058 0
0.554055 0.39115 0
0.583322 0.391257 0
0.612512 0.391379 0
0.641657 0.391501 0
0.670741 0.391638 0
0.699763 0.391791 0
0.728756 0.391943 0
0.757687 0.392096 0
0.786572 0.392264 0
0.815427 0.392432 0
0.844221 0.392615 0
0.872984 0.392798 0
0 0.425711 0
0 0.425315 0
0 0.42475 0
0.00682078 0.423651 0
0.0404669 0.422675 0
0.0725872 0.42211 0
0.104112 0.421698 0
0.135241 0.421378 0
0.166079 0.421134 0
0.196704 0.420935 0
0.227131 0.420783 0
0.257389 0.420676 0
0.28751 0.420584 0
0.317494 0.420539 0
0.347372 0.420508 0
0.377157 0.420493 0
0.406836 0.420508 0
0.436439 0.420539 0
0.46595 0.420569 0
0.495399 0.42063 0
0.524758 0.420691 0
0.55407 0.420783 0
0.583307 0.420874 0
0.612482 0.420981 0
0.641611 0.421088 0
0.67068 0.42121 0
0.699702 0.421332 0
0.728664 0.421469 0
0.75758 0.421622 0
0.786465 0.421775 0
0.81529 0.421927 0
0.844083 0.422095 0
0.872831 0.422278 0
0 0.45565 0
0 0.455222 0
0 0.454643 0
0.00717174 0.453529 0
0.0407874 0.452522 0
0.0728923 0.451942 0
0.104402 0.451499 0
0.1355 0.451164 0
0.166323 0.450904 0
0.196918 0.45069 0
0.227329 0.450523 0
0.257572 0.450385 0
0.287678 0.450278 0
0.317647 0.450217 0
0.347509 0.450172 0
0.377279 0.450141 0
0.406943 0.450126 0
0.436515 0.450141 0
0.466026 0.450172 0
0.495445 0.450202 0
0.524804 0.450263 0
0.554086 0.450324 0
0.583307 0.450401 0
0.612482 0.450492 0
0.641581 0.450599 0
0.670649 0.450706 0
0.699641 0.450813 0
0.728603 0.450935 0
0.757504 0.451072 0
0.786374 0.451209 0
0.815183 0.451362 0
0.843961 0.451514 0
0.872694 0.451667 0
0 0.485481 0
0 0.485039 0
0 0.484428 0
0.00750744 0.483299 0
0.0411231 0.482277 0
0.0731975 0.481666 0
0.104677 0.481224 0
0.135775 0.480858 0
0.166583 0.480583 0
0.197147 0.480339 0
0.227543 0.480156 0
0.257771 0.480018 0
0.287846 0.479896 0
0.317815 0.479805 0
0.347662 0.479744 0
0.377401 0.479698 0
0.40705 0.479683 0
0.436622 0.479667 0
0.466102 0.479683 0
0.495521 0.479713 0
0.524849 0.479744 0
0.554131 0.479805 0
0.583337 0.479866 0
0.612497 0.479942 0
0.641581 0.480018 0
0.670634 0.48011 0
0.699611 0.480217 0
0.728557 0.480323 0
0.757458 0.480446 0
0.786297 0.480568 0
0.815106 0.480705 0
0.84387 0.480842 0
0.872602 0.480995 0
0 0.515221 0
0 0.514763 0
0 0.514138 0
0.00784314 0.512978 0
0.0414435 0.511955 0
0.0735027 0.511315 0
0.104967 0.510842 0
0.136034 0.510475 0
0.166827 0.51017 0
0.197391 0.509926 0
0.227756 0.509728 0
0.257969 0.50956 0
0.288045 0.509422 0
0.317983 0.509331 0
0.347814 0.509239 0
0.377539 0.509194 0
0.407187 0.509148 0
0.436728 0.509133 0
0.466209 0.509133 0
0.495598 0.509133 0
0.524926 0.509163 0
0.554177 0.509194 0
0.583383 0.509255 0
0.612512 0.509316 0
0.641596 0.509377 0
0.670634 0.509468 0
0.699611 0.50956 0
0.728542 0.509651 0
0.757412 0.509758 0
0.786252 0.509865 0
0.815045 0.509987 0
0.843809 0.510124 0
0.872511 0.510262 0
0 0.544869 0
0 0.544396 0
0 0.543755 0
0.00817884 0.54258 0
0.0417639 0.541527 0
0.0738079 0.540887 0
0.105257 0.540398 0
0.136309 0.540002 0
0.167086 0.539696 0
0.197635 0.539422 0
0.227985 0.539208 0
0.258183 0.539025 0
0.288228 0.538888 0
0.318166 0.538766 0
0.347982 0.538674 0
0.377691 0.538598 0
0.407324 0.538552 0
0.436851 0.538521 0
0.466316 0.538491 0
0.495689 0.538491 0
0.525002 0.538506 0
0.554253 0.538537 0
0.583444 0.538567 0
0.612558 0.538613 0
0.641627 0.538674 0
0.670649 0.53875 0
0.699611 0.538827 0
0.728527 0.538903 0
0.757397 0.53901 0
0.786221 0.539101 0
0.815015 0.539223 0
0.843748 0.53933 0
0.87245 0.539452 0
0 0.574441 0
0 0.573953 0
0 0.573297 0
0.00851453 0.572106 0
0.0420844 0.571038 0
0.0741131 0.570382 0
0.105547 0.569879 0
0.136584 0.569467 0
0.167346 0.569131 0
0.197864 0.568856 0
0.228214 0.568627 0
0.258396 0.568429 0
0.288426 0.568276 0
0.318349 0.568139 0
0.34815 0.568032 0
0.377859 0.567941 0
0.407462 0.56788 0
0.436988 0.567834 0
0.466438 0.567803 0
0.495796 0.567788 0
0.525109 0.567788 0
0.55433 0.567803 0
0.583505 0.567834 0
0.612619 0.567864 0
0.641672 0.56791 0
0.67068 0.567971 0
0.699641 0.568032 0
0.728542 0.568109 0
0.757397 0.568185 0
0.786221 0.568276 0
0.814984 0.568383 0
0.843717 0.56849 0
0.872404 0.568597 0
0 0.603937 0
0 0.603433 0
0 0.602762 0
0.00885023 0.601556 0
0.0423896 0.600473 0
0.0744182 0.599802 0
0.105837 0.599283 0
0.136858 0.598856 0
0.167605 0.598505 0
0.198123 0.598215 0
0.228443 0.597971 0
0.25861 0.597772 0
0.28864 0.597589 0
0.318547 0.597452 0
0.348333 0.59733 0
0.378027 0.597223 0
0.407614 0.597147 0
0.437125 0.597086 0
0.46656 0.597055 0
0.495918 0.597025 0
0.5252 0.597009 0
0.554421 0.597009 0
0.583581 0.597025 0
0.612696 0.59704 0
0.641733 0.597086 0
0.670726 0.597131 0
0.699672 0.597177 0
0.728573 0.597253 0
0.757412 0.597314 0
0.786221 0.597406 0
0.814984 0.597482 0
0.843702 0.597589 0
0.872374 0.597681 0
0 0.633371 0
0 0.632837 0
0 0.632151 0
0.00918593 0.63093 0
0.04271 0.629831 0
0.0747234 0.629145 0
0.106126 0.628611 0
0.137133 0.628183 0
0.167865 0.627817 0
0.198367 0.627512 0
0.228687 0.627253 0
0.258839 0.627039 0
0.288853 0.626856 0
0.318746 0.626688 0
0.348516 0.626551 0
0.378195 0.626444 0
0.407782 0.626352 0
0.437278 0.626291 0
0.466697 0.62623 0
0.49604 0.6262 0
0.525322 0.626169 0
0.554528 0.626154 0
0.583673 0.626154 0
0.612772 0.626169 0
0.64181 0.6262 0
0.670787 0.62623 0
0.699718 0.626276 0
0.728603 0.626337 0
0.757443 0.626398 0
0.786236 0.626459 0
0.814984 0.626535 0
0.843687 0.626627 0
0.872358 0.626719 0
0 0.662715 0
0 0.662181 0
0 0.661479 0
0.00952163 0.660243 0
0.0430304 0.659144 0
0.0750286 0.658427 0
0.106416 0.657893 0
0.137407 0.657435 0
0.168124 0.657069 0
0.198627 0.656748 0
0.228916 0.656474 0
0.259068 0.656245 0
0.289067 0.656046 0
0.318944 0.655879 0
0.348714 0.655726 0
0.378378 0.655604 0
0.40795 0.655512 0
0.43743 0.655421 0
0.46685 0.65536 0
0.496178 0.655314 0
0.525444 0.655268 0
0.554635 0.655253 0
0.58378 0.655238 0
0.612863 0.655238 0
0.641886 0.655253 0
0.670863 0.655283 0
0.699779 0.655314 0
0.728649 0.65536 0
0.757473 0.655406 0
0.786267 0.655467 0
0.815 0.655543 0
0.843702 0.655619 0
0.872358 0.655695 0
0 0.692012 0
0 0.691463 0
0 0.690745 0
0.00984207 0.689494 0
0.0433509 0.68838 0
0.0753338 0.687663 0
0.106706 0.687099 0
0.137697 0.686641 0
0.168399 0.686259 0
0.198871 0.685924 0
0.22916 0.685634 0
0.259297 0.685389 0
0.289281 0.685191 0
0.319158 0.685008 0
0.348913 0.68484 0
0.378561 0.684718 0
0.408118 0.684596 0
0.437598 0.684504 0
0.467002 0.684428 0
0.496315 0.684367 0
0.525567 0.684321 0
0.554757 0.684291 0
0.583886 0.684276 0
0.612955 0.68426 0
0.641978 0.68426 0
0.670939 0.684276 0
0.699855 0.684306 0
0.72871 0.684337 0
0.757534 0.684382 0
0.786297 0.684428 0
0.81503 0.684489 0
0.843717 0.68455 0
0.872374 0.684627 0
0 0.721248 0
0 0.720684 0
0 0.719936 0
0.0101778 0.718685 0
0.0436713 0.717556 0
0.075639 0.716823 0
0.106996 0.716258 0
0.137972 0.715785 0
0.168673 0.715389 0
