StdX_ACES/config_ANM_OCIOv2.ocio
# Maya 2022 default config.
# Modified by Derek for StudioX
#
# version: 2021-01-21
#

ocio_profile_version: 2

description: Maya 2022 default config, modified by Derek Flood for StudioX
name: Maya_2022_default

environment: {}

search_path: "show:studio:luts"

roles:
  aces_interchange: ACES2065-1
  cie_xyz_d65_interchange: CIE-XYZ D65
  color_timing: ACEScct
  color_picking: Pick Rec709-sRGB Desat
  compositing_linear: ACEScg  
  compositing_log: ACEScct
  data: Raw
  default: Raw
  reference: Raw
  rendering: ACEScg
  scene_linear: ACEScg


file_rules:

  - !<Rule> {name: tx, colorspace: Raw, pattern: "*", extension: tx}
  - !<Rule> {name: hdr, colorspace: scene-linear Rec.709-sRGB, pattern: "*", extension: hdr}
  - !<Rule> {name: exr, colorspace: Raw, pattern: "*", extension: exr}
  - !<Rule> {name: ColorSpaceNamePathSearch}
  - !<Rule> {name: Default, colorspace: default}


shared_views:

  - !<View> {name: Neutral Look, view_transform: ACES 1.0 SDR-video, looks: LMT_neutral, display_colorspace: <USE_DISPLAY_NAME>}
  - !<View> {name: Filmic Look, view_transform: ACES 1.0 SDR-video, looks: LMT_filmic, display_colorspace: <USE_DISPLAY_NAME>}
  - !<View> {name: ACES 1.0 SDR-video, view_transform: ACES 1.0 SDR-video, display_colorspace: <USE_DISPLAY_NAME>}
  - !<View> {name: Show, view_transform: ACES 1.0 SDR-video, looks: +Client_LUT, display_colorspace: <USE_DISPLAY_NAME>}
  - !<View> {name: Un-tone-mapped, view_transform: Un-tone-mapped, display_colorspace: <USE_DISPLAY_NAME>}
  - !<View> {name: Log, colorspace: ACEScct}
  - !<View> {name: Raw, colorspace: Raw}

  


displays:

  sRGB:
    - !<Views> [Neutral Look, Filmic Look, ACES 1.0 SDR-video, Show, Un-tone-mapped, Log, Raw]
  Gamma 2.2 / Rec.709:
    - !<Views> [Neutral Look, Filmic Look, ACES 1.0 SDR-video, Show, Un-tone-mapped, Log, Raw]
  Rec.1886 / Rec.709 video:
    - !<Views> [Neutral Look, Filmic Look, ACES 1.0 SDR-video, Show, Un-tone-mapped, Log, Raw]


view_transforms:

  - !<ViewTransform>
    name: Un-tone-mapped
    from_scene_reference: !<MatrixTransform> {matrix: [ 0.938279849277, -0.004451445812, 0.016627523587, 0, 0.337368890788, 0.729521566690, -0.066890457478, 0, 0.001173950850, -0.003710706402, 1.091594506312, 0, 0, 0, 0, 1 ]}

  - !<ViewTransform>
    name: ACES 1.0 SDR-video
    from_scene_reference: !<GroupTransform>
      children:
        - !<FileTransform> {src: ACES_to_CIE-XYZ_1.0.ctf}
        - !<MatrixTransform> {matrix: [1.660585326491, -0.315295560826, -0.241509327608, 0, -0.659926063224, 1.608391469566, 0.017298594705, 0, 0.009002569138, -0.003566876390, 0.913643312763, 0, 0, 0, 0, 1]}
        - !<FixedFunctionTransform> {style: ACES_DarkToDim10}
        - !<MatrixTransform> {matrix: [0.949056010175, 0.047185723607, 0.003758266219, 0, 0.019056010175, 0.977185723607, 0.003758266219, 0, 0.019056010175, 0.047185723607, 0.933758266219, 0, 0, 0, 0, 1]}
        - !<MatrixTransform> {matrix: [0.652237541886, 0.128236136000, 0.169982249166, 0, 0.267672180125, 0.674339988802, 0.057987831073, 0, -0.005381815766, 0.001369060209, 1.093070506317, 0, 0, 0, 0, 1]}

  - !<ViewTransform>
    name: Neutral Look
    from_scene_reference: !<GroupTransform>
      children:
        - !<LookTransform> {src: ACES2065-1, dst: ACES2065-1, looks: LMT_gamut_compress}
        - !<LookTransform> {src: ACES2065-1, dst: ACES2065-1, looks: LMT_neutral}
        - !<FileTransform> {src: ACES_to_CIE-XYZ_1.0.ctf}
        - !<MatrixTransform> {matrix: [1.660585326491, -0.315295560826, -0.241509327608, 0, -0.659926063224, 1.608391469566, 0.017298594705, 0, 0.009002569138, -0.003566876390, 0.913643312763, 0, 0, 0, 0, 1]}
        - !<FixedFunctionTransform> {style: ACES_DarkToDim10}
        - !<MatrixTransform> {matrix: [0.949056010175, 0.047185723607, 0.003758266219, 0, 0.019056010175, 0.977185723607, 0.003758266219, 0, 0.019056010175, 0.047185723607, 0.933758266219, 0, 0, 0, 0, 1]}
        - !<MatrixTransform> {matrix: [0.652237541886, 0.128236136000, 0.169982249166, 0, 0.267672180125, 0.674339988802, 0.057987831073, 0, -0.005381815766, 0.001369060209, 1.093070506317, 0, 0, 0, 0, 1]}

looks:

  - !<Look>
    name: LMT_gamut_compress
    process_space: ACEScc
    transform: !<FileTransform> {src: LMT_gamut_compress_AP1_shaper.cube, interpolation: linear}  

  - !<Look>
    name: LMT_filmic
    process_space: ACEScc
    transform: !<FileTransform> {src: LMT_filmic_gamut_ACEScc_v27.cube, interpolation: linear} 
	
  - !<Look>
    name: LMT_neutral
    process_space: ACEScc
    transform: !<FileTransform> {src: LMT_neutral_gamut_ACEScc_v27.cube, interpolation: linear} 

  - !<Look>
    name: Client_LUT
    process_space: ACEScc
    transform: !<FileTransform> {src: show_ACEScc.cube, interpolation: linear}




inactive_colorspaces: [CIE-XYZ D65]



colorspaces:

# Rendering #

# - !<FileTransform> {src: sRGB_texture_linContrast75.cube, interpolation: linear}

  - !<ColorSpace>
    name: Color sRGB - Texture
    aliases: [ dif, BaseColor ]
    family: Input/File-io
    description: |
      sRGB texture color space (piecewise sRGB EOTF)
    isdata: false
    categories: [ file-io ]
    encoding: sdr-video
    to_reference: !<GroupTransform>
      children:
        - !<CDLTransform> {slope: [ 0.8, 0.8, 0.8 ], offset: [ 0.06525, 0.06525, 0.06525 ], sat: 1.0 }
        - !<ExponentWithLinearTransform> {gamma: 2.4, offset: 0.055}
        - !<MatrixTransform> {matrix:  [ 0.439632981919, 0.382988698152, 0.177378319929, 0, 0.089776442959, 0.813439428749, 0.096784128292, 0, 0.017541170383, 0.111546553302, 0.870912276314, 0, 0, 0, 0, 1 ]}

  - !<ColorSpace>
    name: Color sRGB Texture (DT)
#    aliases: [ dif, BaseColor ]
    family: Input/File-io
    description: Inverse of Output - sRGB with matrix to keep colors below 1 with saturation boost of 1.1 with Rec.709 luma
    isdata: false
    categories: [ file-io ]
    encoding: sdr-video
    to_reference: !<GroupTransform>
      children:
        - !<MatrixTransform> {matrix: [ 1.07874, -0.07152, -0.00722, 0, -0.02126, 1.02848, -0.00722, 0, -0.02126, -0.07152, 1.09278, 0, 0, 0, 0, 1 ]}
        - !<MatrixTransform> {matrix: [ 0.8119545, 0, 0, 0, 0, 0.8119545, 0, 0, 0, 0, 0.8119545, 0, 0, 0, 0, 1 ]}
        - !<DisplayViewTransform> {direction: inverse, src: ACES2065-1, display: sRGB, view: "ACES 1.0 SDR-video"}

  - !<ColorSpace>
    name: Pick Rec709-sRGB Desat
    aliases: [ picker ]
    family: Input/File-io
    bitdepth: 32f
    description: |
      color picking of sRGB primaries with slight desaturation (sat 0.85 based on rec709 luma 0.2126 0.7152 0.0722)
    isdata: false
    encoding: scene-linear
    to_reference: !<GroupTransform>
      children:
        - !<MatrixTransform> {matrix: [ 0.88189, 0.10728, 0.01083, 0, 0.03189, 0.95728, 0.01083, 0, 0.03189, 0.10728, 0.86083, 0, 0, 0, 0, 1 ]}
        - !<MatrixTransform> {matrix:  [ 0.439632981919, 0.382988698152, 0.177378319929, 0, 0.089776442959, 0.813439428749, 0.096784128292, 0, 0.017541170383, 0.111546553302, 0.870912276314, 0, 0, 0, 0, 1 ]}

  - !<ColorSpace>
    name: Raw
    family: Input/File-io
    equalitygroup: ""
    bitdepth: 32f
    description: |
      Raw (no color processing)
    isdata: true
    categories: [ file-io ]
    encoding: data

  - !<ColorSpace>
    name: scene-linear Rec.709-sRGB
    aliases: [ hdr ]
    family: Input/File-io
    equalitygroup: ""
    bitdepth: 32f
    description: |
      Scene-linear Rec.709 or sRGB primaries to ACES primaries
    isdata: false
    categories: [ file-io, working-space, scene_linear_working_space ]
    encoding: scene-linear
    to_reference: !<MatrixTransform> {matrix: [ 0.439632981919, 0.382988698152, 0.177378319929, 0, 0.089776442959, 0.813439428749, 0.096784128292, 0, 0.017541170383, 0.111546553302, 0.870912276314, 0, 0, 0, 0, 1 ]}


# ACES #

  - !<ColorSpace>
    name: ACEScg
    family: ACES
    equalitygroup: ""
    bitdepth: 32f
    description: |
      ACEScg to ACES2065-1
    isdata: false
    categories: [ file-io, working-space, scene_linear_working_space ]
    encoding: scene-linear
    to_reference: !<MatrixTransform> {matrix: [ 0.695452241357, 0.140678696470, 0.163869062172, 0, 0.044794563372, 0.859671118456, 0.095534318172, 0, -0.005525882558, 0.004025210306, 1.001500672252, 0, 0, 0, 0, 1 ]}

  - !<ColorSpace>
    name: ACES2065-1
    family: ACES
    equalitygroup: ""
    bitdepth: 32f
    description: |
      The Academy Color Encoding System reference color space
    isdata: false
    categories: [ file-io, working-space, scene_linear_working_space ]
    encoding: scene-linear

  - !<ColorSpace>
    name: ACEScct
    family: ACES
    description: |
      ACES log working space
    isdata: false
    categories: [ file-io ]
    encoding: log
    to_reference: !<BuiltinTransform> {style: "ACEScct_to_ACES2065-1"}

  - !<ColorSpace>
    name: ACEScc
    family: ACES
    description: |
      ACES log working space
    isdata: false
    categories: [ file-io, advanced-2d ]
    encoding: log
    to_scene_reference: !<BuiltinTransform> {style: "ACEScc_to_ACES2065-1"}

  - !<ColorSpace>
    name: Inverse sRGB Output
    family: Input/File-io
    description: |
      sRGB monitor (piecewise EOTF)
    isdata: false
    categories: [ file-io ]
    encoding: sdr-video
    to_reference: !<DisplayViewTransform> {direction: inverse, src: ACES2065-1, display: sRGB, view: "ACES 1.0 SDR-video"}


  - !<ColorSpace>
    name: Premiere Pro - AP0 2.4 gamma
    family: Input/Adobe
    equalitygroup: ""
    bitdepth: 32f
    description: AP0 with 2.4 gamma.
    isdata: false
    categories: [ advanced-2d ]
    encoding: sdr-video
    allocation: uniform
#    to_scene_reference: !<ExponentTransform> {value: [2.4, 2.4, 2.4, 1], negativeStyle: NEGATIVE_MIRROR}
    to_scene_reference: !<ExponentTransform> {value: [2.4, 2.4, 2.4, 1]}

  - !<ColorSpace>
    name: Premiere Pro - AP0 2.2 gamma
    family: Input/Adobe
    equalitygroup: ""
    bitdepth: 32f
    description: AP0 with 2.2 gamma.
    isdata: false
    categories: [ advanced-2d ]
    encoding: sdr-video
    allocation: uniform
#    to_scene_reference: !<ExponentTransform> {value: [2.2, 2.2, 2.2, 1], negativeStyle: NEGATIVE_MIRROR}
    to_scene_reference: !<ExponentTransform> {value: [2.2, 2.2, 2.2, 1]}

  - !<ColorSpace>
    name: Premiere Pro - AP0 sRGB EOTF
    family: Input/Adobe
    equalitygroup: ""
    bitdepth: 32f
    description: AP0 with sRGB EOTF
    isdata: false
    categories: [ advanced-2d ]
    encoding: sdr-video
    allocation: uniform
    to_scene_reference: !<ExponentWithLinearTransform> {gamma: 2.4, offset: 0.055}


# Cameras #

  - !<ColorSpace>
    name: ARRI LogC (v3-EI800) / AlexaWideGamut
    family: Input/Camera
    description: |
      Alexa-v3-LogC-EI800 (no camera black) to ACES2065-1 (SUP v3 color science)
    isdata: false
#    categories: [ file-io ]
    encoding: log
    to_reference: !<BuiltinTransform> {style: "ARRI_ALEXA-LOGC-EI800-AWG_to_ACES2065-1"}

  - !<ColorSpace>
    name: RED Log3G10 / REDWideGamutRGB
    family: Input/Camera
    description: |
      RED Log3G10 / REDWideGamutRGB (no camera black)
    isdata: false
#    categories: [ file-io ]
    encoding: log
    to_reference: !<BuiltinTransform> {style: "RED_LOG3G10-RWG_to_ACES2065-1"}

  - !<ColorSpace>
    name: Sony SLog3 / SGamut3
    family: Input/Camera
    description: |
      Sony SLog3 / SGamut3 (no camera black)
    isdata: false
#    categories: [ file-io ]
    encoding: log
    to_reference: !<BuiltinTransform> {style: "SONY_SLOG3-SGAMUT3_to_ACES2065-1"}

  - !<ColorSpace>
    name: Log film scan (ADX10)
    family: Input/Camera
    description: |
      ADX10 Academy Density Encoding
    isdata: false
    categories: [ file-io ]
    encoding: log
    to_reference: !<BuiltinTransform> {style: "ADX10_to_ACES2065-1"}



display_colorspaces:

  - !<ColorSpace>
    name: CIE-XYZ D65
    family: Output
    description: |
      Display connection space, CIE XYZ with D65 adopted white point
    encoding: display-linear
    isdata: false

  - !<ColorSpace>
    name: sRGB
    family: Output
    description: |
      sRGB monitor (piecewise EOTF)
    isdata: false
    categories: [ file-io ]
    encoding: sdr-video
    from_display_reference: !<GroupTransform>
      children:
        - !<MatrixTransform> {matrix: [ 3.240969941905, -1.537383177570, -0.498610760293, 0, -0.969243636281, 1.875967501508, 0.041555057407, 0, 0.055630079697, -0.203976958889, 1.056971514243, 0, 0, 0, 0, 1 ]}
        - !<ExponentWithLinearTransform> {gamma: 2.4, offset: 0.055, direction: inverse}
        - !<RangeTransform> {min_in_value: 0., min_out_value: 0., max_in_value: 1., max_out_value: 1.}

  - !<ColorSpace>
    name: Gamma 2.2 / Rec.709
    family: Output
    description: |
      Gamma 2.2 monitor with Rec.709 or sRGB primaries
    isdata: false
#    categories: [ file-io ]
    encoding: sdr-video
    from_display_reference: !<GroupTransform>
      children:
        - !<MatrixTransform> {matrix: [ 3.240969941905, -1.537383177570, -0.498610760293, 0, -0.969243636281, 1.875967501508, 0.041555057407, 0, 0.055630079697, -0.203976958889, 1.056971514243, 0, 0, 0, 0, 1 ]}
        - !<ExponentTransform> {value: 2.2, direction: inverse}
        - !<RangeTransform> {min_in_value: 0., min_out_value: 0., max_in_value: 1., max_out_value: 1.}

  - !<ColorSpace>
    name: Rec.1886 / Rec.709 video
    family: Output
    description: |
      Rec.709 broadcast monitor with Rec.1886 gamma (2.4)
    isdata: false
#    categories: [ file-io ]
    encoding: sdr-video
    from_display_reference: !<GroupTransform>
      children:
        - !<MatrixTransform> {matrix: [ 3.240969941905, -1.537383177570, -0.498610760293, 0, -0.969243636281, 1.875967501508, 0.041555057407, 0, 0.055630079697, -0.203976958889, 1.056971514243, 0, 0, 0, 0, 1 ]}
        - !<ExponentTransform> {value: 2.4, direction: inverse}
        - !<RangeTransform> {min_in_value: 0., min_out_value: 0., max_in_value: 1., max_out_value: 1.}



named_transforms:

  - !<NamedTransform>
    name: Cineon Log to Lin
    aliases: [ Cineon ]
    family: Input/File-io
    description: |
      Traditional Cineon-style log-to-lin with RefWhite=695, RefBlack=95, Gamma=0.6
    transform: !<LogAffineTransform>
      log_side_slope:  0.293255131965
      log_side_offset: 0.669599217986
      lin_side_slope:  0.989202248377
      lin_side_offset: 0.010797751623
      base: 10
      direction: inverse
