StdX-ACES-ANM/studio/LMT_Soft_v9_cct_33.cube
TITLE "Generated by Foundry::LUT"
LUT_3D_SIZE 9
-0.043805 -0.043805 -0.043805
0.083380 0.066640 0.067570
0.213827 0.060372 0.070384
0.340721 0.035783 0.081341
0.452245 0.075156 0.112722
0.573810 0.223785 0.219011
0.699019 0.364366 0.344669
0.824066 0.492420 0.469812
0.949076 0.618076 0.594844
0.050996 0.133016 0.062402
0.181711 0.174367 -0.078517
0.253117 0.135686 0.068381
0.348810 0.127307 0.086295
0.453439 0.156584 0.114628
0.574126 0.251793 0.219672
0.699089 0.370195 0.344803
0.824081 0.493686 0.469840
0.949079 0.618352 0.594851
-0.010547 0.266299 0.050084
0.182767 0.296172 -0.041361
0.300269 0.296057 -0.070749
0.365240 0.255637 0.106709
0.459166 0.241742 0.122886
0.574641 0.284323 0.221069
0.699203 0.379083 0.345040
0.824107 0.495751 0.469889
0.949085 0.618811 0.594861
-0.079153 0.380229 -0.000074
0.086712 0.388328 -0.001433
0.275121 0.394751 -0.007940
0.403787 0.400323 -0.061616
0.475631 0.366149 0.187262
0.581324 0.364791 0.235762
0.699706 0.410187 0.346310
0.824219 0.504381 0.470116
0.949109 0.620825 0.594908
-0.242964 0.498476 -0.219637
-0.098374 0.500215 -0.214057
0.158394 0.502438 -0.198347
0.384993 0.506502 -0.093739
0.513861 0.510588 -0.108844
0.600031 0.490555 0.310345
0.706410 0.490073 0.360742
0.824721 0.535378 0.471365
0.949221 0.629447 0.595134
-1.067000 0.624391 -1.232307
-0.922350 0.624766 -1.226320
-0.677444 0.625355 -1.214668
0.283562 0.627491 -1.139060
0.509256 0.631118 -0.566448
0.637650 0.634425 -0.400589
0.725115 0.615641 0.435135
0.831429 0.615134 0.485739
0.949724 0.660421 0.596379
-4.855012 0.749194 -5.581141
-4.711081 0.749276 -5.574862
-4.470528 0.749411 -5.564050
-3.385519 0.749986 -5.510267
0.405642 0.752131 -5.158330
0.634094 0.756033 -2.723148
0.762385 0.759171 -1.725229
0.850134 0.740661 0.560088
0.956433 0.740148 0.610737
-22.140514 0.874152 -25.429438
-21.996716 0.874170 -25.423119
-21.757177 0.874199 -25.412516
-20.686707 0.874331 -25.363886
-15.741914 0.874907 -25.117121
0.530005 0.877054 -23.505449
0.758999 0.880977 -12.402041
0.887327 0.884116 -7.765045
0.975139 0.865664 0.685079
-101.015732 0.999144 -115.999687
-100.872070 0.999148 -115.993187
-100.632500 0.999155 -115.982750
-99.565468 0.999184 -115.935326
-94.682579 0.999316 -115.713089
-72.125420 0.999892 -114.585556
0.654867 1.002039 -107.226013
0.883973 1.005960 -56.497417
1.012314 1.009102 -35.323647
0.041882 0.051053 0.138417
0.150736 -0.040378 0.148415
0.219839 0.035389 0.116388
0.343457 0.037063 0.126701
0.453065 0.084735 0.132623
0.573953 0.228143 0.219922
0.699051 0.365164 0.344858
0.824073 0.492589 0.469853
0.949077 0.618112 0.594853
-0.045327 0.151357 0.151357
0.144908 0.144908 0.144908
0.250151 0.133775 0.133183
0.350378 0.132249 0.126669
0.454270 0.164089 0.133688
0.574271 0.254815 0.220453
0.699120 0.370933 0.344985
0.824088 0.493851 0.469881
0.949081 0.618389 0.594859
-0.035881 0.270048 0.124330
0.127398 0.270858 0.126740
0.277227 0.274774 0.145037
0.365009 0.254704 0.151562
0.459335 0.243231 0.141839
0.574787 0.286238 0.221631
0.699235 0.379738 0.345212
0.824113 0.495912 0.469929
0.949086 0.618847 0.594870
-0.078969 0.379609 0.059692
0.074906 0.383790 0.069043
0.262262 0.387769 0.104701
0.393371 0.390355 0.126907
0.475769 0.366181 0.201948
0.581512 0.365408 0.235724
0.699738 0.410607 0.346435
0.824226 0.504524 0.470154
0.949111 0.620860 0.594917
-0.245573 0.496686 -0.143457
-0.105903 0.498436 -0.136697
0.143294 0.500691 -0.118548
0.381967 0.504761 0.005650
0.511257 0.508096 0.064725
0.600218 0.490744 0.309881
0.706451 0.490208 0.360733
0.824728 0.535470 0.471392
0.949223 0.629479 0.595143
-1.078521 0.623599 -1.095361
-0.935697 0.623975 -1.088898
-0.693816 0.624567 -1.076488
0.277157 0.626724 -0.998003
0.508496 0.630671 -0.454497
0.637057 0.633859 -0.222430
0.725156 0.615682 0.435033
0.831438 0.615163 0.485737
0.949725 0.660441 0.596385
-4.867315 0.749022 -5.444802
-4.723780 0.749104 -5.438420
-4.483873 0.749239 -5.427420
-3.401804 0.749815 -5.372967
0.404244 0.751965 -5.018366
0.633860 0.755890 -2.570113
0.762256 0.759047 -1.547881
0.850143 0.740670 0.560066
0.956435 0.740155 0.610737
-22.152908 0.874114 -25.293194
-22.009333 0.874132 -25.286880
-21.769829 0.874162 -25.276157
-20.700041 0.874293 -25.227411
-15.758260 0.874870 -24.979910
0.529700 0.877018 -23.365658
0.758942 0.880941 -12.232914
0.887299 0.884089 -7.587575
0.975141 0.865666 0.685074
-101.027985 0.999136 -115.863243
-100.884552 0.999140 -115.856972
-100.645126 0.999146 -115.846443
-99.578125 0.999176 -115.799072
-94.695908 0.999307 -115.576683
-72.141533 0.999883 -114.448196
0.654799 1.002031 -107.086220
0.883961 1.005952 -56.328728
1.012308 1.009096 -35.146248
-0.001073 0.037012 0.268767
0.139189 0.034031 0.248127
0.258445 -0.002309 0.256621
0.345652 0.061437 0.240863
0.455951 0.094654 0.234506
0.574576 0.231908 0.255099
0.699103 0.366492 0.345185
0.824085 0.492870 0.469921
0.949080 0.618173 0.594868
-0.012112 0.147555 0.267694
0.155160 0.153744 0.265590
0.261694 0.154171 0.261308
0.353719 0.163695 0.247463
0.457248 0.171934 0.234122
0.574891 0.257503 0.255470
0.699173 0.372163 0.345302
0.824100 0.494127 0.469949
0.949083 0.618449 0.594874
-0.047933 0.268844 0.268844
0.116597 0.267574 0.267574
0.265670 0.265670 0.265670
0.362098 0.248947 0.248275
0.458810 0.242091 0.234806
0.575400 0.288002 0.256290
0.699288 0.380830 0.345511
0.824125 0.496181 0.469996
0.949089 0.618908 0.594885
-0.085892 0.379260 0.233780
0.051110 0.379013 0.232637
0.239819 0.380059 0.239001
0.385682 0.383294 0.260446
0.473553 0.363163 0.264783
0.581045 0.364894 0.266773
0.699791 0.411313 0.346656
0.824237 0.504763 0.470217
0.949113 0.620919 0.594932
-0.257614 0.492241 0.052290
-0.129023 0.494028 0.060654
0.102922 0.496444 0.080517
0.375359 0.501191 0.203660
0.508051 0.505051 0.244709
0.599714 0.490105 0.328436
0.706520 0.490433 0.360722
0.824740 0.535624 0.471439
0.949225 0.629531 0.595156
-1.097090 0.622398 -0.879332
-0.957069 0.622777 -0.872298
-0.719819 0.623375 -0.859011
0.266096 0.625574 -0.777428
0.506790 0.629659 -0.208291
0.636167 0.633011 0.065136
0.725225 0.615751 0.434862
0.831453 0.615213 0.485734
0.949728 0.660474 0.596395
-4.887563 0.748742 -5.220898
-4.744678 0.748824 -5.214379
-4.505853 0.748959 -5.203135
-3.428540 0.749537 -5.147630
0.401903 0.751695 -4.789099
0.633453 0.755643 -2.305621
0.762030 0.758832 -1.237714
0.850158 0.740685 0.560029
0.956438 0.740165 0.610736
-22.173651 0.874052 -25.066973
-22.030176 0.874069 -25.060589
-21.790937 0.874099 -25.049891
-20.722231 0.874231 -25.000885
-15.785168 0.874808 -24.752274
0.529188 0.876958 -23.133698
0.758849 0.880885 -11.957815
0.887251 0.884043 -7.290519
0.975144 0.865669 0.685066
-101.049042 0.999122 -115.636589
-100.905373 0.999126 -115.630295
-100.666061 0.999133 -115.619431
-99.599655 0.999162 -115.572090
-94.718407 0.999294 -115.349495
-72.168633 0.999870 -114.220200
0.654688 1.002017 -106.853676
0.883940 1.005940 -56.049694
1.012298 1.009086 -34.850708
0.056393 0.036365 0.375837
0.191710 0.050405 0.372678
0.269879 0.081868 0.365595
0.369009 0.072394 0.368128
0.457493 0.196233 0.352531
0.578062 0.247224 0.355725
0.699719 0.369539 0.380256
0.824136 0.494121 0.470236
0.949091 0.618445 0.594935
0.051318 0.172580 0.376932
0.185946 0.178157 0.375343
0.271973 0.195522 0.369974
0.370037 0.189843 0.369405
0.459300 0.235512 0.353966
0.578354 0.268960 0.355670
0.699788 0.374999 0.380339
0.824151 0.495358 0.470261
0.949094 0.618721 0.594941
0.051001 0.265266 0.376147
0.181930 0.266534 0.375828
0.270269 0.269041 0.374914
0.371319 0.269304 0.370957
0.462209 0.275343 0.355812
0.578822 0.295999 0.355648
0.699902 0.383369 0.380486
0.824176 0.497379 0.470305
0.949100 0.619177 0.594951
-0.098954 0.377345 0.377345
0.036554 0.377075 0.377075
0.223529 0.376637 0.376637
0.374816 0.374817 0.374817
0.470830 0.357680 0.357008
0.580656 0.363938 0.356651
0.700398 0.413001 0.381289
0.824289 0.505829 0.470509
0.949125 0.621181 0.594997
-0.303848 0.491411 0.345526
-0.186532 0.491371 0.345289
0.008802 0.491304 0.344893
0.352502 0.492742 0.351684
0.499765 0.497377 0.374529
0.597461 0.487070 0.388689
0.706045 0.489894 0.391773
0.824792 0.536314 0.471654
0.949237 0.629765 0.595218
-1.173161 0.618088 -0.005313
-1.043935 0.618476 0.003226
-0.824522 0.619094 0.018763
0.197153 0.621444 0.107639
0.500358 0.626193 0.328660
0.633052 0.630052 0.369711
0.724713 0.615104 0.453437
0.831520 0.615432 0.485723
0.949739 0.660625 0.596440
-4.975965 0.747573 -4.257984
-4.835805 0.747656 -4.250901
-4.601529 0.747792 -4.238768
-3.544323 0.748375 -4.179482
0.391094 0.750573 -3.807212
0.631791 0.754658 -1.210211
0.761167 0.758010 0.037458
0.850224 0.740752 0.559862
0.956453 0.740214 0.610734
-22.265284 0.873778 -24.069422
-22.122398 0.873796 -24.062910
-21.884184 0.873826 -24.051912
-20.820187 0.873958 -24.001860
-15.904330 0.874536 -23.748590
0.526903 0.876694 -22.112619
0.758452 0.880644 -10.780351
0.887031 0.883833 -5.907459
0.975159 0.865684 0.685030
-101.141418 0.999061 -114.629257
-100.997696 0.999065 -114.622650
-100.758705 0.999072 -114.611954
-99.693398 0.999101 -114.564034
-94.816666 0.999233 -114.340294
-72.288544 0.999809 -113.206116
0.654188 1.001959 -105.820724
0.883849 1.005884 -54.824230
1.012251 1.009042 -33.526890
0.220833 0.189603 0.488431
0.263586 0.195858 0.487835
0.305437 0.206766 0.486642
0.382705 0.250382 0.479294
0.481467 0.237310 0.480711
0.580574 0.338778 0.475467
0.703196 0.382827 0.480697
0.824751 0.497069 0.505293
0.949142 0.619687 0.595249
0.217677 0.243425 0.488838
0.261594 0.246330 0.488342
0.304316 0.251781 0.487334
0.383326 0.278512 0.480427
0.481755 0.269673 0.481052
0.581030 0.347030 0.475839
0.703259 0.387485 0.480685
0.824766 0.498261 0.505311
0.949146 0.619958 0.595254
0.213333 0.291316 0.489339
0.258570 0.292535 0.488958
0.302363 0.295072 0.488222
0.384110 0.310485 0.482230
0.482203 0.305131 0.481579
0.581784 0.359141 0.476431
0.703365 0.394712 0.480669
0.824791 0.500206 0.505342
0.949151 0.620407 0.595264
0.210193 0.378995 0.489105
0.255349 0.379267 0.489032
0.298760 0.379704 0.488944
0.383290 0.382061 0.487934
0.483848 0.381833 0.483485
0.585033 0.398169 0.478636
0.703821 0.420999 0.480649
0.824903 0.508368 0.505486
0.949176 0.622379 0.595306
-0.366412 0.491166 0.491166
-0.247926 0.491102 0.491102
-0.050791 0.490997 0.490997
0.337429 0.490536 0.490536
0.488585 0.488585 0.488585
0.594761 0.481610 0.480938
0.705655 0.488938 0.481652
0.825399 0.538002 0.506289
0.949288 0.630831 0.595510
-1.402448 0.616393 0.470416
-1.285133 0.616384 0.470364
-1.089799 0.616369 0.470278
-0.219601 0.616304 0.469891
0.477502 0.617742 0.476684
0.624766 0.622377 0.499528
0.722459 0.612070 0.513690
0.831045 0.614893 0.516774
0.949791 0.661314 0.596656
-5.345527 0.743267 -0.266615
-5.216177 0.743352 -0.258038
-4.999860 0.743492 -0.243468
-4.022089 0.744095 -0.174170
0.322149 0.746445 0.209158
0.625359 0.751192 0.453660
0.758051 0.755051 0.494709
0.849713 0.740105 0.578437
0.956519 0.740433 0.610722
-22.674358 0.872610 -19.674454
-22.534063 0.872628 -19.667402
-22.300543 0.872658 -19.655439
-21.256706 0.872791 -19.601370
-16.432695 0.873374 -19.330925
0.516097 0.875572 -17.632168
0.756789 0.879658 -5.781941
0.886168 0.883011 -0.088824
0.975225 0.865751 0.684863
-101.560677 0.998788 -110.076988
-101.417892 0.998792 -110.070358
-101.179581 0.998799 -110.059326
-100.118767 0.998828 -110.010284
-95.263916 0.998960 -109.781921
-72.832764 0.999537 -108.626419
0.651903 1.001696 -101.161331
0.883453 1.005644 -49.452007
1.012031 1.008832 -27.215961
0.366969 0.345446 0.613388
0.375947 0.346371 0.613267
0.388983 0.347945 0.613056
0.429937 0.355403 0.611972
0.508000 0.389437 0.604815
0.606599 0.378652 0.605868
0.705782 0.467640 0.600639
0.828226 0.509981 0.605691
0.949757 0.622614 0.630303
0.366422 0.356104 0.613485
0.375452 0.356893 0.613369
0.388552 0.358243 0.613167
0.429690 0.364700 0.612122
0.508135 0.395406 0.605062
0.606662 0.385483 0.605943
0.705882 0.469435 0.600721
0.828240 0.510998 0.605689
0.949761 0.622875 0.630307
0.365534 0.371216 0.613636
0.374640 0.371842 0.613527
0.387846 0.372916 0.613338
0.429272 0.378130 0.612359
0.508348 0.404442 0.605471
0.606765 0.395720 0.606064
0.706048 0.472338 0.600855
0.828263 0.512665 0.605685
0.949766 0.623307 0.630313
0.362026 0.416837 0.614167
0.371384 0.417109 0.614084
0.384932 0.417587 0.613942
0.427364 0.420072 0.613222
0.509109 0.435484 0.607229
0.607202 0.430132 0.606578
0.706784 0.484142 0.601433
0.828366 0.519713 0.605669
0.949791 0.625207 0.630343
0.358892 0.504120 0.614069
0.368222 0.504179 0.614054
0.381702 0.504278 0.614029
0.423761 0.504703 0.613944
0.508289 0.507062 0.612934
0.608847 0.506833 0.608484
0.710034 0.523168 0.603637
0.828822 0.545999 0.605648
0.949902 0.633369 0.630487
-1.685454 0.616137 0.616137
-1.566980 0.616123 0.616123
-1.369734 0.616099 0.616099
-0.491523 0.615996 0.615996
0.462429 0.615535 0.615535
0.613584 0.613584 0.613584
0.719760 0.606610 0.605938
0.830656 0.613938 0.606652
0.950398 0.663002 0.631290
-6.415422 0.741390 0.595394
-6.298112 0.741388 0.595383
-6.102761 0.741385 0.595363
-5.232564 0.741370 0.595279
-1.261855 0.741305 0.594892
0.602503 0.742743 0.601685
0.749766 0.747377 0.624529
0.847459 0.737070 0.638689
0.956045 0.739894 0.641773
-24.383030 0.868305 -1.458450
-24.253736 0.868323 -1.449823
-24.038061 0.868354 -1.435483
-23.074257 0.868491 -1.370566
-18.612732 0.869094 -1.054312
0.447154 0.871444 0.334176
0.750358 0.876191 0.578661
0.883052 0.880051 0.619710
0.974714 0.865104 0.703436
-103.432556 0.997620 -90.021118
-103.292603 0.997623 -90.014214
-103.058723 0.997630 -90.002357
-102.018364 0.997660 -89.949203
-97.255524 0.997792 -89.702286
-75.243011 0.998376 -88.467972
0.641095 1.000574 -80.716713
0.881790 1.004659 -26.643497
1.011168 1.008010 -0.665126
0.495943 0.475864 0.738380
0.497899 0.476053 0.738353
0.501055 0.476368 0.738310
0.513787 0.477799 0.738108
0.554825 0.484772 0.737040
0.633063 0.517212 0.729927
0.731628 0.506834 0.730902
0.830828 0.593463 0.725676
0.953231 0.635446 0.730689
0.495828 0.478164 0.738401
0.497788 0.478346 0.738375
0.500946 0.478651 0.738332
0.513693 0.480034 0.738132
0.554771 0.486792 0.737073
0.633092 0.518513 0.729981
0.731641 0.508323 0.730918
0.830850 0.593856 0.725694
0.953235 0.635669 0.730689
0.495638 0.481853 0.738437
0.497603 0.482025 0.738411
0.500768 0.482314 0.738369
0.513537 0.483624 0.738171
0.554680 0.490047 0.737127
0.633141 0.520633 0.730071
0.731664 0.510742 0.730945
0.830886 0.594505 0.725724
0.953240 0.636038 0.730688
0.494807 0.496499 0.738587
0.496786 0.496637 0.738563
0.499979 0.496867 0.738523
0.512847 0.497916 0.738339
0.554271 0.503130 0.737358
0.633349 0.529441 0.730471
0.731765 0.520720 0.731064
0.831049 0.597339 0.725855
0.953262 0.637665 0.730684
0.491420 0.541960 0.739130
0.493453 0.542020 0.739112
0.496732 0.542121 0.739081
0.509933 0.542588 0.738942
0.552363 0.545073 0.738222
0.634110 0.560484 0.732229
0.732202 0.555132 0.731578
0.831785 0.609141 0.726433
0.953365 0.644711 0.730669
0.488276 0.629148 0.739063
0.490303 0.629161 0.739060
0.493569 0.629183 0.739054
0.506703 0.629279 0.739030
0.548760 0.629705 0.738945
0.633290 0.632062 0.737934
0.733847 0.631834 0.733485
0.835032 0.648167 0.728636
0.953822 0.670999 0.730648
-7.704384 0.741132 0.741132
-7.585896 0.741129 0.741129
-7.388635 0.741123 0.741123
-6.509938 0.741101 0.741101
-2.502656 0.740998 0.740998
0.587428 0.740537 0.740537
0.738585 0.738585 0.738585
0.844760 0.731609 0.730937
0.955656 0.738938 0.731651
-29.289770 0.866388 0.720388
-29.172459 0.866387 0.720386
-28.977247 0.866387 0.720382
-28.106901 0.866384 0.720363
-24.136169 0.866369 0.720279
-6.017356 0.866304 0.719892
0.727502 0.867742 0.726685
0.874765 0.872376 0.749529
0.972461 0.862069 0.763689
-111.252640 0.993314 -6.897361
-111.123253 0.993318 -6.888691
-110.907913 0.993325 -6.874443
-109.947006 0.993355 -6.810480
-105.549385 0.993491 -6.514091
-85.190994 0.994095 -5.071424
0.572153 0.996445 0.459168
0.875357 1.001193 0.703659
1.008050 1.005051 0.744711
0.621788 0.602004 0.863377
0.622216 0.602045 0.863372
0.622924 0.602113 0.863362
0.626006 0.602417 0.863319
0.638743 0.603824 0.863118
0.679800 0.610697 0.862055
0.758075 0.642806 0.854953
0.856635 0.632516 0.855910
0.955838 0.718642 0.850684
0.621763 0.602507 0.863382
0.622191 0.602548 0.863376
0.622899 0.602615 0.863367
0.625983 0.602915 0.863324
0.638722 0.604314 0.863123
0.679788 0.611139 0.862062
0.758082 0.643091 0.854965
0.856638 0.632842 0.855914
0.955842 0.718728 0.850688
0.621721 0.603336 0.863390
0.622150 0.603376 0.863384
0.622860 0.603443 0.863375
0.625943 0.603740 0.863332
0.638688 0.605121 0.863132
0.679768 0.611871 0.862074
0.758092 0.643563 0.854984
0.856643 0.633381 0.855920
0.955850 0.718871 0.850694
0.621538 0.606930 0.863425
0.621967 0.606969 0.863419
0.622678 0.607032 0.863410
0.625769 0.607313 0.863368
0.638536 0.608623 0.863171
0.679680 0.615046 0.862127
0.758140 0.645632 0.855072
0.856665 0.635741 0.855946
0.955886 0.719505 0.850723
0.620714 0.621561 0.863576
0.621148 0.621591 0.863571
0.621863 0.621642 0.863562
0.624979 0.621867 0.863523
0.637846 0.622915 0.863338
0.679271 0.628131 0.862358
0.758347 0.654442 0.855472
0.856766 0.645719 0.856065
0.956048 0.722338 0.850854
0.617352 0.666986 0.864121
0.617796 0.666999 0.864117
0.618532 0.667021 0.864110
0.621732 0.667120 0.864080
0.634932 0.667587 0.863942
0.677363 0.670073 0.863222
0.759109 0.685485 0.857230
0.857203 0.680131 0.856579
0.956784 0.734141 0.851432
0.614205 0.754153 0.864061
0.614648 0.754156 0.864060
0.615381 0.754161 0.864059
0.618569 0.754182 0.864053
0.631703 0.754278 0.864029
0.673759 0.754704 0.863944
0.758289 0.757061 0.862934
0.858848 0.756833 0.858485
0.960032 0.773168 0.853637
-35.168930 0.866129 0.866129
-35.050369 0.866128 0.866128
-34.853149 0.866127 0.866127
-33.974400 0.866122 0.866122
-29.964804 0.866100 0.866100
-11.679306 0.865996 0.865996
0.712429 0.865536 0.865536
0.863584 0.863585 0.863585
0.969761 0.856610 0.855938
-133.667374 0.991388 0.845386
-133.550354 0.991388 0.845386
-133.354401 0.991388 0.845385
-132.484161 0.991387 0.845381
-128.513992 0.991384 0.845362
-110.395058 0.991369 0.845278
-27.718002 0.991304 0.844891
0.852502 0.992742 0.851684
0.999766 0.997378 0.874528
0.746973 0.727252 0.988376
0.747066 0.727261 0.988375
0.747222 0.727276 0.988373
0.747914 0.727342 0.988364
0.750995 0.727644 0.988321
0.763734 0.729047 0.988120
0.804795 0.735899 0.987057
0.883079 0.767937 0.979958
0.981636 0.757663 0.980911
0.746967 0.727362 0.988377
0.747062 0.727370 0.988376
0.747217 0.727386 0.988374
0.747908 0.727451 0.988365
0.750990 0.727753 0.988322
0.763730 0.729154 0.988121
0.804792 0.735996 0.987059
0.883081 0.767999 0.979960
0.981636 0.757735 0.980912
0.746959 0.727544 0.988379
0.747052 0.727554 0.988378
0.747208 0.727568 0.988376
0.747899 0.727634 0.988366
0.750981 0.727935 0.988324
0.763722 0.729333 0.988123
0.804788 0.736157 0.987062
0.883083 0.768103 0.979965
0.981637 0.757853 0.980913
0.746918 0.728354 0.988387
0.747011 0.728363 0.988386
0.747167 0.728377 0.988384
0.747860 0.728442 0.988374
0.750943 0.728740 0.988332
0.763688 0.730121 0.988132
0.804769 0.736870 0.987073
0.883093 0.768564 0.979984
0.981642 0.758380 0.980919
0.746735 0.731948 0.988422
0.746828 0.731957 0.988420
0.746985 0.731970 0.988418
0.747679 0.732032 0.988409
0.750768 0.732313 0.988367
0.763536 0.733623 0.988170
0.804680 0.740047 0.987126
0.883141 0.770633 0.980072
0.981665 0.760741 0.980946
0.745913 0.746576 0.988573
0.746008 0.746583 0.988572
0.746165 0.746593 0.988570
0.746864 0.746643 0.988561
0.749979 0.746868 0.988522
0.762846 0.747916 0.988338
0.804272 0.753130 0.987357
0.883349 0.779441 0.980471
0.981765 0.770720 0.981064
0.742556 0.791993 0.989119
0.742653 0.791995 0.989118
0.742815 0.792000 0.989116
0.743534 0.792021 0.989110
0.746732 0.792120 0.989080
0.759931 0.792588 0.988941
0.802364 0.795073 0.988221
0.884110 0.810484 0.982229
0.982202 0.805132 0.981578
0.739409 0.879155 0.989060
0.739505 0.879155 0.989060
0.739666 0.879156 0.989060
0.740382 0.879161 0.989058
0.743570 0.879182 0.989053
0.756703 0.879278 0.989028
0.798761 0.879704 0.988944
0.883290 0.882062 0.987933
0.983847 0.881834 0.983485
-160.491776 0.991129 0.991129
-160.373169 0.991129 0.991129
-160.176102 0.991128 0.991129
-159.297516 0.991127 0.991127
-155.287323 0.991122 0.991122
-136.991226 0.991100 0.991100
-53.553421 0.990997 0.990996
0.837427 0.990535 0.990535
0.988584 0.988584 0.988584
