StdX-ACES-ANM/studio/LMT_Soft_v9_cct_33.cube
TITLE "Generated by Foundry::LUT"
LUT_3D_SIZE 33
-0.043805 -0.043805 -0.043805
0.012390 -0.035372 -0.035342
0.061178 -0.031147 -0.031012
0.105986 -0.021733 -0.021378
0.083380 0.066640 0.067570
0.106430 0.065948 0.068197
0.133467 0.064991 0.068794
0.175145 0.062984 0.069359
0.213827 0.060372 0.070384
0.249024 0.056772 0.071952
0.281133 0.051897 0.074159
0.311533 0.045139 0.077196
0.340721 0.035783 0.081341
0.369194 0.030669 0.086552
0.397243 0.042515 0.092620
0.424747 0.056844 0.101010
0.452245 0.075156 0.112722
0.480569 0.099614 0.129630
0.511001 0.134685 0.155553
0.542434 0.181723 0.187371
0.573810 0.223785 0.219011
0.605145 0.261693 0.250527
0.636453 0.297208 0.281960
0.667743 0.331255 0.313334
0.699019 0.364366 0.344669
0.730288 0.396866 0.375977
0.761551 0.428960 0.407267
0.792810 0.460782 0.438543
0.824066 0.492420 0.469812
0.855321 0.523936 0.501075
0.886573 0.555368 0.532333
0.917825 0.586741 0.563590
0.949076 0.618076 0.594844
-0.055420 0.002762 -0.055384
0.005304 0.003384 -0.050179
0.058962 0.010667 -0.036136
0.101629 0.021843 -0.014197
0.088631 0.067671 0.068833
0.111145 0.067227 0.069666
0.141107 0.066139 0.070303
0.181236 0.064432 0.071173
0.217384 0.062075 0.072403
0.251633 0.058460 0.074005
0.282872 0.053550 0.076170
0.312678 0.046712 0.079109
0.341824 0.047358 0.082563
0.370226 0.055248 0.086939
0.397905 0.065225 0.093001
0.425188 0.078174 0.101365
0.452551 0.095341 0.113057
0.480794 0.118990 0.129958
0.511172 0.153816 0.155889
0.542551 0.194542 0.187597
0.573889 0.231713 0.219164
0.605199 0.266784 0.250631
0.636490 0.300551 0.282030
0.667768 0.333481 0.313383
0.699037 0.365862 0.344702
0.730300 0.397876 0.376000
0.761559 0.429646 0.407282
0.792815 0.461249 0.438554
0.824070 0.492739 0.469819
0.855323 0.524153 0.501079
0.886575 0.555516 0.532337
0.917827 0.586842 0.563592
0.949077 0.618145 0.594846
-0.058401 0.058301 -0.058225
0.010063 0.052941 -0.054771
0.057316 0.053464 -0.058959
0.105607 0.053019 -0.044850
0.118976 0.063240 0.026675
0.142563 0.065799 0.054578
0.148683 0.068049 0.070376
0.187649 0.066576 0.073704
0.221375 0.064253 0.074944
0.253890 0.062010 0.076419
0.285094 0.064911 0.078052
0.314712 0.068527 0.080298
0.343326 0.073281 0.083408
0.371201 0.079601 0.087702
0.398543 0.088046 0.093612
0.425617 0.099604 0.101858
0.452851 0.115609 0.113480
0.481016 0.138433 0.130344
0.511341 0.171327 0.156262
0.542667 0.205652 0.187841
0.573969 0.238953 0.219325
0.605253 0.271583 0.250739
0.636527 0.303766 0.282103
0.667793 0.335649 0.313432
0.699054 0.367331 0.344736
0.730312 0.398875 0.376022
0.761567 0.430326 0.407297
0.792821 0.461712 0.438564
0.824074 0.493056 0.469826
0.855326 0.524370 0.501084
0.886577 0.555664 0.532340
0.917828 0.586943 0.563594
0.949077 0.618214 0.594847
0.061587 0.087981 0.064343
0.016315 0.106532 -0.025408
0.067687 0.105935 -0.079340
0.121537 0.114852 -0.081013
0.160015 0.108110 -0.047440
0.159813 0.095410 0.006133
0.184600 0.094036 0.035369
0.217859 0.094976 0.064639
0.233318 0.092006 0.077052
0.260972 0.092542 0.078332
0.289340 0.093825 0.079652
0.316855 0.095818 0.081584
0.344685 0.099169 0.084498
0.372123 0.104120 0.088651
0.399169 0.111214 0.094454
0.426040 0.121300 0.102527
0.453146 0.136003 0.113998
0.481234 0.157915 0.130790
0.511509 0.185809 0.156673
0.542782 0.215459 0.188103
0.574048 0.245618 0.219495
0.605307 0.276121 0.250850
0.636564 0.306862 0.282177
0.667819 0.337764 0.313481
0.699071 0.368776 0.344769
0.730323 0.399863 0.376045
0.761575 0.431001 0.407313
0.792826 0.462174 0.438575
0.824078 0.493371 0.469833
0.855328 0.524586 0.501089
0.886579 0.555811 0.532343
0.917829 0.587045 0.563597
0.949078 0.618283 0.594849
0.050996 0.133016 0.062402
0.019317 0.169089 -0.002317
0.067864 0.170257 -0.073669
0.139352 0.167352 -0.081135
0.181711 0.174367 -0.078517
0.190375 0.151909 -0.038396
0.207371 0.141579 -0.013731
0.237732 0.144817 0.021873
0.253117 0.135686 0.068381
0.271923 0.129029 0.081496
0.297760 0.127407 0.082447
0.323376 0.126690 0.083865
0.348810 0.127307 0.086295
0.374303 0.129784 0.090025
0.399930 0.134658 0.095434
0.426460 0.143287 0.103347
0.453439 0.156584 0.114628
0.481451 0.175015 0.131300
0.511676 0.198165 0.157122
0.542896 0.224243 0.188382
0.574126 0.251793 0.219672
0.605361 0.280428 0.250966
0.636601 0.309848 0.282253
0.667844 0.339826 0.313532
0.699089 0.370195 0.344803
0.730335 0.400838 0.376068
0.761583 0.431670 0.407329
0.792832 0.462633 0.438585
0.824081 0.493686 0.469840
0.855331 0.524801 0.501094
0.886581 0.555959 0.532347
0.917830 0.587145 0.563599
0.949079 0.618352 0.594851
0.041041 0.172888 0.060484
0.017258 0.208219 0.012865
0.058999 0.209722 -0.050518
0.148234 0.205516 -0.080412
0.192239 0.206512 -0.078809
0.216797 0.210842 -0.076567
0.234368 0.203192 -0.059484
0.248448 0.189124 -0.021213
0.271742 0.186800 0.035231
0.280275 0.169045 0.079599
0.303297 0.163625 0.085920
0.328240 0.160181 0.086607
0.352752 0.157787 0.088473
0.377321 0.157455 0.091809
0.402160 0.159820 0.096950
0.427408 0.165357 0.104434
0.453734 0.174945 0.115403
0.481667 0.189255 0.131879
0.511841 0.208947 0.157611
0.543010 0.232200 0.188679
0.574204 0.257547 0.219858
0.605415 0.284526 0.251085
0.636638 0.312733 0.282331
0.667869 0.341839 0.313584
0.699106 0.371592 0.344838
0.730347 0.401803 0.376091
0.761591 0.432334 0.407344
0.792838 0.463090 0.438596
0.824085 0.493999 0.469848
0.855334 0.525016 0.501099
0.886582 0.556106 0.532350
0.917832 0.587246 0.563601
0.949080 0.618421 0.594852
0.029474 0.204968 0.058229
0.008904 0.238914 0.022416
0.047707 0.239613 -0.023940
0.141886 0.237642 -0.069235
0.200919 0.234852 -0.080128
0.224744 0.236143 -0.077342
0.244877 0.239700 -0.074740
0.260816 0.229997 -0.053130
0.279209 0.220786 -0.010090
0.293606 0.210151 0.059126
0.308347 0.198131 0.088927
0.332640 0.193624 0.090640
0.356663 0.189454 0.091580
0.380520 0.186587 0.094260
0.404637 0.185910 0.098965
0.429268 0.188086 0.106164
0.454715 0.193760 0.116749
0.481934 0.204116 0.132724
0.512043 0.220588 0.158266
0.543149 0.241066 0.189069
0.574300 0.264129 0.220099
0.605480 0.289310 0.251237
0.636683 0.316151 0.282430
0.667900 0.344252 0.313648
0.699127 0.373279 0.344881
0.730362 0.402975 0.376120
0.761601 0.433145 0.407364
0.792844 0.463648 0.438609
0.824090 0.494383 0.469857
0.855337 0.525280 0.501105
0.886585 0.556287 0.532354
0.917833 0.587370 0.563604
0.949081 0.618506 0.594854
0.012907 0.236058 0.054889
0.018202 0.236366 0.042716
0.039341 0.268732 -0.001357
0.125351 0.267985 -0.041004
0.197723 0.266109 -0.071626
0.231969 0.264077 -0.079665
0.252663 0.264646 -0.076633
0.272712 0.268096 -0.072762
0.291418 0.260733 -0.054245
0.308168 0.250536 0.005972
0.316631 0.234156 0.078844
0.337072 0.227294 0.097190
0.360976 0.222345 0.097018
0.384365 0.217708 0.098399
0.407798 0.214558 0.102234
0.431745 0.213793 0.108882
0.456619 0.216225 0.119134
0.483038 0.222826 0.134681
0.512338 0.235214 0.159349
0.543351 0.252567 0.189689
0.574439 0.272916 0.220473
0.605576 0.295847 0.251470
0.636749 0.320911 0.282578
0.667946 0.347658 0.313745
0.699158 0.375686 0.344945
0.730383 0.404659 0.376163
0.761616 0.434316 0.407392
0.792854 0.464458 0.438629
0.824097 0.494941 0.469870
0.855342 0.525664 0.501114
0.886588 0.556551 0.532360
0.917835 0.587551 0.563608
0.949082 0.618630 0.594857
-0.010547 0.266299 0.050084
-0.001481 0.265996 0.043276
0.035569 0.287635 0.019281
0.108412 0.296854 -0.011144
0.182767 0.296172 -0.041361
0.226615 0.294876 -0.066918
0.257452 0.292933 -0.079368
0.280233 0.292742 -0.076426
0.300269 0.296057 -0.070749
0.319973 0.289408 -0.051456
0.334315 0.277310 0.026155
0.342967 0.261100 0.095392
0.365240 0.255637 0.106709
0.388616 0.250220 0.105729
0.411610 0.245322 0.107787
0.434919 0.242150 0.113304
0.459166 0.241742 0.122886
0.485071 0.245214 0.138099
0.513578 0.253873 0.162071
0.543644 0.267030 0.190710
0.574641 0.284323 0.221069
0.605715 0.304578 0.251834
0.636845 0.327418 0.282806
0.668011 0.352401 0.313891
0.699203 0.379083 0.345040
0.730414 0.407062 0.376226
0.761637 0.435997 0.407435
0.792869 0.465627 0.438657
0.824107 0.495751 0.469889
0.855348 0.526222 0.501127
0.886592 0.556934 0.532369
0.917838 0.587815 0.563614
0.949085 0.618811 0.594861
-0.043566 0.295871 0.043242
-0.010834 0.294908 0.040017
0.033200 0.304321 0.029646
0.090693 0.316028 0.012525
0.164065 0.324683 -0.010449
0.212394 0.324176 -0.031491
0.249332 0.323221 -0.058647
0.282775 0.321217 -0.079465
0.307456 0.320427 -0.077104
0.327523 0.323598 -0.068894
0.347487 0.317027 -0.046419
0.355707 0.299143 0.049326
0.370022 0.288505 0.112852
0.392806 0.283273 0.119144
0.415845 0.277600 0.117711
0.438769 0.272729 0.120846
0.462450 0.270004 0.129003
0.487809 0.270745 0.143484
0.515770 0.276280 0.166627
0.544908 0.285550 0.193371
0.574933 0.298678 0.222052
0.605917 0.315921 0.252414
0.636984 0.336112 0.283162
0.668107 0.358887 0.314116
0.699269 0.383817 0.345185
0.730459 0.410453 0.376321
0.761668 0.438397 0.407498
0.792890 0.467308 0.438699
0.824121 0.496921 0.469918
0.855358 0.527031 0.501147
0.886599 0.557492 0.532382
0.917843 0.588199 0.563623
0.949088 0.619075 0.594867
-0.061764 0.324090 0.033564
-0.016330 0.323515 0.032489
0.025338 0.330266 0.026897
0.075579 0.335493 0.020546
0.132821 0.340154 0.012199
0.188993 0.344471 0.000862
0.234190 0.350125 -0.019660
0.273150 0.350915 -0.051490
0.308146 0.348936 -0.080795
0.334359 0.347717 -0.079231
0.354474 0.350757 -0.067504
0.374526 0.344150 -0.040166
0.380054 0.323795 0.074093
0.397086 0.315768 0.133819
0.420031 0.310527 0.136121
0.443077 0.304929 0.134426
0.466466 0.300595 0.139478
0.491368 0.299140 0.152287
0.518698 0.301880 0.173297
0.547097 0.307858 0.197897
0.576213 0.317091 0.224658
0.606209 0.330204 0.253371
0.637185 0.347411 0.283731
0.668247 0.367556 0.314467
0.699365 0.390288 0.345407
0.730525 0.415178 0.376464
0.761713 0.441786 0.407592
0.792921 0.469706 0.438762
0.824142 0.498601 0.469960
0.855373 0.528199 0.501175
0.886609 0.558301 0.532402
0.917850 0.588756 0.563636
0.949093 0.619458 0.594876
-0.066934 0.351565 0.019992
-0.027593 0.353947 0.018706
0.013921 0.357638 0.016418
0.060136 0.360586 0.014325
0.110039 0.362977 0.012100
0.162583 0.364979 0.009333
0.209398 0.367336 0.004126
0.252413 0.370686 -0.008872
0.296015 0.376287 -0.044359
0.333652 0.376195 -0.084538
0.361013 0.374681 -0.083660
0.381189 0.377620 -0.067077
0.397574 0.367264 -0.028237
0.405609 0.349565 0.101221
0.424092 0.342890 0.160774
0.447373 0.337883 0.159756
0.471015 0.332934 0.158401
0.495774 0.330018 0.166603
0.522462 0.330385 0.183106
0.550022 0.333374 0.204525
0.578401 0.339333 0.229162
0.607499 0.348540 0.255933
0.637478 0.361645 0.284671
0.668448 0.378824 0.315028
0.699504 0.398940 0.345754
0.730621 0.421642 0.376685
0.761779 0.446506 0.407735
0.792966 0.473092 0.438856
0.824174 0.500997 0.470022
0.855394 0.529878 0.501217
0.886624 0.559469 0.532430
0.917860 0.589565 0.563656
0.949099 0.620016 0.594889
-0.079153 0.380229 -0.000074
-0.042137 0.382816 -0.001088
-0.001767 0.384988 -0.001575
0.041351 0.386805 -0.001645
0.086712 0.388328 -0.001433
0.133904 0.389610 -0.001101
0.187015 0.390929 -0.000807
0.233217 0.392508 -0.001430
0.275121 0.394751 -0.007940
0.316600 0.398455 -0.037099
0.358470 0.402276 -0.090399
0.386340 0.400247 -0.089239
0.403787 0.400323 -0.061616
0.421422 0.391162 -0.017172
0.431833 0.375936 0.134404
0.451459 0.370326 0.189711
0.475631 0.366149 0.187262
0.500852 0.362814 0.187699
0.527047 0.361369 0.197571
0.553785 0.361811 0.214281
0.581324 0.364791 0.235762
0.609686 0.370737 0.260423
0.638775 0.379925 0.287201
0.668741 0.393026 0.315956
0.699706 0.410187 0.346310
0.730760 0.430281 0.377029
0.761875 0.452962 0.407954
0.793032 0.477809 0.438998
0.824219 0.504381 0.470116
0.855425 0.532274 0.501279
0.886645 0.561148 0.532472
0.917874 0.590733 0.563684
0.949109 0.620825 0.594908
-0.099167 0.409347 -0.029099
-0.062342 0.410886 -0.029071
-0.023538 0.412239 -0.028586
0.016952 0.413423 -0.027693
0.058885 0.414458 -0.026451
0.102051 0.415361 -0.024925
0.156575 0.416313 -0.022769
0.212791 0.417449 -0.019381
0.258641 0.418720 -0.015022
0.299805 0.420249 -0.014105
0.340119 0.422982 -0.037655
0.381259 0.425956 -0.096903
0.410110 0.424195 -0.096416
0.428332 0.424941 -0.061799
0.446841 0.416619 -0.007000
0.459001 0.403205 0.175607
0.480046 0.398954 0.219080
0.506046 0.396567 0.217151
0.532208 0.394201 0.218685
0.558368 0.392745 0.228686
0.585084 0.393181 0.245480
0.612609 0.396155 0.267003
0.640961 0.402092 0.291681
0.670043 0.411268 0.318464
0.699998 0.424367 0.347231
0.730962 0.441515 0.377582
0.762014 0.461594 0.408297
0.793128 0.484261 0.439217
0.824285 0.509095 0.470258
0.855470 0.535658 0.501373
0.886676 0.563543 0.532534
0.917896 0.592412 0.563726
0.949124 0.621993 0.594937
-0.127662 0.437909 -0.069506
-0.091672 0.438888 -0.068882
-0.054450 0.439780 -0.067903
-0.016134 0.440592 -0.066590
0.023150 0.441327 -0.064970
0.063300 0.441992 -0.063068
0.113753 0.442722 -0.060388
0.183695 0.443635 -0.055922
0.239661 0.444693 -0.048647
0.285278 0.445813 -0.037970
0.326047 0.447004 -0.028034
0.365664 0.449177 -0.045476
0.406425 0.451741 -0.114684
0.435863 0.450078 -0.113959
0.454614 0.451276 -0.067951
0.474091 0.443897 0.003311
0.488018 0.432291 0.214099
0.510894 0.429827 0.250339
0.537405 0.427928 0.248145
0.563531 0.425545 0.249754
0.589667 0.424081 0.259844
0.616368 0.424514 0.276697
0.643882 0.427484 0.298248
0.672228 0.433413 0.322936
0.701305 0.442584 0.349725
0.731254 0.455679 0.378497
0.762216 0.472817 0.408848
0.793267 0.492885 0.439559
0.824380 0.515544 0.470476
0.855536 0.540370 0.501515
0.886721 0.566926 0.532628
0.917927 0.594807 0.563788
0.949145 0.623672 0.594979
-0.171541 0.467171 -0.128409
-0.136293 0.467840 -0.127490
-0.100223 0.468466 -0.126305
-0.063396 0.469052 -0.124862
-0.025876 0.469600 -0.123172
0.012282 0.470111 -0.121248
0.060039 0.470692 -0.118576
0.131237 0.471453 -0.114121
0.212435 0.472395 -0.106608
0.268244 0.473469 -0.094097
0.313753 0.474563 -0.074793
0.354353 0.475644 -0.052774
0.393610 0.477548 -0.062955
0.434279 0.480026 -0.148571
0.464089 0.478397 -0.146839
0.483346 0.480046 -0.082963
0.503932 0.473759 0.015240
0.519072 0.463391 0.250844
0.542220 0.461170 0.281892
0.568729 0.459254 0.279218
0.594832 0.456858 0.280880
0.620951 0.455390 0.291031
0.647641 0.455820 0.307924
0.675148 0.458787 0.329494
0.703489 0.464711 0.354190
0.732563 0.473879 0.380983
0.762508 0.486971 0.409759
0.793469 0.504103 0.440108
0.824520 0.524164 0.470817
0.855632 0.546816 0.501732
0.886787 0.571638 0.532769
0.917972 0.598189 0.563882
0.949176 0.626066 0.595041
-0.242964 0.498476 -0.219637
-0.207645 0.498942 -0.218540
-0.171751 0.499387 -0.217243
-0.135318 0.499811 -0.215746
-0.098374 0.500215 -0.214057
-0.060948 0.500599 -0.212181
-0.014274 0.501047 -0.209623
0.055047 0.501651 -0.205418
0.158394 0.502438 -0.198347
0.243476 0.503401 -0.186297
0.299147 0.504478 -0.165945
0.344551 0.505533 -0.133710
0.384993 0.506502 -0.093739
0.423917 0.508137 -0.093911
0.464360 0.510404 -0.204856
0.494418 0.508793 -0.201236
0.513861 0.510588 -0.108844
0.534567 0.504411 0.034594
0.550242 0.494592 0.285598
0.573524 0.492483 0.313325
0.600031 0.490555 0.310345
0.626116 0.488151 0.312045
0.652225 0.486680 0.322237
0.678907 0.487108 0.339159
0.706410 0.490073 0.360742
0.734747 0.495994 0.385443
0.763819 0.505161 0.412239
0.793761 0.518250 0.441017
0.824721 0.535378 0.471365
0.855771 0.555435 0.502073
0.886883 0.578082 0.532987
0.918038 0.602899 0.564023
0.949221 0.629447 0.595134
-0.349570 0.530193 -0.355175
-0.313944 0.530501 -0.353872
-0.277932 0.530799 -0.352424
-0.241552 0.531088 -0.350833
-0.204819 0.531367 -0.349102
-0.167740 0.531636 -0.347233
-0.121661 0.531955 -0.344747
-0.053492 0.532397 -0.340754
0.047743 0.532993 -0.334190
0.190159 0.533766 -0.323146
0.274828 0.534707 -0.304289
0.330355 0.535746 -0.272286
0.375642 0.536735 -0.220976
0.415937 0.537590 -0.154656
0.454592 0.539000 -0.140243
0.494841 0.541091 -0.288033
0.525065 0.539487 -0.281354
0.544618 0.541364 -0.146783
0.565432 0.535286 0.060149
0.581441 0.525813 0.319115
0.604810 0.523777 0.344690
0.631315 0.521839 0.341511
0.657389 0.519430 0.343236
0.683491 0.517957 0.353458
0.710169 0.518384 0.370398
0.737668 0.521347 0.391990
0.766003 0.527267 0.416694
0.795073 0.536433 0.443494
0.825013 0.549519 0.472272
0.855973 0.566645 0.502620
0.887022 0.586698 0.533327
0.918134 0.609342 0.564241
0.949287 0.634157 0.595276
-0.504987 0.561756 -0.553177
-0.469155 0.561962 -0.551731
-0.433066 0.562163 -0.550183
-0.396726 0.562359 -0.548534
-0.360140 0.562551 -0.546784
-0.323308 0.562739 -0.544935
-0.277662 0.562964 -0.542525
-0.210348 0.563281 -0.538740
-0.110761 0.563719 -0.532663
0.037128 0.564310 -0.522666
0.221787 0.565074 -0.505835
0.306162 0.566000 -0.477051
0.361584 0.567012 -0.428043
0.406790 0.567957 -0.348884
0.446984 0.568735 -0.244110
0.485458 0.569994 -0.208522
0.525576 0.571967 -0.410126
0.555911 0.570365 -0.398773
0.575534 0.572293 -0.202145
0.596431 0.566292 0.096036
0.612658 0.557045 0.351861
0.636086 0.555058 0.376013
0.662588 0.553113 0.372703
0.688655 0.550700 0.374446
0.714751 0.549225 0.384688
0.741426 0.549652 0.401641
0.768923 0.552614 0.423239
0.797257 0.558533 0.447946
0.826326 0.567699 0.474747
0.856265 0.580782 0.503526
0.887224 0.597907 0.533874
0.918273 0.617957 0.564581
0.949383 0.640599 0.595493
-0.731880 0.593216 -0.842459
-0.695910 0.593355 -0.840914
-0.659769 0.593491 -0.839298
-0.623456 0.593625 -0.837610
-0.586971 0.593757 -0.835850
-0.550318 0.593887 -0.834022
-0.504982 0.594044 -0.831677
-0.438289 0.594268 -0.828058
-0.339939 0.594584 -0.822380
-0.194438 0.595020 -0.813259
0.021634 0.595607 -0.798248
0.253303 0.596364 -0.772962
0.337472 0.597280 -0.729673
0.392822 0.598274 -0.655815
0.437971 0.599189 -0.535960
0.478098 0.599915 -0.375044
0.516450 0.601072 -0.308646
0.556479 0.602965 -0.588900
0.586886 0.601364 -0.570567
0.606556 0.603325 -0.282860
0.627514 0.597380 0.147818
0.643885 0.588282 0.384110
0.667353 0.586328 0.407311
0.693854 0.584379 0.403913
0.719915 0.581964 0.405668
0.746008 0.580488 0.415924
0.772681 0.580914 0.432886
0.800177 0.583875 0.454489
0.828510 0.589793 0.479197
0.857578 0.598959 0.505999
0.887516 0.612042 0.534779
0.918475 0.629166 0.565127
0.949522 0.649214 0.595833
-1.067000 0.624391 -1.232307
-1.031012 0.624487 -1.230883
-0.994908 0.624581 -1.229413
-0.958689 0.624674 -1.227890
-0.922350 0.624766 -1.226320
-0.885887 0.624858 -1.224708
-0.840852 0.624968 -1.222651
-0.774729 0.625128 -1.219517
-0.677444 0.625355 -1.214668
-0.533967 0.625676 -1.207002
-0.321657 0.626119 -1.194596
-0.006292 0.626717 -1.174009
0.283562 0.627491 -1.139060
0.368349 0.628431 -1.079181
0.423923 0.629471 -0.978155
0.469173 0.630425 -0.809246
0.509256 0.631118 -0.566448
0.547525 0.632207 -0.455175
0.587493 0.634046 -0.850397
0.617951 0.632444 -0.821761
0.637650 0.634425 -0.400589
0.658652 0.628521 0.204723
0.675120 0.619525 0.416031
0.698615 0.617592 0.438593
0.725115 0.615641 0.435135
0.751172 0.613224 0.436898
0.777262 0.611748 0.447164
0.803934 0.612173 0.464132
0.831429 0.615134 0.485739
0.859762 0.621051 0.510448
0.888829 0.630216 0.537251
0.918766 0.643298 0.566031
0.949724 0.660421 0.596379
-1.557656 0.655560 -1.795305
-1.521689 0.655625 -1.793824
-1.485640 0.655689 -1.792313
-1.449513 0.655753 -1.790766
-1.413307 0.655816 -1.789191
-1.377004 0.655879 -1.787576
-1.332224 0.655956 -1.785552
-1.266558 0.656067 -1.782500
-1.170135 0.656226 -1.777854
-1.028297 0.656454 -1.770663
-0.819078 0.656775 -1.759320
-0.509476 0.657219 -1.740993
-0.049563 0.657818 -1.710620
0.313627 0.658592 -1.659145
0.399068 0.659535 -1.570995
0.454822 0.660578 -1.422143
0.500250 0.661587 -1.187607
0.540442 0.662334 -0.846098
0.578656 0.663377 -0.669444
0.618583 0.665179 -1.232719
0.649075 0.663577 -1.188940
0.668794 0.665572 -0.572401
0.689826 0.659697 0.249910
0.706360 0.650770 0.447736
0.729873 0.648852 0.469864
0.756372 0.646898 0.466366
0.782428 0.644479 0.468136
0.808516 0.643002 0.478408
0.835186 0.643428 0.495379
0.862681 0.646389 0.516989
0.891012 0.652307 0.541699
0.920080 0.661471 0.568503
0.950016 0.674552 0.597283
-2.274815 0.686756 -2.618585
-2.238853 0.686800 -2.617071
-2.202852 0.686844 -2.615533
-2.166791 0.686888 -2.613976
-2.130661 0.686931 -2.612390
-2.094471 0.686974 -2.610788
-2.049870 0.687027 -2.608778
-1.984521 0.687104 -2.605787
-1.888705 0.687215 -2.601287
-1.748010 0.687375 -2.594436
-1.541026 0.687603 -2.583843
-1.235711 0.687923 -2.567136
-0.783909 0.688368 -2.540186
-0.112716 0.688968 -2.495558
0.344070 0.689744 -2.419985
0.429960 0.690688 -2.290648
0.485839 0.691733 -2.072229
0.531320 0.692744 -1.727262
0.571648 0.693561 -1.254646
0.609824 0.694574 -0.982665
0.649724 0.696352 -1.791590
0.680239 0.694749 -1.725656
0.699970 0.696752 -0.823290
0.721023 0.690896 0.289457
0.737604 0.682017 0.479295
0.761129 0.680110 0.501129
0.787627 0.678154 0.497605
0.813680 0.675734 0.499377
0.839769 0.674257 0.509655
0.866438 0.674682 0.526628
0.893931 0.677643 0.548238
0.922263 0.683561 0.572949
0.951330 0.692724 0.599754
-3.323009 0.717969 -3.822065
-3.287059 0.717999 -3.820529
-3.251079 0.718029 -3.818973
-3.215055 0.718059 -3.817408
-3.178995 0.718089 -3.815823
-3.142887 0.718119 -3.814219
-3.098385 0.718155 -3.812237
-3.033262 0.718208 -3.809279
-2.937860 0.718285 -3.804883
-2.797966 0.718396 -3.798267
-2.592556 0.718556 -3.788198
-2.290361 0.718783 -3.772622
-1.844608 0.719104 -3.748097
-1.184939 0.719549 -3.708545
-0.204916 0.720149 -3.643097
0.374768 0.720926 -3.532350
0.460968 0.721871 -3.342865
0.516931 0.722918 -3.022838
0.562450 0.723931 -2.516898
0.602866 0.724795 -1.851429
0.641019 0.725788 -1.440497
0.680900 0.727549 -2.608453
0.711431 0.725946 -2.510086
0.731169 0.727954 -1.189767
0.752238 0.722111 0.325925
0.768849 0.713264 0.510755
0.792384 0.711365 0.532387
0.818881 0.709408 0.528845
0.844933 0.706988 0.530621
0.871019 0.705510 0.540902
0.897689 0.705935 0.557877
0.925182 0.708896 0.579488
0.953514 0.714813 0.604199
-4.855012 0.749194 -5.581141
-4.819083 0.749215 -5.579591
-4.783105 0.749235 -5.578018
-4.747112 0.749256 -5.576450
-4.711081 0.749276 -5.574862
-4.675035 0.749296 -5.573267
-4.630615 0.749321 -5.571288
-4.565643 0.749358 -5.568368
-4.470528 0.749411 -5.564050
-4.331202 0.749488 -5.557587
-4.126889 0.749599 -5.547881
-3.826874 0.749759 -5.533089
-3.385519 0.749986 -5.510267
-2.734521 0.750308 -5.474305
-1.771060 0.750753 -5.416353
-0.339666 0.751353 -5.320489
0.405642 0.752131 -5.158330
0.492052 0.753077 -4.880950
0.548073 0.754125 -4.412485
0.593619 0.755139 -3.671412
0.634094 0.756033 -2.723148
0.672231 0.757012 -2.109640
0.712099 0.758762 -3.802408
0.742641 0.757158 -3.656563
0.762385 0.759171 -1.725229
0.783464 0.753338 0.360557
0.800096 0.744513 0.542148
0.823639 0.742620 0.563643
0.850134 0.740661 0.560088
0.876185 0.738240 0.561867
0.902270 0.736762 0.572150
0.928939 0.737187 0.589126
0.956433 0.740148 0.610737
-7.094126 0.780426 -8.152202
-7.058193 0.780440 -8.150643
-7.022206 0.780454 -8.149080
-6.986283 0.780468 -8.147495
-6.950264 0.780482 -8.145904
-6.914266 0.780496 -8.144320
-6.869907 0.780514 -8.142353
-6.805025 0.780539 -8.139453
-6.710128 0.780575 -8.135152
-6.571145 0.780628 -8.128819
-6.367631 0.780705 -8.119359
-6.069143 0.780816 -8.105123
-5.630934 0.780976 -8.083478
-4.986164 0.781204 -8.050031
-4.035118 0.781525 -7.997396
-2.627646 0.781971 -7.912507
-0.536572 0.782572 -7.772204
0.436635 0.783350 -7.534909
0.523190 0.784297 -7.129091
0.579250 0.785346 -6.443714
0.624815 0.786361 -5.359066
0.665323 0.787272 -3.993239
0.703456 0.788245 -3.087664
0.743315 0.789987 -5.547450
0.773863 0.788383 -5.332255
0.793612 0.790398 -2.507701
0.814697 0.784572 0.394040
0.831344 0.775761 0.573496
0.854892 0.773873 0.594897
0.881386 0.771913 0.591334
0.907436 0.769492 0.593114
0.933522 0.768014 0.603398
0.960190 0.768439 0.620376
-10.366743 0.811665 -11.910020
-10.330782 0.811674 -11.908426
-10.294828 0.811684 -11.906848
-10.258871 0.811694 -11.905265
-10.222909 0.811703 -11.903672
-10.186920 0.811713 -11.902083
-10.142610 0.811725 -11.900127
-10.077817 0.811742 -11.897259
-9.983040 0.811767 -11.892979
