StdX-ACES-ANM/studio/LMT_Soft_v9_cct_33.cube
TITLE "Generated by Foundry::LUT"
LUT_3D_SIZE 5
-0.043805 -0.043805 -0.043805
0.213827 0.060372 0.070384
0.452245 0.075156 0.112722
0.699019 0.364366 0.344669
0.949076 0.618076 0.594844
-0.010547 0.266299 0.050084
0.300269 0.296057 -0.070749
0.459166 0.241742 0.122886
0.699203 0.379083 0.345040
0.949085 0.618811 0.594861
-0.242964 0.498476 -0.219637
0.158394 0.502438 -0.198347
0.513861 0.510588 -0.108844
0.706410 0.490073 0.360742
0.949221 0.629447 0.595134
-4.855012 0.749194 -5.581141
-4.470528 0.749411 -5.564050
0.405642 0.752131 -5.158330
0.762385 0.759171 -1.725229
0.956433 0.740148 0.610737
-101.015732 0.999144 -115.999687
-100.632500 0.999155 -115.982750
-94.682579 0.999316 -115.713089
0.654867 1.002039 -107.226013
1.012314 1.009102 -35.323647
-0.001073 0.037012 0.268767
0.258445 -0.002309 0.256621
0.455951 0.094654 0.234506
0.699103 0.366492 0.345185
0.949080 0.618173 0.594868
-0.047933 0.268844 0.268844
0.265670 0.265670 0.265670
0.458810 0.242091 0.234806
0.699288 0.380830 0.345511
0.949089 0.618908 0.594885
-0.257614 0.492241 0.052290
0.102922 0.496444 0.080517
0.508051 0.505051 0.244709
0.706520 0.490433 0.360722
0.949225 0.629531 0.595156
-4.887563 0.748742 -5.220898
-4.505853 0.748959 -5.203135
0.401903 0.751695 -4.789099
0.762030 0.758832 -1.237714
0.956438 0.740165 0.610736
-101.049042 0.999122 -115.636589
-100.666061 0.999133 -115.619431
-94.718407 0.999294 -115.349495
0.654688 1.002017 -106.853676
1.012298 1.009086 -34.850708
0.220833 0.189603 0.488431
0.305437 0.206766 0.486642
0.481467 0.237310 0.480711
0.703196 0.382827 0.480697
0.949142 0.619687 0.595249
0.213333 0.291316 0.489339
0.302363 0.295072 0.488222
0.482203 0.305131 0.481579
0.703365 0.394712 0.480669
0.949151 0.620407 0.595264
-0.366412 0.491166 0.491166
-0.050791 0.490997 0.490997
0.488585 0.488585 0.488585
0.705655 0.488938 0.481652
0.949288 0.630831 0.595510
-5.345527 0.743267 -0.266615
-4.999860 0.743492 -0.243468
0.322149 0.746445 0.209158
0.758051 0.755051 0.494709
0.956519 0.740433 0.610722
-101.560677 0.998788 -110.076988
-101.179581 0.998799 -110.059326
-95.263916 0.998960 -109.781921
0.651903 1.001696 -101.161331
1.012031 1.008832 -27.215961
0.495943 0.475864 0.738380
0.501055 0.476368 0.738310
0.554825 0.484772 0.737040
0.731628 0.506834 0.730902
0.953231 0.635446 0.730689
0.495638 0.481853 0.738437
0.500768 0.482314 0.738369
0.554680 0.490047 0.737127
0.731664 0.510742 0.730945
0.953240 0.636038 0.730688
0.491420 0.541960 0.739130
0.496732 0.542121 0.739081
0.552363 0.545073 0.738222
0.732202 0.555132 0.731578
0.953365 0.644711 0.730669
-7.704384 0.741132 0.741132
-7.388635 0.741123 0.741123
-2.502656 0.740998 0.740998
0.738585 0.738585 0.738585
0.955656 0.738938 0.731651
-111.252640 0.993314 -6.897361
-110.907913 0.993325 -6.874443
-105.549385 0.993491 -6.514091
0.572153 0.996445 0.459168
1.008050 1.005051 0.744711
0.746973 0.727252 0.988376
0.747222 0.727276 0.988373
0.750995 0.727644 0.988321
0.804795 0.735899 0.987057
0.981636 0.757663 0.980911
0.746959 0.727544 0.988379
0.747208 0.727568 0.988376
0.750981 0.727935 0.988324
0.804788 0.736157 0.987062
0.981637 0.757853 0.980913
0.746735 0.731948 0.988422
0.746985 0.731970 0.988418
0.750768 0.732313 0.988367
0.804680 0.740047 0.987126
0.981665 0.760741 0.980946
0.742556 0.791993 0.989119
0.742815 0.792000 0.989116
0.746732 0.792120 0.989080
0.802364 0.795073 0.988221
0.982202 0.805132 0.981578
-160.491776 0.991129 0.991129
-160.176102 0.991128 0.991129
-155.287323 0.991122 0.991122
-53.553421 0.990997 0.990996
0.988584 0.988584 0.988584
