StdX-ACES-OCIOv2.0/studio/LMT_AnalyticFilmic8_ACEScct_33.cube
TITLE "Generated by Foundry::LUT"
LUT_3D_SIZE 9
0.038894 0.038894 0.038894
0.076046 0.072802 0.072982
0.166102 0.070925 0.076253
0.357158 0.109391 0.112802
0.465371 0.197351 0.204596
0.573642 0.359212 0.330604
0.693135 0.495173 0.464270
0.816634 0.624186 0.590504
0.941806 0.742465 0.707409
0.071053 0.093817 0.072819
0.108625 0.109838 0.070592
0.201986 0.147815 0.080148
0.368638 0.208754 0.131484
0.466323 0.239154 0.209443
0.574757 0.361986 0.329123
0.693387 0.495746 0.464086
0.816687 0.624325 0.590486
0.941817 0.742542 0.707413
0.090071 0.229765 0.072735
0.191035 0.249078 0.064434
0.253624 0.256723 0.066290
0.378581 0.290082 0.174331
0.471473 0.287852 0.222736
0.576596 0.367913 0.327552
0.693806 0.496680 0.463749
0.816778 0.624523 0.590428
0.941838 0.742544 0.707360
0.198429 0.399011 0.100636
0.212856 0.404076 0.087311
0.309332 0.408954 0.099882
0.415233 0.414844 0.094518
0.483435 0.385840 0.272202
0.581854 0.409783 0.339851
0.695660 0.500717 0.462131
0.817181 0.625496 0.590214
0.941940 0.742676 0.707239
0.135882 0.502984 0.097427
0.210814 0.504354 0.105902
0.290048 0.506310 0.129391
0.401526 0.510531 0.206336
0.517796 0.516922 0.180716
0.594085 0.499249 0.384159
0.703687 0.518100 0.454313
0.819004 0.629744 0.589118
0.942367 0.743430 0.706734
0.472227 0.606604 0.416782
0.472301 0.607109 0.414185
0.472319 0.607975 0.409419
0.469734 0.612597 0.377236
0.510098 0.622481 0.322066
0.628022 0.627440 0.343925
0.716726 0.615308 0.502467
0.826929 0.646830 0.581908
0.944299 0.746704 0.704292
0.620855 0.722626 0.575137
0.620982 0.722698 0.574938
0.621165 0.722825 0.574602
0.621923 0.723399 0.573038
0.624991 0.726214 0.563996
0.627478 0.744266 0.437640
0.749011 0.748583 0.472965
0.841853 0.736527 0.625146
0.951986 0.763633 0.702007
0.755913 0.844216 0.712245
0.755970 0.844226 0.712217
0.755993 0.844254 0.712177
0.756202 0.844361 0.711978
0.756986 0.844860 0.710987
0.760481 0.847245 0.705434
0.759547 0.867193 0.574828
0.873023 0.872709 0.599453
0.967702 0.857137 0.747975
0.867972 0.973089 0.812972
0.867918 0.973100 0.812934
0.867954 0.973101 0.812927
0.868043 0.973129 0.812865
0.868302 0.973237 0.812617
0.869391 0.973736 0.811412
0.874211 0.976115 0.804763
0.884426 0.992025 0.696763
1.000321 0.999464 0.666475
0.072290 0.072640 0.073973
0.086318 0.072087 0.084606
0.177904 0.072822 0.116693
0.362287 0.094361 0.191770
0.466258 0.192371 0.223365
0.573508 0.357914 0.337153
0.692994 0.494519 0.465146
0.816607 0.624016 0.590672
0.941807 0.742428 0.707424
0.070477 0.096801 0.096539
0.099249 0.099247 0.099249
0.217249 0.090210 0.093753
0.367822 0.115795 0.119580
0.467630 0.203051 0.207487
0.574237 0.360533 0.335235
0.693244 0.495104 0.464966
0.816657 0.624151 0.590659
0.941813 0.742484 0.707429
0.059403 0.226403 0.136981
0.079913 0.238822 0.087323
0.255817 0.252148 0.078542
0.383378 0.258716 0.155928
0.470633 0.261296 0.216528
0.575898 0.364831 0.332594
0.693666 0.496028 0.464607
0.816746 0.624362 0.590602
0.941837 0.742485 0.707393
0.126585 0.390961 0.208384
0.184043 0.398238 0.139981
0.263735 0.408688 0.101867
0.415427 0.413882 0.106247
0.484793 0.378476 0.267671
0.581471 0.406070 0.342682
0.695518 0.500119 0.463043
0.817154 0.625326 0.590379
0.941930 0.742662 0.707297
0.116092 0.502566 0.101790
0.088666 0.503387 0.093495
0.233889 0.505691 0.111007
0.392299 0.510740 0.203938
0.517732 0.516575 0.191959
0.594292 0.498234 0.383425
0.703629 0.517189 0.454276
0.818976 0.629585 0.589301
0.942359 0.743383 0.706787
0.472058 0.606098 0.420978
0.472168 0.606582 0.418629
0.472312 0.607415 0.414350
0.470686 0.611773 0.386389
0.507946 0.622551 0.321286
0.627825 0.627225 0.348865
0.716807 0.614953 0.502250
0.826907 0.646628 0.582067
0.944298 0.746660 0.704336
0.620776 0.722548 0.575622
0.620870 0.722627 0.575411
0.621052 0.722753 0.575081
0.621844 0.723318 0.573554
0.624953 0.726125 0.564638
0.626961 0.744283 0.437407
0.748955 0.748527 0.474229
0.841876 0.736432 0.625092
0.951983 0.763580 0.701994
0.755902 0.844205 0.712331
0.755914 0.844218 0.712328
0.755939 0.844247 0.712255
0.756128 0.844354 0.712036
0.756954 0.844851 0.711060
0.760507 0.847222 0.705557
0.759617 0.867165 0.575305
0.873003 0.872697 0.599733
0.967704 0.857118 0.747964
0.867968 0.973084 0.813005
0.867943 0.973092 0.812974
0.867889 0.973105 0.812919
0.868003 0.973124 0.812901
0.868234 0.973234 0.812633
0.869352 0.973732 0.811444
0.874203 0.976108 0.804820
0.884425 0.992022 0.696854
1.000321 0.999464 0.666475
0.069279 0.073619 0.141009
0.132765 0.073798 0.199537
0.213705 0.081643 0.210707
0.361026 0.129452 0.269288
0.468626 0.200288 0.278414
0.574465 0.357592 0.352663
0.692758 0.493454 0.466595
0.816558 0.623727 0.590961
0.941795 0.742389 0.707509
0.060982 0.143573 0.226761
0.112417 0.105953 0.260571
0.237448 0.109148 0.238748
0.370172 0.150560 0.257931
0.469607 0.205784 0.261343
0.574604 0.359471 0.348310
0.693011 0.494055 0.466405
0.816614 0.623857 0.590927
0.941805 0.742398 0.707493
0.058157 0.232578 0.232297
0.071539 0.239787 0.240213
0.233313 0.233307 0.233314
0.381222 0.249893 0.252067
0.469895 0.241415 0.239310
0.575253 0.363072 0.342660
0.693433 0.494991 0.466078
0.816706 0.624081 0.590880
0.941830 0.742418 0.707458
0.035369 0.392843 0.275547
0.065074 0.394337 0.252038
0.218884 0.399320 0.229567
0.404792 0.403306 0.257387
0.484387 0.372260 0.269738
0.580799 0.400168 0.347532
0.695285 0.499131 0.464529
0.817110 0.625016 0.590638
0.941925 0.742546 0.707349
0.086685 0.497872 0.241955
0.098428 0.500207 0.207347
0.097288 0.504697 0.092994
0.378468 0.510751 0.204789
0.516882 0.515391 0.226189
0.594283 0.496308 0.385909
0.703466 0.515640 0.455314
0.818934 0.629319 0.589572
0.942351 0.743297 0.706858
0.471427 0.605352 0.427553
0.471897 0.605765 0.425302
0.472211 0.606553 0.421672
0.471877 0.610548 0.398890
0.504312 0.622663 0.319779
0.627502 0.626842 0.356926
0.716941 0.614355 0.501889
0.826878 0.646320 0.582304
0.944286 0.746590 0.704394
0.620592 0.722430 0.576390
0.620688 0.722510 0.576192
0.620867 0.722637 0.575855
0.621643 0.723205 0.574357
0.624814 0.725976 0.565699
0.626065 0.744313 0.437021
0.748878 0.748427 0.476272
0.841911 0.736284 0.625009
0.951983 0.763446 0.701964
0.755839 0.844187 0.712465
0.755873 0.844198 0.712429
0.755898 0.844226 0.712387
0.756064 0.844337 0.712143
0.756955 0.844825 0.711226
0.760424 0.847205 0.705714
0.759783 0.867111 0.576124
0.873009 0.872670 0.600169
0.967712 0.857062 0.747933
0.867908 0.973089 0.812994
0.867911 0.973092 0.812997
0.867913 0.973094 0.812981
0.867971 0.973122 0.812914
0.868226 0.973230 0.812665
0.869377 0.973727 0.811496
0.874170 0.976106 0.804837
0.884453 0.992012 0.697007
1.000319 0.999462 0.666561
0.075973 0.109639 0.377353
0.200106 0.074188 0.388079
0.283371 0.102763 0.382293
0.379677 0.165608 0.378286
0.467375 0.253762 0.369809
0.577496 0.361198 0.398665
0.693625 0.490556 0.478329
0.816355 0.622487 0.592198
0.941747 0.742035 0.707803
0.053844 0.197850 0.395451
0.138207 0.128772 0.399916
0.274560 0.138477 0.395228
0.384278 0.192774 0.383888
0.469346 0.256625 0.366976
0.577695 0.362685 0.396140
0.693648 0.490949 0.477492
0.816408 0.622612 0.592172
0.941762 0.742064 0.707797
0.045933 0.281407 0.393631
0.090776 0.262319 0.404213
0.262143 0.256702 0.406044
0.389046 0.272770 0.389332
0.471804 0.276821 0.364085
0.578031 0.365328 0.391895
0.693687 0.491617 0.476044
0.816499 0.622837 0.592131
0.941780 0.742094 0.707780
0.007519 0.391579 0.391485
0.028033 0.392791 0.392839
0.176043 0.394999 0.395271
0.390758 0.390758 0.390758
0.480197 0.366167 0.365911
0.579746 0.380306 0.373894
0.694335 0.494867 0.471281
0.816906 0.623787 0.591885
0.941875 0.742273 0.707665
0.014939 0.496110 0.369925
0.031412 0.496574 0.364765
0.066348 0.497447 0.355490
0.357973 0.499191 0.357068
0.505131 0.504208 0.377679
0.593808 0.488016 0.400900
0.702583 0.510769 0.461591
0.818734 0.628067 0.590786
0.942307 0.743012 0.707168
0.464341 0.603253 0.448940
0.465071 0.603564 0.447453
0.466246 0.604111 0.444810
0.469917 0.606998 0.431068
0.485426 0.623200 0.309672
0.626946 0.625873 0.374703
0.717513 0.611736 0.500340
0.826709 0.645102 0.583652
0.944246 0.746235 0.704695
0.619645 0.721959 0.579672
0.619810 0.722013 0.579476
0.620007 0.722133 0.579182
0.620861 0.722679 0.577850
0.624286 0.725348 0.570199
0.622366 0.744398 0.435606
0.748457 0.747985 0.485232
0.842064 0.735606 0.624625
0.951979 0.762991 0.701858
0.755639 0.844096 0.713025
0.755650 0.844113 0.713020
0.755718 0.844135 0.712949
0.755861 0.844245 0.712758
0.756750 0.844729 0.711827
0.760301 0.847091 0.706472
0.761064 0.866776 0.581392
0.872898 0.872564 0.602408
0.967762 0.856867 0.747835
0.867851 0.973065 0.813163
0.867828 0.973075 0.813134
0.867831 0.973078 0.813109
0.867916 0.973099 0.813070
0.868142 0.973210 0.812828
0.869264 0.973711 0.811620
0.874118 0.976086 0.805014
0.884536 0.991973 0.697627
1.000313 0.999456 0.666794
0.183988 0.223903 0.488087
0.213506 0.188092 0.488199
0.278576 0.163002 0.491788
0.381214 0.230543 0.486406
0.482795 0.293362 0.481433
0.576545 0.396718 0.483975
0.697850 0.488486 0.521056
0.816831 0.617664 0.602004
0.941550 0.740542 0.709171
0.181850 0.254277 0.492451
0.212760 0.229041 0.493449
0.263706 0.193044 0.494092
0.379292 0.244008 0.488750
0.483784 0.300101 0.482646
0.577017 0.397668 0.483589
0.697908 0.488714 0.520511
0.816829 0.617789 0.601833
0.941560 0.740618 0.709173
0.169167 0.294270 0.493117
0.203459 0.278126 0.496497
0.250646 0.245589 0.500346
0.376144 0.268159 0.492504
0.485459 0.313005 0.484691
0.577811 0.399344 0.482949
0.698011 0.489082 0.519598
0.816831 0.617959 0.601528
0.941581 0.740636 0.709154
0.143667 0.379841 0.494183
0.173126 0.376088 0.496486
0.223647 0.369932 0.498806
0.366667 0.367152 0.496480
0.487249 0.386426 0.486751
0.581453 0.408873 0.480203
0.698468 0.490873 0.515490
0.816847 0.618712 0.600181
0.941673 0.740792 0.709061
0.163944 0.493116 0.492899
0.180269 0.493405 0.493217
0.205565 0.493930 0.493802
0.345879 0.494637 0.494616
0.493570 0.493580 0.493571
0.589663 0.482068 0.481052
0.701077 0.501026 0.496928
0.817842 0.622740 0.596364
0.942103 0.741498 0.708552
0.421917 0.602394 0.499383
0.422352 0.602513 0.498569
0.423112 0.602716 0.497206
0.426129 0.603802 0.490699
0.458790 0.612298 0.461342
0.618721 0.617458 0.481026
0.718483 0.601020 0.505529
0.825911 0.640237 0.589828
0.944044 0.744748 0.706129
0.611970 0.721037 0.591758
0.612167 0.721084 0.591583
0.612471 0.721164 0.591318
0.613853 0.721514 0.590081
0.619133 0.723510 0.583966
0.622094 0.742022 0.474789
0.748156 0.747178 0.499174
0.842745 0.732488 0.622916
0.951949 0.760896 0.701370
0.754683 0.843707 0.715570
0.754694 0.843720 0.715547
0.754758 0.843738 0.715503
0.754947 0.843843 0.715325
0.755814 0.844321 0.714489
0.759615 0.846603 0.709697
0.765686 0.864560 0.612334
0.872420 0.872084 0.612024
0.967954 0.855983 0.747381
0.867469 0.972981 0.813797
0.867500 0.972983 0.813815
0.867502 0.972985 0.813799
0.867502 0.973020 0.813697
0.867819 0.973120 0.813495
0.868941 0.973617 0.812324
0.873852 0.975971 0.805884
0.885044 0.991787 0.700626
1.000322 0.999424 0.667718
0.310432 0.372281 0.586557
0.315755 0.368305 0.586787
0.324619 0.361255 0.587211
0.379340 0.342290 0.591853
0.490004 0.378978 0.591104
0.591288 0.432741 0.588882
0.697412 0.521086 0.605293
0.822057 0.611301 0.644247
0.942188 0.734185 0.718961
0.310987 0.376530 0.588086
0.316346 0.372729 0.588319
0.325132 0.366012 0.588743
0.376268 0.345468 0.592437
0.489769 0.380529 0.591932
0.591610 0.433588 0.589275
0.697537 0.521199 0.605206
0.822074 0.611346 0.644130
0.942179 0.734254 0.718907
0.311680 0.383309 0.590552
0.316990 0.379765 0.590785
0.325771 0.373542 0.591200
0.371073 0.350785 0.593443
0.489407 0.383186 0.593322
0.592158 0.435024 0.589959
0.697753 0.521374 0.605053
0.822098 0.611417 0.643924
0.942182 0.734262 0.718849
0.311653 0.409807 0.600576
0.316922 0.407098 0.600775
0.325646 0.402438 0.601138
0.363602 0.381866 0.601954
0.488058 0.396680 0.599986
0.594849 0.442120 0.593283
0.698719 0.522236 0.604378
0.822201 0.611807 0.643045
0.942185 0.734458 0.718484
0.287048 0.493061 0.612403
0.291844 0.492147 0.613009
0.299757 0.490585 0.614052
0.335578 0.483120 0.618576
0.478597 0.475381 0.616859
0.602933 0.492480 0.603003
0.703524 0.527128 0.601093
0.822675 0.613627 0.638983
0.942199 0.735244 0.716961
0.417518 0.603244 0.602755
0.417916 0.603328 0.602845
0.418674 0.603466 0.602998
0.422409 0.604131 0.603747
0.444848 0.608570 0.608659
0.606322 0.606321 0.606324
0.715790 0.588247 0.590431
0.825281 0.624352 0.620972
0.943162 0.738342 0.712434
0.561982 0.722319 0.624071
0.562079 0.722343 0.623925
0.562369 0.722379 0.623681
0.563217 0.722570 0.622569
0.567590 0.723570 0.617311
0.583080 0.733420 0.584812
0.743768 0.741443 0.577887
0.845142 0.718551 0.617527
0.951727 0.751931 0.699345
0.747031 0.843291 0.724939
0.747068 0.843304 0.724902
0.747155 0.843314 0.724856
0.747427 0.843375 0.724675
0.748774 0.843666 0.723800
0.754146 0.845317 0.719737
0.766289 0.858963 0.670159
0.872230 0.871304 0.624833
0.968810 0.851820 0.745326
0.865765 0.972598 0.816736
0.865766 0.972597 0.816745
0.865807 0.972606 0.816702
0.865824 0.972626 0.816667
0.866088 0.972735 0.816426
0.867311 0.973215 0.815401
0.872448 0.975513 0.809624
0.886856 0.990989 0.712887
1.000297 0.999273 0.672569
0.430649 0.500081 0.705242
0.431811 0.499279 0.705326
0.433837 0.497890 0.705469
0.442621 0.491476 0.706134
0.497415 0.470266 0.712046
0.612370 0.502508 0.713883
0.712380 0.557608 0.709664
0.821904 0.643523 0.729153
0.948208 0.722136 0.763765
0.430797 0.500955 0.705596
0.431969 0.500145 0.705681
0.433995 0.498772 0.705824
0.442802 0.492416 0.706490
0.496741 0.470942 0.712163
0.612354 0.502791 0.714102
0.712462 0.557753 0.709772
0.821935 0.643528 0.729132
0.948209 0.722157 0.763743
0.431133 0.502355 0.706185
0.432260 0.501579 0.706267
0.434328 0.500203 0.706414
0.443048 0.493958 0.707080
0.495598 0.472081 0.712364
0.612290 0.503315 0.714452
0.712596 0.558020 0.709939
0.821985 0.643562 0.729097
0.948218 0.722146 0.763680
0.432304 0.508497 0.708712
0.433493 0.507749 0.708795
0.435466 0.506487 0.708938
0.444132 0.500621 0.709611
0.490468 0.477166 0.713276
0.612078 0.505606 0.716062
0.713212 0.559193 0.710709
0.822216 0.643677 0.728949
0.948246 0.722191 0.763466
0.434341 0.533692 0.718804
0.435463 0.533112 0.718886
0.437368 0.532121 0.719034
0.445752 0.527593 0.719711
0.484078 0.506731 0.721948
0.611350 0.517785 0.723816
0.716313 0.565178 0.714594
0.823266 0.644290 0.728246
0.948379 0.722373 0.762452
0.396072 0.614821 0.746964
0.397252 0.614571 0.747125
0.399491 0.614144 0.747391
0.408758 0.612205 0.748601
0.447928 0.601897 0.754598
0.600583 0.583222 0.755447
0.730815 0.597670 0.732487
0.828524 0.647782 0.724784
0.948959 0.723500 0.757769
0.534810 0.725407 0.724925
0.534979 0.725419 0.724945
0.535259 0.725446 0.724971
0.535841 0.725592 0.725130
0.539228 0.726298 0.725921
0.558161 0.731068 0.731243
0.728090 0.728101 0.728099
0.843940 0.698581 0.705403
0.952174 0.730645 0.735862
0.696550 0.845577 0.750536
0.696659 0.845577 0.750523
0.696657 0.845592 0.750472
0.696904 0.845624 0.750259
0.697982 0.845788 0.749254
0.702726 0.846716 0.744679
0.721722 0.856173 0.718980
0.870069 0.866999 0.686645
0.972113 0.830456 0.736627
0.851956 0.972216 0.826811
0.851955 0.972215 0.826815
0.852036 0.972218 0.826812
0.852090 0.972233 0.826766
0.852551 0.972300 0.826539
0.854754 0.972600 0.825543
0.862996 0.974292 0.820765
0.882429 0.987508 0.762485
1.000773 0.998894 0.681635
0.551123 0.629644 0.825844
0.551362 0.629481 0.825868
0.551840 0.629195 0.825907
0.553772 0.627925 0.826085
0.562730 0.621871 0.826949
0.618480 0.600613 0.833744
0.736896 0.628988 0.838083
0.836258 0.683543 0.833301
0.948347 0.756926 0.852397
0.551212 0.629810 0.825930
0.551500 0.629628 0.825960
0.551897 0.629362 0.825994
0.553822 0.628105 0.826172
0.562829 0.622051 0.827034
0.618330 0.600753 0.833773
0.736897 0.629038 0.838141
0.836283 0.683558 0.833330
0.948353 0.756975 0.852398
0.551237 0.630103 0.826074
0.551570 0.629922 0.826097
0.551993 0.629642 0.826139
0.553971 0.628364 0.826321
0.562870 0.622360 0.827177
0.618109 0.600968 0.833823
0.736891 0.629134 0.838222
0.836312 0.683622 0.833372
0.948366 0.756935 0.852382
0.551668 0.631343 0.826710
0.551985 0.631179 0.826728
0.552406 0.630900 0.826770
0.554388 0.629649 0.826944
0.563265 0.623694 0.827811
0.617016 0.601998 0.834031
0.736870 0.629584 0.838622
0.836460 0.683829 0.833550
0.948419 0.756926 0.852348
0.553435 0.636937 0.829488
0.553722 0.636765 0.829515
0.554120 0.636512 0.829548
0.556037 0.635316 0.829737
0.564892 0.629683 0.830593
0.611938 0.606777 0.834982
0.736797 0.631607 0.840458
0.837128 0.684870 0.834405
0.948673 0.756879 0.852164
0.557706 0.660370 0.840453
0.557972 0.660236 0.840475
0.558292 0.660040 0.840510
0.560170 0.659070 0.840693
0.568411 0.654611 0.841552
0.607010 0.633917 0.844545
0.736902 0.641509 0.849774
0.840487 0.690212 0.838655
0.949869 0.756603 0.851295
0.496656 0.736718 0.879880
0.497145 0.736653 0.879894
0.497819 0.736556 0.879911
0.500812 0.736083 0.880020
0.514113 0.733851 0.880553
0.563280 0.722351 0.883968
0.728397 0.685418 0.896121
0.857289 0.715990 0.859821
0.955832 0.755432 0.846800
0.657603 0.849818 0.849309
0.657800 0.849816 0.849315
0.657683 0.849830 0.849333
0.657881 0.849855 0.849363
0.658635 0.849999 0.849516
0.661682 0.850734 0.850345
0.678702 0.855674 0.855908
0.852378 0.852377 0.852384
0.974929 0.795711 0.815627
0.727986 0.975531 0.858066
0.728111 0.975530 0.858046
0.728242 0.975528 0.858046
0.728341 0.975537 0.857978
0.729303 0.975566 0.857698
0.733242 0.975708 0.856401
0.749580 0.976477 0.850163
0.792576 0.984790 0.812549
1.000150 0.995121 0.763485
0.663351 0.721792 0.969007
0.663360 0.721757 0.969014
0.663637 0.721581 0.969038
0.664354 0.721036 0.969122
0.667559 0.718485 0.969467
0.682139 0.705186 0.971139
0.749603 0.633451 0.979286
0.870447 0.676204 0.983574
0.969617 0.761437 0.969070
0.663320 0.721877 0.969018
0.663413 0.721805 0.969035
0.663470 0.721723 0.969046
0.664271 0.721104 0.969136
0.667710 0.718466 0.969487
0.682130 0.705272 0.971153
0.749584 0.633522 0.979290
0.870448 0.676204 0.983582
0.969621 0.761423 0.969069
0.663288 0.721928 0.969063
0.663574 0.721806 0.969073
0.663597 0.721725 0.969087
0.664405 0.721180 0.969154
0.667464 0.718649 0.969512
0.682201 0.705283 0.971195
0.749524 0.633665 0.979309
0.870460 0.676194 0.983614
0.969632 0.761429 0.969091
0.663417 0.722247 0.969203
0.663553 0.722194 0.969210
0.663666 0.722062 0.969228
0.664302 0.721556 0.969304
0.667738 0.718906 0.969663
0.682216 0.705717 0.971336
0.749245 0.634456 0.979344
0.870454 0.676243 0.983716
0.969661 0.761512 0.969128
0.663564 0.723842 0.969852
0.663682 0.723800 0.969851
0.663855 0.723653 0.969869
0.664542 0.723136 0.969942
0.667931 0.720550 0.970305
0.682480 0.707525 0.971978
0.748066 0.637732 0.979535
0.870487 0.676229 0.984236
0.969815 0.761700 0.969340
0.664243 0.730925 0.972640
0.664383 0.730818 0.972658
0.664581 0.730700 0.972679
0.665370 0.730166 0.972756
0.668637 0.727807 0.973104
0.683054 0.715866 0.974761
0.742425 0.652049 0.980407
0.870636 0.676200 0.986626
0.970536 0.762660 0.970288
0.661149 0.760405 0.983446
0.661255 0.760372 0.983450
0.661437 0.760299 0.983461
0.662115 0.759955 0.983534
0.665663 0.758167 0.983891
0.680540 0.749585 0.985509
0.736154 0.701684 0.990976
0.871662 0.678826 0.998036
0.974164 0.767633 0.975077
-4.628353 0.852290 1.018266
-4.650869 0.852298 1.018254
-4.653724 0.852252 1.018274
-4.565388 0.852146 1.018299
-3.256020 0.851459 1.018490
0.419366 0.848405 1.019331
0.647203 0.831553 1.024326
0.861773 0.762119 1.039402
0.991195 0.798381 0.997485
-55.194103 0.979218 0.979264
-55.356541 0.979227 0.979276
-55.356541 0.979227 0.979276
-54.938019 0.979231 0.979270
-55.320034 0.979268 0.979319
-55.113403 0.979432 0.979501
-54.841518 0.980252 0.980450
-52.386993 0.985649 0.986700
0.977205 0.977220 0.977222
