StdX-ACES-OCIOv2.0/studio/LMT_AnalyticFilmic4_ACEScct_33.cube
TITLE "Generated by Foundry::LUT"
LUT_3D_SIZE 5
0.000510 0.000052 0.020215
0.154598 0.073160 0.081935
0.454062 0.262321 0.202922
0.729947 0.543671 0.482710
0.996033 0.830357 0.769097
0.100398 0.204788 0.092861
0.220882 0.217190 0.105166
0.457581 0.294278 0.237616
0.730650 0.544340 0.482834
0.996059 0.830414 0.769139
0.292420 0.491637 0.302576
0.331946 0.492078 0.305146
0.501262 0.494788 0.343396
0.734624 0.564730 0.503923
0.996529 0.831060 0.769456
0.658720 0.758107 0.614983
0.658540 0.758299 0.614273
0.651922 0.761860 0.599491
0.775685 0.769703 0.614144
1.006906 0.841208 0.771147
0.956421 1.028944 0.888877
0.956425 1.028949 0.888862
0.956396 1.029073 0.888540
0.955965 1.031753 0.880185
1.050502 1.044596 0.874297
0.037607 0.045832 0.224645
0.217259 0.064605 0.229980
0.459291 0.234536 0.231414
0.730009 0.543401 0.483510
0.996046 0.830325 0.769110
0.046635 0.183551 0.257091
0.229021 0.229911 0.244309
0.462153 0.286928 0.247775
0.730714 0.544082 0.483640
0.996074 0.830374 0.769145
0.217095 0.493621 0.316078
0.296985 0.493973 0.318358
0.502306 0.495528 0.352055
0.734974 0.563959 0.503654
0.996537 0.831032 0.769473
0.659443 0.757962 0.616736
0.659308 0.758143 0.616093
0.653845 0.761530 0.602411
0.775700 0.769726 0.615094
1.006918 0.841179 0.771189
0.956419 1.028940 0.888947
0.956449 1.028939 0.888920
0.956421 1.029063 0.888598
0.956055 1.031736 0.880268
1.050495 1.044600 0.874342
-0.162069 -0.035432 0.494089
0.169712 -0.024725 0.494286
0.496383 0.314110 0.492399
0.731982 0.540232 0.503523
0.996268 0.829718 0.769204
-0.193816 0.213551 0.496437
0.144512 0.218309 0.496276
0.497013 0.348701 0.492980
0.732492 0.541196 0.503221
0.996302 0.829752 0.769214
0.329581 0.496616 0.498997
0.358606 0.497631 0.498898
0.506192 0.506021 0.501153
0.738310 0.559897 0.511003
0.996777 0.830411 0.769559
0.659394 0.757819 0.632146
0.659440 0.757974 0.631754
0.658938 0.760526 0.624072
0.776423 0.770235 0.622789
1.007077 0.840792 0.771786
0.956634 1.028863 0.889875
0.956613 1.028879 0.889863
0.956641 1.028993 0.889560
0.956461 1.031626 0.881552
1.050497 1.044619 0.875163
0.450613 0.526679 0.739945
0.461140 0.526736 0.740032
0.548680 0.529167 0.741088
0.765345 0.614842 0.743765
1.001832 0.822344 0.773418
0.447060 0.528784 0.740454
0.457991 0.528871 0.740536
0.547732 0.531063 0.741600
0.765625 0.615410 0.744092
1.001857 0.822376 0.773416
0.331589 0.558182 0.747848
0.369103 0.558098 0.747943
0.528778 0.557761 0.749096
0.769773 0.624162 0.749006
1.002248 0.822965 0.773532
0.606921 0.776541 0.755281
0.607134 0.776616 0.755364
0.611737 0.777690 0.756469
0.782154 0.780489 0.759642
1.011236 0.834014 0.776457
0.953285 1.029380 0.901597
0.953350 1.029381 0.901576
0.953406 1.029489 0.901370
0.954831 1.031759 0.896184
1.051251 1.045088 0.883262
0.791497 0.835275 0.996024
0.791782 0.835272 0.996031
0.795263 0.835296 0.996145
0.849270 0.836856 0.997762
1.035713 0.891182 0.997252
0.791399 0.835346 0.996051
0.791669 0.835333 0.996061
0.795358 0.835342 0.996170
0.849265 0.836905 0.997792
1.035724 0.891213 0.997263
0.790505 0.836307 0.996529
0.790662 0.836319 0.996536
0.794330 0.836333 0.996639
0.848805 0.837786 0.998276
1.035975 0.891540 0.997556
0.760320 0.856008 1.005438
0.760763 0.856000 1.005438
0.766014 0.855926 1.005561
0.836574 0.855418 1.007467
1.040672 0.898854 1.003266
0.893564 1.051417 1.013595
0.893637 1.051410 1.013595
0.893813 1.051461 1.013657
0.897061 1.052598 1.014839
1.057931 1.055009 1.018125
