StdX-ACES-OCIOv2.0/studio/LMT_AnalyticFilmic3_ACEScct_33.cube
TITLE "Generated by Foundry::LUT"
LUT_3D_SIZE 33
0.001513 0.001112 0.018786
0.029288 0.002890 0.019007
0.056777 0.003805 0.020082
0.084656 0.004705 0.020943
0.099486 0.025165 0.035554
0.114241 0.029276 0.037025
0.134727 0.031588 0.036528
0.164803 0.034750 0.036017
0.197942 0.038811 0.035721
0.231071 0.043985 0.035828
0.264174 0.050946 0.036328
0.297707 0.060664 0.036973
0.334379 0.072233 0.035762
0.369395 0.090948 0.035137
0.403504 0.119381 0.032528
0.437165 0.162454 0.030125
0.470598 0.208258 0.030890
0.503816 0.248926 0.032223
0.536883 0.286543 0.032454
0.569854 0.322321 0.030121
0.602759 0.356941 0.022659
0.635621 0.390811 0.005706
0.668457 0.424191 -0.028012
0.701272 0.457243 -0.090542
0.734076 0.490078 -0.201524
0.766872 0.522768 -0.392662
0.799663 0.555362 -0.714887
0.832448 0.587891 -1.249204
0.865232 0.620379 -2.124278
0.898016 0.652842 -3.542238
0.930797 0.685287 -5.820724
0.963580 0.717724 -9.455449
0.996364 0.750157 -15.220059
0.005319 0.030380 0.020716
0.032117 0.030665 0.020649
0.060104 0.032227 0.021749
0.087515 0.033331 0.023073
0.099786 0.045305 0.037687
0.115389 0.046694 0.038757
0.135850 0.047910 0.039219
0.165827 0.049822 0.039746
0.198689 0.052783 0.040325
0.231624 0.057235 0.040984
0.264583 0.063739 0.041760
0.300335 0.071411 0.040858
0.335895 0.084126 0.040234
0.370330 0.103708 0.039811
0.404114 0.132651 0.037681
0.437568 0.174139 0.035586
0.470868 0.215409 0.036640
0.503997 0.253484 0.038119
0.537005 0.289524 0.038497
0.569937 0.324300 0.036307
0.602816 0.358268 0.028984
0.635660 0.391707 0.012175
0.668483 0.424798 -0.021400
0.701290 0.457657 -0.083789
0.734089 0.490360 -0.194635
0.766881 0.522960 -0.385621
0.799669 0.555493 -0.707746
0.832452 0.587980 -1.241883
0.865235 0.620441 -2.116795
0.898018 0.652884 -3.534597
0.930798 0.685316 -5.812899
0.963581 0.717744 -9.447730
0.996364 0.750170 -15.211929
0.006718 0.057259 0.022156
0.034048 0.058341 0.022958
0.063369 0.059193 0.024514
0.089410 0.060725 0.027380
0.102915 0.064558 0.034958
0.116608 0.066055 0.038921
0.137406 0.066799 0.039625
0.167431 0.067912 0.040679
0.199955 0.068961 0.042254
0.232602 0.070352 0.044217
0.266829 0.074248 0.045384
0.302760 0.082322 0.045410
0.337361 0.095788 0.045509
0.371250 0.116012 0.045196
0.404717 0.145542 0.043333
0.437969 0.184158 0.041407
0.471136 0.221885 0.042660
0.504177 0.257753 0.044213
0.537127 0.292376 0.044679
0.570019 0.326223 0.042587
0.602872 0.359569 0.035377
0.635699 0.392592 0.018691
0.668510 0.425401 -0.014758
0.701308 0.458067 -0.077024
0.734101 0.490640 -0.187722
0.766889 0.523152 -0.378584
0.799674 0.555624 -0.700550
0.832456 0.588070 -1.234624
0.865238 0.620502 -2.109332
0.898020 0.652926 -3.527040
0.930799 0.685344 -5.805238
0.963582 0.717763 -9.439734
0.996365 0.750184 -15.203979
0.006836 0.083731 0.022516
0.034273 0.084326 0.023448
0.070995 0.081190 0.021979
0.092194 0.084188 0.023911
0.103586 0.080123 0.039451
0.118698 0.081781 0.039876
0.138766 0.083509 0.040009
0.168966 0.084122 0.040890
0.201225 0.084801 0.042458
0.234909 0.086214 0.044313
0.270580 0.089227 0.046410
0.304999 0.095727 0.048878
0.338766 0.108228 0.050640
0.372151 0.128396 0.050798
0.405313 0.158257 0.049252
0.438366 0.192982 0.047478
0.471403 0.227816 0.048896
0.504356 0.261768 0.050477
0.537249 0.295110 0.050985
0.570102 0.328089 0.048959
0.602928 0.360845 0.041835
0.635737 0.393464 0.025249
0.668536 0.425997 -0.008091
0.701326 0.458476 -0.070234
0.734114 0.490920 -0.180801
0.766898 0.523343 -0.371529
0.799680 0.555755 -0.693372
0.832460 0.588160 -1.227248
0.865240 0.620563 -2.101851
0.898021 0.652968 -3.519418
0.930801 0.685373 -5.797421
0.963583 0.717783 -9.431761
0.996365 0.750197 -15.196106
0.009390 0.106113 0.024079
0.036688 0.106969 0.025040
0.072021 0.105202 0.023414
0.100358 0.103547 0.023927
0.114779 0.105444 0.028606
0.121860 0.096229 0.040840
0.143207 0.097802 0.040885
0.174538 0.102139 0.039725
0.207415 0.103676 0.040654
0.240668 0.105337 0.042686
0.273921 0.107888 0.045997
0.307074 0.112503 0.050498
0.340106 0.122738 0.054577
0.373030 0.141516 0.056072
0.405900 0.169882 0.055188
0.438760 0.200933 0.053685
0.471668 0.233302 0.055293
0.504535 0.265565 0.056887
0.537370 0.297739 0.057408
0.570185 0.329905 0.055420
0.602985 0.362097 0.048356
0.635776 0.394325 0.031850
0.668562 0.426589 -0.001387
0.701344 0.458882 -0.063411
0.734126 0.491198 -0.173868
0.766906 0.523534 -0.364449
0.799686 0.555886 -0.686166
0.832464 0.588249 -1.219923
0.865243 0.620624 -2.094412
0.898023 0.653010 -3.511830
0.930802 0.685402 -5.789699
0.963584 0.717803 -9.423903
0.996366 0.750211 -15.188085
0.011675 0.129836 0.025633
0.038906 0.130779 0.026612
0.071515 0.130321 0.025577
0.104198 0.126882 0.024272
0.126439 0.127837 0.025790
0.144139 0.131933 0.027496
0.163178 0.123301 0.034221
0.187449 0.123041 0.037083
0.215213 0.126461 0.038271
0.245517 0.126889 0.041263
0.276963 0.128567 0.045291
0.309022 0.131992 0.050807
0.341389 0.139737 0.057013
0.373886 0.156115 0.060432
0.406479 0.180444 0.060870
0.439152 0.208248 0.059916
0.471932 0.238429 0.061799
0.504714 0.269173 0.063417
0.537491 0.300272 0.063935
0.570267 0.331674 0.061957
0.603041 0.363326 0.054935
0.635814 0.395176 0.038495
0.668589 0.427176 0.005351
0.701362 0.459285 -0.056572
0.734138 0.491475 -0.166912
0.766915 0.523724 -0.357397
0.799692 0.556016 -0.678970
0.832468 0.588339 -1.212598
0.865246 0.620686 -2.086941
0.898025 0.653052 -3.504145
0.930803 0.685431 -5.781953
0.963585 0.717823 -9.416020
0.996367 0.750224 -15.179901
0.014321 0.159730 0.027538
0.041506 0.160679 0.028530
0.070554 0.161146 0.028280
0.101748 0.159264 0.026445
0.133992 0.155862 0.025870
0.155687 0.157540 0.027618
0.175545 0.162705 0.029458
0.198426 0.152361 0.035134
0.222829 0.154010 0.037658
0.250534 0.156148 0.039905
0.280361 0.156022 0.044467
0.311281 0.158216 0.050490
0.342901 0.163184 0.058392
0.374909 0.174265 0.064173
0.407178 0.192619 0.067087
0.439628 0.216633 0.067424
0.472255 0.244343 0.069864
0.504933 0.273388 0.071578
0.537640 0.303270 0.072091
0.570368 0.333791 0.070108
0.603110 0.364809 0.063109
0.635861 0.396208 0.046734
0.668621 0.427890 0.013678
0.701385 0.459778 -0.048126
0.734154 0.491814 -0.158341
0.766925 0.523957 -0.348670
0.799699 0.556176 -0.670106
0.832473 0.588449 -1.203567
0.865249 0.620761 -2.077756
0.898027 0.653104 -3.494788
0.930805 0.685466 -5.772418
0.963586 0.717847 -9.406323
0.996367 0.750241 -15.170043
0.017984 0.194006 0.030316
0.045134 0.194669 0.031316
0.069596 0.195360 0.031736
0.097394 0.195341 0.030763
0.131912 0.193538 0.028594
0.165067 0.191097 0.027868
0.187904 0.191606 0.029788
0.207939 0.196823 0.032513
0.232197 0.187797 0.037953
0.256823 0.190484 0.040096
0.284729 0.190838 0.043498
0.314349 0.190556 0.049947
0.345003 0.192615 0.058613
0.376353 0.197896 0.066947
0.408173 0.209517 0.073886
0.440316 0.228131 0.077583
0.472723 0.252395 0.081543
0.505251 0.279178 0.083646
0.537857 0.307443 0.084207
0.570516 0.336774 0.082199
0.603211 0.366920 0.075203
0.635930 0.397688 0.058876
0.668669 0.428921 0.025922
0.701417 0.460493 -0.035737
0.734176 0.492307 -0.145775
0.766940 0.524297 -0.335888
0.799709 0.556410 -0.657104
0.832480 0.588609 -1.190350
0.865254 0.620871 -2.064267
0.898031 0.653179 -3.481108
0.930807 0.685518 -5.758417
0.963587 0.717882 -9.392073
0.996368 0.750265 -15.155616
0.023049 0.227860 0.034367
0.047918 0.228365 0.035374
0.070523 0.228920 0.036144
0.095959 0.229305 0.036137
0.125823 0.229170 0.034860
0.160920 0.228053 0.032531
0.194413 0.225913 0.030803
0.220255 0.225383 0.032897
0.240505 0.230510 0.037003
0.265458 0.222368 0.042656
0.290310 0.225350 0.044426
0.318372 0.224791 0.049319
0.347882 0.224514 0.057913
0.378369 0.226559 0.067411
0.409580 0.232097 0.079406
0.441296 0.244155 0.089354
0.473397 0.263348 0.097678
0.505711 0.287034 0.101266
0.538172 0.313165 0.102180
0.570731 0.340922 0.100178
0.603358 0.369894 0.093144
0.636031 0.399796 0.076839
0.668738 0.430400 0.043977
0.701464 0.461523 -0.017515
0.734208 0.493022 -0.127324
0.766963 0.524790 -0.317183
0.799725 0.556749 -0.638065
0.832490 0.588842 -1.171012
0.865261 0.621032 -2.044564
0.898036 0.653289 -3.461103
0.930811 0.685593 -5.738201
0.963590 0.717934 -9.371356
0.996370 0.750300 -15.134503
0.027571 0.261449 0.040267
0.049835 0.261830 0.041276
0.073146 0.262207 0.042204
0.097704 0.262556 0.042774
0.124334 0.262799 0.042651
0.154123 0.262797 0.041566
0.188776 0.262164 0.038853
0.224539 0.260134 0.035304
0.252712 0.258926 0.037364
0.273187 0.263920 0.043520
0.298512 0.256382 0.049770
0.323553 0.259372 0.051115
0.351715 0.258376 0.056328
0.381152 0.258140 0.066454
0.411547 0.260139 0.081245
0.442684 0.265955 0.099724
0.474360 0.278570 0.117016
0.506376 0.297671 0.125929
0.538628 0.320913 0.128546
0.571044 0.346607 0.126895
0.603573 0.374029 0.119834
0.636178 0.402765 0.103486
0.668839 0.432506 0.070679
0.701534 0.463002 0.009353
0.734256 0.494052 -0.100185
0.766995 0.525505 -0.289702
0.799747 0.557243 -0.610182
0.832506 0.589182 -1.142660
0.865272 0.621265 -2.015772
0.898043 0.653449 -3.431740
0.930815 0.685703 -5.708299
0.963593 0.718010 -9.340922
0.996372 0.750352 -15.103477
0.030253 0.294842 0.048866
0.053767 0.295094 0.049882
0.077719 0.295347 0.050867
0.102211 0.295600 0.051718
0.127624 0.295834 0.052250
0.154454 0.296021 0.052284
0.184423 0.296121 0.051416
0.218516 0.295761 0.048033
0.255408 0.293910 0.042004
0.285268 0.292279 0.043781
0.305943 0.297147 0.052948
0.331513 0.290010 0.058872
0.356701 0.292926 0.057683
0.384883 0.291725 0.065151
0.414268 0.291493 0.080458
0.444625 0.293502 0.104721
0.475724 0.299632 0.134457
0.507328 0.312413 0.156196
0.539287 0.331377 0.165097
0.571499 0.354298 0.165516
0.603885 0.379694 0.159416
0.636393 0.406893 0.143128
0.668986 0.435471 0.110273
0.701634 0.465107 0.049049
0.734325 0.495531 -0.060213
0.767043 0.526535 -0.249318
0.799779 0.557957 -0.569304
0.832528 0.589676 -1.101175
0.865287 0.621605 -1.973588
0.898053 0.653683 -3.388866
0.930823 0.685864 -5.664487
0.963598 0.718120 -9.296544
0.996376 0.750428 -15.058168
0.036044 0.328055 0.061419
0.060365 0.328224 0.062440
0.084932 0.328395 0.063441
0.109741 0.328567 0.064403
0.134942 0.328738 0.065243
0.160577 0.328902 0.065863
0.186822 0.329080 0.066184
0.216121 0.329244 0.065466
0.249655 0.329054 0.060600
0.287102 0.327356 0.050177
0.318036 0.325496 0.050381
0.338867 0.330278 0.062483
0.364500 0.323372 0.069923
0.389739 0.326223 0.067930
0.417929 0.324896 0.079293
0.447309 0.324694 0.105490
0.477635 0.326724 0.143435
0.508676 0.333009 0.179893
0.540232 0.345847 0.198372
0.572154 0.364671 0.203995
0.604338 0.387358 0.201863
0.636704 0.412550 0.192329
0.669200 0.439599 0.168118
0.701782 0.468073 0.107924
0.734426 0.497638 -0.001155
0.767112 0.528014 -0.189844
0.799827 0.558988 -0.509221
0.832561 0.590391 -1.040264
0.865309 0.622099 -1.911837
0.898069 0.654024 -3.326069
0.930833 0.686098 -5.600684
0.963605 0.718281 -9.231437
0.996381 0.750538 -14.992346
0.046399 0.361168 0.077171
0.071427 0.361284 0.078012
0.096606 0.361402 0.078843
0.121925 0.361520 0.079660
0.147419 0.361639 0.080438
0.171477 0.361758 0.081129
0.194439 0.361900 0.081785
0.220189 0.362090 0.082179
0.249001 0.362284 0.081062
0.281980 0.362171 0.074707
0.319411 0.360572 0.059444
0.350859 0.358594 0.059071
0.371745 0.363306 0.077506
0.397418 0.356563 0.087463
0.422704 0.359362 0.085081
0.450924 0.357969 0.106356
0.480281 0.357775 0.144869
0.510568 0.359803 0.190135
0.541570 0.366170 0.220462
0.573094 0.378999 0.235543
0.604992 0.397691 0.239011
0.637157 0.420205 0.234632
0.669512 0.445256 0.221377
0.701996 0.472200 0.187984
0.734573 0.500605 0.086401
0.767213 0.530121 -0.101956
0.799897 0.560469 -0.420646
0.832608 0.591424 -0.950799
0.865342 0.622815 -1.821185
0.898091 0.654518 -3.234056
0.930849 0.686440 -5.507061
0.963616 0.718515 -9.136413
0.996388 0.750699 -14.895264
0.062989 0.394196 0.099419
0.088611 0.394275 0.100310
0.114332 0.394355 0.101193
0.140147 0.394435 0.102066
0.165398 0.394515 0.102927
0.185688 0.394596 0.103760
0.205420 0.394696 0.104711
0.228014 0.394839 0.105861
0.253397 0.395034 0.106765
0.281830 0.395245 0.105668
0.314420 0.395185 0.097098
0.351827 0.393665 0.074481
0.383662 0.391604 0.072962
0.404594 0.396266 0.101653
0.430292 0.389667 0.118385
0.455629 0.392419 0.116411
0.483854 0.390955 0.146225
0.513191 0.390761 0.191554
0.543451 0.392785 0.230205
0.574427 0.399180 0.256857
0.605929 0.411961 0.269871
0.637810 0.430530 0.271682
0.669964 0.452915 0.265071
0.702308 0.477864 0.247529
0.734788 0.504736 0.201018
0.767361 0.533092 0.028219
0.799998 0.562578 -0.289902
0.832678 0.592905 -0.819006
0.865390 0.623849 -1.687898
0.898124 0.655235 -3.099055
0.930871 0.686935 -5.370060
0.963631 0.718856 -8.997240
0.996399 0.750934 -14.753983
0.088316 0.427153 0.133520
0.114504 0.427207 0.134443
0.140761 0.427261 0.135358
0.166305 0.427315 0.136267
0.186637 0.427370 0.137170
0.202971 0.427425 0.138064
0.219483 0.427492 0.139143
0.238982 0.427592 0.140634
0.261341 0.427735 0.142496
0.286483 0.427933 0.144215
0.314650 0.428156 0.143640
0.346939 0.428136 0.133050
0.384276 0.426688 0.101271
0.416427 0.424567 0.099913
0.437412 0.429184 0.144375
0.463142 0.422684 0.165482
0.488511 0.425384 0.160495
0.516739 0.423880 0.192651
0.546060 0.423684 0.231385
0.576302 0.425701 0.266272
0.607259 0.432087 0.290815
0.638747 0.444796 0.302438
0.670617 0.463252 0.302821
0.702761 0.485533 0.293869
0.735101 0.510409 0.271177
0.767576 0.537230 0.203871
0.800146 0.565552 -0.096311
0.832780 0.595017 -0.624478
0.865460 0.625333 -1.491740
0.898172 0.656270 -2.900758
0.930904 0.687652 -5.169162
0.963654 0.719352 -8.793240
0.996414 0.751276 -14.546769
0.126685 0.460063 0.183985
0.153431 0.460100 0.184736
0.177058 0.460136 0.185476
0.195438 0.460173 0.186206
0.210472 0.460210 0.186927
0.223203 0.460248 0.187637
0.236596 0.460294 0.188498
0.252961 0.460361 0.189726
0.272303 0.460460 0.191422
0.294496 0.460604 0.193579
0.319453 0.460804 0.195720
0.347412 0.461036 0.195749
0.379475 0.461049 0.185992
0.416791 0.459653 0.144714
0.449207 0.457482 0.140162
0.470234 0.462065 0.194315
0.495980 0.455625 0.210658
0.521368 0.458291 0.204750
0.549594 0.456764 0.232072
0.578902 0.456563 0.267190
0.609130 0.458571 0.299978
0.640076 0.464924 0.323243
0.671553 0.477551 0.333855
0.703415 0.495896 0.332902
0.735554 0.518094 0.321395
0.767889 0.542912 0.292318
0.800361 0.569697 0.184888
0.832928 0.597996 -0.336628
0.865561 0.627447 -1.202428
0.898242 0.657755 -2.608905
0.930952 0.688688 -4.874004
0.963686 0.720070 -8.494125
0.996437 0.751772 -14.243151
0.180254 0.492940 0.229012
0.198275 0.492965 0.229443
0.213067 0.492990 0.229870
0.225616 0.493015 0.230293
0.236512 0.493040 0.230713
0.246144 0.493066 0.231130
0.256650 0.493097 0.231637
0.269951 0.493143 0.232369
0.286220 0.493210 0.233417
0.305460 0.493309 0.234877
0.327548 0.493452 0.236757
0.352387 0.493654 0.238659
0.380218 0.493892 0.238765
0.412141 0.493923 0.230393
0.449435 0.492559 0.194880
0.482006 0.490358 0.188819
0.503056 0.494921 0.235837
0.528812 0.488514 0.249494
0.554209 0.491160 0.242721
0.582429 0.489620 0.267453
0.611729 0.489414 0.300601
0.641946 0.491410 0.332190
0.672883 0.497718 0.354667
0.704352 0.510251 0.364478
0.736209 0.528494 0.362211
0.768343 0.550618 0.347851
0.800675 0.575391 0.310582
0.833143 0.602148 0.090168
0.865710 0.630430 -0.774341
0.898344 0.659872 -2.178402
0.931022 0.690175 -4.439865
0.963735 0.721107 -8.055154
0.996469 0.752492 -13.797953
0.227599 0.525797 0.268285
0.238416 0.525814 0.268550
0.247987 0.525831 0.268814
0.256567 0.525849 0.269076
0.264339 0.525866 0.269337
0.271447 0.525883 0.269596
0.279436 0.525904 0.269913
0.289886 0.525935 0.270373
0.303123 0.525981 0.271035
0.319332 0.526048 0.271986
0.338507 0.526147 0.273318
0.360526 0.526291 0.275043
0.385294 0.526493 0.276801
0.413044 0.526733 0.276895
0.444888 0.526775 0.269083
0.482166 0.525428 0.236200
0.514818 0.523211 0.229612
0.535881 0.527763 0.272690
0.561640 0.521369 0.284863
0.587036 0.524002 0.277204
0.615251 0.522458 0.300408
0.644543 0.522246 0.332485
0.674753 0.524229 0.363412
0.705683 0.530480 0.385403
0.737147 0.542920 0.394540
0.768999 0.561061 0.390924
0.801129 0.583121 0.373325
0.833457 0.607854 0.325107
0.865926 0.634591 -0.140464
0.898492 0.662860 -1.542101
0.931124 0.692296 -3.799626
0.963805 0.722597 -7.408945
0.996518 0.753531 -13.144621
0.269058 0.558640 0.304415
0.275894 0.558652 0.304584
0.282210 0.558663 0.304754
0.288077 0.558675 0.304922
0.293555 0.558687 0.305090
0.298696 0.558699 0.305257
0.304614 0.558713 0.305462
0.312573 0.558734 0.305760
0.322984 0.558765 0.306192
0.336181 0.558811 0.306814
0.352347 0.558878 0.307708
0.371479 0.558977 0.308962
0.393455 0.559121 0.310589
0.418178 0.559323 0.312241
0.445883 0.559566 0.312274
0.477682 0.559612 0.304628
0.514953 0.558272 0.272679
0.547638 0.556048 0.265575
0.568707 0.560594 0.306852
0.594465 0.554201 0.318138
0.619858 0.556829 0.309535
0.648066 0.555285 0.331799
0.677351 0.555066 0.363347
0.707555 0.557035 0.393954
0.738479 0.563227 0.415653
0.769938 0.575569 0.424184
0.801786 0.593612 0.419147
0.833913 0.615612 0.397825
0.866241 0.640312 0.334054
0.898709 0.667029 -0.600594
0.931273 0.695290 -2.853483
0.963907 0.724722 -6.456551
0.996588 0.755023 -12.183281
0.307308 0.591473 0.338676
0.311754 0.591481 0.338787
0.315971 0.591489 0.338898
0.319984 0.591497 0.339008
0.323812 0.591505 0.339118
0.327472 0.591513 0.339228
0.331765 0.591523 0.339363
0.337668 0.591538 0.339559
0.345606 0.591559 0.339845
0.355990 0.591590 0.340259
0.369161 0.591635 0.340856
0.385297 0.591702 0.341713
0.404399 0.591801 0.342916
0.426349 0.591945 0.344474
0.451048 0.592147 0.346041
0.478729 0.592390 0.345984
0.510511 0.592437 0.338277
0.547775 0.591098 0.306346
0.580464 0.588871 0.298700
0.601532 0.593418 0.339338
0.627288 0.587018 0.350073
0.652675 0.589646 0.340450
0.680876 0.588102 0.362123
0.710155 0.587876 0.393497
0.740352 0.589831 0.424010
0.771271 0.595965 0.445548
0.802726 0.608206 0.453504
0.834570 0.626155 0.446948
0.866697 0.648099 0.421264
0.899024 0.672768 0.333154
0.931491 0.699468 -1.455321
0.964057 0.727723 -5.050637
0.996691 0.757151 -10.767174
0.343645 0.624301 0.371764
0.346586 0.624306 0.371837
0.349425 0.624312 0.371911
0.352170 0.624317 0.371984
0.354828 0.624323 0.372058
0.357405 0.624328 0.372131
0.360469 0.624335 0.372221
0.364754 0.624345 0.372352
0.370646 0.624359 0.372542
0.378567 0.624380 0.372820
0.388934 0.624412 0.373221
0.402084 0.624457 0.373801
0.418202 0.624524 0.374633
0.437284 0.624623 0.375800
0.459218 0.624766 0.377309
0.483905 0.624969 0.378805
0.511579 0.625211 0.378639
0.543359 0.625257 0.370728
0.580623 0.623914 0.338235
0.613295 0.621689 0.330004
0.634357 0.626238 0.370722
0.660110 0.619827 0.381109
0.685488 0.622457 0.370377
0.713682 0.620915 0.391682
0.742955 0.620682 0.423132
0.773146 0.622623 0.453712
0.804061 0.628694 0.475171
0.835512 0.640840 0.482562
0.867355 0.658693 0.474351
0.899481 0.680585 0.443508
0.931806 0.705224 0.308625
0.964274 0.731910 -2.974572
0.996840 0.760158 -8.678112
0.378782 0.657123 0.404093
0.380750 0.657127 0.404143
0.382672 0.657131 0.404192
0.384551 0.657135 0.404241
0.386388 0.657138 0.404290
0.388185 0.657142 0.404339
0.390346 0.657147 0.404400
0.393406 0.657154 0.404488
0.397687 0.657163 0.404616
0.403569 0.657178 0.404803
0.411479 0.657199 0.405075
0.421834 0.657230 0.405468
0.434971 0.657276 0.406037
0.451077 0.657343 0.406851
0.470147 0.657441 0.407993
0.492069 0.657585 0.409463
0.516753 0.657788 0.410893
0.544430 0.658029 0.410603
0.576220 0.658072 0.402390
0.613486 0.656723 0.368931
0.646127 0.654502 0.360063
0.667182 0.659054 0.401355
0.692930 0.652629 0.411528
0.718299 0.655262 0.399581
0.746485 0.653724 0.420668
0.775751 0.653483 0.452371
0.805938 0.655411 0.483141
0.836848 0.661421 0.504586
0.868299 0.673472 0.511392
0.900141 0.691232 0.501375
0.932264 0.713073 0.464298
0.964591 0.737685 0.078430
0.997058 0.764357 -5.595803
0.413147 0.689943 0.435924
0.414475 0.689945 0.435957
0.415782 0.689948 0.435990
0.417066 0.689951 0.436023
0.418332 0.689953 0.436056
0.419579 0.689956 0.436090
0.421089 0.689959 0.436130
0.423247 0.689964 0.436190
0.426304 0.689970 0.436277
0.430580 0.689980 0.436403
0.436456 0.689995 0.436587
0.444360 0.690016 0.436856
0.454707 0.690047 0.437244
0.467835 0.690093 0.437803
0.483931 0.690160 0.438606
0.502993 0.690258 0.439729
0.524911 0.690402 0.441166
0.549594 0.690604 0.442535
0.577281 0.690845 0.442109
0.609088 0.690884 0.433519
0.646358 0.689528 0.398790
0.678961 0.687312 0.389210
0.700007 0.691867 0.431455
0.725750 0.685427 0.441505
0.751107 0.688063 0.428225
0.779285 0.686531 0.449197
0.808546 0.686282 0.481300
0.838728 0.688198 0.512349
0.869637 0.694147 0.533821
0.901085 0.706106 0.540019
0.932925 0.723773 0.528006
0.965050 0.745563 0.483200
0.997375 0.770149 -1.067933
0.447005 0.722759 0.467423
0.447904 0.722761 0.467445
0.448793 0.722763 0.467468
0.449672 0.722764 0.467490
0.450543 0.722766 0.467512
0.451405 0.722768 0.467535
0.452453 0.722770 0.467562
0.453962 0.722773 0.467603
0.456119 0.722778 0.467661
0.459174 0.722785 0.467747
0.463447 0.722795 0.467872
0.469319 0.722809 0.468055
0.477217 0.722830 0.468319
0.487559 0.722861 0.468703
0.500682 0.722907 0.469256
0.516771 0.722974 0.470050
0.535830 0.723073 0.471158
0.557745 0.723216 0.472566
0.582433 0.723418 0.473875
0.610131 0.723658 0.473302
0.641962 0.723693 0.464280
0.679237 0.722327 0.428031
0.711796 0.720119 0.417667
0.732831 0.724679 0.461165
0.758567 0.718221 0.471147
0.783915 0.720861 0.456412
0.812085 0.719334 0.477343
0.841341 0.719078 0.509972
0.871519 0.720983 0.541371
0.902426 0.726875 0.562900
0.933871 0.738742 0.568452
0.965711 0.756320 0.554213
0.997835 0.778057 0.499558
0.480525 0.755575 0.498698
0.481135 0.755576 0.498713
0.481742 0.755578 0.498728
0.482344 0.755579 0.498743
0.482942 0.755580 0.498758
0.483535 0.755581 0.498774
0.484260 0.755583 0.498792
0.485308 0.755585 0.498820
0.486816 0.755588 0.498859
0.488971 0.755593 0.498918
0.492024 0.755599 0.499003
0.496294 0.755609 0.499127
0.502164 0.755624 0.499308
0.510059 0.755645 0.499570
0.520396 0.755676 0.499950
0.533516 0.755722 0.500499
0.549599 0.755789 0.501285
0.568659 0.755888 0.502380
0.590574 0.756031 0.503763
0.615268 0.756233 0.505012
0.642982 0.756471 0.504282
0.674837 0.756502 0.494783
0.712118 0.755126 0.456793
0.744630 0.752924 0.445551
0.765656 0.757489 0.490575
0.791385 0.751013 0.500537
0.816721 0.753658 0.484204
0.844883 0.752137 0.505144
0.874135 0.751874 0.538411
0.904311 0.753768 0.570231
0.935214 0.759603 0.591838
0.966659 0.771381 0.596696
0.998498 0.788872 0.579955
0.513818 0.788389 0.529820
0.514233 0.788390 0.529830
0.514647 0.788391 0.529840
0.515058 0.788392 0.529851
0.515469 0.788393 0.529861
0.515876 0.788393 0.529872
0.516375 0.788395 0.529884
0.517100 0.788396 0.529903
0.518147 0.788398 0.529930
0.519654 0.788401 0.529970
0.521810 0.788406 0.530028
0.524862 0.788413 0.530112
0.529129 0.788423 0.530236
0.534997 0.788437 0.530415
0.542892 0.788458 0.530676
0.553225 0.788490 0.531053
0.566343 0.788535 0.531598
0.582422 0.788602 0.532378
0.601481 0.788701 0.533462
0.623401 0.788845 0.534820
0.648102 0.789046 0.536007
0.675831 0.789283 0.535114
0.707715 0.789309 0.525097
0.744999 0.787923 0.485163
0.777462 0.785728 0.472938
0.798479 0.790298 0.519750
0.824202 0.783805 0.529720
0.849527 0.786453 0.511632
0.877683 0.784940 0.532621
0.906931 0.784670 0.566635
0.937101 0.786554 0.598938
0.968003 0.792334 0.620643
0.999447 0.804025 0.624745
0.546955 0.821204 0.560839
0.547237 0.821204 0.560846
0.547521 0.821205 0.560853
0.547803 0.821205 0.560861
0.548083 0.821206 0.560867
0.548362 0.821206 0.560875
0.548706 0.821207 0.560883
0.549205 0.821208 0.560896
0.549930 0.821210 0.560914
0.550976 0.821212 0.560941
0.552483 0.821215 0.560982
0.554640 0.821220 0.561039
0.557690 0.821226 0.561123
0.561956 0.821236 0.561245
0.567823 0.821251 0.561423
0.575714 0.821272 0.561683
0.586048 0.821303 0.562058
0.599163 0.821349 0.562600
0.615240 0.821416 0.563375
0.634300 0.821515 0.564448
0.656225 0.821659 0.565781
0.680935 0.821860 0.566906
