StdX-ACES-OCIOv2.0/studio/LMT_AnalyticFilmic3_ACEScct_33.cube
TITLE "Generated by Foundry::LUT"
LUT_3D_SIZE 9
0.001513 0.001112 0.018786
0.099486 0.025165 0.035554
0.197942 0.038811 0.035721
0.334379 0.072233 0.035762
0.470598 0.208258 0.030890
0.602759 0.356941 0.022659
0.734076 0.490078 -0.201524
0.865232 0.620379 -2.124278
0.996364 0.750157 -15.220059
0.009390 0.106113 0.024079
0.114779 0.105444 0.028606
0.207415 0.103676 0.040654
0.340106 0.122738 0.054577
0.471668 0.233302 0.055293
0.602985 0.362097 0.048356
0.734126 0.491198 -0.173868
0.865243 0.620624 -2.094412
0.996366 0.750211 -15.188085
0.023049 0.227860 0.034367
0.125823 0.229170 0.034860
0.240505 0.230510 0.037003
0.347882 0.224514 0.057913
0.473397 0.263348 0.097678
0.603358 0.369894 0.093144
0.734208 0.493022 -0.127324
0.865261 0.621032 -2.044564
0.996370 0.750300 -15.134503
0.046399 0.361168 0.077171
0.147419 0.361639 0.080438
0.249001 0.362284 0.081062
0.371745 0.363306 0.077506
0.480281 0.357775 0.144869
0.604992 0.397691 0.239011
0.734573 0.500605 0.086401
0.865342 0.622815 -1.821185
0.996388 0.750699 -14.895264
0.180254 0.492940 0.229012
0.236512 0.493040 0.230713
0.286220 0.493210 0.233417
0.380218 0.493892 0.238765
0.503056 0.494921 0.235837
0.611729 0.489414 0.300601
0.736209 0.528494 0.362211
0.865710 0.630430 -0.774341
0.996469 0.752492 -13.797953
0.343645 0.624301 0.371764
0.354828 0.624323 0.372058
0.370646 0.624359 0.372542
0.418202 0.624524 0.374633
0.511579 0.625211 0.378639
0.634357 0.626238 0.370722
0.742955 0.620682 0.423132
0.867355 0.658693 0.474351
0.996840 0.760158 -8.678112
0.480525 0.755575 0.498698
0.482942 0.755580 0.498758
0.486816 0.755588 0.498859
0.502164 0.755624 0.499308
0.549599 0.755789 0.501285
0.642982 0.756471 0.504282
0.765656 0.757489 0.490575
0.874135 0.751874 0.538411
0.998498 0.788872 0.579955
0.612949 0.886830 0.622688
0.613477 0.886831 0.622701
0.614348 0.886832 0.622723
0.618124 0.886840 0.622820
0.633459 0.886876 0.623258
0.680871 0.887042 0.625188
0.774381 0.887717 0.627093
0.896946 0.888726 0.606147
1.005314 0.883059 0.650033
0.744435 1.018079 0.746034
0.744550 1.018079 0.746037
0.744743 1.018079 0.746041
0.745593 1.018081 0.746062
0.749368 1.018089 0.746157
0.764703 1.018125 0.746589
0.812115 1.018291 0.748479
0.905773 1.018960 0.749155
1.028235 1.019963 0.719044
0.016363 0.015737 0.118239
0.104701 0.023610 0.116413
0.210888 0.032527 0.119665
0.341053 0.068794 0.118535
0.471890 0.221634 0.103763
0.603011 0.359728 0.091099
0.734128 0.490662 -0.135473
0.865243 0.620501 -2.060164
0.996366 0.750182 -15.157723
0.037722 0.081552 0.130846
0.113565 0.114000 0.129795
0.223336 0.119560 0.124331
0.344720 0.154630 0.118900
0.472849 0.246217 0.124311
0.603232 0.364845 0.116122
0.734177 0.491779 -0.107919
0.865253 0.620747 -2.030349
0.996368 0.750236 -15.125485
0.028561 0.230694 0.134906
0.122753 0.232549 0.138847
0.240025 0.234155 0.139921
0.350677 0.229261 0.147586
0.474424 0.273204 0.167801
0.603598 0.372555 0.160041
0.734259 0.493599 -0.061541
0.865272 0.621154 -1.980489
0.996372 0.750326 -15.071946
0.053149 0.361847 0.176196
0.154754 0.362286 0.179530
0.248784 0.363033 0.183809
0.371716 0.364150 0.184562
0.480895 0.358805 0.216164
0.605201 0.399680 0.261069
0.734622 0.501158 0.151691
0.865352 0.622936 -1.757174
0.996390 0.750725 -14.833005
0.185646 0.493084 0.265915
0.239333 0.493183 0.267009
0.287818 0.493350 0.268769
0.380134 0.494056 0.273285
0.503056 0.495104 0.270895
0.611857 0.489632 0.315914
0.736252 0.528893 0.367626
0.865720 0.630545 -0.710652
0.996472 0.752517 -13.735685
0.344481 0.624332 0.379454
0.355562 0.624354 0.379722
0.371256 0.624391 0.380164
0.418554 0.624555 0.382075
0.511570 0.625247 0.385997
0.634360 0.626277 0.378652
0.742981 0.620728 0.426763
0.867364 0.658773 0.475756
0.996843 0.760182 -8.616187
0.480699 0.755582 0.500372
0.483110 0.755587 0.500432
0.486977 0.755595 0.500532
0.502299 0.755631 0.500971
0.549677 0.755796 0.502910
0.642981 0.756479 0.505909
0.765657 0.757497 0.492455
0.874140 0.751884 0.539302
0.998500 0.788888 0.580342
0.612987 0.886831 0.623056
0.613514 0.886832 0.623068
0.614385 0.886834 0.623091
0.618160 0.886842 0.623187
0.633488 0.886878 0.623623
0.680889 0.887043 0.625545
0.774381 0.887719 0.627455
0.896946 0.888728 0.606605
1.005315 0.883061 0.650258
0.744443 1.018079 0.746114
0.744559 1.018079 0.746117
0.744751 1.018080 0.746122
0.745601 1.018081 0.746143
0.749375 1.018089 0.746238
0.764710 1.018125 0.746669
0.812119 1.018291 0.748558
0.905773 1.018960 0.749236
1.028235 1.019963 0.719157
0.021968 0.020941 0.232433
0.108898 0.025148 0.236079
0.229489 0.036809 0.242292
0.347518 0.056934 0.241403
0.473856 0.227631 0.220009
0.603422 0.363900 0.196134
0.734212 0.491618 -0.024996
0.865260 0.620705 -1.953309
0.996369 0.750225 -15.053863
0.020594 0.111796 0.238426
0.111754 0.114054 0.242722
0.233415 0.129432 0.245467
0.350168 0.142364 0.244416
0.474651 0.258330 0.221651
0.603634 0.369012 0.209314
0.734261 0.492731 0.002347
0.865271 0.620950 -1.923533
0.996372 0.750279 -15.021564
0.072366 0.191095 0.255324
0.148139 0.217178 0.252493
0.237794 0.238523 0.250544
0.354663 0.247479 0.240714
0.475993 0.287357 0.234554
0.603988 0.376662 0.228707
0.734343 0.494543 0.048405
0.865289 0.621356 -1.873798
0.996376 0.750369 -14.968054
0.062091 0.362921 0.260569
0.164299 0.363320 0.261811
0.251762 0.363995 0.263795
0.371501 0.365489 0.265231
0.481861 0.360502 0.272588
0.605541 0.402969 0.288081
0.734704 0.502069 0.223150
0.865370 0.623137 -1.650649
0.996394 0.750767 -14.729224
0.193448 0.493320 0.304453
0.243579 0.493417 0.305146
0.290274 0.493579 0.306271
0.380242 0.494306 0.310007
0.503049 0.495403 0.308321
0.612063 0.489991 0.336451
0.736323 0.529557 0.375901
0.865737 0.630737 -0.604576
0.996475 0.752559 -13.631969
0.345838 0.624384 0.390834
0.356754 0.624406 0.391068
0.372249 0.624443 0.391454
0.419129 0.624606 0.393126
0.511563 0.625306 0.396925
0.634365 0.626342 0.390356
0.743025 0.620805 0.432477
0.867379 0.658906 0.478042
0.996846 0.760221 -8.512539
0.480987 0.755594 0.503088
0.483390 0.755598 0.503146
0.487245 0.755606 0.503242
0.502522 0.755642 0.503667
0.549806 0.755807 0.505546
0.642981 0.756492 0.508547
0.765659 0.757511 0.495494
0.874149 0.751900 0.540762
0.998503 0.788914 0.580983
0.613050 0.886834 0.623664
0.613577 0.886835 0.623677
0.614448 0.886837 0.623698
0.618219 0.886844 0.623794
0.633538 0.886880 0.624227
0.680917 0.887046 0.626135
0.774382 0.887722 0.628055
0.896947 0.888731 0.607359
1.005317 0.883065 0.650631
0.744457 1.018080 0.746249
0.744572 1.018080 0.746251
0.744765 1.018080 0.746256
0.745615 1.018082 0.746277
0.749389 1.018090 0.746372
0.764721 1.018126 0.746802
0.812125 1.018292 0.748688
0.905774 1.018961 0.749371
1.028235 1.019964 0.719346
0.009182 0.022848 0.361281
0.109134 0.025982 0.362000
0.232631 0.035422 0.362933
0.363390 0.097398 0.367716
0.479371 0.175745 0.365279
0.605137 0.375013 0.334432
0.734584 0.495611 0.285811
0.865337 0.621599 -1.476194
0.996385 0.750414 -14.590548
0.009703 0.119535 0.362902
0.110523 0.122145 0.363588
0.234006 0.130725 0.364394
0.364196 0.190967 0.368381
0.480014 0.227898 0.365818
0.605318 0.380925 0.335529
0.734631 0.496715 0.291005
0.865348 0.621844 -1.446521
0.996388 0.750467 -14.558602
0.015780 0.236609 0.364331
0.115154 0.237420 0.365390
0.235701 0.239373 0.366563
0.365435 0.262404 0.369442
0.481141 0.277982 0.366089
0.605619 0.389526 0.338000
0.734710 0.498511 0.299100
0.865366 0.622248 -1.397046
0.996392 0.750557 -14.505014
0.185945 0.341090 0.378228
0.235139 0.343749 0.378070
0.281875 0.348077 0.377724
0.369893 0.370551 0.373861
0.485504 0.376795 0.363642
0.606969 0.416255 0.354955
0.735060 0.505933 0.328937
0.865446 0.624021 -1.174936
0.996410 0.750955 -14.266498
0.218852 0.494352 0.384508
0.258671 0.494440 0.384778
0.299461 0.494586 0.385226
0.383084 0.495257 0.387133
0.502960 0.496686 0.387500
0.612949 0.491576 0.393231
0.736636 0.532511 0.404960
0.865811 0.631580 -0.131257
0.996491 0.752745 -13.169416
0.351423 0.624614 0.428087
0.361687 0.624636 0.428237
0.376385 0.624671 0.428485
0.421560 0.624831 0.429568
0.511681 0.625554 0.432910
0.634381 0.626628 0.428484
0.743217 0.621145 0.454039
0.867445 0.659500 0.487506
0.996861 0.760397 -8.050601
0.482246 0.755645 0.514189
0.484614 0.755649 0.514239
0.488415 0.755657 0.514323
0.503501 0.755693 0.514695
0.550372 0.755857 0.516344
0.642984 0.756550 0.519346
0.765668 0.757574 0.507812
0.874190 0.751973 0.546974
0.998516 0.789033 0.583779
0.613329 0.886845 0.626320
0.613854 0.886846 0.626332
0.614723 0.886848 0.626353
0.618482 0.886856 0.626446
0.633757 0.886891 0.626865
0.681043 0.887057 0.628714
0.774384 0.887735 0.630673
0.896950 0.888744 0.610643
1.005325 0.883080 0.652274
0.744519 1.018082 0.746844
0.744634 1.018082 0.746847
0.744826 1.018083 0.746851
0.745676 1.018085 0.746872
0.749447 1.018092 0.746966
0.764770 1.018128 0.747394
0.812152 1.018294 0.749267
0.905775 1.018964 0.749967
1.028236 1.019967 0.720185
0.012750 0.068474 0.485838
0.121391 0.071886 0.485990
0.240475 0.078594 0.486226
0.366994 0.126145 0.487055
0.495745 0.277151 0.492024
0.610430 0.336026 0.487479
0.736179 0.508219 0.448916
0.865684 0.625472 0.326158
0.996457 0.751268 -12.472221
0.013774 0.171440 0.486212
0.122626 0.174057 0.486361
0.241049 0.179006 0.486591
0.367309 0.208018 0.487388
0.495917 0.299277 0.492165
0.610588 0.346970 0.487502
0.736220 0.509426 0.449336
0.865694 0.625713 0.329688
0.996460 0.751321 -12.440070
0.016025 0.255643 0.486808
0.125057 0.256481 0.486952
0.242038 0.258143 0.487176
0.367778 0.269781 0.487933
0.496198 0.326688 0.492398
0.610855 0.362755 0.487495
0.736288 0.511379 0.450068
0.865712 0.626112 0.335267
0.996464 0.751411 -12.386726
0.046247 0.370307 0.488286
0.153259 0.370482 0.488530
0.250380 0.370787 0.488922
0.369485 0.372668 0.490124
0.497377 0.394746 0.493401
0.612112 0.413031 0.486605
0.736590 0.519298 0.453768
0.865790 0.627858 0.356536
0.996481 0.751807 -12.148781
0.284434 0.493137 0.496994
0.304657 0.493550 0.496937
0.330265 0.494223 0.496843
0.395703 0.496983 0.496457
0.502107 0.501933 0.497005
0.616422 0.505076 0.487611
0.737974 0.545135 0.475284
0.866145 0.635277 0.416850
0.996562 0.753587 -11.054999
0.371271 0.625643 0.508000
0.379514 0.625663 0.508059
0.391648 0.625695 0.508157
0.430986 0.625840 0.508591
0.514393 0.626523 0.510463
0.634402 0.627890 0.509640
0.744054 0.622670 0.513548
0.867738 0.662209 0.520454
0.996931 0.761195 -5.940544
0.487593 0.755875 0.551456
0.489819 0.755880 0.551489
0.493397 0.755887 0.551542
0.507695 0.755922 0.551782
0.552831 0.756082 0.552849
0.643120 0.756800 0.555736
0.765705 0.757855 0.548169
0.874374 0.752303 0.570588
0.998578 0.789576 0.595439
0.614583 0.886896 0.637439
0.615102 0.886897 0.637450
0.615957 0.886899 0.637468
0.619663 0.886907 0.637549
0.634745 0.886942 0.637916
0.681613 0.887107 0.639539
0.774399 0.887792 0.641640
0.896963 0.888805 0.624151
1.005364 0.883151 0.659384
0.744800 1.018093 0.749506
0.744915 1.018094 0.749509
0.745106 1.018094 0.749513
0.745953 1.018096 0.749533
0.749711 1.018104 0.749625
0.764990 1.018140 0.750038
0.812279 1.018305 0.751855
0.905780 1.018977 0.752633
1.028239 1.019980 0.723904
0.158343 0.269092 0.609544
0.229475 0.270020 0.609578
0.285139 0.271606 0.609633
0.381234 0.279247 0.609864
0.500562 0.321238 0.610657
0.627876 0.421223 0.616179
0.741365 0.477331 0.608617
0.867178 0.638678 0.562142
0.996782 0.754993 -2.705816
0.159605 0.293465 0.609631
0.230033 0.294144 0.609664
0.285438 0.295316 0.609719
0.381356 0.301044 0.609949
0.500636 0.334845 0.610733
0.627912 0.425882 0.616209
0.741404 0.479716 0.608588
0.867188 0.638929 0.562282
0.996785 0.755046 -2.674491
0.161797 0.322849 0.609773
0.230992 0.323314 0.609806
0.285959 0.324118 0.609860
0.381559 0.328113 0.610088
0.500756 0.353524 0.610859
0.627973 0.433109 0.616259
0.741469 0.483560 0.608536
0.867203 0.639346 0.562516
0.996788 0.755133 -2.622155
0.172676 0.393637 0.610382
0.235914 0.393809 0.610414
0.288577 0.394108 0.610467
0.382497 0.395637 0.610688
0.501245 0.407082 0.611414
0.628241 0.459407 0.616480
0.741762 0.499061 0.608254
0.867271 0.641165 0.563582
0.996806 0.755522 -2.389172
0.252281 0.503543 0.611858
0.281700 0.503581 0.611914
0.315206 0.503645 0.612007
0.390930 0.503936 0.612411
0.503008 0.505776 0.613686
0.628920 0.526472 0.616983
0.743174 0.550046 0.605874
0.867582 0.648759 0.568828
0.996885 0.757270 -1.315296
0.422533 0.629956 0.617670
0.427186 0.629981 0.617678
0.434397 0.630021 0.617692
0.460568 0.630193 0.617764
0.527373 0.630828 0.618235
0.634060 0.633107 0.620043
0.747392 0.633459 0.611627
0.868998 0.674071 0.595403
0.997244 0.764711 0.468026
0.506894 0.756903 0.631392
0.508675 0.756908 0.631405
0.511558 0.756915 0.631426
0.523309 0.756947 0.631521
0.562461 0.757093 0.631951
0.645687 0.757787 0.633777
0.765824 0.759095 0.631635
0.875166 0.753776 0.633482
0.998855 0.792058 0.634054
0.619927 0.887127 0.674763
0.620414 0.887128 0.674770
0.621217 0.887129 0.674782
0.624705 0.887137 0.674834
0.638987 0.887172 0.675070
0.684099 0.887333 0.676121
0.774561 0.888044 0.678475
0.897018 0.889081 0.667288
1.005539 0.883472 0.685792
0.746060 1.018145 0.760656
0.746173 1.018145 0.760658
0.746362 1.018145 0.760662
0.747196 1.018147 0.760679
0.750901 1.018155 0.760760
0.765986 1.018191 0.761122
0.812850 1.018356 0.762716
0.905806 1.019034 0.763789
1.028256 1.020040 0.739013
0.382228 0.431766 0.733077
0.389889 0.431910 0.733084
0.401264 0.432149 0.733097
0.438740 0.433237 0.733151
0.520141 0.438758 0.733384
0.633787 0.472266 0.734142
0.758152 0.554558 0.738507
0.872322 0.617682 0.728672
0.998186 0.768387 0.673632
0.382327 0.435905 0.733097
0.389990 0.436038 0.733104
0.401349 0.436265 0.733117
0.438795 0.437298 0.733171
0.520167 0.442549 0.733404
0.633804 0.474774 0.734159
0.758156 0.555557 0.738509
0.872331 0.618192 0.728656
0.998188 0.768440 0.673676
0.382501 0.442373 0.733130
0.390147 0.442495 0.733137
0.401491 0.442704 0.733150
0.438887 0.443655 0.733204
0.520211 0.448503 0.733436
0.633833 0.478793 0.734188
0.758162 0.557194 0.738513
0.872347 0.619035 0.728628
0.998191 0.768529 0.673750
0.383287 0.466357 0.733276
0.390862 0.466448 0.733284
0.402125 0.466598 0.733296
0.439312 0.467292 0.733350
0.520406 0.470875 0.733580
0.633959 0.494681 0.734316
0.758189 0.564124 0.738529
0.872418 0.622710 0.728499
0.998207 0.768922 0.674079
0.387523 0.530387 0.733915
0.394744 0.530422 0.733922
0.405528 0.530481 0.733934
0.441530 0.530753 0.733987
0.521330 0.532208 0.734210
0.634485 0.543607 0.734893
0.758313 0.590008 0.738606
0.872745 0.637918 0.727860
0.998276 0.770679 0.675599
0.429910 0.636553 0.735336
0.434186 0.636561 0.735349
0.440852 0.636575 0.735370
0.465402 0.636638 0.735466
0.530027 0.636925 0.735893
0.636306 0.638718 0.737248
0.758902 0.656601 0.739019
0.874272 0.687146 0.724380
0.998595 0.778045 0.682793
0.557858 0.761348 0.740945
0.558845 0.761352 0.740948
0.560465 0.761358 0.740954
0.567319 0.761387 0.740979
0.592953 0.761518 0.741093
0.659041 0.762108 0.741612
0.765965 0.764266 0.743040
0.878377 0.762562 0.735084
1.000044 0.803121 0.715170
0.639388 0.888156 0.754757
0.639775 0.888157 0.754760
0.640417 0.888158 0.754765
0.643214 0.888165 0.754785
0.654904 0.888197 0.754879
0.693900 0.888345 0.755303
0.776989 0.889049 0.757070
0.897226 0.890303 0.753467
1.006294 0.884902 0.752954
0.751442 1.018376 0.798049
0.751549 1.018376 0.798051
0.751725 1.018376 0.798053
0.752509 1.018378 0.798064
0.755994 1.018386 0.798116
0.770271 1.018421 0.798348
0.815354 1.018583 0.799379
0.906001 1.019288 0.801118
1.028328 1.020312 0.785712
0.545342 0.578883 0.856573
0.546529 0.578909 0.856574
0.548467 0.578953 0.856577
0.556595 0.579150 0.856590
0.586059 0.580073 0.856645
0.657772 0.584837 0.856879
0.766782 0.615311 0.857595
0.888021 0.685679 0.860438
1.003335 0.758699 0.847621
0.545359 0.579647 0.856577
0.546547 0.579673 0.856579
0.548482 0.579717 0.856582
0.556612 0.579911 0.856594
0.586069 0.580826 0.856650
0.657777 0.585544 0.856884
0.766786 0.615793 0.857599
0.888022 0.685895 0.860439
1.003337 0.758804 0.847615
0.545385 0.580904 0.856585
0.546573 0.580930 0.856587
0.548512 0.580972 0.856589
0.556636 0.581164 0.856602
0.586087 0.582064 0.856658
0.657787 0.586708 0.856891
0.766793 0.616589 0.857606
0.888024 0.686254 0.860440
1.003341 0.758978 0.847606
0.545512 0.586289 0.856619
0.546695 0.586314 0.856621
0.548630 0.586353 0.856624
0.556750 0.586530 0.856636
0.586169 0.587370 0.856692
0.657829 0.591710 0.856925
0.766823 0.620047 0.857635
0.888032 0.687836 0.860445
1.003358 0.759748 0.847564
0.546098 0.607275 0.856774
0.547275 0.607293 0.856776
0.549197 0.607323 0.856778
0.557265 0.607457 0.856791
0.586547 0.608087 0.856846
0.658023 0.611394 0.857076
0.766960 0.634247 0.857768
0.888068 0.694694 0.860470
1.003434 0.763186 0.847371
0.549332 0.666326 0.857444
0.550461 0.666334 0.857445
0.552313 0.666345 0.857448
0.560099 0.666399 0.857460
0.588557 0.666654 0.857514
0.658941 0.668047 0.857738
0.767528 0.679513 0.858366
0.888234 0.720383 0.860589
1.003785 0.777422 0.846469
0.584495 0.769407 0.858781
0.585211 0.769409 0.858783
0.586391 0.769412 0.858788
0.591453 0.769426 0.858811
0.611318 0.769491 0.858912
0.668051 0.769780 0.859361
0.769417 0.771523 0.860803
0.889024 0.786807 0.861195
1.005065 0.822829 0.842304
0.691027 0.892622 0.864320
0.691239 0.892623 0.864320
0.691591 0.892624 0.864322
0.693141 0.892631 0.864327
0.699871 0.892660 0.864352
0.725128 0.892791 0.864466
0.790652 0.893381 0.864985
0.897807 0.895427 0.865994
1.009377 0.892403 0.857899
0.771175 1.019406 0.878116
0.771258 1.019406 0.878117
0.771399 1.019407 0.878118
0.772022 1.019408 0.878123
0.774804 1.019415 0.878143
0.786436 1.019448 0.878236
0.825303 1.019598 0.878653
0.908315 1.020310 0.880330
1.028615 1.021516 0.875110
0.696323 0.721342 0.980066
0.696528 0.721348 0.980067
0.696869 0.721357 0.980067
0.698376 0.721395 0.980070
0.704917 0.721570 0.980083
0.729604 0.722399 0.980139
0.794429 0.726741 0.980373
0.899588 0.755648 0.981039
1.017987 0.816347 0.982471
0.696326 0.721489 0.980067
0.696532 0.721494 0.980068
0.696873 0.721503 0.980068
0.698377 0.721541 0.980071
0.704920 0.721716 0.980084
0.729606 0.722543 0.980140
0.794430 0.726878 0.980374
0.899589 0.755742 0.981040
1.017987 0.816394 0.982471
0.696331 0.721733 0.980069
0.696537 0.721739 0.980069
0.696879 0.721746 0.980070
0.698383 0.721785 0.980073
0.704926 0.721959 0.980086
0.729609 0.722785 0.980142
0.794431 0.727104 0.980376
0.899591 0.755900 0.981041
1.017987 0.816472 0.982471
0.696353 0.722812 0.980077
0.696559 0.722817 0.980077
0.696901 0.722824 0.980078
0.698408 0.722861 0.980081
0.704945 0.723035 0.980093
0.729627 0.723848 0.980150
0.794442 0.728106 0.980383
0.899598 0.756598 0.981048
1.017990 0.816820 0.982473
0.696462 0.727565 0.980113
0.696666 0.727571 0.980114
0.697009 0.727578 0.980114
0.698511 0.727614 0.980117
0.705044 0.727774 0.980130
0.729702 0.728535 0.980186
0.794484 0.732542 0.980419
0.899631 0.759711 0.981078
1.018000 0.818387 0.982481
0.696966 0.746422 0.980276
0.697171 0.746425 0.980277
0.697510 0.746432 0.980277
0.699003 0.746459 0.980280
0.705502 0.746582 0.980292
0.730054 0.747167 0.980348
0.794678 0.750282 0.980578
0.899780 0.772627 0.981215
1.018047 0.825193 0.982516
0.699791 0.801644 0.980977
0.699989 0.801645 0.980978
0.700317 0.801648 0.980978
0.701760 0.801658 0.980981
0.708051 0.801709 0.980993
0.731950 0.801949 0.981048
0.795598 0.803288 0.981273
0.900396 0.814926 0.981831
1.018262 0.850727 0.982682
0.732311 0.902124 0.982206
0.732440 0.902124 0.982206
0.732652 0.902125 0.982207
0.733593 0.902129 0.982212
0.737758 0.902144 0.982236
0.754523 0.902213 0.982342
0.805277 0.902511 0.982815
0.902355 0.904199 0.984352
1.019302 0.917047 0.983509
0.823649 1.023895 0.987696
0.823695 1.023895 0.987697
0.823771 1.023896 0.987697
0.824109 1.023897 0.987698
0.825635 1.023903 0.987704
0.832261 1.023932 0.987728
0.857188 1.024064 0.987842
0.922217 1.024654 0.988360
1.029591 1.026596 0.988906
