StdX-ACES-OCIOv2.0/studio/LMT_AnalyticFilmic3_ACEScct_33.cube
TITLE "Generated by Foundry::LUT"
LUT_3D_SIZE 5
0.001513 0.001112 0.018786
0.197942 0.038811 0.035721
0.470598 0.208258 0.030890
0.734076 0.490078 -0.201524
0.996364 0.750157 -15.220059
0.023049 0.227860 0.034367
0.240505 0.230510 0.037003
0.473397 0.263348 0.097678
0.734208 0.493022 -0.127324
0.996370 0.750300 -15.134503
0.180254 0.492940 0.229012
0.286220 0.493210 0.233417
0.503056 0.494921 0.235837
0.736209 0.528494 0.362211
0.996469 0.752492 -13.797953
0.480525 0.755575 0.498698
0.486816 0.755588 0.498859
0.549599 0.755789 0.501285
0.765656 0.757489 0.490575
0.998498 0.788872 0.579955
0.744435 1.018079 0.746034
0.744743 1.018079 0.746041
0.749368 1.018089 0.746157
0.812115 1.018291 0.748479
1.028235 1.019963 0.719044
0.021968 0.020941 0.232433
0.229489 0.036809 0.242292
0.473856 0.227631 0.220009
0.734212 0.491618 -0.024996
0.996369 0.750225 -15.053863
0.072366 0.191095 0.255324
0.237794 0.238523 0.250544
0.475993 0.287357 0.234554
0.734343 0.494543 0.048405
0.996376 0.750369 -14.968054
0.193448 0.493320 0.304453
0.290274 0.493579 0.306271
0.503049 0.495403 0.308321
0.736323 0.529557 0.375901
0.996475 0.752559 -13.631969
0.480987 0.755594 0.503088
0.487245 0.755606 0.503242
0.549806 0.755807 0.505546
0.765659 0.757511 0.495494
0.998503 0.788914 0.580983
0.744457 1.018080 0.746249
0.744765 1.018080 0.746256
0.749389 1.018090 0.746372
0.812125 1.018292 0.748688
1.028235 1.019964 0.719346
0.012750 0.068474 0.485838
0.240475 0.078594 0.486226
0.495745 0.277151 0.492024
0.736179 0.508219 0.448916
0.996457 0.751268 -12.472221
0.016025 0.255643 0.486808
0.242038 0.258143 0.487176
0.496198 0.326688 0.492398
0.736288 0.511379 0.450068
0.996464 0.751411 -12.386726
0.284434 0.493137 0.496994
0.330265 0.494223 0.496843
0.502107 0.501933 0.497005
0.737974 0.545135 0.475284
0.996562 0.753587 -11.054999
0.487593 0.755875 0.551456
0.493397 0.755887 0.551542
0.552831 0.756082 0.552849
0.765705 0.757855 0.548169
0.998578 0.789576 0.595439
0.744800 1.018093 0.749506
0.745106 1.018094 0.749513
0.749711 1.018104 0.749625
0.812279 1.018305 0.751855
1.028239 1.019980 0.723904
0.382228 0.431766 0.733077
0.401264 0.432149 0.733097
0.520141 0.438758 0.733384
0.758152 0.554558 0.738507
0.998186 0.768387 0.673632
0.382501 0.442373 0.733130
0.401491 0.442704 0.733150
0.520211 0.448503 0.733436
0.758162 0.557194 0.738513
0.998191 0.768529 0.673750
0.387523 0.530387 0.733915
0.405528 0.530481 0.733934
0.521330 0.532208 0.734210
0.758313 0.590008 0.738606
0.998276 0.770679 0.675599
0.557858 0.761348 0.740945
0.560465 0.761358 0.740954
0.592953 0.761518 0.741093
0.765965 0.764266 0.743040
1.000044 0.803121 0.715170
0.751442 1.018376 0.798049
0.751725 1.018376 0.798053
0.755994 1.018386 0.798116
0.815354 1.018583 0.799379
1.028328 1.020312 0.785712
0.696323 0.721342 0.980066
0.696869 0.721357 0.980067
0.704917 0.721570 0.980083
0.794429 0.726741 0.980373
1.017987 0.816347 0.982471
0.696331 0.721733 0.980069
0.696879 0.721746 0.980070
0.704926 0.721959 0.980086
0.794431 0.727104 0.980376
1.017987 0.816472 0.982471
0.696462 0.727565 0.980113
0.697009 0.727578 0.980114
0.705044 0.727774 0.980130
0.794484 0.732542 0.980419
1.018000 0.818387 0.982481
0.699791 0.801644 0.980977
0.700317 0.801648 0.980978
0.708051 0.801709 0.980993
0.795598 0.803288 0.981273
1.018262 0.850727 0.982682
0.823649 1.023895 0.987696
0.823771 1.023896 0.987697
0.825635 1.023903 0.987704
0.857188 1.024064 0.987842
1.029591 1.026596 0.988906
