StdX-ACES-OCIOv2.0/studio/LMT_filmic_ACEScct_33.cube
TITLE "Generated by Foundry::LUT"
LUT_3D_SIZE 5
0.084322 0.084322 0.084322
0.260279 0.146016 0.148554
0.499459 0.213884 0.198220
0.742531 0.500924 0.457489
0.989931 0.765544 0.713130
0.179396 0.265981 0.147822
0.270053 0.274218 0.157155
0.498984 0.305463 0.205427
0.742488 0.506107 0.458145
0.989932 0.765712 0.713146
0.263812 0.499924 0.237815
0.320431 0.500102 0.236842
0.501160 0.501359 0.227749
0.742866 0.557086 0.462687
0.989966 0.768641 0.713349
0.526909 0.747856 0.485782
0.529972 0.747874 0.485615
0.566806 0.748158 0.483093
0.750062 0.750123 0.445575
0.991844 0.809311 0.711125
0.783335 0.997522 0.735577
0.783427 0.997524 0.735563
0.785444 0.997543 0.735456
0.819974 0.997852 0.733043
0.999901 1.000090 0.701290
0.144782 0.149172 0.219898
0.267121 0.142923 0.265608
0.501256 0.180242 0.292878
0.742991 0.495600 0.460735
0.989936 0.765417 0.713364
0.155978 0.270818 0.270599
0.273113 0.273113 0.273113
0.501153 0.276030 0.275708
0.742940 0.501179 0.461387
0.989939 0.765608 0.713382
-0.028541 0.503292 0.273863
0.251513 0.502174 0.266008
0.502017 0.501220 0.241580
0.743095 0.555312 0.466695
0.989974 0.768523 0.713591
0.522493 0.747970 0.487337
0.525707 0.747989 0.487164
0.564304 0.748263 0.484602
0.750107 0.750113 0.446298
0.991859 0.809219 0.711320
0.783008 0.997534 0.735640
0.783176 0.997532 0.735651
0.785194 0.997551 0.735531
0.819865 0.997858 0.733104
0.999910 1.000083 0.701299
0.226136 0.274107 0.474925
0.290863 0.226072 0.491255
0.501963 0.154265 0.502152
0.742464 0.497943 0.539790
0.989982 0.763968 0.717240
0.236974 0.319456 0.483346
0.282666 0.294017 0.492660
0.500128 0.284618 0.499832
0.742115 0.503744 0.539706
0.989985 0.764161 0.717262
0.273617 0.500221 0.500106
0.324918 0.499528 0.499357
0.501271 0.501271 0.501271
0.738585 0.560515 0.539982
0.990008 0.767188 0.717492
0.187853 0.750836 0.515533
0.303074 0.750764 0.514973
0.507580 0.750090 0.508057
0.750958 0.749940 0.458087
0.991660 0.809255 0.716477
0.779670 0.997629 0.736738
0.779760 0.997635 0.736727
0.781945 0.997650 0.736592
0.817789 0.997953 0.734163
0.999949 1.000076 0.701759
0.470519 0.542485 0.695932
0.472497 0.541194 0.696636
0.517358 0.522249 0.711716
0.740078 0.545153 0.737179
0.986384 0.780854 0.799567
0.471358 0.544097 0.697317
0.473383 0.542847 0.697971
0.516727 0.523902 0.712118
0.739909 0.548109 0.736982
0.986367 0.781018 0.799562
0.483907 0.569164 0.711510
0.485935 0.568307 0.711945
0.518278 0.553701 0.719939
0.738177 0.583095 0.735069
0.986088 0.783974 0.799559
0.623685 0.742666 0.741951
0.624491 0.742650 0.741935
0.636421 0.742436 0.741740
0.750063 0.750063 0.750063
0.982425 0.826921 0.800831
-0.249136 1.000933 0.763254
-0.249136 1.000929 0.763233
0.325502 1.000866 0.762848
0.754561 1.000089 0.756227
1.000942 0.999836 0.712192
0.721005 0.800905 0.933023
0.721060 0.800855 0.933067
0.722286 0.800059 0.933666
0.763944 0.784047 0.951602
0.986649 0.813630 0.982487
0.721023 0.800980 0.933110
0.721122 0.800918 0.933151
0.722298 0.800140 0.933746
0.763917 0.784117 0.951623
0.986647 0.813733 0.982482
0.721708 0.802024 0.934351
0.721793 0.801976 0.934382
0.723028 0.801200 0.934961
0.763505 0.785123 0.951992
0.986522 0.815452 0.982341
0.735669 0.824175 0.951864
0.735718 0.824152 0.951882
0.737030 0.823581 0.952268
0.766714 0.810367 0.961779
0.984948 0.844067 0.980737
0.884158 0.991315 0.990431
0.884189 0.991317 0.990430
0.884721 0.991302 0.990420
0.894835 0.991160 0.990317
1.000005 1.000005 1.000005
