StdX-ACES-OCIOv2.0/studio/LMT_AnalyticFilmic7_ACEScct_33.cube
TITLE "Generated by Foundry::LUT"
LUT_3D_SIZE 33
-0.016852 -0.016852 -0.016852
0.023134 0.023134 0.023134
0.063706 0.063706 0.063706
0.074485 0.072833 0.072926
0.079080 0.072706 0.073060
0.091670 0.072491 0.074738
0.125038 0.071717 0.074935
0.169749 0.070233 0.075836
0.207920 0.072157 0.077579
0.243797 0.081203 0.080514
0.278572 0.094026 0.085084
0.312445 0.110253 0.091692
0.346519 0.115994 0.100320
0.377901 0.122554 0.112468
0.404849 0.150659 0.128527
0.430274 0.180408 0.160287
0.455469 0.209084 0.193243
0.483042 0.240280 0.226622
0.510131 0.275795 0.261502
0.537628 0.308303 0.294348
0.566465 0.338726 0.326301
0.596466 0.366173 0.356993
0.627012 0.392758 0.386859
0.657370 0.423117 0.417452
0.687963 0.454065 0.448333
0.718716 0.485405 0.479410
0.749579 0.517037 0.510617
0.780511 0.548929 0.541920
0.811491 0.580939 0.573303
0.842497 0.613133 0.604711
0.873524 0.645380 0.636180
0.904566 0.677687 0.667629
0.935617 0.709985 0.699080
0.024734 0.024735 0.024733
0.022697 0.022697 0.022697
0.063295 0.063295 0.063295
0.083866 0.073229 0.073246
0.105996 0.076538 0.074146
0.126309 0.080113 0.075029
0.150012 0.085237 0.076162
0.182985 0.090581 0.077695
0.216594 0.097285 0.079883
0.249785 0.106704 0.083081
0.281873 0.121358 0.087783
0.313798 0.139702 0.094396
0.348574 0.135347 0.102377
0.379606 0.137947 0.113971
0.406532 0.158456 0.129787
0.431299 0.185699 0.154356
0.456174 0.212595 0.189709
0.483210 0.246685 0.226993
0.510244 0.279898 0.261827
0.537706 0.310994 0.294585
0.566522 0.340514 0.326462
0.596509 0.367423 0.357082
0.627106 0.393156 0.386784
0.657426 0.423446 0.417410
0.687999 0.454295 0.448316
0.718743 0.485565 0.479401
0.749597 0.517150 0.510611
0.780524 0.548996 0.541921
0.811499 0.580993 0.573293
0.842505 0.613154 0.604724
0.873528 0.645398 0.636156
0.904570 0.677688 0.667642
0.935622 0.709951 0.699088
0.060139 0.060139 0.060139
0.060882 0.060882 0.060882
0.062244 0.062244 0.062244
0.092387 0.084782 0.073117
0.114283 0.095684 0.074382
0.134517 0.102702 0.076462
0.159804 0.109548 0.078739
0.189704 0.117484 0.081121
0.220403 0.126869 0.083563
0.251590 0.138616 0.086724
0.283087 0.153421 0.091236
0.315023 0.168482 0.097498
0.350235 0.157828 0.104678
0.380588 0.161201 0.116084
0.407324 0.175457 0.131378
0.431851 0.196762 0.153190
0.456428 0.221741 0.190289
0.483377 0.252690 0.227470
0.510354 0.283855 0.262169
0.537781 0.313618 0.294833
0.566577 0.342310 0.326625
0.596552 0.368628 0.357173
0.627195 0.393585 0.386719
0.657488 0.423752 0.417379
0.688037 0.454540 0.448294
0.718765 0.485722 0.479378
0.749618 0.517251 0.510601
0.780537 0.549052 0.541907
0.811508 0.581044 0.573288
0.842512 0.613205 0.604728
0.873531 0.645433 0.636177
0.904571 0.677707 0.667631
0.935620 0.709987 0.699088
0.070871 0.090343 0.073232
0.078605 0.092665 0.073009
0.088572 0.094308 0.072561
0.098248 0.098690 0.073139
0.125990 0.117244 0.072982
0.149092 0.127085 0.073658
0.172404 0.135083 0.076029
0.196818 0.144310 0.080571
0.223721 0.156013 0.085957
0.253398 0.168966 0.090857
0.284337 0.180986 0.095342
0.316266 0.190684 0.100991
0.351668 0.178607 0.107207
0.381498 0.181364 0.118399
0.407934 0.191912 0.133454
0.432227 0.208659 0.154193
0.456676 0.230062 0.190944
0.483539 0.258360 0.227958
0.510462 0.287634 0.262534
0.537856 0.316167 0.295084
0.566634 0.344030 0.326794
0.596589 0.369874 0.357289
0.627289 0.393993 0.386655
0.657548 0.424045 0.417338
0.688076 0.454746 0.448265
0.718795 0.485882 0.479369
0.749633 0.517366 0.510588
0.780547 0.549134 0.541908
0.811516 0.581097 0.573283
0.842516 0.613209 0.604702
0.873533 0.645451 0.636157
0.904574 0.677709 0.667619
0.935630 0.709973 0.699088
0.074011 0.122792 0.073044
0.090389 0.124978 0.073415
0.106144 0.127474 0.072757
0.119745 0.130584 0.073305
0.133824 0.136173 0.074479
0.161055 0.152534 0.074467
0.184103 0.163036 0.074928
0.206761 0.171577 0.077996
0.230145 0.180373 0.084656
0.256270 0.190664 0.092692
0.285878 0.201194 0.099533
0.317673 0.207816 0.104781
0.352939 0.196088 0.109982
0.382341 0.198052 0.120860
0.408517 0.205954 0.135654
0.432614 0.219448 0.155634
0.456925 0.237798 0.191784
0.483704 0.263704 0.228535
0.510573 0.291278 0.262916
0.537934 0.318636 0.295331
0.566686 0.345746 0.326968
0.596629 0.371066 0.357378
0.627381 0.394386 0.386582
0.657607 0.424375 0.417300
0.688115 0.454989 0.448249
0.718822 0.486014 0.479354
0.749648 0.517480 0.510582
0.780559 0.549218 0.541900
0.811526 0.581148 0.573292
0.842517 0.613275 0.604702
0.873538 0.645473 0.636164
0.904577 0.677728 0.667629
0.935627 0.710006 0.699098
0.079647 0.156455 0.073442
0.100268 0.158084 0.074142
0.119653 0.160656 0.073494
0.137451 0.163362 0.073698
0.153068 0.166861 0.074940
0.168476 0.172024 0.076356
0.192637 0.185125 0.076579
0.215114 0.193582 0.077564
0.237290 0.200298 0.082860
0.260799 0.207893 0.092300
0.287878 0.216645 0.102351
0.319488 0.221101 0.108639
0.354076 0.211133 0.113019
0.383126 0.212309 0.123478
0.409075 0.218160 0.137948
0.432998 0.229125 0.157226
0.457178 0.245075 0.192817
0.483867 0.268795 0.229142
0.510682 0.294764 0.263317
0.538011 0.321066 0.295626
0.566742 0.347413 0.327142
0.596667 0.372270 0.357489
0.627472 0.394817 0.386519
0.657664 0.424677 0.417259
0.688159 0.455170 0.448218
0.718847 0.486187 0.479349
0.749669 0.517594 0.510586
0.780572 0.549288 0.541894
0.811531 0.581201 0.573285
0.842524 0.613311 0.604708
0.873543 0.645475 0.636150
0.904582 0.677765 0.667635
0.935625 0.710026 0.699090
0.088141 0.189508 0.074118
0.111434 0.190518 0.075180
0.133585 0.192307 0.074811
0.154806 0.194058 0.074732
0.172106 0.196188 0.075560
0.185212 0.198802 0.077261
0.199425 0.203150 0.079154
0.223073 0.214212 0.079847
0.244997 0.220542 0.082228
0.266987 0.225782 0.091106
0.291448 0.232100 0.103856
0.323651 0.230667 0.112242
0.355333 0.227125 0.117136
0.384012 0.227457 0.126933
0.409720 0.231309 0.140900
0.433460 0.239776 0.159533
0.457500 0.253338 0.194215
0.484072 0.274798 0.230043
0.510817 0.298944 0.263880
0.538102 0.323944 0.295958
0.566804 0.349455 0.327359
0.596723 0.373673 0.357612
0.627583 0.395298 0.386433
0.657738 0.425044 0.417210
0.688204 0.455460 0.448195
0.718876 0.486390 0.479323
0.749688 0.517737 0.510579
0.780587 0.549371 0.541905
0.811542 0.581268 0.573279
0.842534 0.613333 0.604700
0.873554 0.645496 0.636163
0.904585 0.677750 0.667628
0.935632 0.710012 0.699085
0.100681 0.222239 0.075251
0.126433 0.222806 0.076788
0.151088 0.223939 0.077071
0.173103 0.225117 0.076867
0.189789 0.226322 0.077342
0.202614 0.227801 0.078484
0.215056 0.230032 0.080861
0.230511 0.234217 0.083975
0.253713 0.243259 0.085505
0.275346 0.247497 0.090575
0.297720 0.250402 0.104514
0.326903 0.248196 0.118837
0.356956 0.246758 0.123911
0.385181 0.246116 0.132472
0.410608 0.247764 0.145504
0.434113 0.253410 0.163183
0.457950 0.264221 0.196356
0.484382 0.283015 0.231517
0.511020 0.304766 0.264761
0.538241 0.328044 0.296503
0.566906 0.352325 0.327692
0.596789 0.375758 0.357807
0.627696 0.396386 0.386403
0.657848 0.425573 0.417150
0.688273 0.455860 0.448164
0.718927 0.486649 0.479298
0.749722 0.517908 0.510549
0.780610 0.549493 0.541886
0.811558 0.581358 0.573280
0.842547 0.613388 0.604708
0.873558 0.645566 0.636167
0.904590 0.677770 0.667623
0.935633 0.710066 0.699089
0.117710 0.254826 0.076995
0.145723 0.255094 0.079115
0.170989 0.255671 0.080355
0.190338 0.256438 0.080607
0.205777 0.257176 0.080823
0.218356 0.257932 0.081545
0.230831 0.259033 0.083137
0.244955 0.261134 0.086887
0.261812 0.265101 0.091781
0.285074 0.271654 0.094624
0.307701 0.269947 0.106794
0.331395 0.269865 0.125571
0.359045 0.269796 0.135200
0.386667 0.268283 0.141671
0.411772 0.267704 0.152887
0.435008 0.270352 0.168562
0.458596 0.278090 0.199638
0.484834 0.293746 0.233680
0.511329 0.312785 0.266242
0.538448 0.333739 0.297366
0.567046 0.356410 0.328204
0.596896 0.378685 0.358089
0.627776 0.398565 0.386552
0.658002 0.426359 0.417043
0.688379 0.456418 0.448098
0.718996 0.487062 0.479274
0.749771 0.518173 0.510541
0.780637 0.549723 0.541867
0.811576 0.581512 0.573271
0.842555 0.613525 0.604704
0.873567 0.645606 0.636152
0.904598 0.677809 0.667622
0.935640 0.710069 0.699086
0.134667 0.287767 0.079065
0.164002 0.287858 0.081854
0.186497 0.288079 0.084249
0.203682 0.288445 0.085942
0.217670 0.288959 0.086854
0.229107 0.289576 0.087422
0.241129 0.290312 0.088374
0.257084 0.290885 0.090630
0.274569 0.292200 0.096412
0.294135 0.295229 0.103841
0.317670 0.297778 0.109069
0.338725 0.295564 0.130378
0.362288 0.295118 0.149443
0.388520 0.293592 0.157412
0.413253 0.291008 0.164623
0.436208 0.290677 0.176899
0.459499 0.295199 0.204720
0.485475 0.307478 0.236966
0.511779 0.323321 0.268426
0.538760 0.341659 0.298833
0.567258 0.362064 0.329015
0.597046 0.382814 0.358543
0.627889 0.401650 0.386784
0.658230 0.427501 0.416913
0.688527 0.457250 0.448010
0.719096 0.487648 0.479227
0.749838 0.518596 0.510511
0.780683 0.549992 0.541857
0.811612 0.581690 0.573261
0.842579 0.613621 0.604695
0.873585 0.645701 0.636162
0.904604 0.677885 0.667618
0.935648 0.710092 0.699088
0.171888 0.318346 0.113696
0.174905 0.320612 0.099390
0.175082 0.323020 0.084389
0.198884 0.322730 0.088275
0.216957 0.322504 0.091872
0.231491 0.322360 0.094862
0.246250 0.322283 0.097437
0.263888 0.322259 0.099483
0.283846 0.322228 0.102904
0.304109 0.322926 0.110993
0.325144 0.325506 0.122502
0.348316 0.326073 0.131918
0.368687 0.322653 0.163749
0.391286 0.320843 0.178610
0.415071 0.317276 0.181668
0.437777 0.314275 0.190848
0.460743 0.315607 0.212690
0.486393 0.324346 0.241960
0.512424 0.336750 0.271657
0.539216 0.352080 0.301002
0.567574 0.369957 0.330396
0.597267 0.388554 0.359248
0.628057 0.405990 0.387136
0.658563 0.429122 0.416698
0.688746 0.458447 0.447907
0.719241 0.488503 0.479152
0.749935 0.519198 0.510465
0.780754 0.550402 0.541826
0.811654 0.581968 0.573240
0.842608 0.613833 0.604694
0.873595 0.645876 0.636139
0.904618 0.677996 0.667604
0.935661 0.710154 0.699077
0.205669 0.348809 0.150865
0.208888 0.350281 0.137470
0.210685 0.351858 0.121549
0.210396 0.353620 0.102383
0.220408 0.354199 0.096801
0.235586 0.353907 0.101846
0.250815 0.353607 0.107360
0.268588 0.353301 0.113392
0.288880 0.353067 0.117603
0.311278 0.352784 0.121922
0.333388 0.353105 0.132814
0.355413 0.355388 0.149826
0.378067 0.354378 0.164695
0.397032 0.349258 0.198030
0.417680 0.345393 0.209654
0.439717 0.340775 0.211831
0.462388 0.339193 0.225020
0.487666 0.344430 0.249451
0.513349 0.353285 0.276465
0.539875 0.365350 0.304174
0.568045 0.380377 0.332514
0.597593 0.396461 0.360429
0.628296 0.411978 0.387700
0.659051 0.431409 0.416419
0.689063 0.460183 0.447738
0.719451 0.489755 0.479062
0.750078 0.520074 0.510400
0.780852 0.550991 0.541790
0.811720 0.582400 0.573217
0.842652 0.614136 0.604673
0.873633 0.646048 0.636142
0.904644 0.678098 0.667602
0.935669 0.710304 0.699088
0.234593 0.378763 0.187459
0.236888 0.379778 0.177895
0.238567 0.380836 0.165686
0.239452 0.381957 0.149580
0.239388 0.383157 0.130617
0.239513 0.384318 0.111739
0.254704 0.384013 0.118267
0.272462 0.383617 0.127097
0.292529 0.383172 0.137380
0.314682 0.382784 0.145074
0.338652 0.382366 0.150279
0.362037 0.382417 0.163905
0.384727 0.384450 0.182910
0.406102 0.381423 0.197559
0.423034 0.374192 0.228340
0.442312 0.369111 0.238574
0.464486 0.365587 0.243594
0.489390 0.367606 0.260758
0.514638 0.373021 0.283590
0.540819 0.381721 0.308866
0.568722 0.393665 0.335603
0.598086 0.407117 0.362428
0.628639 0.420148 0.388610
0.659766 0.434644 0.416013
0.689529 0.462648 0.447517
0.719762 0.491537 0.478923
0.750286 0.521348 0.510322
0.780991 0.551875 0.541729
0.811818 0.583004 0.573193
0.842724 0.614502 0.604650
0.873674 0.646328 0.636124
0.904673 0.678307 0.667602
0.935687 0.710405 0.699071
0.258176 0.406948 0.214972
0.259603 0.407665 0.208182
0.260696 0.408402 0.200213
0.261435 0.409165 0.190575
0.261758 0.409959 0.178679
0.261597 0.410790 0.163717
0.260563 0.411881 0.139515
0.275335 0.411761 0.143751
0.294813 0.411315 0.156420
0.316338 0.410792 0.170274
0.339618 0.410311 0.179682
0.364578 0.409790 0.183840
0.388781 0.409636 0.195247
0.411879 0.411438 0.212438
0.431879 0.406497 0.226343
0.447517 0.397985 0.255943
0.467304 0.393861 0.267782
0.491641 0.393522 0.277426
0.516394 0.395785 0.294141
0.542131 0.401268 0.315724
0.569683 0.410047 0.340124
0.598786 0.420662 0.365356
0.629145 0.431233 0.390317
0.660274 0.442436 0.416493
0.690201 0.466134 0.447227
0.720208 0.494113 0.478748
0.750590 0.523175 0.510223
0.781198 0.553141 0.541670
0.811960 0.583870 0.573142
0.842820 0.615127 0.604621
0.873743 0.646736 0.636105
0.904718 0.678578 0.667595
0.935724 0.710607 0.699073
0.276664 0.433184 0.235797
0.277421 0.433698 0.230569
0.277970 0.434229 0.224714
0.278327 0.434766 0.218051
0.278496 0.435320 0.210400
0.278472 0.435883 0.201545
0.278046 0.436605 0.188424
0.278832 0.437525 0.167596
0.296788 0.437193 0.177453
0.317161 0.436739 0.189523
0.339456 0.436195 0.202292
0.363383 0.435667 0.211181
0.388883 0.435108 0.214025
0.413645 0.434809 0.223466
0.437040 0.436454 0.238860
0.456283 0.430407 0.252474
0.472732 0.422805 0.283627
0.494637 0.421382 0.299157
0.518688 0.421275 0.309504
0.543917 0.423834 0.325774
0.571013 0.429611 0.346718
0.599764 0.437368 0.369637
0.629873 0.445469 0.393042
0.660776 0.454137 0.417854
0.691178 0.470966 0.446834
0.720854 0.497756 0.478526
0.751023 0.525790 0.510067
0.781494 0.555016 0.541582
0.812165 0.585126 0.573072
0.842960 0.615983 0.604583
0.873839 0.647313 0.636070
0.904778 0.679012 0.667582
0.935769 0.710865 0.699064
0.290757 0.458544 0.251669
0.290943 0.458927 0.247387
0.291135 0.459306 0.242718
0.291081 0.459697 0.237600
0.291000 0.460096 0.231999
0.290828 0.460493 0.225863
0.290438 0.460995 0.217332
0.289665 0.461737 0.202641
0.301066 0.461818 0.201837
0.319349 0.461503 0.210257
0.340042 0.461071 0.220857
0.362630 0.460546 0.232343
0.386806 0.460031 0.240490
0.412624 0.459489 0.242197
0.437751 0.459156 0.249990
0.461422 0.460745 0.263800
0.481844 0.455592 0.278995
0.500158 0.450083 0.313168
0.521763 0.448721 0.329384
0.546244 0.449136 0.340312
0.572799 0.452221 0.356368
0.601101 0.457281 0.375960
0.630858 0.462989 0.397106
0.661509 0.469420 0.420469
0.692610 0.477513 0.446354
0.721780 0.502902 0.478253
0.751653 0.529525 0.509894
0.781927 0.557647 0.541457
0.812461 0.586980 0.573001
0.843167 0.617244 0.604528
0.873974 0.648226 0.636043
0.904880 0.679574 0.667548
0.935839 0.711251 0.699033
0.300845 0.486049 0.264176
0.300644 0.486332 0.260456
0.300408 0.486616 0.256539
0.300040 0.486905 0.252280
0.299763 0.487189 0.247755
0.299314 0.487482 0.242951
0.298890 0.487832 0.236582
0.299161 0.488289 0.227596
0.311634 0.488164 0.231321
0.327030 0.487972 0.236598
0.345169 0.487697 0.243862
0.365795 0.487314 0.253189
0.388421 0.486841 0.263540
0.412673 0.486393 0.270856
0.438636 0.485937 0.271643
0.464099 0.485645 0.278068
0.488046 0.487297 0.290500
0.509288 0.482794 0.307189
0.527306 0.477151 0.341926
0.549360 0.476427 0.359077
0.575098 0.477590 0.370378
0.602846 0.480320 0.385317
0.632162 0.483821 0.403255
0.662481 0.488144 0.424491
0.693379 0.493459 0.448581
0.723117 0.509939 0.477997
0.752548 0.534846 0.509716
0.782545 0.561454 0.541319
0.812884 0.589669 0.572901
0.843453 0.619134 0.604464
0.874179 0.649476 0.635995
0.905020 0.680434 0.667512
0.935931 0.711859 0.699022
0.304270 0.514831 0.273094
0.303757 0.515037 0.269789
0.303380 0.515235 0.266376
0.302969 0.515435 0.262837
0.302768 0.515625 0.259301
0.303850 0.515752 0.256898
0.309371 0.515717 0.257967
0.316827 0.515657 0.259506
0.326507 0.515581 0.261756
0.338910 0.515461 0.265015
0.354129 0.515285 0.269692
0.372227 0.515023 0.276209
0.392791 0.514656 0.284715
0.415412 0.514190 0.294200
0.439661 0.513753 0.300971
0.465705 0.513301 0.300982
0.491311 0.512981 0.306377
0.515375 0.514584 0.317893
0.536429 0.509795 0.334994
0.554980 0.504787 0.370726
0.578146 0.504986 0.388662
0.605036 0.506138 0.399117
0.633799 0.507856 0.412677
0.663719 0.510268 0.430721
0.694348 0.513469 0.452554
0.725068 0.519343 0.477910
0.753828 0.542161 0.509607
0.783422 0.566818 0.541209
0.813495 0.593465 0.572798
0.843878 0.621764 0.604363
0.874477 0.651283 0.635925
0.905222 0.681684 0.667474
0.936070 0.712712 0.698991
0.306441 0.543102 0.284481
0.310649 0.543081 0.285025
0.314481 0.543066 0.285538
0.318315 0.543042 0.286066
0.321881 0.543023 0.286604
0.325366 0.543003 0.287135
0.329333 0.542982 0.287797
0.334889 0.542948 0.288755
0.342401 0.542896 0.290189
0.352304 0.542817 0.292263
0.364959 0.542693 0.295315
0.380307 0.542524 0.299699
0.398576 0.542261 0.305858
0.419328 0.541895 0.313921
0.442107 0.541431 0.323086
0.466481 0.540984 0.329586
0.492689 0.540519 0.329247
0.518443 0.540183 0.334186
0.542594 0.541779 0.345294
0.564215 0.537520 0.363384
0.583713 0.533429 0.400005
0.607878 0.533991 0.417604
0.635758 0.534700 0.426976
0.665213 0.535591 0.440413
0.695536 0.536937 0.458805
0.726325 0.539043 0.481277
0.755665 0.552163 0.509837
0.784666 0.574306 0.541211
0.814358 0.598893 0.572725
0.844481 0.625593 0.604293
0.874894 0.653939 0.635861
0.905514 0.683547 0.667426
0.936274 0.713931 0.698954
0.331611 0.571367 0.313536
0.334616 0.571352 0.313877
0.337343 0.571344 0.314222
0.340176 0.571328 0.314586
0.342849 0.571313 0.314953
0.345390 0.571303 0.315289
0.348429 0.571288 0.315719
0.352870 0.571257 0.316364
0.358755 0.571222 0.317322
0.366691 0.571169 0.318722
0.377086 0.571088 0.320752
0.390199 0.570967 0.323751
0.406221 0.570783 0.328096
0.425055 0.570511 0.334184
0.446280 0.570130 0.342264
0.469491 0.569639 0.351465
0.494182 0.569169 0.358064
0.520602 0.568690 0.357695
0.546536 0.568343 0.362588
0.570786 0.569955 0.373779
0.593003 0.566283 0.392592
0.613255 0.562753 0.429457
0.638254 0.563410 0.446538
0.666914 0.563600 0.455315
0.696890 0.563586 0.468710
0.727471 0.563855 0.487508
0.758300 0.565055 0.510585
0.786430 0.584659 0.541668
0.815586 0.606435 0.572819
0.845343 0.631003 0.604275
0.875497 0.657744 0.635820
0.905927 0.686200 0.667364
0.936566 0.715749 0.698908
0.401649 0.598324 0.366839
0.401334 0.598412 0.365904
0.400982 0.598500 0.364945
0.400704 0.598586 0.363992
0.400337 0.598675 0.363024
0.399974 0.598763 0.362007
0.399475 0.598873 0.360794
0.398769 0.599035 0.358928
0.398581 0.599226 0.357019
0.399380 0.599455 0.354912
0.400912 0.599770 0.352489
0.403810 0.600198 0.349566
0.414153 0.600339 0.350199
0.431445 0.600126 0.354763
0.451361 0.599827 0.361177
0.473570 0.599401 0.369679
0.497468 0.598861 0.379391
0.522712 0.598318 0.386527
0.549428 0.597796 0.386401
0.575546 0.597415 0.391547
0.599862 0.599042 0.403149
0.622522 0.595788 0.422366
0.643350 0.592614 0.459320
0.669046 0.593212 0.475873
0.698342 0.592786 0.484109
0.728707 0.591815 0.497545
0.759419 0.591151 0.516802
0.788910 0.598157 0.542754
0.817298 0.617014 0.573425
0.846547 0.638607 0.604423
0.876352 0.663150 0.635825
0.906530 0.689929 0.667333
0.936989 0.718371 0.698880
0.466105 0.625386 0.425498
0.466075 0.625432 0.425115
0.466075 0.625475 0.424718
0.466070 0.625521 0.424346
0.466070 0.625564 0.423945
0.466038 0.625612 0.423558
0.466073 0.625664 0.423059
0.466037 0.625748 0.422349
0.465962 0.625870 0.421237
0.465833 0.626054 0.419625
0.465580 0.626330 0.417134
0.465126 0.626745 0.413275
0.464103 0.627386 0.407047
0.461756 0.628401 0.396342
0.464345 0.629423 0.387988
0.477685 0.629889 0.387878
0.501168 0.629399 0.397019
0.526005 0.628780 0.407502
0.551862 0.628155 0.415338
0.578950 0.627562 0.415598
0.605238 0.627141 0.421110
0.629586 0.628777 0.433159
0.652558 0.625837 0.452598
0.673835 0.622868 0.489522
0.700126 0.623281 0.505531
0.729935 0.622180 0.513331
0.760560 0.620350 0.526896
0.791306 0.618984 0.546619
0.819679 0.630832 0.574757
0.848236 0.649262 0.605173
0.877550 0.670768 0.636044
0.907381 0.695346 0.667388
0.937584 0.722117 0.698856
0.515494 0.653619 0.474908
0.515584 0.653639 0.474749
0.515600 0.653665 0.474566
0.515643 0.653690 0.474392
0.515644 0.653722 0.474223
0.515688 0.653745 0.474015
0.515758 0.653771 0.473806
0.515794 0.653819 0.473464
0.515893 0.653888 0.472977
0.516041 0.653983 0.472267
0.516246 0.654126 0.471195
0.516455 0.654340 0.469536
0.516806 0.654650 0.467029
0.517120 0.655128 0.463046
0.517285 0.655877 0.456533
0.516406 0.657139 0.444979
0.515569 0.659003 0.427055
0.529190 0.659889 0.424855
0.555045 0.659183 0.436094
0.581509 0.658470 0.444635
0.608966 0.657797 0.445270
0.635401 0.657332 0.451151
0.659777 0.658974 0.463637
0.682963 0.656266 0.483136
0.704595 0.653393 0.519974
0.731389 0.653547 0.535482
0.761579 0.651827 0.542966
0.792362 0.649300 0.556756
0.823030 0.647654 0.577017
0.850556 0.663253 0.606662
0.879224 0.681439 0.636877
0.908580 0.702910 0.667648
0.938439 0.727455 0.698914
0.558609 0.682554 0.518660
0.558641 0.682570 0.518584
0.558679 0.682586 0.518500
0.558735 0.682600 0.518417
0.558748 0.682618 0.518324
0.558784 0.682634 0.518239
0.558845 0.682650 0.518134
0.558891 0.682681 0.517967
0.558990 0.682721 0.517737
0.559104 0.682784 0.517385
0.559309 0.682872 0.516879
0.559635 0.682997 0.516125
0.560013 0.683191 0.514959
0.560549 0.683476 0.513189
0.561295 0.683892 0.510421
0.562193 0.684522 0.505902
0.563156 0.685479 0.498096
0.563137 0.687143 0.483326
0.563781 0.689661 0.460910
0.584396 0.689929 0.465071
0.611544 0.689109 0.474315
0.639328 0.688363 0.475296
0.665891 0.687858 0.481518
0.690276 0.689497 0.494433
0.713633 0.686944 0.513880
0.735548 0.684097 0.550631
0.762737 0.684006 0.565704
0.793214 0.681735 0.573009
0.824064 0.678708 0.587064
0.853739 0.680554 0.609235
0.881494 0.695517 0.638476
0.910246 0.713553 0.668555
0.939635 0.735004 0.699240
0.598074 0.712029 0.558814
0.598104 0.712038 0.558762
0.598133 0.712047 0.558716
0.598180 0.712054 0.558684
0.598193 0.712067 0.558627
0.598240 0.712074 0.558583
0.598293 0.712083 0.558541
0.598307 0.712104 0.558449
0.598395 0.712130 0.558332
0.598512 0.712170 0.558146
0.598647 0.712228 0.557897
0.598881 0.712309 0.557509
0.599218 0.712428 0.556930
0.599659 0.712610 0.556052
0.600336 0.712867 0.554727
0.601275 0.713249 0.552660
0.602438 0.713829 0.549301
0.603990 0.714696 0.543634
0.605603 0.716033 0.533053
0.605102 0.718566 0.509915
0.613983 0.720904 0.494406
0.641809 0.719981 0.504312
0.669934 0.719157 0.505611
0.696635 0.718599 0.512137
0.721002 0.720252 0.525420
0.744485 0.717792 0.544754
0.766619 0.714937 0.581450
0.794118 0.714620 0.596187
0.824774 0.711947 0.603443
0.855626 0.708675 0.617787
0.884602 0.712986 0.641266
0.912500 0.727618 0.670245
0.941299 0.745603 0.700186
0.635281 0.741908 0.596512
0.635289 0.741915 0.596489
0.635315 0.741921 0.596467
0.635341 0.741928 0.596445
0.635387 0.741930 0.596419
0.635393 0.741938 0.596403
0.635439 0.741943 0.596372
0.635453 0.741958 0.596324
0.635488 0.741978 0.596252
0.635588 0.741999 0.596163
0.635684 0.742039 0.596022
0.635855 0.742093 0.595803
0.636091 0.742173 0.595504
0.636449 0.742283 0.595050
0.636945 0.742453 0.594351
0.637682 0.742697 0.593306
0.638673 0.743060 0.591683
0.640060 0.743600 0.589049
0.641877 0.744406 0.584622
0.644036 0.745644 0.576514
0.645706 0.747701 0.559337
0.647170 0.751253 0.528748
0.672293 0.751004 0.534562
0.700709 0.750108 0.536130
0.727516 0.749509 0.542922
0.751894 0.751161 0.556516
0.775461 0.748781 0.575709
0.797764 0.745894 0.612402
0.825482 0.745389 0.626916
0.856223 0.742507 0.634256
0.887025 0.739217 0.648917
0.915583 0.745040 0.673085
0.943547 0.759595 0.701932
0.670931 0.772103 0.632491
0.670917 0.772114 0.632464
0.670959 0.772113 0.632461
0.670946 0.772123 0.632436
0.670952 0.772131 0.632425
0.670992 0.772128 0.632425
0.670998 0.772136 0.632394
0.671024 0.772143 0.632367
0.671055 0.772155 0.632341
0.671090 0.772173 0.632282
0.671214 0.772191 0.632210
0.671328 0.772229 0.632090
0.671494 0.772280 0.631919
0.671760 0.772352 0.631662
0.672104 0.772464 0.631276
0.672631 0.772626 0.630713
0.673379 0.772861 0.629848
0.674494 0.773201 0.628509
0.675918 0.773718 0.626339
0.677884 0.774489 0.622696
0.680367 0.775660 0.616071
0.682891 0.777525 0.602319
0.682544 0.781224 0.567455
0.702919 0.782124 0.565046
0.731644 0.781153 0.566822
0.758530 0.780520 0.573852
0.782895 0.782179 0.587662
0.806527 0.779847 0.606739
