StdX-ACES-OCIOv2.0/studio/LMT_AnalyticFilmic5_ACEScct_33.cube
TITLE "Generated by Foundry::LUT"
LUT_3D_SIZE 33
0.000000 0.000000 0.000000
0.022575 0.022575 0.022575
0.045151 0.045151 0.045151
0.067727 0.067727 0.067727
0.075537 0.072485 0.072647
0.078638 0.072557 0.072330
0.094507 0.070596 0.073706
0.133564 0.070220 0.072205
0.173671 0.075107 0.072005
0.213265 0.082113 0.073581
0.250298 0.092452 0.076840
0.285413 0.108799 0.082509
0.319674 0.132989 0.091076
0.356212 0.155836 0.097851
0.390380 0.186151 0.111508
0.422260 0.222981 0.141883
0.453623 0.259849 0.186113
0.484852 0.295813 0.228279
0.516121 0.330619 0.267369
0.547604 0.363909 0.303148
0.579453 0.395261 0.335097
0.611342 0.426047 0.365968
0.643139 0.456856 0.396925
0.674824 0.487790 0.428103
0.705381 0.521759 0.464270
0.735433 0.557005 0.502494
0.765561 0.591755 0.539739
0.795764 0.626062 0.576111
0.826067 0.659926 0.611637
0.856486 0.693335 0.646307
0.887041 0.726260 0.680117
0.917781 0.758636 0.712988
0.948611 0.790713 0.745360
0.026877 0.026877 0.026877
0.028264 0.028264 0.028264
0.049411 0.049411 0.049411
0.071988 0.071988 0.071988
0.084932 0.073898 0.072661
0.100647 0.076339 0.073252
0.121012 0.078276 0.074018
0.149063 0.081650 0.074953
0.184895 0.087379 0.076537
0.219779 0.095919 0.079001
0.253848 0.108607 0.082833
0.287533 0.126488 0.088704
0.321177 0.150526 0.097468
0.357878 0.166992 0.104318
0.391214 0.195179 0.119258
0.422821 0.229043 0.149949
0.454012 0.263833 0.191619
0.485125 0.298440 0.231695
0.516313 0.332350 0.269516
0.547737 0.365071 0.304546
0.579547 0.396052 0.336028
0.611413 0.426576 0.366575
0.643183 0.457231 0.397344
0.674856 0.488043 0.428386
0.705439 0.521824 0.464283
0.735475 0.557047 0.502502
0.765589 0.591783 0.539748
0.795783 0.626090 0.576133
0.826079 0.659948 0.611653
0.856497 0.693343 0.646309
0.887058 0.726257 0.680108
0.917789 0.758633 0.712982
0.948618 0.790716 0.745356
0.053755 0.053755 0.053755
0.055141 0.055141 0.055141
0.056527 0.056527 0.056527
0.075417 0.074237 0.072950
0.093825 0.083156 0.073885
0.111616 0.087929 0.074707
0.131344 0.093767 0.075679
0.159772 0.100594 0.076989
0.192122 0.108573 0.078879
0.224447 0.118592 0.081698
0.256908 0.131751 0.085980
0.289576 0.149222 0.092506
0.322707 0.169901 0.102150
0.359304 0.178032 0.110971
0.392018 0.203446 0.127148
0.423367 0.234708 0.158105
0.454399 0.267644 0.196856
0.485392 0.300990 0.235006
0.516503 0.334052 0.271634
0.547871 0.366210 0.305920
0.579642 0.396833 0.336945
0.611480 0.427112 0.367194
0.643230 0.457597 0.397763
0.674890 0.488297 0.428672
0.705500 0.521885 0.464291
0.735513 0.557087 0.502511
0.765611 0.591818 0.539768
0.795800 0.626114 0.576144
0.826089 0.659962 0.611660
0.856504 0.693357 0.646323
0.887059 0.726265 0.680111
0.917791 0.758636 0.712981
0.948614 0.790723 0.745371
0.072219 0.077951 0.073149
0.075245 0.080227 0.073239
0.080687 0.081724 0.073435
0.085024 0.084364 0.074098
0.102446 0.096392 0.075477
0.120710 0.105855 0.076677
0.141731 0.113775 0.077885
0.169788 0.122155 0.079446
0.199196 0.131511 0.081572
0.229220 0.142632 0.084597
0.260046 0.156506 0.089044
0.291674 0.172161 0.095733
0.324322 0.186889 0.105897
0.360612 0.189058 0.117140
0.392798 0.211288 0.134939
0.423913 0.240087 0.165685
0.454785 0.271291 0.201772
0.485666 0.303447 0.238170
0.516693 0.335711 0.273693
0.548008 0.367326 0.307262
0.579739 0.397593 0.337837
0.611545 0.427651 0.367821
0.643275 0.457964 0.398179
0.674922 0.488547 0.428947
0.705560 0.521944 0.464290
0.735556 0.557129 0.502517
0.765639 0.591849 0.539777
0.795816 0.626139 0.576158
0.826104 0.659979 0.611666
0.856512 0.693370 0.646335
0.887061 0.726275 0.680120
0.917789 0.758657 0.713004
0.948611 0.790739 0.745387
0.073784 0.103920 0.074848
0.084318 0.106317 0.075271
0.098003 0.107166 0.075235
0.107767 0.109500 0.076389
0.114919 0.113908 0.077615
0.131162 0.124441 0.079142
0.152996 0.134586 0.080567
0.179327 0.144420 0.082338
0.206208 0.154925 0.084679
0.234122 0.166196 0.087902
0.263332 0.178002 0.092496
0.293883 0.190327 0.099254
0.326093 0.201073 0.109389
0.361838 0.199973 0.122618
0.393560 0.218928 0.142317
0.424447 0.245270 0.172516
0.455166 0.274821 0.206391
0.485934 0.305853 0.241233
0.516885 0.337339 0.275694
0.548140 0.368438 0.308597
0.579835 0.398351 0.338731
0.611612 0.428172 0.368427
0.643324 0.458328 0.398596
0.674953 0.488796 0.429222
0.705622 0.521993 0.464279
0.735593 0.557181 0.502542
0.765667 0.591876 0.539784
0.795836 0.626153 0.576161
0.826113 0.659993 0.611672
0.856516 0.693387 0.646350
0.887070 0.726280 0.680118
0.917797 0.758646 0.712986
0.948619 0.790735 0.745378
0.081096 0.130135 0.077051
0.094847 0.132708 0.077446
0.111821 0.133560 0.077303
0.126766 0.134471 0.078312
0.136507 0.138485 0.080033
0.145116 0.143714 0.081553
0.164388 0.155556 0.083515
0.188105 0.166699 0.085493
0.212928 0.176055 0.088024
0.239017 0.185343 0.091441
0.266722 0.195086 0.096190
0.296202 0.205170 0.103005
0.328161 0.212369 0.112929
0.363006 0.210543 0.127477
0.394310 0.226507 0.149046
0.424978 0.250337 0.178631
0.455543 0.278265 0.210730
0.486204 0.308208 0.244173
0.517072 0.338943 0.277666
0.548273 0.369534 0.309910
0.579931 0.399093 0.339601
0.611676 0.428690 0.369030
0.643367 0.458691 0.399008
0.674985 0.489047 0.429508
0.705680 0.522057 0.464289
0.735634 0.557220 0.502544
0.765692 0.591912 0.539803
0.795855 0.626173 0.576165
0.826126 0.660009 0.611684
0.856530 0.693390 0.646342
0.887075 0.726291 0.680125
0.917800 0.758650 0.712995
0.948616 0.790733 0.745378
0.090451 0.162742 0.080030
0.106559 0.165078 0.080466
0.125865 0.165965 0.080258
0.145188 0.165943 0.080835
0.159801 0.167647 0.082506
0.169193 0.171645 0.084570
0.178711 0.177268 0.086740
0.198096 0.188389 0.089570
0.220652 0.196818 0.092330
0.244878 0.204341 0.095967
0.270950 0.212237 0.100916
0.299197 0.220261 0.107803
0.332192 0.219979 0.116899
0.364381 0.222867 0.132788
0.395210 0.235680 0.156430
0.425627 0.256498 0.185183
0.456009 0.282411 0.215660
0.486537 0.311022 0.247603
0.517306 0.340884 0.280011
0.548439 0.370848 0.311476
0.580043 0.400018 0.340693
0.611757 0.429329 0.369774
0.643424 0.459129 0.399508
0.675025 0.489348 0.429840
0.705753 0.522133 0.464297
0.735680 0.557278 0.502569
0.765727 0.591957 0.539829
0.795874 0.626207 0.576191
0.826141 0.660028 0.611694
0.856532 0.693420 0.646369
0.887084 0.726299 0.680131
0.917805 0.758662 0.713001
0.948624 0.790748 0.745388
0.104363 0.198312 0.084754
0.122561 0.199817 0.085274
0.143493 0.200575 0.085133
0.165458 0.200447 0.085180
0.181940 0.200360 0.086285
0.192918 0.201504 0.088249
0.201769 0.204794 0.091124
0.212034 0.210663 0.094734
0.231004 0.220251 0.098810
0.252938 0.226511 0.102740
0.277062 0.232377 0.107962
0.303829 0.237919 0.114920
0.335766 0.235709 0.123597
0.366301 0.239219 0.139827
0.396499 0.248537 0.165135
0.426552 0.265423 0.193054
0.456680 0.288362 0.222053
0.487011 0.315063 0.252299
0.517647 0.343641 0.283279
0.548677 0.372750 0.313731
0.580217 0.401326 0.342231
0.611876 0.430250 0.370845
0.643507 0.459778 0.400253
0.675081 0.489801 0.430351
0.705865 0.522228 0.464289
0.735754 0.557349 0.502579
0.765773 0.592008 0.539842
0.795908 0.626243 0.576200
0.826167 0.660052 0.611703
0.856552 0.693426 0.646361
0.887091 0.726310 0.680131
0.917809 0.758680 0.713014
0.948628 0.790742 0.745379
0.124306 0.232708 0.092204
0.144141 0.233685 0.092864
0.165371 0.234325 0.092944
0.184468 0.234417 0.092696
0.200221 0.234130 0.092939
0.212590 0.233874 0.094084
0.223584 0.234366 0.096557
0.233767 0.237332 0.101116
0.244776 0.243352 0.106935
0.263622 0.251342 0.112753
0.285637 0.255261 0.118230
0.312196 0.255238 0.124412
0.340092 0.256407 0.134070
0.368992 0.259382 0.150154
0.398333 0.265773 0.174700
0.427878 0.278080 0.201918
0.457642 0.296984 0.229786
0.487703 0.320841 0.258441
0.518143 0.347570 0.287753
0.549029 0.375459 0.316878
0.580465 0.403213 0.344442
0.612051 0.431579 0.372394
0.643627 0.460702 0.401318
0.675165 0.490441 0.431077
0.706022 0.522378 0.464292
0.735857 0.557462 0.502605
0.765839 0.592093 0.539878
0.795955 0.626304 0.576232
0.826195 0.660100 0.611731
0.856573 0.693456 0.646377
0.887105 0.726328 0.680144
0.917826 0.758676 0.712997
0.948636 0.790765 0.745403
0.149960 0.266562 0.103943
0.169510 0.267217 0.104836
0.186336 0.267743 0.105273
0.201361 0.268050 0.105260
0.215048 0.268054 0.104991
0.227112 0.267816 0.104988
0.239592 0.267382 0.105864
0.253228 0.267204 0.109083
0.265303 0.269514 0.116153
0.277633 0.275440 0.125552
0.297542 0.279875 0.132711
0.320486 0.280311 0.139837
0.345711 0.281092 0.149975
0.372764 0.282939 0.165233
0.400955 0.287114 0.185876
0.429771 0.295224 0.211340
0.459024 0.309278 0.238427
0.488704 0.329177 0.265891
0.518853 0.353188 0.293660
0.549539 0.379300 0.321204
0.580821 0.405910 0.347575
0.612299 0.433477 0.374610
0.643802 0.462035 0.402853
0.675288 0.491379 0.432136
0.706243 0.522634 0.464369
0.736009 0.557624 0.502642
0.765943 0.592210 0.539916
0.796019 0.626388 0.576269
0.826242 0.660161 0.611763
0.856604 0.693492 0.646392
0.887125 0.726366 0.680172
0.917835 0.758707 0.713025
0.948645 0.790771 0.745396
0.153216 0.302048 0.122683
0.173483 0.302385 0.124159
0.190157 0.302696 0.125391
0.204519 0.302964 0.126277
0.217402 0.303151 0.126734
0.229251 0.303215 0.126736
0.242864 0.303048 0.126175
0.260529 0.302294 0.125410
0.280273 0.300814 0.127836
0.296480 0.301494 0.138559
0.309949 0.307266 0.153198
0.330130 0.309814 0.162639
0.353014 0.309180 0.171678
0.378004 0.309543 0.183666
0.404681 0.311662 0.200044
0.432459 0.316767 0.221722
0.460984 0.326104 0.247492
0.490132 0.341122 0.274229
0.519884 0.361274 0.300856
0.550274 0.384766 0.326922
0.581338 0.409711 0.351871
0.612658 0.436172 0.377743
0.644054 0.463940 0.405056
0.675466 0.492702 0.433636
0.706556 0.523053 0.464563
0.736234 0.557853 0.502679
0.766090 0.592382 0.539975
0.796122 0.626513 0.576327
0.826307 0.660242 0.611804
0.856650 0.693555 0.646428
0.887158 0.726405 0.680190
0.917859 0.758734 0.713046
0.948660 0.790791 0.745409
0.175199 0.335165 0.151518
0.192388 0.335323 0.153107
0.206643 0.335486 0.154583
0.219011 0.335634 0.155867
0.229947 0.335772 0.156890
0.239939 0.335879 0.157593
0.251226 0.335951 0.157995
0.266356 0.335876 0.157615
0.286301 0.335183 0.155744
0.309109 0.333369 0.157077
0.327677 0.333244 0.170692
0.341840 0.338935 0.187014
0.362196 0.340297 0.195814
0.385053 0.338944 0.204715
0.409881 0.339077 0.217206
0.436255 0.341579 0.234703
0.463761 0.347457 0.257143
0.492152 0.357571 0.282875
0.521345 0.372904 0.308895
0.551331 0.392614 0.333959
0.582087 0.415087 0.357601
0.613179 0.439986 0.382092
0.644417 0.466654 0.408200
0.675722 0.494616 0.435827
0.706991 0.523711 0.464952
0.736566 0.558181 0.502731
0.766310 0.592634 0.540070
0.796267 0.626696 0.576409
0.826402 0.660379 0.611878
0.856718 0.693639 0.646468
0.887203 0.726475 0.680232
0.917885 0.758782 0.713069
0.948684 0.790824 0.745424
0.205109 0.367334 0.188418
0.217774 0.367432 0.189453
0.228773 0.367531 0.190435
0.238523 0.367629 0.191358
0.247335 0.367723 0.192180
0.255358 0.367815 0.192899
0.264506 0.367909 0.193597
0.276685 0.368002 0.194192
0.292709 0.367995 0.194116
0.313841 0.367418 0.192174
0.338579 0.365505 0.191886
0.358854 0.364851 0.204308
0.373518 0.370481 0.220162
0.394014 0.371024 0.228246
0.416849 0.369192 0.237215
0.441494 0.369312 0.250641
0.467634 0.372241 0.269098
0.494991 0.378664 0.291921
0.523409 0.389028 0.317194
0.552835 0.403948 0.341800
0.583150 0.422787 0.364773
0.613923 0.445346 0.387923
0.644943 0.470459 0.412547
0.676089 0.497330 0.438936
0.707296 0.525509 0.466922
0.737048 0.558639 0.502770
0.766626 0.592986 0.540181
0.796476 0.626963 0.576533
0.826549 0.660559 0.611961
0.856815 0.693781 0.646553
0.887268 0.726553 0.680268
0.917935 0.758833 0.713087
0.948712 0.790869 0.745449
0.237720 0.399065 0.224547
0.246528 0.399138 0.225172
0.254555 0.399203 0.225777
0.261812 0.399275 0.226366
0.268553 0.399343 0.226931
0.274825 0.399408 0.227442
0.281984 0.399485 0.228015
0.291579 0.399596 0.228731
0.304250 0.399715 0.229372
0.320837 0.399755 0.229399
0.342573 0.399287 0.227470
0.368534 0.397370 0.226055
0.390048 0.396352 0.237391
0.405060 0.401934 0.252721
0.425651 0.401928 0.260383
0.448398 0.399864 0.269891
0.472874 0.400126 0.284243
0.498871 0.403425 0.303316
0.526256 0.409978 0.325879
0.554934 0.419801 0.349840
0.584657 0.433950 0.372758
0.614991 0.452949 0.395265
0.645694 0.475798 0.418423
0.676627 0.501119 0.443253
0.707674 0.528200 0.469969
0.737763 0.559245 0.502737
0.767098 0.593479 0.540312
0.796789 0.627328 0.576680
0.826757 0.660824 0.612086
0.856957 0.693962 0.646642
0.887372 0.726680 0.680332
0.918002 0.758932 0.713149
0.948759 0.790912 0.745465
0.270825 0.430596 0.259622
0.276910 0.430645 0.259992
0.282518 0.430695 0.260348
0.287829 0.430740 0.260705
0.292745 0.430794 0.261050
0.297405 0.430843 0.261394
0.302820 0.430909 0.261801
0.310273 0.430991 0.262324
0.320186 0.431105 0.262969
0.333131 0.431250 0.263601
0.350037 0.431325 0.263619
0.372099 0.430941 0.261680
0.398884 0.429036 0.259458
0.421236 0.427787 0.269975
0.436500 0.433314 0.285204
0.457069 0.433003 0.293205
0.479570 0.431095 0.304263
0.503876 0.431725 0.319273
0.529992 0.434993 0.337526
0.557774 0.440700 0.358175
0.586744 0.449724 0.380859
0.616483 0.463985 0.403506
0.646764 0.483316 0.425871
0.677387 0.506427 0.449121
0.708214 0.531981 0.474246
0.738775 0.560222 0.502863
0.767783 0.594171 0.540458
0.797247 0.627853 0.576879
0.827064 0.661206 0.612267
0.857163 0.694239 0.646786
0.887507 0.726883 0.680448
0.918093 0.759068 0.713225
0.948827 0.791003 0.745512
0.303451 0.462050 0.293543
0.307619 0.462088 0.293758
0.311414 0.462129 0.293978
0.315230 0.462159 0.294183
0.318791 0.462196 0.294400
0.322208 0.462233 0.294616
0.326218 0.462280 0.294872
0.331816 0.462342 0.295223
0.339410 0.462434 0.295701
0.349510 0.462559 0.296299
0.362732 0.462711 0.296871
0.379810 0.462820 0.296860
0.402122 0.462489 0.294881
0.429469 0.460591 0.292212
0.452447 0.459154 0.302404
0.467784 0.464616 0.318627
0.488115 0.464379 0.328241
0.510532 0.462649 0.339207
0.534965 0.463222 0.353058
0.561460 0.465851 0.369380
0.589555 0.470721 0.388978
0.618545 0.479726 0.411768
0.648260 0.494191 0.434294
0.678466 0.513863 0.456618
0.708988 0.537239 0.480048
0.739712 0.563029 0.505504
0.768804 0.595072 0.540496
0.797917 0.628583 0.577115
0.827517 0.661754 0.612510
0.857464 0.694627 0.646976
0.887722 0.727151 0.680582
0.918235 0.759250 0.713313
0.948923 0.791148 0.745598
0.334960 0.493520 0.326376
0.337781 0.493546 0.326508
0.340539 0.493569 0.326639
0.343150 0.493596 0.326769
0.345707 0.493620 0.326901
0.348188 0.493648 0.327034
0.351155 0.493679 0.327200
0.355340 0.493723 0.327430
0.361038 0.493787 0.327750
0.368849 0.493878 0.328193
0.379111 0.494006 0.328737
0.392519 0.494166 0.329260
0.409867 0.494286 0.329225
0.432426 0.493978 0.327236
0.460216 0.492077 0.324300
0.483673 0.490478 0.334635
0.498989 0.495872 0.352281
0.519193 0.495740 0.362288
0.541612 0.494074 0.372623
0.566283 0.494355 0.385030
0.593081 0.496384 0.400253
0.621313 0.500849 0.419771
0.650311 0.509847 0.442665
0.679972 0.524572 0.465153
0.710087 0.544575 0.487515
0.740505 0.568224 0.511203
0.770338 0.596165 0.540178
0.798907 0.629577 0.577342
0.828169 0.662525 0.612819
0.857912 0.695188 0.647248
0.888023 0.727542 0.680777
0.918447 0.759531 0.713459
0.949065 0.791336 0.745698
0.365400 0.525024 0.358336
0.367346 0.525041 0.358418
0.369255 0.525060 0.358502
0.371150 0.525074 0.358588
0.372919 0.525097 0.358674
0.374724 0.525113 0.358762
0.377005 0.525127 0.358854
0.380000 0.525159 0.359008
0.384308 0.525201 0.359221
0.390189 0.525267 0.359524
0.398195 0.525353 0.359943
0.408771 0.525475 0.360469
0.422433 0.525633 0.360980
0.440035 0.525748 0.360917
0.462806 0.525459 0.358892
0.491004 0.523550 0.355667
0.514900 0.521795 0.366289
0.530214 0.527132 0.384947
0.550314 0.527079 0.395333
0.572739 0.525458 0.405250
0.597617 0.525493 0.416688
0.624709 0.526918 0.430900
0.653037 0.531049 0.450560
0.682030 0.540059 0.473559
0.711612 0.555108 0.496088
0.741618 0.575459 0.518584
0.771922 0.599383 0.542590
0.800384 0.630835 0.577359
0.829144 0.663575 0.613153
0.858558 0.695989 0.647604
0.888460 0.728123 0.681068
0.918751 0.759927 0.713663
0.949267 0.791626 0.745854
0.394974 0.556554 0.389741
0.396320 0.556570 0.389805
0.397738 0.556578 0.389858
0.399040 0.556590 0.389914
0.400414 0.556598 0.389967
0.401736 0.556607 0.390013
0.403263 0.556621 0.390092
0.405533 0.556640 0.390185
0.408751 0.556664 0.390329
0.413241 0.556702 0.390537
0.419383 0.556756 0.390833
0.427616 0.556838 0.391249
0.438441 0.556951 0.391775
0.452460 0.557088 0.392278
0.470314 0.557196 0.392256
0.493370 0.556905 0.390198
0.521943 0.554972 0.386623
0.546139 0.553112 0.397397
0.561433 0.558381 0.417388
0.581394 0.558455 0.428406
0.603820 0.556921 0.437927
0.628931 0.556683 0.448246
0.656358 0.557413 0.461385
0.684729 0.561331 0.481367
0.713682 0.570431 0.504500
0.743173 0.585798 0.527115
0.773063 0.606504 0.549820
0.802635 0.632175 0.576561
0.830585 0.664946 0.613374
0.859519 0.697077 0.647994
0.889110 0.728926 0.681424
0.919195 0.760488 0.713920
0.949570 0.792031 0.746063
0.424526 0.588051 0.421083
0.425466 0.588060 0.421119
0.426487 0.588064 0.421159
0.427473 0.588071 0.421196
0.428410 0.588077 0.421230
0.429345 0.588085 0.421274
0.430526 0.588087 0.421309
0.432147 0.588101 0.421373
0.434496 0.588116 0.421468
0.437800 0.588142 0.421611
0.442419 0.588174 0.421814
0.448812 0.588220 0.422105
0.457282 0.588293 0.422515
0.468431 0.588390 0.423038
0.482681 0.588516 0.423549
0.500814 0.588605 0.423539
0.524094 0.588304 0.421498
0.552910 0.586364 0.417625
0.577380 0.584405 0.428560
0.592595 0.589614 0.450027
0.612425 0.589869 0.461596
0.634874 0.588425 0.470604
0.660234 0.587889 0.479722
0.687993 0.587911 0.491809
0.716370 0.591695 0.512206
0.745268 0.600945 0.535504
0.774644 0.616679 0.558261
0.804422 0.637708 0.581237
0.832763 0.666515 0.612992
0.860931 0.698531 0.648342
0.890055 0.730049 0.681865
0.919838 0.761315 0.714304
0.950012 0.792613 0.746343
0.461426 0.618749 0.453563
0.461667 0.618797 0.453507
0.461930 0.618842 0.453456
0.462192 0.618888 0.453413
0.462460 0.618935 0.453363
0.462662 0.618984 0.453318
0.462935 0.619043 0.453266
0.463359 0.619131 0.453185
0.463977 0.619257 0.453072
0.464799 0.619448 0.452923
0.467164 0.619590 0.452891
0.471988 0.619616 0.453084
0.478426 0.619662 0.453379
0.487208 0.619718 0.453773
0.498567 0.619807 0.454298
0.513098 0.619918 0.454816
0.531472 0.619987 0.454809
0.554922 0.619674 0.452779
0.583959 0.617721 0.448704
0.608622 0.615685 0.459750
0.623752 0.620835 0.482795
0.643424 0.621305 0.494820
0.665911 0.619952 0.503247
0.691525 0.619131 0.511195
0.719582 0.618494 0.522315
0.747952 0.622175 0.543088
0.776774 0.631636 0.566557
0.806031 0.647726 0.589526
0.835679 0.669097 0.612868
0.863072 0.700253 0.648213
0.891469 0.731538 0.682261
0.920798 0.762428 0.714719
0.950662 0.793435 0.746721
0.513402 0.647717 0.494424
0.512804 0.647837 0.493911
0.512189 0.647958 0.493391
0.511501 0.648085 0.492838
0.510827 0.648216 0.492266
0.510068 0.648347 0.491663
0.509045 0.648523 0.490898
0.507417 0.648789 0.489666
0.504573 0.649217 0.487637
0.503373 0.649518 0.486474
0.503844 0.649736 0.485985
0.505113 0.649992 0.485673
0.506884 0.650375 0.485288
0.509291 0.650951 0.484803
0.517291 0.651128 0.485039
0.528890 0.651202 0.485553
0.543656 0.651291 0.486069
0.562225 0.651346 0.486072
0.585881 0.651014 0.484027
0.615068 0.649045 0.479856
0.639872 0.646953 0.491005
0.654890 0.652046 0.515603
0.674418 0.652754 0.528012
0.696932 0.651508 0.535846
0.722786 0.650413 0.542692
0.751089 0.649238 0.553056
0.779462 0.652816 0.574055
0.808190 0.662521 0.597719
0.837328 0.678960 0.620937
0.866445 0.701660 0.646224
0.893576 0.733380 0.682293
0.922206 0.763949 0.715143
0.951617 0.794572 0.747156
0.565670 0.675876 0.539531
0.565529 0.675932 0.539338
0.565434 0.675985 0.539135
0.565315 0.676039 0.538948
0.565151 0.676098 0.538751
0.565030 0.676152 0.538534
0.564873 0.676218 0.538292
0.564627 0.676321 0.537920
0.564229 0.676473 0.537364
0.563651 0.676699 0.536531
0.562726 0.677037 0.535225
0.561083 0.677569 0.533159
0.558019 0.678424 0.529652
0.550549 0.680020 0.522542
0.546646 0.681334 0.517530
0.549981 0.682148 0.516755
0.559338 0.682580 0.516811
0.574288 0.682658 0.517336
0.593049 0.682693 0.517339
0.616838 0.682350 0.515298
0.646209 0.680351 0.511037
0.671120 0.678214 0.522262
0.686018 0.683250 0.548393
0.705408 0.684202 0.561087
0.727966 0.683039 0.568363
0.754011 0.681757 0.574290
0.782509 0.680161 0.584035
0.810877 0.683669 0.605141
0.839505 0.693645 0.629002
0.868523 0.710397 0.652522
0.896890 0.735015 0.680686
0.924317 0.765826 0.715219
0.953027 0.796106 0.747590
0.608344 0.704969 0.579835
0.608324 0.704996 0.579748
0.608267 0.705031 0.579649
0.608226 0.705059 0.579551
0.608227 0.705087 0.579457
0.608149 0.705124 0.579348
0.608114 0.705159 0.579233
0.608068 0.705210 0.579047
0.607960 0.705293 0.578776
0.607838 0.705409 0.578388
0.607592 0.705590 0.577801
0.607220 0.705856 0.576900
0.606599 0.706258 0.575509
0.605485 0.706883 0.573298
0.603235 0.707900 0.569559
0.597848 0.709691 0.562286
0.585947 0.712653 0.549253
0.590401 0.713848 0.548182
0.605018 0.714005 0.548591
0.623962 0.714020 0.548597
0.647909 0.713655 0.546537
0.677396 0.711639 0.542224
0.702372 0.709471 0.553543
0.717156 0.714456 0.581089
0.736405 0.715650 0.593995
0.758986 0.714604 0.600809
0.785177 0.713195 0.606039
0.813816 0.711319 0.615347
0.842191 0.714768 0.636389
0.870719 0.724991 0.660438
0.899599 0.742084 0.684344
0.927624 0.767559 0.713767
0.955141 0.798012 0.747694
0.647100 0.734591 0.617754
0.647095 0.734611 0.617694
0.647105 0.734623 0.617643
0.647083 0.734646 0.617583
0.647092 0.734658 0.617532
0.647069 0.734678 0.617473
0.647048 0.734702 0.617412
0.647031 0.734734 0.617313
0.647010 0.734784 0.617162
0.646999 0.734849 0.616955
0.646941 0.734951 0.616639
0.646835 0.735104 0.616164
0.646705 0.735326 0.615463
0.646459 0.735666 0.614378
0.645974 0.736187 0.612673
0.645014 0.737005 0.609914
0.642783 0.738364 0.605046
0.635848 0.740963 0.594564
0.625539 0.744425 0.580324
0.635780 0.745342 0.579853
0.654930 0.745338 0.579854
0.678954 0.744965 0.577801
0.708579 0.742925 0.573424
0.733634 0.740722 0.584858
0.748289 0.745665 0.613614
0.767432 0.747075 0.626680
0.790006 0.746155 0.633156
0.816283 0.744723 0.637994
0.844937 0.742887 0.647228
0.873380 0.746164 0.667848
0.901806 0.756641 0.692073
0.930507 0.774225 0.716691
0.958448 0.799826 0.746381
0.683680 0.764579 0.653980
0.683654 0.764596 0.653950
0.683659 0.764604 0.653922
0.683668 0.764612 0.653886
0.683661 0.764627 0.653859
0.683666 0.764635 0.653829
0.683659 0.764651 0.653790
0.683671 0.764667 0.653736
0.683661 0.764701 0.653649
0.683652 0.764742 0.653529
0.683663 0.764805 0.653349
0.683658 0.764896 0.653081
0.683632 0.765035 0.652693
0.683595 0.765237 0.652089
0.683517 0.765538 0.651187
0.683339 0.765997 0.649767
0.682906 0.766706 0.647489
0.681822 0.767866 0.643630
0.678561 0.769911 0.636188
0.659802 0.775133 0.612585
0.666669 0.776656 0.611098
0.685959 0.776636 0.611099
0.710083 0.776251 0.609041
0.739806 0.774195 0.604622
0.764888 0.771975 0.616150
0.779446 0.776882 0.645904
0.798488 0.778480 0.659106
0.821046 0.777680 0.665398
0.847312 0.776360 0.670149
0.875889 0.774837 0.679671
0.904423 0.777929 0.699599
0.932755 0.788679 0.724040
0.961308 0.806662 0.749389
0.718757 0.794848 0.688886
0.718766 0.794855 0.688862
0.718769 0.794863 0.688852
0.718773 0.794867 0.688827
0.718762 0.794879 0.688814
0.718769 0.794884 0.688783
0.718791 0.794890 0.688773
0.718768 0.794910 0.688737
0.718782 0.794925 0.688695
0.718768 0.794956 0.688615
0.718799 0.794994 0.688511
0.718807 0.795051 0.688352
0.718805 0.795145 0.688117
0.718813 0.795275 0.687768
0.718868 0.795461 0.687249
0.718866 0.795749 0.686464
0.718855 0.796172 0.685227
0.718682 0.796826 0.683255
0.718177 0.797855 0.679932
0.716362 0.799635 0.673812
0.708066 0.803377 0.658889
0.698851 0.807715 0.642533
0.716990 0.807932 0.642347
0.741224 0.807532 0.640286
0.771000 0.805466 0.635844
0.796131 0.803225 0.647453
0.810621 0.808110 0.677920
0.829576 0.809866 0.691219
0.852089 0.809196 0.697499
