StdX-ACES-OCIOv2.0/studio/LMT_AnalyticFilmic2_ACEScct_33.cube
TITLE "Generated by Foundry::LUT"
LUT_3D_SIZE 9
0.002932 -0.000557 0.019555
0.114698 0.007846 0.019922
0.243744 0.025594 0.019284
0.364723 0.090909 0.034836
0.483658 0.264822 0.139495
0.602454 0.395809 0.301744
0.721237 0.515782 0.419561
0.840015 0.633717 0.530453
0.958789 0.751282 0.639610
0.008344 0.119360 0.023096
0.138751 0.118838 0.024160
0.246056 0.134472 0.035082
0.365303 0.176176 0.067059
0.483775 0.282007 0.175113
0.602477 0.399364 0.307375
0.721242 0.516555 0.420836
0.840016 0.633887 0.530760
0.958789 0.751320 0.639686
0.013451 0.246564 0.033459
0.148016 0.246766 0.034375
0.261654 0.244252 0.035962
0.365849 0.261472 0.079951
0.484029 0.305385 0.209994
0.602521 0.404854 0.316053
0.721251 0.517821 0.422921
0.840018 0.634169 0.531271
0.958790 0.751382 0.639811
0.078342 0.367120 0.083520
0.186003 0.367417 0.088773
0.267457 0.367581 0.091530
0.379340 0.364908 0.102988
0.484649 0.380977 0.243552
0.602769 0.426093 0.344221
0.721296 0.523171 0.431636
0.840028 0.635409 0.533508
0.958792 0.751659 0.640368
0.247397 0.486186 0.250303
0.276090 0.486253 0.251891
0.308789 0.486364 0.254444
0.384776 0.486681 0.260538
0.497644 0.484071 0.273556
0.603427 0.499915 0.373031
0.721548 0.544595 0.460107
0.840075 0.640803 0.542987
0.958802 0.752910 0.642860
0.381157 0.605011 0.379123
0.387195 0.605026 0.379400
0.396352 0.605050 0.379860
0.427909 0.605159 0.381866
0.503482 0.605494 0.386659
0.616415 0.602885 0.394823
0.722201 0.618726 0.487926
0.840329 0.662728 0.572702
0.958852 0.758369 0.653286
0.503018 0.723786 0.494119
0.504330 0.723790 0.494177
0.506469 0.723795 0.494273
0.515368 0.723819 0.494702
0.546848 0.723928 0.496615
0.622461 0.724252 0.500623
0.735280 0.721623 0.505827
0.840970 0.737505 0.600113
0.959107 0.780873 0.684507
0.622579 0.842547 0.606558
0.622866 0.842548 0.606571
0.623340 0.842549 0.606592
0.625423 0.842554 0.606685
0.634301 0.842578 0.607107
0.665738 0.842687 0.608985
0.741477 0.842994 0.612206
0.854151 0.840347 0.614407
0.959738 0.856279 0.711708
0.741638 0.961305 0.718465
0.741700 0.961306 0.718468
0.741805 0.961306 0.718472
0.742268 0.961307 0.718493
0.744346 0.961312 0.718585
0.753209 0.961336 0.719005
0.784616 0.961445 0.720855
0.860491 0.961735 0.723214
0.973019 0.959070 0.722028
-0.014945 -0.014410 0.170476
0.124286 0.010113 0.147521
0.245868 0.018084 0.155092
0.365388 0.084147 0.171891
0.483675 0.275003 0.215358
0.602450 0.397991 0.314907
0.721236 0.516241 0.422390
0.840015 0.633813 0.531085
0.958789 0.751302 0.639754
0.014161 0.092359 0.172987
0.126904 0.130464 0.158569
0.247410 0.147894 0.157719
0.365066 0.203035 0.172895
0.483717 0.292122 0.229745
0.602470 0.401523 0.319624
0.721241 0.517012 0.423618
0.840016 0.633983 0.531391
0.958789 0.751340 0.639829
0.020044 0.248727 0.160232
0.142426 0.250112 0.164860
0.257131 0.248820 0.168717
0.365933 0.263134 0.199715
0.483931 0.312033 0.251456
0.602510 0.406937 0.327073
0.721250 0.518274 0.425629
0.840018 0.634264 0.531897
0.958790 0.751402 0.639955
0.082940 0.367496 0.200788
0.188436 0.367801 0.203889
0.264478 0.368282 0.208226
0.378035 0.365917 0.215374
0.484669 0.381345 0.278512
0.602752 0.427413 0.352784
0.721294 0.523603 0.434067
0.840028 0.635504 0.534117
0.958792 0.751679 0.640510
0.248685 0.486269 0.282664
0.276973 0.486336 0.283693
0.309338 0.486448 0.285375
0.384106 0.486836 0.290284
0.497377 0.484288 0.298822
0.603433 0.499997 0.380348
0.721545 0.544850 0.461998
0.840075 0.640892 0.543531
0.958802 0.752930 0.642998
0.381406 0.605030 0.385856
0.387425 0.605045 0.386109
0.396555 0.605069 0.386529
0.428038 0.605178 0.388368
0.503349 0.605528 0.392982
0.616364 0.602930 0.400386
0.722202 0.618745 0.489521
0.840329 0.662777 0.573123
0.958852 0.758387 0.653409
0.503073 0.723791 0.495580
0.504384 0.723794 0.495637
0.506522 0.723799 0.495732
0.515415 0.723823 0.496152
0.546878 0.723933 0.498030
0.622434 0.724259 0.502012
0.735270 0.721632 0.507087
0.840971 0.737509 0.600463
0.959107 0.780883 0.684601
0.622592 0.842548 0.606877
0.622878 0.842549 0.606890
0.623353 0.842550 0.606910
0.625435 0.842555 0.607003
0.634311 0.842579 0.607424
0.665745 0.842688 0.609294
0.741471 0.842996 0.612513
0.854149 0.840349 0.614695
0.959738 0.856279 0.711785
0.741641 0.961306 0.718535
0.741704 0.961306 0.718537
0.741808 0.961306 0.718542
0.742271 0.961307 0.718562
0.744349 0.961312 0.718655
0.753211 0.961336 0.719074
0.784617 0.961446 0.720922
0.860490 0.961736 0.723282
0.973018 0.959070 0.722095
-0.046628 -0.039181 0.278700
0.122719 -0.021561 0.271242
0.249113 0.025754 0.263006
0.365570 0.075393 0.272060
0.483961 0.277462 0.278857
0.602453 0.401229 0.333026
0.721235 0.516990 0.426885
0.840014 0.633972 0.532128
0.958789 0.751335 0.639992
-0.037916 0.121651 0.273799
0.103065 0.110220 0.275365
0.250267 0.152465 0.265058
0.365809 0.188477 0.273699
0.483859 0.300858 0.280242
0.602467 0.404781 0.336619
0.721239 0.517759 0.428041
0.840016 0.634142 0.532429
0.958789 0.751373 0.640068
0.048238 0.211544 0.281989
0.156434 0.238395 0.273945
0.249628 0.254368 0.270052
0.366110 0.274209 0.270615
0.483867 0.322910 0.289248
0.602499 0.410163 0.342507
0.721248 0.519016 0.429938
0.840018 0.634423 0.532929
0.958790 0.751435 0.640192
0.092867 0.368211 0.276690
0.194174 0.368519 0.277815
0.265868 0.369040 0.279646
0.376209 0.367603 0.283723
0.484726 0.381989 0.314416
0.602724 0.429716 0.364836
0.721291 0.524314 0.437946
0.840027 0.635661 0.535120
0.958792 0.751712 0.640747
0.251082 0.486415 0.316910
0.278634 0.486482 0.317559
0.310415 0.486595 0.318626
0.383508 0.487055 0.322513
0.496963 0.484647 0.328059
0.603444 0.500136 0.391115
0.721540 0.545281 0.465024
0.840074 0.641040 0.544427
0.958802 0.752962 0.643228
0.381832 0.605062 0.395859
0.387819 0.605077 0.396080
0.396905 0.605101 0.396448
0.428263 0.605210 0.398061
0.503151 0.605582 0.402426
0.616279 0.603006 0.408826
0.722205 0.618775 0.492103
0.840328 0.662860 0.573817
0.958852 0.758418 0.653611
0.503165 0.723798 0.497952
0.504475 0.723801 0.498007
0.506610 0.723806 0.498098
0.515494 0.723830 0.498505
0.546927 0.723940 0.500326
0.622391 0.724271 0.504268
0.735254 0.721648 0.509141
0.840972 0.737516 0.601042
0.959107 0.780899 0.684756
0.622613 0.842550 0.607405
0.622899 0.842550 0.607418
0.623374 0.842552 0.607438
0.625456 0.842557 0.607530
0.634329 0.842581 0.607948
0.665756 0.842690 0.609806
0.741462 0.842998 0.613021
0.854146 0.840352 0.615173
0.959738 0.856281 0.711913
0.741646 0.961306 0.718651
0.741709 0.961306 0.718653
0.741813 0.961306 0.718658
0.742275 0.961308 0.718678
0.744353 0.961313 0.718770
0.753215 0.961337 0.719189
0.784620 0.961446 0.721035
0.860488 0.961736 0.723395
0.973017 0.959071 0.722205
-0.111396 -0.099956 0.388715
0.042850 -0.092997 0.387464
0.236773 -0.061921 0.384438
0.368271 0.134383 0.375255
0.484489 0.245393 0.384418
0.602625 0.408966 0.387627
0.721234 0.520113 0.444304
0.840013 0.634673 0.536608
0.958789 0.751483 0.641046
-0.124745 0.045391 0.388484
0.023122 0.042847 0.387869
0.229107 0.058846 0.385549
0.368555 0.218551 0.375670
0.484544 0.276226 0.384767
0.602609 0.413407 0.388419
0.721238 0.520878 0.445205
0.840014 0.634842 0.536892
0.958789 0.751521 0.641120
-0.116310 0.237540 0.386335
0.011066 0.232644 0.386885
0.214916 0.228298 0.386496
0.369083 0.278266 0.376362
0.484668 0.311116 0.385070
0.602592 0.419862 0.390141
0.721244 0.522125 0.446696
0.840016 0.635122 0.537364
0.958790 0.751583 0.641243
0.180670 0.346072 0.389958
0.235406 0.348326 0.389442
0.283843 0.352170 0.388454
0.370476 0.374578 0.379900
0.484832 0.392091 0.382708
0.602659 0.439841 0.401320
0.721281 0.527341 0.453151
0.840025 0.636353 0.539437
0.958792 0.751859 0.641790
0.262657 0.487129 0.388842
0.286907 0.487197 0.389088
0.315946 0.487309 0.389495
0.384793 0.487818 0.391279
0.495392 0.486223 0.394679
0.603510 0.500773 0.425977
0.721519 0.547280 0.476948
0.840072 0.641695 0.548289
0.958802 0.753108 0.644240
0.383855 0.605209 0.428881
0.389691 0.605224 0.429022
0.398568 0.605248 0.429258
0.429360 0.605358 0.430297
0.502581 0.605803 0.433904
0.615923 0.603342 0.437954
0.722219 0.618913 0.502618
0.840325 0.663231 0.576823
0.958851 0.758553 0.654509
0.503583 0.723830 0.507673
0.504886 0.723833 0.507721
0.507010 0.723838 0.507802
0.515850 0.723862 0.508159
0.547155 0.723972 0.509764
0.622211 0.724325 0.513548
0.735182 0.721720 0.517670
0.840975 0.737547 0.603569
0.959107 0.780971 0.685445
0.622706 0.842557 0.609714
0.622992 0.842557 0.609726
0.623466 0.842559 0.609746
0.625545 0.842564 0.609835
0.634409 0.842588 0.610240
0.665805 0.842697 0.612045
0.741424 0.843011 0.615242
0.854132 0.840367 0.617266
0.959739 0.856288 0.712480
0.741666 0.961308 0.719166
0.741730 0.961308 0.719168
0.741834 0.961308 0.719172
0.742296 0.961309 0.719193
0.744374 0.961314 0.719284
0.753234 0.961338 0.719700
0.784631 0.961448 0.721534
0.860480 0.961739 0.723897
0.973015 0.959074 0.722696
-0.377466 -0.315545 0.499874
-0.235696 -0.312511 0.499620
0.001160 -0.303005 0.499127
0.358489 -0.191441 0.496029
0.487182 0.304025 0.486910
0.603338 0.380129 0.496080
0.721354 0.529467 0.497176
0.840011 0.637706 0.554309
0.958788 0.752151 0.645678
-0.392703 -0.184006 0.499872
-0.252341 -0.183124 0.499656
-0.017213 -0.177214 0.499219
0.356981 -0.080562 0.496297
0.487244 0.320074 0.486998
0.603354 0.386782 0.496114
0.721352 0.530356 0.497451
0.840012 0.637872 0.554534
0.958788 0.752188 0.645748
-0.413397 0.038063 0.499775
-0.276138 0.035421 0.499626
-0.045044 0.035322 0.499295
0.354323 0.105998 0.496710
0.487350 0.341246 0.487145
0.603383 0.396865 0.496143
0.721349 0.531793 0.497927
0.840014 0.638148 0.554906
0.958788 0.752250 0.645865
-0.400203 0.360420 0.497711
-0.283975 0.359395 0.497860
-0.086275 0.357736 0.498053
0.341700 0.353461 0.497711
0.487859 0.398118 0.487798
0.603539 0.432212 0.495702
0.721345 0.537627 0.500292
0.840022 0.639360 0.556548
0.958791 0.752525 0.646381
0.314371 0.483340 0.493006
0.327525 0.483708 0.492883
0.345583 0.484317 0.492679
0.397160 0.486926 0.491796
0.490530 0.493653 0.490709
0.603686 0.508695 0.495828
0.721460 0.556741 0.513554
0.840063 0.644579 0.563738
0.958800 0.753766 0.648698
0.393821 0.605936 0.500595
0.398975 0.605951 0.500649
0.406890 0.605975 0.500738
0.435007 0.606086 0.501135
0.503710 0.606595 0.502915
0.614544 0.604856 0.505558
0.722293 0.619557 0.537529
0.840310 0.664998 0.588957
0.958849 0.759168 0.658469
0.505599 0.723981 0.540623
0.506869 0.723984 0.540654
0.508939 0.723989 0.540705
0.517569 0.724013 0.540934
0.548291 0.724123 0.541970
0.621662 0.724552 0.545248
0.734869 0.722043 0.547643
0.840990 0.737686 0.614105
0.959105 0.781301 0.688501
0.623137 0.842590 0.619416
0.623422 0.842590 0.619426
0.623893 0.842592 0.619444
0.625961 0.842597 0.619522
0.634779 0.842621 0.619878
0.666040 0.842730 0.621472
0.741259 0.843065 0.624606
0.854069 0.840436 0.626150
0.959742 0.856318 0.715013
0.741763 0.961315 0.721468
0.741826 0.961315 0.721471
0.741930 0.961315 0.721475
0.742392 0.961316 0.721495
0.744467 0.961322 0.721584
0.753316 0.961346 0.721987
0.784682 0.961455 0.723770
0.860445 0.961751 0.726142
0.973003 0.959089 0.724895
-1.322219 -1.061503 0.611298
-1.190833 -1.059443 0.611239
-0.971809 -1.055035 0.611137
0.007192 -1.020072 0.610617
0.481961 -0.535737 0.607149
0.606056 0.431271 0.598522
0.722194 0.503995 0.607164
0.840103 0.647751 0.606855
0.958786 0.755067 0.663861
-1.336799 -0.939951 0.611299
-1.205722 -0.938388 0.611242
-0.987218 -0.934772 0.611144
-0.009873 -0.903427 0.610638
0.481668 -0.434086 0.607214
0.606070 0.434701 0.598542
0.722199 0.505490 0.607150
0.840103 0.647933 0.606937
0.958787 0.755103 0.663916
-1.360162 -0.736954 0.611296
-1.229658 -0.736185 0.611243
-1.012024 -0.733916 0.611150
-0.037753 -0.708583 0.610670
0.481172 -0.264468 0.607321
0.606093 0.440110 0.598574
0.722206 0.507931 0.607124
0.840102 0.648235 0.607074
0.958787 0.755164 0.664008
-1.448685 0.175762 0.611196
-1.321375 0.173603 0.611161
-1.108746 0.170653 0.611097
-0.152531 0.169426 0.610739
0.478842 0.290346 0.607772
0.606197 0.460569 0.598719
0.722241 0.518108 0.606972
0.840102 0.649552 0.607695
0.958789 0.755433 0.664417
-1.360187 0.484237 0.608776
-1.254732 0.484024 0.608817
-1.078251 0.483669 0.608883
-0.277907 0.482106 0.609132
0.467212 0.477697 0.608884
0.606710 0.517165 0.599378
0.722401 0.555138 0.605351
0.840108 0.655060 0.610725
0.958798 0.756646 0.666262
0.431796 0.609054 0.600059
0.435013 0.609085 0.600057
0.440105 0.609138 0.600055
0.459563 0.609358 0.600052
0.514637 0.610137 0.600249
0.611003 0.611559 0.602125
0.722590 0.625348 0.609004
0.840263 0.673696 0.625869
0.958842 0.761896 0.674231
0.515394 0.724720 0.612262
0.516514 0.724724 0.612274
0.518344 0.724729 0.612293
0.526030 0.724753 0.612381
0.554052 0.724863 0.612776
0.622616 0.725373 0.614551
0.733667 0.723501 0.616356
0.841073 0.738337 0.649073
0.959096 0.782866 0.700847
0.625197 0.842744 0.652320
0.625473 0.842745 0.652327
0.625932 0.842746 0.652338
0.627947 0.842751 0.652389
0.636553 0.842775 0.652617
0.667213 0.842885 0.653650
0.740742 0.843296 0.656542
0.853796 0.840747 0.657101
0.959760 0.856460 0.725578
0.742209 0.961349 0.731155
0.742271 0.961349 0.731157
0.742374 0.961349 0.731161
0.742834 0.961350 0.731178
0.744897 0.961355 0.731256
0.753700 0.961379 0.731610
0.784922 0.961489 0.733190
0.860296 0.961806 0.735591
0.972948 0.959155 0.734195
-4.559281 -3.504606 0.722783
-4.437277 -3.502814 0.722769
-4.233922 -3.499763 0.722745
-3.327296 -3.482444 0.722635
0.337585 -3.332371 0.722054
0.605176 -1.126504 0.718104
0.724946 0.551655 0.710148
0.841054 0.627426 0.717549
0.958860 0.765385 0.716672
-4.572844 -3.391744 0.722783
-4.450843 -3.390150 0.722769
-4.247719 -3.387205 0.722745
-3.341506 -3.370756 0.722636
0.335828 -3.224321 0.722059
0.605120 -1.033335 0.718120
0.724949 0.552405 0.710152
0.841055 0.627763 0.717539
0.958860 0.765423 0.716695
-4.595193 -3.203784 0.722783
-4.473323 -3.202368 0.722769
-4.270367 -3.199734 0.722746
-3.365028 -3.184570 0.722638
0.332825 -3.044275 0.722067
0.605026 -0.878181 0.718146
0.724954 0.553639 0.710159
0.841057 0.628320 0.717521
0.958860 0.765486 0.716733
-4.691886 -2.363785 0.722777
-4.570641 -2.363161 0.722764
-4.368617 -2.361814 0.722742
-3.467143 -2.352691 0.722641
0.318196 -2.239739 0.722100
0.604599 -0.185853 0.718262
0.724976 0.558918 0.710191
0.841065 0.630768 0.717440
0.958861 0.765766 0.716901
-5.060391 0.391416 0.722648
-4.942419 0.391247 0.722640
-4.745921 0.390982 0.722626
-3.867700 0.389961 0.722559
0.179126 0.389241 0.722166
0.602523 0.449270 0.718767
0.725081 0.579380 0.710337
0.841100 0.641254 0.717014
0.958863 0.767021 0.717678
-4.378970 0.607669 0.719690
-4.283614 0.607625 0.719701
-4.124679 0.607552 0.719719
-3.413822 0.607227 0.719800
-0.107465 0.605732 0.720122
0.591730 0.601185 0.720015
0.725597 0.635977 0.710998
0.841202 0.679023 0.714147
0.958878 0.772300 0.721355
0.553022 0.728326 0.711245
0.553716 0.728329 0.711248
0.554859 0.728334 0.711253
0.559761 0.728358 0.711276
0.579001 0.728466 0.711379
0.633681 0.728961 0.711851
0.730608 0.729818 0.713739
0.841475 0.742729 0.721686
0.959065 0.790765 0.738207
0.635066 0.843494 0.723910
0.635310 0.843495 0.723913
0.635715 0.843496 0.723917
0.637494 0.843502 0.723936
0.645151 0.843526 0.724023
0.673082 0.843636 0.724418
0.741524 0.844144 0.726185
0.852758 0.842153 0.727065
0.959850 0.857117 0.760608
0.744322 0.961506 0.764014
0.744382 0.961507 0.764015
0.744483 0.961507 0.764018
0.744930 0.961508 0.764029
0.746939 0.961513 0.764079
0.755525 0.961537 0.764306
0.786124 0.961647 0.765335
0.859822 0.962039 0.767779
0.972712 0.959456 0.766291
-15.249710 -11.015975 0.834274
-15.136304 -11.014422 0.834270
-14.947362 -11.011716 0.834265
-14.105506 -10.998857 0.834239
-10.257372 -10.925586 0.834116
0.524583 -10.255497 0.833461
0.727814 -0.101006 0.828952
0.843825 0.670756 0.821767
0.959900 0.752198 0.827070
-15.262340 -10.911012 0.834274
-15.148838 -10.909425 0.834270
-14.960148 -10.906725 0.834264
-14.117955 -10.894414 0.834239
-10.270741 -10.821679 0.834116
0.524413 -10.155465 0.833462
0.727804 -0.015833 0.828956
0.843826 0.670920 0.821768
0.959900 0.752272 0.827065
-15.283278 -10.736263 0.834273
-15.169731 -10.734846 0.834270
-14.980689 -10.732261 0.834264
-14.139079 -10.720136 0.834238
-10.292659 -10.648900 0.834116
0.524136 -9.988873 0.833465
0.727786 0.126314 0.828962
0.843827 0.671194 0.821770
0.959900 0.752397 0.827058
-15.375198 -9.957673 0.834272
-15.262089 -9.956250 0.834269
-15.073208 -9.954017 0.834263
-14.232085 -9.943341 0.834238
-10.389741 -9.878018 0.834117
0.522884 -9.246062 0.833473
0.727707 0.329859 0.828990
0.843832 0.672399 0.821777
0.959902 0.752947 0.827025
-15.781338 -6.392979 0.834262
-15.668645 -6.392418 0.834259
-15.481121 -6.391531 0.834254
-14.644196 -6.386766 0.834230
-10.820261 -6.349619 0.834118
0.517007 -5.846004 0.833509
0.727339 0.465824 0.829118
0.843854 0.677684 0.821809
0.959908 0.755419 0.826873
-17.289120 0.550901 0.834091
-17.180202 0.550876 0.834089
-16.998331 0.550833 0.834086
-16.187466 0.550648 0.834072
-12.476054 0.549919 0.834002
0.486594 0.549221 0.833572
0.725512 0.593556 0.829680
0.843958 0.698168 0.821954
0.959931 0.765959 0.826140
-12.772466 0.730537 0.830466
-12.686492 0.730528 0.830469
-12.543603 0.730514 0.830474
-11.905952 0.730449 0.830497
-8.983624 0.730150 0.830596
0.485681 0.728744 0.831002
0.715463 0.724067 0.831095
0.844472 0.754787 0.822616
0.959926 0.802428 0.822670
0.672608 0.847124 0.822872
0.672759 0.847125 0.822873
0.673011 0.847126 0.822874
0.674120 0.847131 0.822879
0.679002 0.847154 0.822902
0.698165 0.847262 0.823006
0.752696 0.847757 0.823477
0.850089 0.848247 0.825252
0.960330 0.860766 0.833895
0.754317 0.962268 0.835559
0.754371 0.962268 0.835559
0.754460 0.962269 0.835560
0.754853 0.962270 0.835564
0.756624 0.962275 0.835583
0.764253 0.962299 0.835670
0.792097 0.962409 0.836064
0.860455 0.962916 0.837800
0.971825 0.960816 0.837671
-48.754055 -31.771221 0.945758
-48.649216 -31.769310 0.945758
-48.473988 -31.766878 0.945756
-47.691204 -31.755720 0.945750
-44.119183 -31.702988 0.945721
-27.793823 -31.385859 0.945584
0.677874 -28.366072 0.944845
0.849872 0.600478 0.939707
0.962701 0.789599 0.933387
-48.766300 -31.673143 0.945758
-48.659870 -31.672329 0.945758
-48.484985 -31.669294 0.945756
-47.701595 -31.659262 0.945750
-44.131283 -31.605595 0.945721
-27.804960 -31.290094 0.945584
0.677851 -28.273413 0.944845
0.849870 0.600828 0.939708
0.962701 0.789635 0.933387
-48.784737 -31.511377 0.945758
-48.680374 -31.509016 0.945757
-48.504105 -31.507467 0.945756
-47.722164 -31.496159 0.945750
-44.151367 -31.443848 0.945721
-27.827015 -31.128729 0.945584
0.677810 -28.119719 0.944846
0.849867 0.601408 0.939709
0.962701 0.789695 0.933388
-48.871181 -30.787678 0.945758
-48.765938 -30.786200 0.945757
-48.589386 -30.784290 0.945756
-47.807083 -30.773523 0.945749
-44.236507 -30.722349 0.945721
-27.917461 -30.413513 0.945584
0.677632 -27.433832 0.944848
0.849852 0.603941 0.939716
0.962702 0.789962 0.933389
-49.256554 -27.485418 0.945756
-49.153843 -27.483047 0.945755
-48.977310 -27.481892 0.945754
-48.196274 -27.472462 0.945748
-44.629036 -27.428164 0.945719
-28.327621 -27.147884 0.945585
0.676806 -24.298185 0.944858
0.849786 0.614598 0.939746
0.962707 0.791170 0.933396
-50.960220 -12.357733 0.945740
-50.855217 -12.357350 0.945740
-50.681217 -12.356255 0.945738
-49.905106 -12.354043 0.945733
-46.359200 -12.336784 0.945707
-30.143648 -12.188216 0.945582
0.672997 -9.939212 0.944898
0.849477 0.650928 0.939886
0.962729 0.796462 0.933428
-57.073978 0.694965 0.945517
-56.972816 0.694960 0.945517
-56.804848 0.694952 0.945516
-56.054588 0.694915 0.945513
-52.635036 0.694758 0.945498
-36.964142 0.694132 0.945426
0.654951 0.693403 0.944959
0.847906 0.730821 0.940507
0.962833 0.816962 0.933574
-29.976002 0.852849 0.941105
-29.898884 0.852847 0.941105
-29.770721 0.852845 0.941107
-29.197739 0.852832 0.941113
-26.582663 0.852774 0.941139
-14.596151 0.852507 0.941258
0.666972 0.851220 0.941759
0.838547 0.846441 0.942121
0.963346 0.873596 0.934236
0.791927 0.965923 0.934502
0.791960 0.965923 0.934503
0.792015 0.965923 0.934503
0.792259 0.965925 0.934504
0.793365 0.965930 0.934509
0.798226 0.965953 0.934532
0.817313 0.966061 0.934635
0.871698 0.966555 0.935105
0.969568 0.966719 0.936694
