StdX-ACES-OCIOv2.0/studio/LMT_AnalyticFilmic8_ACEScct_33.cube
TITLE "Generated by Foundry::LUT"
LUT_3D_SIZE 33
0.038894 0.038894 0.038894
0.057743 0.057742 0.057742
0.069457 0.069457 0.069456
0.073816 0.072865 0.072918
0.076046 0.072802 0.072982
0.082442 0.072658 0.073546
0.098836 0.072342 0.073825
0.124815 0.071721 0.074671
0.166102 0.070925 0.076253
0.215466 0.073230 0.079522
0.266617 0.084653 0.086149
0.316574 0.102911 0.098019
0.357158 0.109391 0.112802
0.388050 0.113477 0.130086
0.414789 0.137258 0.152918
0.439898 0.166312 0.178585
0.465371 0.197351 0.204596
0.492691 0.236322 0.232975
0.519511 0.274946 0.260992
0.546252 0.315514 0.289315
0.573642 0.359212 0.330604
0.602415 0.399349 0.369708
0.632210 0.432603 0.402510
0.662552 0.463640 0.433222
0.693135 0.495173 0.464270
0.723880 0.527062 0.495578
0.754733 0.559262 0.527103
0.785656 0.591664 0.558766
0.816634 0.624186 0.590504
0.847638 0.656832 0.622350
0.878671 0.689489 0.654218
0.909715 0.722216 0.686127
0.941806 0.742465 0.707409
0.053481 0.053481 0.053481
0.053880 0.053880 0.053880
0.069031 0.069031 0.069031
0.077528 0.072993 0.073090
0.087161 0.074027 0.073561
0.097327 0.075185 0.074068
0.111028 0.077217 0.074807
0.135059 0.079984 0.076010
0.176127 0.084713 0.078170
0.223903 0.093552 0.082248
0.273621 0.110740 0.089985
0.321313 0.137764 0.103054
0.358872 0.133032 0.115874
0.389582 0.132620 0.132620
0.416247 0.149348 0.155087
0.440783 0.177347 0.180098
0.465717 0.208457 0.205712
0.492826 0.244447 0.233772
0.519600 0.279963 0.261545
0.546528 0.317023 0.289715
0.573873 0.359884 0.330207
0.602615 0.399780 0.369507
0.632347 0.432880 0.402373
0.662646 0.463851 0.433139
0.693199 0.495299 0.464227
0.723922 0.527170 0.495562
0.754763 0.559326 0.527071
0.785679 0.591697 0.558744
0.816646 0.624209 0.590500
0.847647 0.656840 0.622351
0.878676 0.689533 0.654240
0.909718 0.722232 0.686149
0.941812 0.742504 0.707399
0.068068 0.068068 0.068068
0.068058 0.068058 0.068058
0.069483 0.069483 0.069483
0.083579 0.079071 0.072749
0.094114 0.083878 0.073525
0.104367 0.087101 0.075050
0.119044 0.090844 0.076747
0.145318 0.096396 0.078776
0.186420 0.105100 0.081577
0.231897 0.119714 0.086477
0.279636 0.143822 0.095213
0.325876 0.173761 0.109039
0.362307 0.161942 0.120504
0.390311 0.160616 0.135815
0.416710 0.173778 0.157781
0.441090 0.194396 0.181863
0.465924 0.219923 0.206908
0.492964 0.251824 0.234591
0.519688 0.284680 0.262107
0.546800 0.318481 0.290110
0.574168 0.360598 0.329865
0.602813 0.400264 0.369343
0.632482 0.433190 0.402259
0.662737 0.464043 0.433070
0.693262 0.495461 0.464169
0.723966 0.527270 0.495523
0.754789 0.559398 0.527066
0.785698 0.591753 0.558732
0.816659 0.624247 0.590496
0.847660 0.656865 0.622338
0.878680 0.689551 0.654230
0.909721 0.722220 0.686128
0.941815 0.742439 0.707389
0.071491 0.079967 0.072870
0.075240 0.083353 0.072643
0.081408 0.084935 0.071803
0.087087 0.087262 0.071853
0.103733 0.097848 0.070640
0.119023 0.104024 0.070656
0.134617 0.108431 0.072871
0.155899 0.113570 0.077573
0.191846 0.125580 0.083642
0.235680 0.146251 0.090987
0.283108 0.175158 0.100957
0.329151 0.200234 0.115381
0.365746 0.187769 0.125820
0.392455 0.185598 0.140447
0.417159 0.193225 0.160743
0.441393 0.208684 0.183740
0.466125 0.230048 0.208148
0.493098 0.258651 0.235432
0.519779 0.289149 0.262682
0.546912 0.321058 0.290509
0.574464 0.361309 0.329500
0.603009 0.400712 0.369156
0.632619 0.433488 0.402136
0.662828 0.464252 0.432974
0.693323 0.495596 0.464131
0.724010 0.527368 0.495493
0.754820 0.559461 0.527048
0.785719 0.591796 0.558715
0.816672 0.624286 0.590483
0.847667 0.656887 0.622328
0.878687 0.689544 0.654210
0.909731 0.722228 0.686128
0.941815 0.742507 0.707402
0.071053 0.093817 0.072819
0.080872 0.102213 0.072118
0.091294 0.105031 0.070544
0.099862 0.106681 0.070326
0.108625 0.109838 0.070592
0.126754 0.120271 0.069404
0.149185 0.129317 0.068768
0.177118 0.138906 0.071613
0.201986 0.147815 0.080148
0.239997 0.170259 0.092223
0.285540 0.197716 0.106551
0.331701 0.219845 0.121940
0.368638 0.208754 0.131484
0.394901 0.206096 0.145753
0.418916 0.210546 0.165066
0.441875 0.221370 0.185964
0.466323 0.239154 0.209443
0.493226 0.264973 0.236292
0.519864 0.293415 0.263265
0.546974 0.323855 0.290907
0.574757 0.361986 0.329123
0.603210 0.401145 0.368964
0.632752 0.433785 0.402019
0.662922 0.464470 0.432913
0.693387 0.495746 0.464086
0.724051 0.527454 0.495453
0.754851 0.559527 0.527023
0.785739 0.591828 0.558702
0.816687 0.624325 0.590486
0.847681 0.656883 0.622317
0.878696 0.689551 0.654210
0.909732 0.722245 0.686122
0.941817 0.742542 0.707413
0.072439 0.112670 0.072743
0.085465 0.122606 0.071896
0.099567 0.127932 0.069778
0.111636 0.129568 0.068854
0.122156 0.131880 0.069075
0.133222 0.135612 0.069522
0.157918 0.148741 0.068095
0.188821 0.163532 0.067472
0.217218 0.175761 0.073492
0.246723 0.190176 0.088869
0.288390 0.214773 0.109357
0.334095 0.234536 0.128381
0.371046 0.226326 0.137494
0.397047 0.223248 0.151269
0.420636 0.225413 0.169380
0.443164 0.233307 0.189012
0.466849 0.247844 0.211161
0.493365 0.270894 0.237189
0.519956 0.297520 0.263869
0.547222 0.326802 0.291503
0.575051 0.362706 0.328754
0.603409 0.401598 0.368760
0.632889 0.434053 0.401874
0.663015 0.464644 0.432816
0.693450 0.495897 0.464035
0.724096 0.527565 0.495432
0.754881 0.559602 0.526997
0.785756 0.591906 0.558699
0.816700 0.624362 0.590481
0.847692 0.656919 0.622319
0.878698 0.689613 0.654219
0.909737 0.722277 0.686132
0.941827 0.742534 0.707387
0.075057 0.139894 0.072659
0.091198 0.151119 0.071773
0.109362 0.160433 0.069352
0.125055 0.162077 0.067574
0.139231 0.164054 0.067128
0.152082 0.166601 0.067651
0.167517 0.170940 0.068450
0.197457 0.186532 0.066453
0.231079 0.203006 0.067199
0.258946 0.214186 0.080707
0.293219 0.231820 0.108015
0.338544 0.244982 0.134330
0.373447 0.244479 0.145351
0.399329 0.241057 0.158289
0.422549 0.241162 0.174528
0.444647 0.246250 0.192671
0.467953 0.258006 0.213761
0.494146 0.278330 0.238956
0.520496 0.302708 0.265050
0.547593 0.330331 0.292304
0.575413 0.363535 0.328265
0.603651 0.402121 0.368531
0.633055 0.434392 0.401707
0.663128 0.464905 0.432722
0.693527 0.496058 0.463968
0.724146 0.527680 0.495392
0.754918 0.559686 0.526970
0.785782 0.591954 0.558683
0.816715 0.624388 0.590472
0.847696 0.656964 0.622329
0.878707 0.689617 0.654228
0.909742 0.722252 0.686119
0.941830 0.742467 0.707366
0.080287 0.182760 0.072603
0.100405 0.191499 0.071785
0.122530 0.199074 0.069515
0.144507 0.203258 0.066714
0.163378 0.204443 0.065212
0.178064 0.205883 0.064887
0.192006 0.208141 0.065741
0.209005 0.212447 0.067131
0.241039 0.228603 0.064931
0.274594 0.243737 0.070155
0.303375 0.253968 0.100212
0.342352 0.263569 0.143867
0.376056 0.266010 0.157653
0.402040 0.262459 0.168202
0.424983 0.260544 0.181772
0.446620 0.262649 0.197870
0.469462 0.271214 0.217472
0.495246 0.288366 0.241578
0.521266 0.309879 0.266802
0.548129 0.335313 0.293488
0.575944 0.364710 0.327509
0.604009 0.402880 0.368137
0.633302 0.434923 0.401466
0.663295 0.465259 0.432574
0.693639 0.496321 0.463890
0.724226 0.527860 0.495332
0.754969 0.559803 0.526946
0.785819 0.592049 0.558670
0.816744 0.624452 0.590454
0.847715 0.656996 0.622311
0.878718 0.689629 0.654195
0.909752 0.722276 0.686119
0.941834 0.742541 0.707365
0.090071 0.229765 0.072735
0.115542 0.235634 0.072177
0.142457 0.240710 0.070430
0.169734 0.245536 0.067430
0.191035 0.249078 0.064434
0.205753 0.249889 0.062742
0.220023 0.251043 0.062181
0.235861 0.253280 0.063686
0.253624 0.256723 0.066290
0.287631 0.272494 0.065110
0.318459 0.278737 0.090052
0.347906 0.286166 0.147048
0.378581 0.290082 0.174331
0.404925 0.287019 0.181727
0.427875 0.283449 0.191826
0.449129 0.282638 0.205160
0.471473 0.287852 0.222736
0.496749 0.301378 0.245310
0.522351 0.319562 0.269419
0.548891 0.342173 0.295233
0.576596 0.367913 0.327552
0.604529 0.403961 0.367585
0.633657 0.435638 0.401110
0.663537 0.465814 0.432372
0.693806 0.496680 0.463749
0.724340 0.528129 0.495250
0.755044 0.559982 0.526893
0.785872 0.592150 0.558618
0.816778 0.624523 0.590428
0.847742 0.657058 0.622302
0.878735 0.689671 0.654192
0.909763 0.722287 0.686091
0.941838 0.742544 0.707360
0.102829 0.278699 0.073430
0.134896 0.282650 0.073561
0.167083 0.286071 0.072896
0.192191 0.289181 0.071188
0.211849 0.292167 0.068430
0.227524 0.294896 0.065393
0.243346 0.297531 0.062357
0.262825 0.299584 0.059939
0.281393 0.300274 0.062397
0.301062 0.302004 0.067472
0.335071 0.313748 0.071739
0.360601 0.316334 0.126561
0.382089 0.315381 0.185683
0.407541 0.313668 0.199509
0.430950 0.309342 0.205519
0.452114 0.306084 0.215258
0.474031 0.308000 0.230094
0.498745 0.317735 0.250583
0.523836 0.332211 0.273156
0.549966 0.351495 0.297847
0.577355 0.374438 0.329186
0.605291 0.405491 0.366706
0.634179 0.436685 0.400577
0.663892 0.466564 0.432036
0.694048 0.497223 0.463537
0.724502 0.528489 0.495130
0.755158 0.560268 0.526817
0.785948 0.592343 0.558578
0.816831 0.624648 0.590400
0.847773 0.657169 0.622299
0.878762 0.689711 0.654163
0.909778 0.722356 0.686117
0.941855 0.742540 0.707333
0.137396 0.326796 0.081009
0.135439 0.329372 0.078303
0.152004 0.332109 0.076529
0.189839 0.334372 0.077547
0.216179 0.336334 0.077727
0.236415 0.338184 0.076720
0.256408 0.340362 0.073599
0.279653 0.343261 0.066729
0.304252 0.345576 0.060474
0.326157 0.346213 0.063538
0.347326 0.347604 0.073270
0.377586 0.354142 0.086728
0.392027 0.345175 0.169473
0.410428 0.340717 0.215269
0.433701 0.337102 0.223563
0.455297 0.332400 0.228983
0.477084 0.331533 0.240260
0.501287 0.337564 0.257951
0.525805 0.348102 0.278420
0.551438 0.363641 0.301571
0.578422 0.383324 0.331635
0.606405 0.407597 0.365299
0.634937 0.438179 0.399735
0.664406 0.467670 0.431566
0.694399 0.498003 0.463250
0.724741 0.529036 0.494948
0.755320 0.560633 0.526702
0.786059 0.592593 0.558505
0.816907 0.624833 0.590359
0.847825 0.657268 0.622263
0.878796 0.689808 0.654177
0.909799 0.722449 0.686110
0.941873 0.742571 0.707316
0.180658 0.369048 0.090749
0.180914 0.370940 0.086798
0.176387 0.372651 0.083028
0.191778 0.374410 0.081697
0.221204 0.375866 0.084020
0.242981 0.377053 0.085819
0.263795 0.378372 0.086912
0.287270 0.380244 0.085501
0.313356 0.382855 0.076952
0.340703 0.385165 0.065429
0.364648 0.385598 0.068124
0.386536 0.386424 0.083299
0.408350 0.383391 0.106683
0.419026 0.370521 0.205799
0.436362 0.364926 0.241534
0.458170 0.360485 0.247078
0.480373 0.357857 0.254057
0.504312 0.360684 0.268094
0.528306 0.367405 0.285760
0.553389 0.378991 0.306815
0.579895 0.394987 0.335052
0.607745 0.413354 0.365345
0.636047 0.440275 0.398440
0.665158 0.469209 0.430824
0.694911 0.499134 0.462822
0.725091 0.529837 0.494692
0.755561 0.561180 0.526536
0.786221 0.592979 0.558409
0.817018 0.625104 0.590291
0.847901 0.657459 0.622223
0.878843 0.689965 0.654168
0.909837 0.722513 0.686080
0.941894 0.742657 0.707305
0.198429 0.399011 0.100636
0.198792 0.400766 0.091796
0.195247 0.401811 0.089310
0.188522 0.402896 0.085442
0.212856 0.404076 0.087311
0.236405 0.405087 0.090459
0.258586 0.406112 0.094012
0.282996 0.407325 0.098023
0.309332 0.408954 0.099882
0.337508 0.411332 0.091793
0.366850 0.413718 0.074339
0.392488 0.414160 0.075070
0.415233 0.414844 0.094518
0.435289 0.409245 0.132158
0.444142 0.394565 0.236331
0.460797 0.388530 0.266148
0.483435 0.385840 0.272202
0.507586 0.386493 0.281814
0.531289 0.389888 0.295828
0.555874 0.397688 0.314117
0.581854 0.409783 0.339851
0.609250 0.424555 0.368307
0.637667 0.443052 0.396257
0.666255 0.471439 0.429673
0.695660 0.500717 0.462131
0.725601 0.531011 0.494300
0.755909 0.561994 0.526296
0.786462 0.593535 0.558261
0.817181 0.625496 0.590214
0.848011 0.657724 0.622141
0.878927 0.690121 0.654105
0.909890 0.722643 0.686078
0.941940 0.742676 0.707239
0.201182 0.427132 0.094320
0.197971 0.427765 0.093250
0.192921 0.428403 0.091411
0.185661 0.429048 0.088803
0.203474 0.429885 0.090066
0.228006 0.430723 0.093668
0.250948 0.431609 0.098118
0.276189 0.432667 0.104381
0.303137 0.433861 0.112274
0.331288 0.435284 0.118775
0.360767 0.437477 0.112540
0.391379 0.439930 0.088078
0.418277 0.440461 0.085351
0.441772 0.441165 0.108162
0.460339 0.433501 0.163215
0.468173 0.417931 0.263843
0.486291 0.413856 0.291945
0.510678 0.413911 0.299815
0.534534 0.415039 0.309431
0.558847 0.419534 0.324122
0.584373 0.427920 0.346340
0.611273 0.438867 0.372421
0.639715 0.449683 0.395092
0.667849 0.474458 0.427758
0.696745 0.503065 0.461138
0.726346 0.532667 0.493692
0.756416 0.563154 0.525928
0.786808 0.594355 0.558025
0.817418 0.626063 0.590073
0.848180 0.658102 0.622071
0.879037 0.690402 0.654069
0.909966 0.722814 0.686028
0.941993 0.742787 0.707178
0.167106 0.452056 0.091495
0.158619 0.452433 0.090441
0.147848 0.452803 0.088996
0.163331 0.453363 0.089767
0.196888 0.454073 0.093261
0.220947 0.454719 0.096862
0.243512 0.455433 0.101387
0.268720 0.456334 0.108164
0.295637 0.457395 0.117885
0.324070 0.458560 0.130846
0.353170 0.459849 0.143387
0.383318 0.461888 0.140001
0.414707 0.464361 0.107218
0.442467 0.464995 0.099342
0.466551 0.465800 0.123948
0.484393 0.457015 0.193891
0.493722 0.443196 0.291888
0.513577 0.441426 0.319684
0.537632 0.441821 0.327258
0.562106 0.444026 0.337612
0.587445 0.449283 0.354885
0.613881 0.456624 0.378080
0.641813 0.464604 0.399054
0.670159 0.478632 0.424642
0.698318 0.506241 0.459466
0.727423 0.535014 0.492771
0.757155 0.564842 0.525402
0.787316 0.595536 0.557712
0.817767 0.626850 0.589859
0.848414 0.658663 0.621948
0.879200 0.690772 0.653965
0.910079 0.723045 0.685958
0.942072 0.742933 0.707107
0.049515 0.475683 0.085136
0.088725 0.476296 0.088134
0.128596 0.476870 0.091258
0.168324 0.477412 0.094524
0.197367 0.477914 0.097852
0.219101 0.478387 0.101291
0.240294 0.478932 0.105701
0.263795 0.479642 0.112228
0.289542 0.480538 0.121965
0.317243 0.481590 0.136321
0.346156 0.482732 0.155832
0.375725 0.483958 0.174043
0.406166 0.485871 0.174404
0.437996 0.488397 0.133220
0.466397 0.489188 0.117806
0.490971 0.490133 0.145658
0.510205 0.482558 0.225908
0.520920 0.470401 0.321117
0.540559 0.468862 0.347164
0.565259 0.470261 0.355307
0.590873 0.473351 0.366577
0.617082 0.477767 0.385664
0.644518 0.483075 0.404582
0.672744 0.490464 0.425556
0.700607 0.510469 0.456467
0.728982 0.538319 0.491283
0.758228 0.567231 0.524550
0.788053 0.597236 0.557217
0.818270 0.628046 0.589569
0.848763 0.659501 0.621779
0.879439 0.691332 0.653868
0.910242 0.723445 0.685901
0.942191 0.743119 0.706941
0.135882 0.502984 0.097427
0.146241 0.503308 0.098348
0.158797 0.503641 0.099429
0.188633 0.504004 0.102614
0.210814 0.504354 0.105902
0.228387 0.504686 0.109257
0.245986 0.505077 0.113475
0.266564 0.505606 0.119790
0.290048 0.506310 0.129391
0.315629 0.507190 0.143689
0.343242 0.508222 0.164393
0.372038 0.509337 0.187092
0.401526 0.510531 0.206336
0.432046 0.512371 0.209209
0.464053 0.514977 0.170311
0.492938 0.515902 0.146424
0.517796 0.516922 0.180716
0.537058 0.509460 0.261551
0.547762 0.497754 0.350207
0.568139 0.497175 0.375403
0.594085 0.499249 0.384159
0.620723 0.501864 0.395691
0.647844 0.505040 0.411804
0.675510 0.509850 0.431378
0.703687 0.518100 0.454313
0.731242 0.542734 0.488618
0.759774 0.570601 0.523211
0.789117 0.599651 0.556450
0.819004 0.629744 0.589118
0.849265 0.660676 0.621497
0.879780 0.692150 0.653704
0.910476 0.724028 0.685819
0.942367 0.743430 0.706734
0.292924 0.530665 0.154920
0.289180 0.531095 0.138708
0.283711 0.531237 0.135797
0.278220 0.531374 0.133089
0.277396 0.531552 0.132625
0.278622 0.531747 0.133070
0.280906 0.531997 0.133951
0.284445 0.532363 0.135322
0.293905 0.532898 0.139597
0.316992 0.533583 0.153337
0.342489 0.534447 0.172221
0.369941 0.535453 0.194122
0.398663 0.536533 0.217222
0.428140 0.537684 0.237104
0.458613 0.539454 0.241399
0.490792 0.542077 0.205164
0.519900 0.542965 0.183737
0.544432 0.543629 0.227755
0.563154 0.536139 0.303163
0.575320 0.526035 0.380112
0.596951 0.526204 0.404433
0.624055 0.527805 0.413159
0.651345 0.529687 0.424886
0.678742 0.532513 0.441214
0.706533 0.536996 0.461291
0.734357 0.550139 0.485637
0.762008 0.575185 0.520851
0.790653 0.603050 0.555220
0.820063 0.632178 0.588420
0.849992 0.662370 0.621076
0.880280 0.693331 0.653444
0.910818 0.724821 0.685638
0.942618 0.743870 0.706450
0.372902 0.554441 0.295504
0.372271 0.554805 0.291501
0.371554 0.555179 0.287154
0.370752 0.555560 0.282463
0.369853 0.555952 0.277314
0.368869 0.556356 0.271636
0.367612 0.556866 0.263790
0.365235 0.557657 0.249748
0.361095 0.558907 0.220981
0.350710 0.559966 0.188815
0.353784 0.560708 0.189658
0.368487 0.561692 0.199814
0.396123 0.562693 0.222084
0.425049 0.563764 0.245627
0.454707 0.564893 0.266034
0.485310 0.566631 0.271192
0.517708 0.569287 0.235792
0.546994 0.570113 0.217898
0.570952 0.570280 0.275179
0.590384 0.563827 0.340467
0.604069 0.554983 0.409811
0.626898 0.555005 0.433622
0.654683 0.556462 0.442489
0.682279 0.558084 0.454562
0.709825 0.560520 0.471167
0.737686 0.564631 0.491478
0.765131 0.582229 0.517659
0.792866 0.607705 0.553104
0.821589 0.635632 0.587296
0.851045 0.664813 0.620434
0.881009 0.694985 0.653044
0.911320 0.725967 0.685395
0.942988 0.744479 0.705985
0.428314 0.579649 0.366027
0.428213 0.579862 0.364624
0.428110 0.580074 0.363177
0.427974 0.580288 0.361705
0.427844 0.580509 0.360149
0.427626 0.580734 0.358539
0.427426 0.581015 0.356454
0.427030 0.581427 0.353299
0.426408 0.582064 0.348168
0.425168 0.583037 0.339571
0.422540 0.584603 0.323324
0.416264 0.587298 0.283786
0.407146 0.589656 0.239053
0.422260 0.590996 0.249078
0.451910 0.592081 0.273312
0.482126 0.593209 0.294376
0.513070 0.594926 0.300128
0.545734 0.597629 0.264501
0.575233 0.598407 0.248201
0.598906 0.598297 0.312721
0.619065 0.592647 0.372380
0.633752 0.584319 0.439135
0.657457 0.584255 0.463282
0.685605 0.585683 0.472306
0.713407 0.586934 0.484587
0.741030 0.588987 0.501401
0.768883 0.593099 0.521953
0.795999 0.614455 0.549727
0.823785 0.640341 0.585380
0.852573 0.668204 0.619384
0.882059 0.697444 0.652447
0.912049 0.727681 0.685046
0.943524 0.745376 0.705314
0.472227 0.606604 0.416782
0.472239 0.606730 0.416139
0.472257 0.606857 0.415491
0.472267 0.606982 0.414854
0.472301 0.607109 0.414185
0.472294 0.607240 0.413499
0.472303 0.607395 0.412637
0.472335 0.607628 0.411374
0.472319 0.607975 0.409419
0.472266 0.608496 0.406375
0.472116 0.609293 0.401536
0.471452 0.610546 0.393182
0.469734 0.612597 0.377236
0.463952 0.616326 0.335792
0.456009 0.619869 0.283673
0.478927 0.621338 0.300088
0.510098 0.622481 0.322066
0.541677 0.624182 0.328447
0.574720 0.626892 0.292136
0.604434 0.627698 0.273979
0.628022 0.627440 0.343925
0.648638 0.622253 0.402655
0.663951 0.614175 0.468914
0.688260 0.614100 0.493439
0.716726 0.615308 0.502467
0.744658 0.616164 0.514882
0.772308 0.617861 0.531851
0.799770 0.625458 0.553226
0.826929 0.646830 0.581908
0.854753 0.672975 0.617629
0.883578 0.700856 0.651499
0.913098 0.730055 0.684461
0.944299 0.746704 0.704292
0.511627 0.634723 0.460053
0.511673 0.634800 0.459714
0.511742 0.634875 0.459407
0.511768 0.634955 0.459083
0.511832 0.635025 0.458793
0.511855 0.635104 0.458454
0.511937 0.635196 0.458069
0.511976 0.635340 0.457438
0.512116 0.635544 0.456556
0.512265 0.635847 0.455226
0.512464 0.636299 0.453143
0.512699 0.636982 0.449828
0.512916 0.638025 0.444419
0.512869 0.639688 0.434761
0.511486 0.642550 0.414704
0.503553 0.648491 0.343159
0.506533 0.651240 0.327278
0.538716 0.652397 0.350161
0.570949 0.654082 0.357154
0.604372 0.656782 0.320237
0.634291 0.657595 0.300301
0.657736 0.657191 0.375844
0.678700 0.652375 0.433335
0.694499 0.644406 0.499080
0.719259 0.644305 0.523909
0.747958 0.645238 0.532874
0.775958 0.645760 0.545392
0.803604 0.647178 0.562482
0.830733 0.657710 0.584533
0.857893 0.679322 0.614262
0.885749 0.705619 0.649865
0.914608 0.733468 0.683568
0.945435 0.748567 0.702741
0.549227 0.663535 0.500288
0.549270 0.663582 0.500120
0.549312 0.663628 0.499957
0.549351 0.663675 0.499797
0.549421 0.663724 0.499629
0.549418 0.663770 0.499465
0.549492 0.663830 0.499258
0.549592 0.663913 0.498955
0.549709 0.664042 0.498508
0.549874 0.664223 0.497846
0.550082 0.664500 0.496817
0.550421 0.664901 0.495287
0.550877 0.665509 0.492882
0.551453 0.666427 0.488980
0.552097 0.667863 0.482252
0.552417 0.670224 0.469270
0.550401 0.674659 0.437060
0.541709 0.681024 0.363937
0.567957 0.682748 0.378883
0.600746 0.684413 0.386421
0.634514 0.687105 0.348889
0.664563 0.687915 0.327921
0.687877 0.687373 0.408187
0.709118 0.682858 0.464256
0.725286 0.674918 0.529526
0.750385 0.674760 0.554591
0.779254 0.675428 0.563477
0.807279 0.675687 0.576078
0.834904 0.676917 0.593270
0.861747 0.689939 0.615876
0.888869 0.711958 0.646738
0.916793 0.738029 0.681867
0.947073 0.751248 0.700183
0.585536 0.692876 0.538465
0.585568 0.692907 0.538377
0.585612 0.692932 0.538301
0.585643 0.692965 0.538204
0.585674 0.692998 0.538101
0.585700 0.693027 0.538016
0.585753 0.693062 0.537904
0.585820 0.693113 0.537743
0.585918 0.693194 0.537505
0.586064 0.693309 0.537158
0.586261 0.693477 0.536635
0.586551 0.693724 0.535841
0.586952 0.694095 0.534633
0.587492 0.694649 0.532751
0.588265 0.695484 0.529751
0.589194 0.696774 0.524639
0.590245 0.698842 0.515216
0.590562 0.702481 0.494354
0.582033 0.710648 0.410772
0.597560 0.713403 0.408064
0.630881 0.715052 0.416145
0.664968 0.717726 0.378156
0.695141 0.718532 0.356160
0.718328 0.717866 0.440660
0.739783 0.713602 0.495263
0.756227 0.705636 0.560193
0.781576 0.705428 0.585433
0.810560 0.705866 0.594243
0.838592 0.705906 0.606899
0.866184 0.707078 0.624188
0.892808 0.722067 0.647232
0.919935 0.744024 0.678461
0.949305 0.755671 0.698164
0.620855 0.722626 0.575137
0.620912 0.722640 0.575092
0.620925 0.722660 0.575047
0.620965 0.722678 0.574994
0.620982 0.722698 0.574938
0.621024 0.722717 0.574896
0.621046 0.722742 0.574829
0.621078 0.722778 0.574736
0.621165 0.722825 0.574602
0.621254 0.722898 0.574406
0.621395 0.723008 0.574119
0.621627 0.723166 0.573681
0.621923 0.723399 0.573038
0.622363 0.723743 0.572042
0.622993 0.724256 0.570523
0.623836 0.725030 0.568066
0.624991 0.726214 0.563996
0.626424 0.728085 0.556616
0.627779 0.731261 0.541225
0.625808 0.738013 0.492389
0.627478 0.744266 0.437640
0.661368 0.745892 0.446145
0.695691 0.748551 0.407726
0.725943 0.749342 0.385271
0.749011 0.748583 0.472965
0.770618 0.744528 0.526330
0.787271 0.736504 0.591048
0.812798 0.736245 0.616386
0.841853 0.736527 0.625146
0.869873 0.736454 0.637854
0.897428 0.737716 0.655238
0.923958 0.753232 0.678390
0.951986 0.763633 0.702007
0.655466 0.752685 0.610676
0.655497 0.752698 0.610642
0.655512 0.752714 0.610607
0.655524 0.752727 0.610573
0.655573 0.752731 0.610561
0.655545 0.752749 0.610510
0.655580 0.752764 0.610478
0.655642 0.752784 0.610436
0.655651 0.752819 0.610360
0.655719 0.752870 0.610227
0.655844 0.752936 0.610074
0.656001 0.753039 0.609820
0.656240 0.753184 0.609465
0.656552 0.753409 0.608904
0.656998 0.753736 0.608067
0.657667 0.754220 0.606773
0.658632 0.754943 0.604726
0.659850 0.756056 0.601288
0.661494 0.757788 0.595215
0.663319 0.760684 0.582897
0.663688 0.766384 0.549064
0.658734 0.775123 0.468992
0.692017 0.776875 0.476432
0.726542 0.779519 0.437716
0.756881 0.780300 0.414677
0.779867 0.779464 0.505049
0.801583 0.775558 0.557474
0.818374 0.767518 0.622027
0.844019 0.767208 0.647436
0.873115 0.767380 0.656157
0.901113 0.767331 0.668935
0.928733 0.767526 0.686081
0.955640 0.775190 0.707564
0.689465 0.783002 0.645270
0.689450 0.783011 0.645249
0.689480 0.783020 0.645227
0.689469 0.783029 0.645203
0.689476 0.783040 0.645185
0.689503 0.783046 0.645183
0.689532 0.783052 0.645162
0.689547 0.783068 0.645130
0.689588 0.783089 0.645082
0.689637 0.783119 0.645012
0.689723 0.783167 0.644919
0.689808 0.783238 0.644760
0.689980 0.783332 0.644562
0.690196 0.783475 0.644231
0.690535 0.783683 0.643748
0.690994 0.784000 0.643004
0.691672 0.784466 0.641864
0.692650 0.785155 0.640090
0.693986 0.786209 0.637113
0.695757 0.787846 0.631880
0.697849 0.790546 0.621491
0.699337 0.795633 0.594826
0.692849 0.805689 0.504461
0.722813 0.807949 0.506950
0.757521 0.810585 0.467911
0.787920 0.811354 0.444473
0.810829 0.810470 0.536848
0.832625 0.806676 0.588659
0.849501 0.798643 0.653111
