StdX-ACES-OCIOv2.0/studio/LMT_filmic_ACEScct_33.cube
TITLE "Generated by Foundry::LUT"
LUT_3D_SIZE 33
0.084322 0.084322 0.084322
0.116800 0.116800 0.116800
0.149277 0.149277 0.149277
0.164968 0.151006 0.151428
0.169621 0.153076 0.153868
0.183947 0.149813 0.154982
0.211180 0.144479 0.153469
0.235779 0.144425 0.150711
0.260279 0.146016 0.148554
0.286400 0.149735 0.146446
0.314160 0.155979 0.143973
0.343536 0.163735 0.140305
0.375963 0.162172 0.137422
0.407773 0.161263 0.146680
0.438499 0.171315 0.158790
0.469030 0.188977 0.176010
0.499459 0.213884 0.198220
0.529814 0.244787 0.224937
0.560126 0.279599 0.255059
0.590459 0.316138 0.287275
0.620825 0.353260 0.320597
0.651220 0.390499 0.354561
0.681625 0.427707 0.388881
0.712055 0.464595 0.423292
0.742531 0.500924 0.457489
0.773065 0.536663 0.491362
0.803680 0.571686 0.524800
0.834394 0.605988 0.557710
0.865233 0.639455 0.590012
0.896217 0.672046 0.621621
0.927366 0.703694 0.652501
0.958641 0.734649 0.682825
0.989931 0.765544 0.713130
0.115590 0.115590 0.115590
0.116446 0.116446 0.116446
0.148923 0.148923 0.148923
0.172971 0.156161 0.151600
0.191161 0.158937 0.150975
0.204770 0.161983 0.151976
0.219479 0.165130 0.152047
0.238193 0.168613 0.151185
0.260395 0.172772 0.149682
0.285571 0.177813 0.147467
0.313160 0.183742 0.144270
0.342712 0.190026 0.139263
0.376121 0.185632 0.139679
0.407632 0.186612 0.147902
0.438375 0.194378 0.159929
0.468935 0.208203 0.176984
0.499387 0.228610 0.199033
0.529765 0.255166 0.225568
0.560092 0.286574 0.255544
0.590427 0.320765 0.287674
0.620801 0.356260 0.320888
0.651202 0.392443 0.354781
0.681616 0.428925 0.389031
0.712048 0.465373 0.423382
0.742525 0.501437 0.457556
0.773060 0.537002 0.491405
0.803678 0.571909 0.524824
0.834396 0.606112 0.557721
0.865233 0.639543 0.590026
0.896218 0.672116 0.621640
0.927365 0.703749 0.652504
0.958644 0.734653 0.682809
0.989929 0.765563 0.713128
0.146858 0.146858 0.146858
0.146837 0.146837 0.146837
0.148568 0.148568 0.148568
0.174723 0.166790 0.152935
0.191288 0.174822 0.154403
0.205121 0.179910 0.153932
0.219736 0.184331 0.153090
0.237844 0.188982 0.151790
0.259518 0.193886 0.149900
0.284446 0.199112 0.147176
0.312063 0.204644 0.143291
0.341962 0.209723 0.138397
0.376121 0.204407 0.141518
0.407509 0.205874 0.149152
0.438270 0.212262 0.161027
0.468849 0.223703 0.177927
0.499326 0.241004 0.199818
0.529718 0.264381 0.226185
0.560059 0.292992 0.256008
0.590396 0.325125 0.288041
0.620778 0.359166 0.321205
0.651186 0.394320 0.354985
0.681601 0.430175 0.389203
0.712041 0.466150 0.423461
0.742521 0.501931 0.457605
0.773059 0.537310 0.491452
0.803675 0.572128 0.524859
0.834395 0.606249 0.557743
0.865235 0.639618 0.590031
0.896221 0.672157 0.621622
0.927366 0.703787 0.652520
0.958644 0.734692 0.682822
0.989933 0.765566 0.713121
0.150648 0.171620 0.153449
0.159453 0.172736 0.153816
0.167590 0.173609 0.154567
0.175651 0.175896 0.155373
0.193070 0.187257 0.154275
0.206775 0.193764 0.153568
0.220899 0.199147 0.152766
0.238269 0.204597 0.151524
0.259214 0.210085 0.149598
0.283680 0.215559 0.146805
0.311212 0.220876 0.143048
0.341429 0.225122 0.138709
0.376093 0.219744 0.143271
0.407400 0.221415 0.150418
0.438172 0.226905 0.162117
0.468770 0.236689 0.178830
0.499263 0.251773 0.200571
0.529673 0.272644 0.226777
0.560027 0.298923 0.256476
0.590372 0.329221 0.288406
0.620752 0.361975 0.321509
0.651169 0.396157 0.355192
0.681592 0.431348 0.389332
0.712034 0.466918 0.423561
0.742517 0.502441 0.457683
0.773056 0.537629 0.491488
0.803675 0.572318 0.524873
0.834396 0.606373 0.557754
0.865235 0.639706 0.590040
0.896219 0.672212 0.621633
0.927367 0.703809 0.652508
0.958646 0.734714 0.682810
0.989936 0.765567 0.713141
0.154601 0.190505 0.154263
0.167259 0.191962 0.154321
0.177789 0.193486 0.154132
0.186780 0.195034 0.154291
0.195532 0.197488 0.154484
0.209181 0.204983 0.153973
0.222952 0.210976 0.153406
0.239653 0.216918 0.152445
0.259760 0.222818 0.150706
0.283518 0.228578 0.147890
0.310726 0.233909 0.144013
0.341220 0.237521 0.139943
0.376065 0.232655 0.144997
0.407305 0.234427 0.151705
0.438091 0.239265 0.163177
0.468704 0.247844 0.179711
0.499211 0.261220 0.201291
0.529637 0.280094 0.227342
0.560000 0.304442 0.256922
0.590349 0.333116 0.288761
0.620728 0.364678 0.321791
0.651151 0.397964 0.355422
0.681583 0.432510 0.389474
0.712030 0.467666 0.423661
0.742512 0.502930 0.457745
0.773054 0.537951 0.491537
0.803676 0.572522 0.524911
0.834394 0.606525 0.557772
0.865233 0.639809 0.590060
0.896216 0.672299 0.621649
0.927366 0.703864 0.652506
0.958645 0.734731 0.682826
0.989934 0.765587 0.713145
0.158656 0.206768 0.153048
0.172960 0.208145 0.152879
0.184732 0.209547 0.153117
0.194691 0.210989 0.153568
0.203341 0.212459 0.154099
0.211720 0.214625 0.154499
0.225299 0.221027 0.154117
0.241533 0.227238 0.153495
0.260917 0.233348 0.152163
0.283908 0.239299 0.149595
0.310641 0.244687 0.145706
0.341528 0.247518 0.142012
0.376049 0.243778 0.146699
0.407225 0.245613 0.152989
0.438016 0.249975 0.164225
0.468642 0.257638 0.180561
0.499160 0.269677 0.201977
0.529598 0.286940 0.227893
0.559971 0.309585 0.257328
0.590327 0.336811 0.289092
0.620710 0.367250 0.322075
0.651139 0.399713 0.355615
0.681571 0.433671 0.389617
0.712020 0.468435 0.423775
0.742509 0.503418 0.457818
0.773053 0.538257 0.491566
0.803675 0.572726 0.524931
0.834395 0.606648 0.557794
0.865236 0.639883 0.590062
0.896219 0.672338 0.621662
0.927368 0.703886 0.652511
0.958645 0.734773 0.682821
0.989933 0.765609 0.713126
0.163691 0.223484 0.151347
0.178856 0.224639 0.151602
0.191270 0.225837 0.152111
0.201744 0.227081 0.152773
0.210811 0.228358 0.153498
0.218831 0.229649 0.154211
0.228171 0.231777 0.154865
0.244060 0.238160 0.154573
0.262803 0.244337 0.153817
0.284959 0.250353 0.151846
0.311054 0.255747 0.148256
0.343876 0.255735 0.146515
0.376054 0.255622 0.148748
0.407149 0.257513 0.154565
0.437940 0.261434 0.165452
0.468579 0.268230 0.181572
0.499110 0.278962 0.202811
0.529563 0.294557 0.228521
0.559945 0.315474 0.257835
0.590304 0.341145 0.289494
0.620684 0.370334 0.322417
0.651119 0.401821 0.355860
0.681559 0.435070 0.389793
0.712014 0.469341 0.423881
0.742504 0.504006 0.457879
0.773051 0.538658 0.491621
0.803676 0.572965 0.524961
0.834394 0.606821 0.557802
0.865236 0.639990 0.590068
0.896220 0.672396 0.621647
0.927360 0.703974 0.652530
0.958647 0.734795 0.682801
0.989935 0.765630 0.713135
0.170665 0.243294 0.149584
0.186049 0.244202 0.150152
0.198689 0.245150 0.150888
0.209387 0.246136 0.151733
0.218653 0.247154 0.152630
0.226841 0.248193 0.153525
0.235788 0.249481 0.154561
0.247645 0.251765 0.155703
0.265840 0.257866 0.155598
0.287155 0.263731 0.154653
0.312604 0.268820 0.151994
0.345006 0.268981 0.150524
0.376118 0.270238 0.151620
0.407073 0.272208 0.156817
0.437855 0.275670 0.167175
0.468504 0.281528 0.182951
0.499050 0.290823 0.203922
0.529514 0.304549 0.229425
0.559911 0.323348 0.258509
0.590274 0.347027 0.290036
0.620656 0.374572 0.322858
0.651097 0.404769 0.356215
0.681540 0.437071 0.390031
0.712003 0.470663 0.424045
0.742499 0.504854 0.457987
0.773048 0.539213 0.491679
0.803673 0.573339 0.525011
0.834394 0.607045 0.557835
0.865236 0.640150 0.590073
0.896221 0.672505 0.621666
0.927371 0.704002 0.652533
0.958642 0.734851 0.682827
0.989932 0.765671 0.713128
0.179396 0.265981 0.147822
0.194397 0.266652 0.148638
0.206851 0.267350 0.149555
0.217472 0.268077 0.150540
0.226733 0.268825 0.151562
0.234943 0.269590 0.152587
0.243934 0.270543 0.153811
0.255411 0.271937 0.155440
0.270053 0.274218 0.157155
0.291009 0.279547 0.157206
0.317542 0.282859 0.155942
0.346158 0.285571 0.154836
0.376334 0.287614 0.155436
0.407043 0.289691 0.159861
0.437782 0.292720 0.169505
0.468431 0.297642 0.184781
0.498984 0.305463 0.205427
0.529459 0.317180 0.230634
0.559872 0.333587 0.259449
0.590241 0.354866 0.290779
0.620623 0.380348 0.323467
0.651058 0.408925 0.356724
0.681515 0.439909 0.390398
0.711986 0.472555 0.424295
0.742488 0.506107 0.458145
0.773043 0.540013 0.491794
0.803670 0.573862 0.525064
0.834395 0.607391 0.557876
0.865235 0.640379 0.590113
0.896218 0.672666 0.621685
0.927367 0.704131 0.652537
0.958647 0.734915 0.682842
0.989932 0.765712 0.713146
0.187683 0.291392 0.146812
0.201984 0.291884 0.147840
0.213996 0.292397 0.148920
0.224316 0.292931 0.150044
0.233336 0.293486 0.151203
0.241126 0.294119 0.152465
0.249693 0.294910 0.153997
0.261835 0.295715 0.155538
0.277199 0.296737 0.157286
0.296052 0.298261 0.158916
0.320480 0.302029 0.159042
0.347615 0.305126 0.159062
0.376835 0.307579 0.159883
0.407142 0.309760 0.163673
0.437768 0.312425 0.172493
0.468391 0.316480 0.187124
0.498938 0.322873 0.207333
0.529414 0.332573 0.232209
0.559833 0.346466 0.260703
0.590209 0.365053 0.291752
0.620586 0.388053 0.324295
0.651014 0.414576 0.357447
0.681487 0.443821 0.390882
0.711968 0.475194 0.424628
0.742477 0.507879 0.458384
0.773036 0.541185 0.491943
0.803662 0.574663 0.525169
0.834390 0.607903 0.557928
0.865237 0.640698 0.590140
0.896221 0.672888 0.621713
0.927365 0.704282 0.652551
0.958646 0.735014 0.682845
0.989932 0.765795 0.713163
0.179137 0.320425 0.151991
0.196506 0.320641 0.152706
0.210847 0.320852 0.153408
0.223042 0.321062 0.154095
0.233657 0.321271 0.154767
0.243061 0.321476 0.155421
0.253323 0.321726 0.156196
0.266332 0.322087 0.157260
0.282269 0.322601 0.158666
0.301135 0.323321 0.160405
0.322970 0.324463 0.162139
0.349321 0.327429 0.162849
0.377705 0.329932 0.164298
0.407478 0.332132 0.167897
0.437887 0.334493 0.175941
0.468437 0.337785 0.189845
0.498954 0.342873 0.209549
0.529410 0.350679 0.234050
0.559821 0.362082 0.262210
0.590194 0.377804 0.292961
0.620560 0.397993 0.325298
0.650967 0.422080 0.358343
0.681447 0.449211 0.391587
0.711940 0.478925 0.425115
0.742463 0.510374 0.458697
0.773029 0.542851 0.492152
0.803661 0.575748 0.525302
0.834390 0.608637 0.558017
0.865236 0.641205 0.590201
0.896221 0.673213 0.621747
0.927368 0.704493 0.652574
0.958648 0.735156 0.682849
0.989934 0.765904 0.713149
0.181800 0.349210 0.157672
0.199538 0.349319 0.158127
0.214146 0.349425 0.158578
0.226539 0.349530 0.159021
0.237296 0.349635 0.159455
0.246809 0.349740 0.159882
0.257179 0.349868 0.160394
0.270303 0.350055 0.161117
0.286352 0.350322 0.162127
0.305290 0.350708 0.163493
0.326914 0.351248 0.165235
0.351052 0.352120 0.166991
0.378851 0.354461 0.168548
0.408112 0.356521 0.172054
0.438236 0.358579 0.179421
0.468656 0.361203 0.192567
0.499098 0.365156 0.211775
0.529503 0.371254 0.236020
0.559872 0.380367 0.263934
0.590223 0.393242 0.294366
0.620565 0.410411 0.326491
0.650939 0.431714 0.359421
0.681400 0.456429 0.392523
0.711909 0.484030 0.425760
0.742439 0.513907 0.459142
0.773017 0.545226 0.492458
0.803658 0.577316 0.525487
0.834392 0.609672 0.558144
0.865242 0.641874 0.590270
0.896224 0.673670 0.621792
0.927373 0.704799 0.652598
0.958650 0.735395 0.682859
0.989929 0.766067 0.713166
0.188971 0.378606 0.166054
0.205810 0.378667 0.166313
0.219797 0.378728 0.166560
0.231742 0.378789 0.166819
0.242178 0.378848 0.167065
0.251430 0.378908 0.167309
0.261565 0.378980 0.167602
0.274429 0.379086 0.168034
0.290212 0.379237 0.168632
0.308937 0.379452 0.169485
0.330362 0.379752 0.170664
0.354164 0.380167 0.172271
0.380065 0.380828 0.173849
0.408912 0.382706 0.176482
0.438778 0.384447 0.182699
0.469092 0.386451 0.194691
0.499461 0.389389 0.213329
0.529775 0.394007 0.237517
0.560059 0.401069 0.265448
0.590342 0.411337 0.295834
0.620640 0.425458 0.327733
0.650969 0.443706 0.360562
0.681369 0.465762 0.393668
0.711879 0.490867 0.426637
0.742419 0.518722 0.459752
0.773005 0.548547 0.492861
0.803656 0.579560 0.525763
0.834395 0.611170 0.558307
0.865239 0.642912 0.590395
0.896228 0.674357 0.621857
0.927378 0.705255 0.652654
0.958653 0.735695 0.682900
0.989940 0.766243 0.713179
0.200659 0.408493 0.177977
0.215631 0.408534 0.178083
0.228308 0.408575 0.178182
0.239292 0.408615 0.178288
0.248999 0.408654 0.178394
0.257702 0.408691 0.178500
0.267252 0.408739 0.178621
0.279505 0.408805 0.178808
0.294667 0.408901 0.179060
0.312783 0.409036 0.179421
0.333700 0.409218 0.179933
0.357087 0.409467 0.180720
0.382542 0.409793 0.181979
0.409750 0.410297 0.183082
0.439368 0.411826 0.186950
0.469634 0.413344 0.196417
0.500036 0.415365 0.213540
0.530306 0.418635 0.237605
0.560478 0.423900 0.266029
0.590638 0.431836 0.296809
0.620842 0.443111 0.328826
0.651099 0.458219 0.361621
0.681419 0.477300 0.394779
0.711862 0.499805 0.427725
0.742408 0.525205 0.460550
0.772998 0.553106 0.493406
0.803655 0.582720 0.526128
0.834395 0.613317 0.558543
0.865251 0.644330 0.590539
0.896231 0.675344 0.621970
0.927382 0.705933 0.652713
0.958656 0.736173 0.682930
0.989943 0.766559 0.713208
0.217102 0.438744 0.193944
0.229550 0.438776 0.193932
0.240481 0.438802 0.193944
0.250097 0.438830 0.193956
0.258678 0.438859 0.193952
0.266494 0.438888 0.193959
0.275185 0.438920 0.193943
0.286449 0.438969 0.193946
0.300574 0.439036 0.193918
0.317654 0.439130 0.193923
0.337636 0.439260 0.193886
0.360242 0.439432 0.193905
0.385098 0.439649 0.194079
0.411771 0.439917 0.194677
0.439913 0.440312 0.195015
0.470093 0.441577 0.200168
0.500627 0.442943 0.213197
0.531040 0.445020 0.235537
0.561201 0.448613 0.264510
0.591224 0.454467 0.296397
0.621267 0.463188 0.329235
0.651390 0.475316 0.362340
0.681613 0.491216 0.395594
0.711936 0.510899 0.428778
0.742428 0.533671 0.461508
0.773010 0.559248 0.494102
0.803666 0.587033 0.526589
0.834407 0.616305 0.558865
0.865254 0.646414 0.590746
0.896245 0.676722 0.622081
0.927392 0.706892 0.652794
0.958661 0.736828 0.682989
0.989946 0.767018 0.713244
0.238282 0.469247 0.214028
0.248134 0.469269 0.213941
0.256925 0.469290 0.213905
0.264838 0.469315 0.213834
0.272112 0.469333 0.213740
0.278790 0.469354 0.213708
0.286326 0.469378 0.213601
0.296228 0.469417 0.213508
0.308865 0.469469 0.213327
0.324482 0.469541 0.213084
0.343022 0.469642 0.212743
0.364359 0.469779 0.212262
0.388169 0.469952 0.211601
0.414072 0.470159 0.210887
0.441605 0.470387 0.210675
0.470426 0.470697 0.209863
0.500991 0.471785 0.216226
0.531709 0.473039 0.232829
0.562117 0.475171 0.260071
0.592143 0.479080 0.293205
0.622024 0.485465 0.327777
0.651948 0.494869 0.362101
0.682001 0.507711 0.395894
0.712192 0.524237 0.429339
0.742536 0.544307 0.462433
0.773065 0.567285 0.494904
0.803699 0.592881 0.527197
0.834434 0.620434 0.559262
0.865278 0.649274 0.591012
0.896265 0.678713 0.622248
0.927404 0.708271 0.652905
0.958673 0.737776 0.683057
0.989953 0.767688 0.713279
0.263812 0.499924 0.237815
0.271124 0.499941 0.237723
0.277841 0.499957 0.237646
0.283998 0.499976 0.237557
0.289767 0.499991 0.237453
0.295147 0.500009 0.237350
0.301377 0.500029 0.237262
0.309569 0.500062 0.237081
0.320431 0.500102 0.236842
0.334059 0.500163 0.236500
0.350694 0.500242 0.235986
0.370247 0.500354 0.235243
0.392497 0.500506 0.234244
0.417135 0.500689 0.232835
0.443736 0.500895 0.231149
0.471865 0.501100 0.229892
0.501160 0.501359 0.227749
0.532010 0.502309 0.235044
0.562862 0.503471 0.254941
0.593236 0.505676 0.286465
0.623139 0.509865 0.322985
0.652879 0.516714 0.359617
0.682698 0.526689 0.394992
0.712687 0.540099 0.429231
0.742866 0.557086 0.462687
0.773226 0.577440 0.495608
0.803794 0.600538 0.527821
0.834496 0.626014 0.559754
0.865320 0.653252 0.591333
0.896295 0.681502 0.622474
0.927427 0.710207 0.653026
0.958690 0.739147 0.683165
0.989966 0.768641 0.713349
0.292734 0.530724 0.264707
0.297888 0.530737 0.264593
0.302765 0.530749 0.264499
0.307338 0.530764 0.264390
0.311648 0.530779 0.264301
0.315840 0.530789 0.264202
0.320624 0.530807 0.264096
0.327219 0.530828 0.263911
0.335959 0.530865 0.263673
0.347261 0.530916 0.263317
0.361533 0.530981 0.262796
0.378743 0.531076 0.262016
0.398934 0.531200 0.260889
0.421756 0.531362 0.259294
0.446888 0.531565 0.257126
0.473924 0.531779 0.254455
0.502432 0.531982 0.252114
0.532056 0.532199 0.248523
0.563121 0.533049 0.256409
0.594059 0.534153 0.279125
0.624397 0.536413 0.314178
0.654188 0.540833 0.353343
0.683798 0.548085 0.391549
0.713520 0.558527 0.427674
0.743461 0.572389 0.462150
0.773632 0.589702 0.495557
0.804024 0.610194 0.528217
0.834629 0.633341 0.560201
0.865411 0.658597 0.591713
0.896352 0.685363 0.622756
0.927470 0.712959 0.653241
0.958719 0.741085 0.683277
0.989984 0.770002 0.713439
0.324043 0.561611 0.293851
0.327567 0.561622 0.293759
0.331009 0.561631 0.293658
0.334275 0.561640 0.293592
0.337364 0.561652 0.293504
0.340360 0.561663 0.293401
0.344019 0.561672 0.293310
0.348919 0.561691 0.293147
0.355609 0.561722 0.292934
0.364670 0.561756 0.292600
0.376257 0.561812 0.292134
0.390733 0.561889 0.291434
0.408258 0.561995 0.290407
0.428672 0.562139 0.288947
0.451773 0.562323 0.286848
0.477176 0.562538 0.283963
0.504464 0.562773 0.280369
0.533228 0.562974 0.276915
0.563071 0.563165 0.271881
0.594275 0.563948 0.280033
0.625279 0.565003 0.304956
0.655591 0.567303 0.342737
0.685287 0.571909 0.383954
0.714791 0.579475 0.423326
0.744426 0.590307 0.459980
0.774322 0.604509 0.494602
0.804504 0.622009 0.527872
0.834935 0.642548 0.560272
0.865586 0.665655 0.591988
0.896469 0.690550 0.623031
0.927536 0.716750 0.653443
0.958765 0.743809 0.683453
0.990017 0.771920 0.713553
0.356992 0.592558 0.324552
0.359398 0.592565 0.324499
0.361684 0.592574 0.324425
0.363857 0.592582 0.324346
0.366039 0.592590 0.324264
0.368165 0.592598 0.324203
0.370656 0.592610 0.324103
0.374255 0.592623 0.324004
0.379197 0.592645 0.323825
0.385975 0.592674 0.323525
0.394980 0.592716 0.323156
0.406570 0.592780 0.322559
0.421157 0.592862 0.321723
0.438669 0.592984 0.320504
0.459164 0.593144 0.318715
0.482354 0.593343 0.316176
0.507832 0.593586 0.312694
0.535260 0.593835 0.308226
0.564174 0.594040 0.303784
0.594149 0.594224 0.297514
0.625472 0.594951 0.305567
0.656525 0.595967 0.332084
0.686812 0.598293 0.371874
0.716435 0.603044 0.414571
0.745841 0.610857 0.454814
0.775411 0.621971 0.491874
0.805284 0.636405 0.526544
0.835488 0.653985 0.559617
0.865960 0.674480 0.591726
0.896672 0.697434 0.623164
0.927663 0.721884 0.653647
0.958841 0.747573 0.683640
0.990063 0.774661 0.713702
0.390773 0.623553 0.356267
0.392298 0.623559 0.356207
0.393801 0.623567 0.356174
0.395332 0.623573 0.356122
0.396841 0.623578 0.356043
0.398263 0.623586 0.355997
0.399954 0.623594 0.355924
0.402518 0.623603 0.355822
0.406013 0.623618 0.355675
0.410915 0.623642 0.355471
0.417554 0.623675 0.355174
0.426442 0.623724 0.354709
0.437914 0.623793 0.354071
0.452330 0.623888 0.353078
0.469768 0.624018 0.351676
0.490161 0.624193 0.349661
0.513268 0.624417 0.346776
0.538769 0.624679 0.342754
0.566228 0.624947 0.337605
0.595200 0.625168 0.332328
0.625291 0.625338 0.324903
0.656688 0.626026 0.332674
0.687786 0.627013 0.360208
0.718059 0.629352 0.401363
0.747622 0.634193 0.445108
0.776963 0.642193 0.485990
0.806477 0.653506 0.523311
0.836341 0.668063 0.557933
0.866577 0.685630 0.590793
0.897110 0.705972 0.622620
0.927904 0.728600 0.653648
0.958978 0.752702 0.683764
0.990152 0.778412 0.713828
0.424860 0.654589 0.388509
0.425956 0.654591 0.388460
0.426935 0.654596 0.388418
0.427948 0.654599 0.388365
0.428857 0.654607 0.388339
0.429904 0.654609 0.388276
0.431067 0.654616 0.388238
0.432783 0.654624 0.388175
0.435137 0.654637 0.388058
0.438603 0.654655 0.387904
0.443367 0.654678 0.387676
0.449889 0.654714 0.387339
0.458577 0.654767 0.386836
0.469868 0.654841 0.386118
0.484032 0.654947 0.385055
0.501240 0.655091 0.383506
0.521461 0.655280 0.381307
0.544441 0.655521 0.378094
0.569870 0.655805 0.373658
0.597297 0.656099 0.367971
0.626320 0.656326 0.361954
0.656455 0.656501 0.353749
0.687906 0.657166 0.361085
0.719045 0.658116 0.389118
0.749320 0.660451 0.431081
0.778852 0.665343 0.475530
0.808137 0.673463 0.516821
0.837627 0.684882 0.554297
0.867499 0.699461 0.588842
0.897782 0.716901 0.621399
0.928382 0.737000 0.652875
0.959231 0.759399 0.683681
0.990297 0.783486 0.713932
0.459160 0.685647 0.420974
0.459777 0.685654 0.420934
0.460456 0.685658 0.420895
0.461011 0.685663 0.420878
0.461796 0.685663 0.420841
0.462398 0.685667 0.420799
0.463230 0.685670 0.420778
0.464356 0.685676 0.420747
0.465983 0.685687 0.420630
0.468374 0.685698 0.420522
0.471678 0.685716 0.420355
0.476277 0.685745 0.420118
0.482634 0.685784 0.419735
0.491040 0.685842 0.419215
0.502075 0.685921 0.418445
0.516050 0.686031 0.417304
0.533002 0.686185 0.415665
0.552997 0.686392 0.413268
0.575808 0.686650 0.409858
0.601092 0.686955 0.405169
0.628480 0.687264 0.399021
0.657473 0.687513 0.392480
0.687643 0.687691 0.383664
0.719141 0.688332 0.390474
0.750314 0.689256 0.418624
0.780596 0.691576 0.460966
0.810107 0.696495 0.505811
0.839367 0.704660 0.547338
0.868848 0.716105 0.584856
0.898746 0.730628 0.619259
0.929096 0.747832 0.651481
0.959747 0.767714 0.682789
0.990566 0.790168 0.713792
0.493255 0.716739 0.453435
0.493583 0.716743 0.453426
0.494014 0.716746 0.453398
0.494562 0.716745 0.453370
0.494879 0.716752 0.453349
0.495372 0.716751 0.453327
0.495915 0.716755 0.453307
0.496645 0.716762 0.453274
0.497782 0.716765 0.453209
0.499271 0.716777 0.453117
0.501638 0.716788 0.452996
0.504785 0.716812 0.452830
0.509308 0.716839 0.452564
0.515453 0.716881 0.452189
0.523680 0.716941 0.451632
0.534498 0.717026 0.450811
0.548150 0.717147 0.449631
0.564820 0.717310 0.447910
0.584593 0.717526 0.445409
0.607206 0.717805 0.441850
0.632377 0.718126 0.436913
0.659682 0.718456 0.430487
0.688661 0.718719 0.423522
0.718849 0.718900 0.414355
0.750373 0.719534 0.420655
0.781576 0.720430 0.448673
0.811880 0.722724 0.491023
0.841389 0.727631 0.535972
0.870649 0.735781 0.577575
0.900140 0.747184 0.615009
0.930090 0.761516 0.649166
0.960472 0.778555 0.681287
0.991101 0.798463 0.712735
0.526909 0.747856 0.485782
0.527223 0.747856 0.485766
0.527537 0.747859 0.485741
0.527790 0.747862 0.485756
0.528048 0.747863 0.485716
0.528357 0.747866 0.485711
0.528731 0.747867 0.485691
0.529176 0.747872 0.485658
0.529972 0.747874 0.485615
0.531066 0.747881 0.485559
0.532633 0.747890 0.485468
0.534758 0.747909 0.485324
0.537904 0.747926 0.485164
0.542251 0.747958 0.484879
0.548188 0.748005 0.484490
0.556282 0.748067 0.483938
0.566806 0.748158 0.483093
0.580268 0.748278 0.481885
0.596691 0.748456 0.480091
0.616257 0.748681 0.477518
0.638668 0.748973 0.473861
0.663700 0.749310 0.468760
0.690932 0.749655 0.462135
0.719879 0.749932 0.454899
0.750062 0.750123 0.445575
0.781615 0.750744 0.451444
0.812835 0.751629 0.479140
0.843156 0.753897 0.521223
0.872692 0.758756 0.566055
0.901970 0.766843 0.607556
0.931501 0.778096 0.644798
0.961470 0.792314 0.678918
0.991844 0.809311 0.711125
0.560300 0.778997 0.517896
0.560499 0.778996 0.517880
0.560686 0.778999 0.517865
0.560883 0.779001 0.517855
0.561071 0.779000 0.517838
0.561272 0.779002 0.517834
0.561519 0.779004 0.517823
0.561835 0.779006 0.517812
0.562348 0.779011 0.517772
0.563042 0.779017 0.517726
0.564103 0.779020 0.517677
0.565579 0.779032 0.517584
0.567692 0.779050 0.517455
0.570741 0.779070 0.517265
0.574973 0.779101 0.516991
0.580844 0.779148 0.516600
0.588723 0.779213 0.516006
0.599075 0.779307 0.515145
0.612279 0.779439 0.513896
0.628535 0.779616 0.512086
0.647861 0.779855 0.509506
0.670144 0.780154 0.505768
0.695045 0.780509 0.500603
0.722197 0.780867 0.493873
0.751111 0.781157 0.486466
0.781280 0.781354 0.477180
0.812840 0.781978 0.482775
0.844085 0.782849 0.510010
0.874439 0.785077 0.551608
0.904002 0.789881 0.596046
0.933324 0.797838 0.637326
0.962876 0.808986 0.674536
0.992849 0.823119 0.708724
0.593157 0.810165 0.549690
0.593349 0.810161 0.549693
0.593484 0.810162 0.549672
0.593557 0.810166 0.549674
0.593688 0.810167 0.549678
0.593817 0.810167 0.549668
0.593890 0.810171 0.549664
0.594214 0.810169 0.549629
0.594539 0.810171 0.549624
0.595052 0.810174 0.549591
0.595769 0.810178 0.549542
0.596732 0.810189 0.549491
0.598191 0.810199 0.549399
0.600299 0.810214 0.549253
0.603309 0.810235 0.549093
0.607489 0.810267 0.548804
0.613261 0.810314 0.548383
0.620936 0.810385 0.547808
0.631170 0.810480 0.546937
0.644118 0.810620 0.545691
0.660249 0.810800 0.543874
0.679436 0.811046 0.541242
0.701562 0.811357 0.537477
0.726372 0.811719 0.532309
0.753482 0.812086 0.525555
0.782351 0.812387 0.518083
0.812512 0.812592 0.509020
0.844069 0.813218 0.514480
0.875327 0.814080 0.541259
