StdX-ACES-OCIOv2.0/studio/LMT_AnalyticFilmic_ACEScct_33.cube
TITLE "Generated by Foundry::LUT"
LUT_3D_SIZE 33
0.005165 0.001520 0.019565
0.033046 0.004852 0.018400
0.060029 0.006374 0.019942
0.091023 0.008397 0.020889
0.122896 0.011365 0.020855
0.153582 0.014620 0.020612
0.184557 0.018623 0.020388
0.215094 0.024343 0.020255
0.245339 0.032460 0.020353
0.275398 0.043993 0.020851
0.305336 0.060458 0.021973
0.335195 0.084082 0.024042
0.365009 0.117814 0.029766
0.394776 0.170059 0.041099
0.424516 0.217594 0.055991
0.454278 0.257314 0.084988
0.484005 0.293152 0.121955
0.513709 0.326769 0.168362
0.543398 0.359022 0.208969
0.573079 0.390404 0.242698
0.602753 0.421211 0.272570
0.632424 0.451633 0.299981
0.662094 0.481795 0.325683
0.691763 0.511779 0.350078
0.721429 0.541638 0.373395
0.751097 0.571410 0.395733
0.780763 0.601121 0.417114
0.810431 0.630789 0.437471
0.840099 0.660426 0.456692
0.869766 0.690040 0.474528
0.899435 0.719637 0.490618
0.929104 0.749223 0.504367
0.958774 0.778798 0.514781
0.007549 0.030885 0.018424
0.037662 0.030554 0.018690
0.061516 0.033928 0.021510
0.092670 0.035777 0.022784
0.124130 0.038780 0.023038
0.154529 0.042151 0.022923
0.185069 0.046249 0.022786
0.215362 0.052038 0.022731
0.245480 0.060189 0.022896
0.275474 0.071729 0.023451
0.305379 0.088186 0.024618
0.335217 0.112230 0.026794
0.365006 0.150444 0.033141
0.394772 0.193425 0.044228
0.424515 0.230997 0.059124
0.454277 0.265723 0.087656
0.484004 0.298588 0.124348
0.513708 0.330341 0.170304
0.543398 0.361395 0.210171
0.573079 0.391989 0.243524
0.602753 0.422275 0.273173
0.632424 0.452350 0.300437
0.662094 0.482279 0.326035
0.691763 0.512105 0.350352
0.721429 0.541859 0.373610
0.751097 0.571560 0.395903
0.780763 0.601223 0.417249
0.810431 0.630858 0.437581
0.840099 0.660472 0.456782
0.869766 0.690072 0.474602
0.899435 0.719659 0.490679
0.929104 0.749238 0.504423
0.958774 0.778808 0.514831
0.009036 0.058440 0.019991
0.036505 0.059773 0.021236
0.073713 0.059734 0.014115
0.096307 0.062790 0.023047
0.126089 0.064525 0.026162
0.156627 0.066046 0.027705
0.186626 0.067963 0.029570
0.216453 0.071629 0.031585
0.246175 0.079410 0.033013
0.275876 0.092692 0.033831
0.305591 0.111878 0.034586
0.335321 0.138865 0.036028
0.365058 0.174797 0.041121
0.394795 0.209143 0.050652
0.424526 0.241442 0.064556
0.454281 0.272860 0.091906
0.484005 0.303461 0.127819
0.513708 0.333661 0.172789
0.543398 0.363652 0.211599
0.573078 0.393521 0.244453
0.602753 0.423314 0.273823
0.632425 0.453055 0.300915
0.662094 0.482757 0.326396
0.691763 0.512430 0.350632
0.721429 0.542079 0.373828
0.751097 0.571709 0.396074
0.780763 0.601324 0.417386
0.810431 0.630927 0.437691
0.840099 0.660519 0.456870
0.869766 0.690104 0.474676
0.899435 0.719680 0.490741
0.929104 0.749252 0.504476
0.958774 0.778818 0.514879
0.010523 0.089692 0.021558
0.037508 0.091540 0.023100
0.070477 0.089506 0.022529
0.112855 0.092543 0.012302
0.138434 0.091214 0.022904
0.160764 0.098553 0.026915
0.187741 0.101072 0.031171
0.217295 0.104307 0.033947
0.246890 0.109020 0.037993
0.276455 0.117243 0.042774
0.305982 0.133184 0.046202
0.335543 0.159769 0.047750
0.365169 0.190798 0.051804
0.394846 0.220762 0.059482
0.424550 0.249899 0.071879
0.454290 0.279012 0.097580
0.484009 0.307855 0.132318
0.513709 0.336752 0.175762
0.543398 0.365801 0.213247
0.573079 0.395003 0.245483
0.602753 0.424331 0.274521
0.632425 0.453749 0.301416
0.662094 0.483230 0.326769
0.691763 0.512751 0.350915
0.721429 0.542297 0.374048
0.751097 0.571858 0.396249
0.780763 0.601425 0.417523
0.810431 0.630995 0.437800
0.840099 0.660565 0.456960
0.869766 0.690135 0.474748
0.899435 0.719702 0.490803
0.929104 0.749267 0.504526
0.958774 0.778828 0.514925
0.012010 0.122160 0.023125
0.038993 0.123910 0.024668
0.067767 0.124916 0.025160
0.108773 0.118894 0.025568
0.151165 0.125339 0.011426
0.175785 0.116026 0.027087
0.195601 0.130726 0.024421
0.218188 0.136112 0.035222
0.247406 0.140666 0.039570
0.276869 0.147269 0.045499
0.306356 0.158339 0.052929
0.335821 0.177360 0.058488
0.365327 0.202931 0.063555
0.394924 0.229932 0.069915
0.424587 0.256953 0.080712
0.454306 0.284387 0.104495
0.484015 0.311843 0.137760
0.513712 0.339638 0.179141
0.543399 0.367850 0.215091
0.573079 0.396437 0.246607
0.602753 0.425324 0.275265
0.632425 0.454432 0.301938
0.662094 0.483698 0.327152
0.691763 0.513071 0.351205
0.721429 0.542515 0.374271
0.751097 0.572006 0.396422
0.780763 0.601525 0.417661
0.810431 0.631064 0.437912
0.840099 0.660612 0.457050
0.869766 0.690167 0.474822
0.899435 0.719723 0.490863
0.929104 0.749281 0.504581
0.958774 0.778838 0.514970
0.013497 0.153447 0.024692
0.040480 0.155153 0.026235
0.067864 0.156719 0.027501
0.109570 0.152699 0.025462
0.143869 0.149475 0.028968
0.183026 0.156957 0.010730
0.205056 0.143907 0.029114
0.224717 0.163879 0.026531
0.247965 0.170108 0.041001
0.277221 0.175353 0.047067
0.306643 0.182455 0.055704
0.336081 0.193948 0.065546
0.365512 0.213359 0.074818
0.395025 0.237596 0.081205
0.424637 0.262993 0.090694
0.454327 0.289143 0.112481
0.484024 0.315485 0.144063
0.513716 0.342342 0.182846
0.543401 0.369806 0.217111
0.573080 0.397826 0.247819
0.602754 0.426295 0.276052
0.632425 0.455105 0.302483
0.662094 0.484161 0.327545
0.691763 0.513388 0.351499
0.721429 0.542732 0.374497
0.751097 0.572153 0.396598
0.780763 0.601626 0.417799
0.810431 0.631132 0.438021
0.840099 0.660659 0.457139
0.869766 0.690198 0.474895
0.899435 0.719745 0.490925
0.929104 0.749296 0.504633
0.958774 0.778848 0.515018
0.015327 0.185007 0.026621
0.042310 0.186164 0.028164
0.069338 0.187296 0.029673
0.106465 0.187081 0.028804
0.149011 0.182116 0.027817
0.176581 0.181271 0.031995
0.210016 0.187720 0.009989
0.232636 0.176923 0.032807
0.252526 0.195327 0.032378
0.277651 0.200310 0.048995
0.306940 0.205515 0.057661
0.336344 0.212748 0.070019
0.365742 0.225643 0.085794
0.395172 0.245853 0.095190
0.424714 0.269434 0.104023
0.454362 0.294319 0.123535
0.484039 0.319561 0.152884
0.513722 0.345446 0.187744
0.543404 0.372097 0.219806
0.573081 0.399475 0.249421
0.602754 0.427462 0.277076
0.632425 0.455920 0.303179
0.662094 0.484724 0.328043
0.691763 0.513775 0.351867
0.721430 0.542997 0.374778
0.751097 0.572334 0.396815
0.780763 0.601749 0.417971
0.810431 0.631216 0.438159
0.840099 0.660716 0.457248
0.869766 0.690237 0.474985
0.899435 0.719771 0.491001
0.929104 0.749314 0.504699
0.958774 0.778860 0.515075
0.018002 0.215965 0.029441
0.044985 0.216745 0.030983
0.071968 0.217518 0.032526
0.106300 0.218109 0.033322
0.145237 0.216972 0.031129
0.181882 0.213402 0.030572
0.205817 0.211963 0.035626
0.237773 0.218132 0.009040
0.260903 0.209646 0.037455
0.280943 0.225928 0.041303
0.307370 0.230343 0.060481
0.336649 0.235526 0.073282
0.366030 0.243113 0.095192
0.395405 0.257069 0.113117
0.424851 0.277575 0.124345
0.454428 0.300865 0.141530
0.484069 0.324856 0.166756
0.513735 0.349594 0.195342
0.543409 0.375233 0.224079
0.573084 0.401777 0.251959
0.602755 0.429112 0.278678
0.632426 0.457083 0.304252
0.662095 0.485535 0.328797
0.691763 0.514335 0.352419
0.721430 0.543381 0.375194
0.751097 0.572598 0.397136
0.780763 0.601929 0.418222
0.810431 0.631338 0.438357
0.840099 0.660799 0.457409
0.869766 0.690294 0.475117
0.899435 0.719810 0.491112
0.929104 0.749340 0.504792
0.958774 0.778878 0.515162
0.021912 0.246509 0.033561
0.048895 0.247038 0.035104
0.077011 0.247564 0.036646
0.109881 0.248077 0.038103
0.143009 0.248346 0.038279
0.177548 0.247609 0.036089
0.209322 0.244754 0.034302
0.235132 0.242445 0.040797
0.266086 0.248311 0.007843
0.289622 0.241506 0.043765
0.309824 0.256130 0.054119
0.337079 0.260266 0.078814
0.366352 0.265434 0.101432
0.395711 0.273431 0.129396
0.425083 0.288240 0.152152
0.454554 0.308973 0.168850
0.484128 0.331504 0.185759
0.513762 0.354967 0.206826
0.543421 0.379421 0.230840
0.573089 0.404927 0.256012
0.602758 0.431414 0.281214
0.632427 0.458729 0.305922
0.662095 0.486693 0.329952
0.691764 0.515141 0.353253
0.721430 0.543938 0.375814
0.751098 0.572980 0.397611
0.780764 0.602190 0.418593
0.810431 0.631517 0.438651
0.840099 0.660921 0.457646
0.869766 0.690377 0.475312
0.899435 0.719866 0.491273
0.929104 0.749378 0.504931
0.958774 0.778904 0.515286
0.027627 0.276778 0.039584
0.054610 0.277138 0.041126
0.084278 0.277496 0.042669
0.116417 0.277853 0.044212
0.147454 0.278193 0.045572
0.176435 0.278405 0.045912
0.204647 0.278103 0.044035
0.237157 0.275634 0.040253
0.264497 0.272757 0.048301
0.294802 0.278334 0.006363
0.318639 0.272740 0.052719
0.338942 0.286144 0.076096
0.366782 0.290116 0.108524
0.396050 0.295273 0.139632
0.425404 0.303729 0.176598
0.454777 0.319267 0.197851
0.484245 0.339639 0.209560
0.513817 0.361687 0.223285
0.543446 0.384839 0.241288
0.573100 0.409131 0.262477
0.602763 0.434564 0.285271
0.632430 0.461024 0.308562
0.662097 0.488331 0.331747
0.691764 0.516292 0.354526
0.721430 0.544738 0.376750
0.751098 0.573532 0.398319
0.780764 0.602569 0.419141
0.810431 0.631776 0.439085
0.840099 0.661098 0.457993
0.869766 0.690498 0.475595
0.899435 0.719948 0.491510
0.929104 0.749434 0.505134
0.958775 0.778942 0.515466
0.035978 0.306861 0.048386
0.062962 0.307106 0.049928
0.094472 0.307350 0.051471
0.126042 0.307594 0.053013
0.156577 0.307837 0.054556
0.181882 0.308073 0.055990
0.205442 0.308304 0.056945
0.232834 0.308237 0.055425
0.265395 0.306157 0.049422
0.293911 0.302923 0.059308
0.323739 0.308265 0.007110
0.347742 0.303757 0.070444
0.368278 0.316032 0.108294
0.396480 0.319912 0.149569
0.425764 0.325111 0.189287
0.455105 0.333996 0.220298
0.484463 0.349770 0.235623
0.513929 0.369852 0.244863
0.543499 0.391598 0.256619
0.573124 0.414566 0.272560
0.602774 0.438768 0.291746
0.632435 0.464166 0.312769
0.662099 0.490615 0.334568
0.691766 0.517920 0.356491
0.721431 0.545881 0.378172
0.751098 0.574326 0.399382
0.780764 0.603118 0.419955
0.810431 0.632153 0.439723
0.840100 0.661355 0.458504
0.869767 0.690673 0.476012
0.899435 0.720068 0.491855
0.929104 0.749516 0.505432
0.958775 0.778998 0.515730
0.048185 0.336818 0.061251
0.076074 0.336985 0.062793
0.108936 0.337152 0.064336
0.139951 0.337318 0.065878
0.168988 0.337485 0.067421
0.190962 0.337650 0.068964
0.211594 0.337853 0.070830
0.234826 0.338115 0.073156
0.261577 0.338196 0.073657
0.293840 0.336487 0.066659
0.323309 0.333034 0.080432
0.352857 0.338130 0.011112
0.377048 0.334325 0.094293
0.397768 0.345843 0.152476
0.426201 0.349717 0.199007
0.455477 0.354933 0.232065
0.484794 0.364052 0.257165
0.514142 0.379908 0.269463
0.543609 0.399782 0.277174
0.573176 0.421341 0.287492
0.602798 0.444203 0.301850
0.632446 0.468360 0.319454
0.662105 0.493744 0.339036
0.691769 0.520193 0.359561
0.721433 0.547499 0.380355
0.751099 0.575462 0.400987
0.780765 0.603906 0.421173
0.810432 0.632697 0.440670
0.840100 0.661729 0.459255
0.869767 0.690929 0.476622
0.899436 0.720243 0.492363
0.929105 0.749635 0.505867
0.958775 0.779079 0.516117
0.066024 0.366688 0.082353
0.098139 0.366802 0.084281
0.129548 0.366916 0.086191
0.159880 0.367030 0.088087
0.184181 0.367144 0.089971
0.202700 0.367257 0.091844
0.220743 0.367397 0.094136
0.241333 0.367600 0.097460
0.264346 0.367880 0.101664
0.290637 0.368057 0.103022
0.322597 0.366621 0.092770
0.352783 0.363019 0.109298
0.382166 0.367935 0.015154
0.406476 0.364646 0.128855
0.427338 0.375655 0.204589
0.455914 0.379486 0.240179
0.485173 0.384697 0.268571
0.514474 0.393945 0.290538
0.543819 0.409805 0.301075
0.573285 0.429532 0.307685
0.602850 0.450977 0.316817
0.632471 0.473782 0.329836
0.662116 0.497922 0.346083
0.691774 0.523304 0.364384
0.721436 0.549757 0.383742
0.751101 0.577069 0.403440
0.780766 0.605034 0.423005
0.810433 0.633480 0.442079
0.840100 0.662269 0.460366
0.869767 0.691300 0.477517
0.899436 0.720497 0.493105
0.929105 0.749809 0.506499
0.958775 0.779197 0.516679
0.097054 0.396501 0.115207
0.128509 0.396579 0.116996
0.158914 0.396657 0.118780
0.183474 0.396735 0.120561
0.202140 0.396813 0.122338
0.217198 0.396891 0.124112
0.232469 0.396986 0.126292
0.250496 0.397126 0.129469
0.271069 0.397329 0.134096
0.293976 0.397616 0.140307
0.319972 0.397846 0.143293
0.351661 0.396598 0.129056
0.382315 0.392923 0.150278
0.411602 0.397734 0.025116
0.435968 0.394889 0.179559
0.456959 0.405416 0.245716
0.485608 0.409216 0.275900
0.514857 0.414419 0.301762
0.544151 0.423722 0.321912
0.573494 0.439543 0.331335
0.602958 0.459165 0.337054
0.632523 0.480543 0.345126
0.662141 0.503323 0.356929
0.691787 0.527460 0.371919
0.721442 0.552850 0.389008
0.751104 0.579312 0.407208
0.780768 0.606629 0.425784
0.810434 0.634600 0.444187
0.840101 0.663047 0.462013
0.869768 0.691837 0.478840
0.899436 0.720865 0.494195
0.929105 0.750061 0.507427
0.958775 0.779369 0.517503
0.141168 0.426275 0.160641
0.169992 0.426328 0.162237
0.191718 0.426382 0.163802
0.208703 0.426435 0.165338
0.222650 0.426488 0.166843
0.234486 0.426541 0.168320
0.246955 0.426607 0.170100
0.262213 0.426702 0.172632
0.280228 0.426842 0.176189
0.300791 0.427045 0.181114
0.323650 0.427337 0.187835
0.349465 0.427608 0.192755
0.380892 0.426521 0.181537
0.411901 0.422817 0.200734
0.441121 0.427504 0.040058
0.465533 0.424899 0.221748
0.486605 0.435137 0.281293
0.515292 0.438917 0.308660
0.544536 0.444112 0.333017
0.573826 0.453420 0.352062
0.603167 0.469175 0.360733
0.632631 0.488723 0.365673
0.662194 0.510065 0.372745
0.691812 0.532838 0.383378
0.721455 0.556983 0.397141
0.751111 0.582386 0.413012
0.780771 0.608858 0.430016
0.810436 0.636184 0.447361
0.840103 0.664158 0.464463
0.869769 0.692609 0.480789
0.899437 0.721398 0.495791
0.929106 0.750427 0.508782
0.958775 0.779620 0.518700
0.193195 0.456026 0.207515
0.209913 0.456063 0.208524
0.223681 0.456100 0.209519
0.235383 0.456136 0.210500
0.245559 0.456173 0.211470
0.254567 0.456210 0.212426
0.264392 0.456255 0.213584
0.276842 0.456322 0.215244
0.292080 0.456418 0.217604
0.310077 0.456559 0.220919
0.330622 0.456765 0.225506
0.353426 0.457060 0.231547
0.379053 0.457354 0.235843
0.410269 0.456366 0.226342
0.441513 0.452627 0.240821
0.470692 0.457234 0.056224
0.495143 0.454760 0.257740
0.516263 0.464837 0.313878
0.544969 0.468603 0.339659
0.574211 0.473786 0.363072
0.603498 0.483065 0.381431
0.632841 0.498741 0.389564
0.662304 0.518232 0.393788
0.691866 0.539556 0.399879
0.721481 0.562335 0.409347
0.751124 0.586494 0.421858
0.780778 0.611913 0.436457
0.810440 0.638398 0.452150
0.840105 0.665732 0.468123
0.869770 0.693713 0.483672
0.899438 0.722165 0.498138
0.929106 0.750956 0.510757
0.958776 0.779984 0.520441
0.236008 0.485763 0.248554
0.246105 0.485788 0.249130
0.255049 0.485814 0.249701
0.263072 0.485839 0.250268
0.270350 0.485864 0.250830
0.277007 0.485889 0.251389
0.284495 0.485920 0.252070
0.294289 0.485965 0.253053
0.306705 0.486031 0.254468
0.321906 0.486127 0.256485
0.339870 0.486268 0.259334
0.360384 0.486472 0.263304
0.383149 0.486768 0.268623
0.408671 0.487073 0.272552
0.439758 0.486144 0.263751
0.471144 0.482384 0.275881
0.500298 0.486940 0.073365
0.524784 0.484525 0.290394
0.545930 0.494521 0.344688
0.574642 0.498278 0.369555
0.603881 0.503448 0.392356
0.633171 0.512676 0.410286
0.662514 0.528263 0.418016
0.691977 0.547709 0.421555
0.721537 0.569027 0.426664
0.751152 0.591819 0.434936
0.780792 0.615997 0.446136
0.810447 0.641432 0.459351
0.840109 0.667932 0.473587
0.869772 0.695277 0.487936
0.899439 0.723262 0.501577
0.929107 0.751719 0.513637
0.958776 0.780510 0.522963
0.273412 0.515481 0.284322
0.279823 0.515499 0.284675
0.285748 0.515516 0.285026
0.291255 0.515533 0.285376
0.296399 0.515550 0.285723
0.301226 0.515567 0.286070
0.306787 0.515588 0.286493
0.314264 0.515619 0.287108
0.324045 0.515664 0.287996
0.336448 0.515730 0.289275
0.351635 0.515826 0.291106
0.369586 0.515965 0.293699
0.390087 0.516169 0.297328
0.412835 0.516465 0.302233
0.438302 0.516776 0.305903
0.469320 0.515879 0.297327
0.500791 0.512105 0.308148
0.529926 0.516629 0.090507
0.554446 0.514228 0.321065
0.575601 0.524197 0.374386
0.604312 0.527944 0.398738
0.633552 0.533102 0.421130
0.662844 0.542267 0.438795
0.692188 0.557759 0.446207
0.721649 0.577167 0.449079
0.751208 0.598485 0.453187
0.780820 0.621294 0.460214
0.810462 0.645493 0.470000
0.840117 0.670948 0.481687
0.869777 0.697461 0.494225
0.899442 0.724816 0.506612
0.929109 0.752808 0.517822
0.958778 0.781267 0.526612
0.307858 0.545187 0.317222
0.312045 0.545199 0.317447
0.316018 0.545210 0.317671
0.319798 0.545222 0.317894
0.323404 0.545234 0.318117
0.326853 0.545245 0.318339
0.330897 0.545260 0.318611
0.336458 0.545281 0.319007
0.343934 0.545312 0.319582
0.353715 0.545356 0.320414
0.366117 0.545422 0.321612
0.381304 0.545518 0.323330
0.399254 0.545657 0.325769
0.419756 0.545860 0.329190
0.442500 0.546155 0.333835
0.467944 0.546469 0.337297
0.498932 0.545587 0.328679
0.530450 0.541803 0.338731
0.559572 0.546309 0.105336
0.584119 0.543891 0.350492
0.605275 0.553867 0.403363
0.633981 0.557608 0.427449
0.663222 0.562752 0.449564
0.692517 0.571846 0.467067
0.721861 0.587238 0.474220
0.751322 0.606611 0.476428
0.780878 0.627935 0.479507
0.810491 0.650764 0.485211
0.840132 0.674985 0.493464
0.869785 0.700459 0.503405
0.899447 0.726988 0.513937
0.929112 0.754352 0.523873
0.958779 0.782351 0.531845
0.340542 0.574884 0.348423
0.343323 0.574892 0.348569
0.346008 0.574899 0.348715
0.348603 0.574908 0.348861
0.351116 0.574916 0.349007
0.353550 0.574923 0.349151
0.356446 0.574933 0.349330
0.360496 0.574948 0.349590
0.366061 0.574969 0.349969
0.373543 0.574999 0.350519
0.383332 0.575044 0.351314
0.395741 0.575109 0.352462
0.410936 0.575205 0.354107
0.428893 0.575344 0.356444
0.449401 0.575547 0.359728
0.472150 0.575841 0.364199
0.497591 0.576155 0.367481
0.528575 0.575276 0.358651
0.560116 0.571484 0.368250
0.589227 0.575981 0.113735
0.613803 0.573527 0.379092
0.634953 0.583533 0.431859
0.663649 0.587269 0.455847
0.692893 0.592399 0.477766
0.722189 0.601419 0.495178
0.751536 0.616709 0.502105
0.780994 0.636049 0.503651
0.810550 0.657380 0.505659
0.840162 0.680230 0.509954
0.869801 0.704474 0.516503
0.899455 0.729967 0.524433
0.929117 0.756510 0.532518
0.958782 0.783886 0.539283
0.372125 0.604575 0.378564
0.373992 0.604580 0.378661
0.375816 0.604585 0.378758
0.377598 0.604591 0.378854
0.379340 0.604596 0.378951
0.381045 0.604602 0.379047
0.383094 0.604609 0.379166
0.385994 0.604618 0.379339
0.390050 0.604633 0.379590
0.395624 0.604654 0.379957
0.403115 0.604684 0.380489
0.412914 0.604729 0.381261
0.425337 0.604794 0.382373
0.440545 0.604889 0.383969
0.458514 0.605028 0.386236
0.479034 0.605230 0.389426
0.501792 0.605523 0.393775
0.527240 0.605837 0.396890
0.558241 0.604953 0.387733
0.589787 0.601156 0.397072
0.618891 0.605650 0.108201
0.643493 0.603147 0.407141
0.664632 0.613199 0.460027
0.693319 0.616929 0.484031
0.722562 0.622046 0.505810
0.751862 0.630989 0.523175
0.781209 0.646176 0.529902
0.810667 0.665483 0.530776
0.840222 0.686822 0.531667
0.869832 0.709694 0.534442
0.899472 0.733961 0.539085
0.929126 0.759473 0.544649
0.958788 0.786031 0.549682
0.402996 0.634262 0.408027
0.404259 0.634265 0.408091
0.405503 0.634269 0.408155
0.406726 0.634273 0.408220
0.407931 0.634276 0.408284
0.409117 0.634280 0.408349
0.410553 0.634285 0.408428
0.412606 0.634291 0.408544
0.415512 0.634301 0.408713
0.419576 0.634315 0.408959
0.425159 0.634336 0.409317
0.432662 0.634367 0.409837
0.442476 0.634411 0.410590
0.454915 0.634476 0.411677
0.470138 0.634571 0.413235
0.488124 0.634710 0.415454
0.508658 0.634912 0.418578
0.531428 0.635204 0.422836
0.556894 0.635515 0.425791
0.587921 0.634623 0.416224
0.619462 0.630820 0.425431
0.648560 0.635315 0.076375
0.673187 0.632756 0.434806
0.694313 0.642861 0.487970
0.722987 0.646588 0.512068
0.752233 0.651692 0.533744
0.781534 0.660559 0.551088
0.810883 0.675643 0.557631
0.840341 0.694917 0.557821
0.869894 0.716264 0.557544
0.899504 0.739157 0.558673
0.929143 0.763446 0.561155
0.958797 0.788977 0.563886
0.433403 0.663946 0.437042
0.434262 0.663948 0.437085
0.435110 0.663951 0.437129
0.435950 0.663953 0.437172
0.436781 0.663956 0.437216
0.437603 0.663958 0.437259
0.438604 0.663961 0.437312
0.440044 0.663966 0.437390
0.442101 0.663973 0.437504
0.445014 0.663982 0.437669
0.449086 0.663997 0.437911
0.454680 0.664017 0.438263
0.462197 0.664048 0.438774
0.472027 0.664092 0.439513
0.484484 0.664157 0.440582
0.499725 0.664252 0.442113
0.517728 0.664390 0.444296
0.538277 0.664592 0.447369
0.561061 0.664883 0.451557
0.586549 0.665192 0.454353
0.617612 0.664287 0.444317
0.649139 0.660480 0.453472
0.678234 0.664979 -0.002914
0.702883 0.662359 0.462197
0.723995 0.672523 0.515754
0.752656 0.676247 0.540005
0.781903 0.681339 0.561602
0.811207 0.690130 0.578945
0.840558 0.705111 0.585310
0.870014 0.724352 0.584803
0.899566 0.745706 0.583297
0.929176 0.768620 0.582631
0.958815 0.792931 0.582640
0.463500 0.693628 0.465764
0.464084 0.693630 0.465794
0.464666 0.693632 0.465822
0.465242 0.693633 0.465852
0.465814 0.693635 0.465881
0.466382 0.693637 0.465910
0.467076 0.693639 0.465946
0.468079 0.693642 0.465999
0.469522 0.693647 0.466076
0.471585 0.693653 0.466187
0.474505 0.693663 0.466351
0.478586 0.693677 0.466589
0.484192 0.693698 0.466935
0.491723 0.693728 0.467439
0.501570 0.693773 0.468168
0.514046 0.693837 0.469221
0.529306 0.693932 0.470732
0.547327 0.694070 0.472885
0.567894 0.694271 0.475920
0.590693 0.694562 0.480051
0.616206 0.694868 0.482686
0.647310 0.693948 0.472134
0.678818 0.690137 0.481296
0.707912 0.694642 -0.163554
0.732581 0.691958 0.489382
0.753679 0.702184 0.543423
0.782325 0.705905 0.567872
0.811572 0.710986 0.589405
0.840880 0.719703 0.606757
0.870232 0.734582 0.612949
0.899688 0.753788 0.611730
0.929240 0.775149 0.608926
0.958848 0.798083 0.606296
0.493392 0.723310 0.494288
0.493793 0.723311 0.494307
0.494190 0.723312 0.494328
0.494586 0.723313 0.494347
0.494979 0.723314 0.494367
0.495371 0.723316 0.494387
0.495851 0.723317 0.494411
0.496547 0.723319 0.494446
0.497553 0.723322 0.494499
0.499000 0.723327 0.494574
0.501066 0.723333 0.494685
0.503993 0.723343 0.494847
0.508084 0.723357 0.495082
0.513702 0.723378 0.495425
0.521248 0.723408 0.495922
0.531112 0.723453 0.496644
0.543607 0.723517 0.497686
0.558887 0.723612 0.499179
0.576927 0.723749 0.501308
0.597510 0.723950 0.504311
0.620325 0.724240 0.508391
0.645866 0.724543 0.510865
0.677012 0.723607 0.499759
0.708498 0.719794 0.508965
0.737590 0.724305 -0.456928
0.762281 0.721555 0.516421
0.783364 0.731846 0.571006
0.811993 0.735564 0.595690
0.841243 0.740633 0.617168
0.870553 0.749279 0.634536
0.899907 0.764057 0.640555
0.929363 0.783229 0.638603
0.958914 0.804594 0.634430
0.523149 0.752992 0.522683
0.523423 0.752992 0.522697
0.523695 0.752993 0.522710
0.523967 0.752994 0.522723
0.524237 0.752995 0.522737
0.524507 0.752996 0.522750
0.524838 0.752997 0.522766
0.525318 0.752998 0.522790
0.526016 0.753000 0.522826
0.527024 0.753003 0.522877
0.528474 0.753008 0.522952
0.530547 0.753015 0.523061
0.533481 0.753024 0.523221
0.537581 0.753038 0.523454
0.543211 0.753059 0.523793
0.550772 0.753089 0.524286
0.560654 0.753133 0.524999
0.573168 0.753198 0.526030
0.588468 0.753292 0.527509
0.606526 0.753429 0.529618
0.627127 0.753630 0.532593
0.649958 0.753919 0.536628
0.675528 0.754218 0.538938
0.706716 0.753266 0.527246
0.738179 0.749450 0.536523
0.767270 0.753969 -0.967416
0.791982 0.751153 0.543348
0.813048 0.761508 0.598525
0.841662 0.765222 0.623472
0.870913 0.770281 0.644901
0.900227 0.778857 0.662288
0.929583 0.793536 0.668133
0.959038 0.812671 0.665428
0.552812 0.782673 0.550989
0.553000 0.782674 0.550998
0.553187 0.782674 0.551007
0.553372 0.782675 0.551017
0.553559 0.782675 0.551026
0.553744 0.782676 0.551035
0.553972 0.782676 0.551045
0.554304 0.782677 0.551062
0.554786 0.782679 0.551086
0.555485 0.782681 0.551121
0.556495 0.782684 0.551172
0.557949 0.782689 0.551246
0.560027 0.782695 0.551355
0.562968 0.782705 0.551513
0.567078 0.782719 0.551744
0.572720 0.782740 0.552079
0.580296 0.782770 0.552567
0.590196 0.782814 0.553275
0.602729 0.782879 0.554297
0.618049 0.782973 0.555764
0.636126 0.783110 0.557854
0.656743 0.783310 0.560803
0.679591 0.783598 0.564797
0.705191 0.783893 0.566938
0.736422 0.782925 0.554632
0.767860 0.779104 0.564000
0.796952 0.783632 -1.828567
0.821682 0.780750 0.570166
