StdX-ACES-OCIOv2.0/studio/LMT_AnalyticFilmic_ACEScct_33.cube
TITLE "Generated by Foundry::LUT"
LUT_3D_SIZE 5
0.005165 0.001520 0.019565
0.245339 0.032460 0.020353
0.484005 0.293152 0.121955
0.721429 0.541638 0.373395
0.958774 0.778798 0.514781
0.021912 0.246509 0.033561
0.266086 0.248311 0.007843
0.484128 0.331504 0.185759
0.721430 0.543938 0.375814
0.958774 0.778904 0.515286
0.236008 0.485763 0.248554
0.306705 0.486031 0.254468
0.500298 0.486940 0.073365
0.721537 0.569027 0.426664
0.958776 0.780510 0.522963
0.493392 0.723310 0.494288
0.497553 0.723322 0.494499
0.543607 0.723517 0.497686
0.737590 0.724305 -0.456928
0.958914 0.804594 0.634430
0.730054 0.960760 0.720131
0.730262 0.960761 0.720140
0.733395 0.960770 0.720286
0.780139 0.960962 0.723262
0.975046 0.961620 -36.940720
-0.023081 -0.026099 0.280020
0.250688 0.035428 0.262664
0.484543 0.280091 0.292151
0.721447 0.541660 0.388406
0.958775 0.778805 0.516758
0.046389 0.220259 0.281058
0.253995 0.255800 0.270095
0.484551 0.336351 0.285674
0.721447 0.544004 0.390163
0.958775 0.778911 0.517247
0.241940 0.486025 0.315896
0.309135 0.486290 0.318288
0.499542 0.487359 0.275269
0.721544 0.569447 0.433073
0.958777 0.780518 0.524728
0.493515 0.723319 0.498097
0.497669 0.723332 0.498297
0.543670 0.723526 0.501321
0.737552 0.724320 -0.193127
0.958914 0.804613 0.634805
0.730055 0.960760 0.720312
0.730262 0.960761 0.720321
0.733396 0.960770 0.720468
0.780140 0.960962 0.723436
0.975043 0.961621 -36.742737
-0.374749 -0.317527 0.501770
0.011387 -0.329742 0.501161
0.486964 0.294221 0.486820
0.721735 0.537412 0.498809
0.958782 0.778902 0.542561
-0.380933 0.078746 0.500986
-0.017549 0.045861 0.500996
0.487215 0.336268 0.487062
0.721734 0.540446 0.498343
0.958782 0.779009 0.542901
0.285945 0.485575 0.490516
0.330685 0.486224 0.490390
0.491006 0.493239 0.490722
0.721716 0.573411 0.499244
0.958783 0.780633 0.548160
0.495188 0.723455 0.540481
0.499254 0.723468 0.540593
0.544544 0.723662 0.542294
0.736967 0.724547 0.469463
0.958914 0.804903 0.640398
0.730074 0.960765 0.723062
0.730281 0.960765 0.723071
0.733414 0.960775 0.723211
0.780149 0.960967 0.726071
0.975015 0.961629 -33.729885
-7.521275 -5.179187 0.725128
-7.180803 -5.205049 0.725114
-2.014742 -5.444622 0.724652
0.722547 0.529706 0.709999
0.958950 0.777415 0.703599
-7.531915 -4.831199 0.725088
-7.192828 -4.858070 0.725076
-2.043930 -5.115812 0.724647
0.722560 0.532401 0.710011
0.958950 0.777550 0.703585
-7.531654 0.292516 0.724234
-7.214042 0.285037 0.724252
-2.354124 -0.009980 0.724307
0.722747 0.565379 0.710196
0.958948 0.779611 0.703400
0.509066 0.725637 0.710413
0.512481 0.725649 0.710423
0.552195 0.725836 0.710589
0.727955 0.728446 0.713707
0.958957 0.809383 0.712658
0.730297 0.960855 0.764738
0.730502 0.960855 0.764744
0.733626 0.960864 0.764823
0.780257 0.961056 0.766442
0.974410 0.961787 0.634883
-153.610092 -86.746460 0.948659
-153.264587 -86.781479 0.948659
-147.902863 -87.315323 0.948653
-50.479214 -93.202309 0.948166
0.958373 0.755294 0.933104
-153.611816 -86.436256 0.948656
-153.266144 -86.471840 0.948656
-147.905762 -87.005798 0.948650
-50.503902 -92.911804 0.948166
0.958374 0.755447 0.933105
-153.623550 -81.645134 0.948608
-153.278931 -81.680756 0.948608
-147.935516 -82.227905 0.948603
-50.880245 -88.419144 0.948156
0.958383 0.757780 0.933114
-150.315506 0.589160 0.947316
-149.994354 0.588924 0.947318
-145.014221 0.585191 0.947347
-55.478935 0.491781 0.947586
0.958571 0.795126 0.933304
0.717336 0.962196 0.933789
0.717579 0.962196 0.933789
0.721247 0.962205 0.933797
0.773645 0.962391 0.933955
0.964584 0.964413 0.936617
