StdX-ACES-OCIOv2.0/studio/LMT_AnalyticFilmic6_ACEScct_33.cube
TITLE "Generated by Foundry::LUT"
LUT_3D_SIZE 33
0.042338 0.042338 0.042338
0.049890 0.049890 0.049890
0.068746 0.068746 0.068746
0.073473 0.072875 0.072908
0.074975 0.072797 0.072918
0.079252 0.072573 0.073298
0.093639 0.071877 0.073086
0.115859 0.071263 0.073154
0.150321 0.073252 0.073354
0.198386 0.077260 0.073719
0.248443 0.085499 0.074413
0.298932 0.100109 0.075700
0.344346 0.114323 0.077720
0.378803 0.131199 0.080159
0.408365 0.163622 0.083264
0.436025 0.195384 0.087370
0.463516 0.225912 0.093073
0.493660 0.258946 0.101958
0.523542 0.292795 0.129515
0.553660 0.326662 0.178557
0.585276 0.359827 0.220753
0.618203 0.391648 0.252932
0.651441 0.424201 0.285302
0.684822 0.457646 0.319353
0.718468 0.491537 0.354147
0.752293 0.525717 0.389392
0.786239 0.560140 0.425066
0.820261 0.594744 0.461070
0.854332 0.629459 0.497276
0.888434 0.664279 0.533665
0.922548 0.699174 0.570153
0.956689 0.734085 0.606621
0.990843 0.768997 0.642995
0.051129 0.051129 0.051129
0.049311 0.049311 0.049311
0.068177 0.068177 0.068177
0.076312 0.072931 0.072927
0.084173 0.073620 0.072976
0.092468 0.074429 0.073028
0.103193 0.075753 0.073099
0.122405 0.077542 0.073221
0.156831 0.080486 0.073433
0.203246 0.085900 0.073823
0.251717 0.096313 0.074551
0.300516 0.113643 0.075852
0.346421 0.124464 0.077885
0.380831 0.138748 0.080384
0.410159 0.167798 0.083535
0.437269 0.198053 0.087634
0.464392 0.227616 0.093332
0.494120 0.260906 0.102169
0.523671 0.295196 0.135271
0.553747 0.328267 0.182880
0.585338 0.360918 0.223407
0.618252 0.392383 0.254627
0.651540 0.424478 0.285497
0.684890 0.457845 0.319524
0.718510 0.491672 0.354257
0.752323 0.525816 0.389478
0.786260 0.560204 0.425135
0.820272 0.594794 0.461144
0.854338 0.629500 0.497330
0.888439 0.664300 0.533677
0.922555 0.699180 0.570164
0.956696 0.734081 0.606599
0.990844 0.769011 0.643079
0.067502 0.067503 0.067503
0.066544 0.066544 0.066544
0.067603 0.067603 0.067603
0.078708 0.076261 0.073125
0.086719 0.079864 0.073360
0.095375 0.082341 0.073490
0.107209 0.084799 0.073590
0.127119 0.088017 0.073726
0.161796 0.092785 0.074020
0.206300 0.100544 0.074728
0.253845 0.113321 0.076251
0.302232 0.131702 0.078660
0.348068 0.136442 0.078048
0.381727 0.151469 0.080518
0.411269 0.175319 0.083726
0.438217 0.202156 0.087849
0.464944 0.231018 0.093516
0.494289 0.264416 0.105001
0.523799 0.297521 0.141100
0.553837 0.329832 0.187042
0.585404 0.361993 0.225996
0.618298 0.393121 0.256344
0.651646 0.424740 0.285628
0.684954 0.458051 0.319709
0.718557 0.491810 0.354393
0.752353 0.525924 0.389615
0.786280 0.560275 0.425216
0.820289 0.594831 0.461148
0.854348 0.629531 0.497356
0.888443 0.664331 0.533737
0.922560 0.699203 0.570199
0.956699 0.734093 0.606628
0.990849 0.769023 0.643058
0.072678 0.075602 0.073069
0.074196 0.077375 0.073087
0.077856 0.078602 0.073137
0.080639 0.080431 0.073533
0.089995 0.087015 0.074015
0.099306 0.091144 0.074344
0.111454 0.095127 0.074687
0.131505 0.100226 0.075050
0.165939 0.107351 0.075502
0.209062 0.118043 0.076318
0.255827 0.134131 0.077975
0.303915 0.153735 0.080991
0.349578 0.150623 0.080440
0.382556 0.164256 0.080658
0.411799 0.185026 0.083851
0.438569 0.209142 0.087966
0.465171 0.235946 0.093624
0.494478 0.267720 0.110886
0.523927 0.299769 0.147101
0.553922 0.331374 0.191064
0.585465 0.363040 0.228487
0.618344 0.393857 0.258053
0.651747 0.425012 0.285802
0.685022 0.458243 0.319874
0.718604 0.491941 0.354496
0.752382 0.526014 0.389695
0.786297 0.560352 0.425318
0.820297 0.594888 0.461243
0.854358 0.629566 0.497411
0.888447 0.664361 0.533776
0.922566 0.699216 0.570220
0.956698 0.734111 0.606651
0.990853 0.769026 0.643059
0.073135 0.084108 0.073112
0.077464 0.086452 0.073566
0.083928 0.088659 0.073551
0.089709 0.090757 0.074085
0.093929 0.093571 0.074796
0.103853 0.100357 0.075363
0.116638 0.106074 0.075855
0.137210 0.112902 0.076582
0.171025 0.122370 0.077492
0.212285 0.136227 0.078657
0.257957 0.156007 0.080477
0.305721 0.174860 0.083323
0.350994 0.167021 0.084748
0.383393 0.176151 0.083233
0.412308 0.193884 0.083979
0.438905 0.215603 0.088081
0.465414 0.240555 0.095139
0.494668 0.270884 0.116926
0.524053 0.301948 0.153176
0.554014 0.332858 0.194867
0.585527 0.364080 0.230969
0.618392 0.394567 0.259696
0.651850 0.425269 0.285955
0.685092 0.458429 0.320006
0.718647 0.492093 0.354681
0.752413 0.526106 0.389787
0.786318 0.560414 0.425365
0.820312 0.594931 0.461292
0.854368 0.629598 0.497455
0.888455 0.664385 0.533820
0.922572 0.699218 0.570179
0.956704 0.734115 0.606638
0.990853 0.769027 0.643086
0.074610 0.093892 0.073489
0.080505 0.096861 0.074162
0.088549 0.099762 0.074188
0.097674 0.102385 0.074548
0.104012 0.105260 0.075487
0.109213 0.108689 0.076424
0.122308 0.117206 0.077200
0.143645 0.126223 0.078127
0.176751 0.137843 0.079579
0.216027 0.154797 0.081419
0.260354 0.175662 0.083648
0.307935 0.191150 0.086089
0.352248 0.183124 0.088337
0.384253 0.187674 0.089080
0.412883 0.202047 0.088853
0.439290 0.221546 0.092049
0.465693 0.244821 0.101229
0.494856 0.273923 0.123076
0.524183 0.304050 0.159236
0.554104 0.334330 0.198615
0.585590 0.365097 0.233368
0.618435 0.395290 0.261366
0.651952 0.425533 0.286121
0.685157 0.458625 0.320158
0.718692 0.492220 0.354765
0.752443 0.526207 0.389915
0.786341 0.560479 0.425420
0.820326 0.594975 0.461331
0.854374 0.629638 0.497504
0.888461 0.664397 0.533813
0.922570 0.699248 0.570264
0.956707 0.734136 0.606678
0.990856 0.769027 0.643031
0.077011 0.107836 0.074142
0.084389 0.111426 0.075047
0.093704 0.114985 0.075269
0.105224 0.118316 0.075383
0.115759 0.121488 0.076200
0.123131 0.125085 0.077472
0.130720 0.129952 0.078888
0.152141 0.142923 0.080229
0.183986 0.157661 0.082104
0.221127 0.175468 0.084969
0.263701 0.194963 0.088119
0.312705 0.202755 0.089022
0.353617 0.201689 0.092123
0.385221 0.201860 0.095260
0.413583 0.211673 0.096755
0.439782 0.228407 0.100002
0.466036 0.249817 0.108917
0.495086 0.277500 0.130812
0.524342 0.306566 0.166289
0.554212 0.336098 0.203051
0.585668 0.366335 0.236271
0.618497 0.396151 0.263333
0.652077 0.425860 0.286328
0.685241 0.458855 0.320330
0.718747 0.492394 0.354947
0.752474 0.526336 0.390043
0.786360 0.560566 0.425549
0.820345 0.595031 0.461397
0.854387 0.629673 0.497536
0.888475 0.664415 0.533805
0.922580 0.699252 0.570231
0.956710 0.734152 0.606740
0.990860 0.769031 0.643059
0.081376 0.132003 0.075424
0.090579 0.136377 0.076642
0.101414 0.140712 0.077295
0.114717 0.144996 0.077293
0.129308 0.148940 0.077736
0.142447 0.152802 0.078862
0.154232 0.158088 0.080854
0.166886 0.165799 0.083367
0.194153 0.182629 0.086050
0.228938 0.199340 0.090005
0.269324 0.216870 0.094971
0.316550 0.224294 0.095646
0.355357 0.225403 0.097712
0.386478 0.221875 0.102585
0.414540 0.225610 0.107182
0.440481 0.237952 0.111570
0.466528 0.256707 0.120392
0.495424 0.282482 0.142410
0.524567 0.310115 0.175832
0.554371 0.338594 0.209149
0.585785 0.368086 0.240310
0.618580 0.397394 0.266178
0.652261 0.426339 0.286667
0.685360 0.459205 0.320657
0.718824 0.492636 0.355183
0.752531 0.526508 0.390217
0.786399 0.560690 0.425683
0.820368 0.595113 0.461484
0.854405 0.629719 0.497571
0.888485 0.664460 0.533879
0.922588 0.699267 0.570220
0.956720 0.734145 0.606661
0.990865 0.769063 0.643097
0.089098 0.173456 0.077944
0.100650 0.177689 0.079612
0.113598 0.181669 0.080901
0.128483 0.185490 0.081343
0.145828 0.189047 0.081460
0.163901 0.192243 0.082058
0.181316 0.195874 0.083703
0.196890 0.201421 0.087374
0.210683 0.209448 0.092006
0.240060 0.226022 0.097449
0.279410 0.239355 0.103863
0.321064 0.251045 0.108164
0.357586 0.253034 0.108395
0.388047 0.248131 0.111488
0.415776 0.245733 0.119434
0.441437 0.251562 0.127274
0.467224 0.266217 0.137236
0.495909 0.289320 0.159532
0.524906 0.315014 0.188197
0.554605 0.342098 0.217511
0.585949 0.370599 0.246062
0.618699 0.399188 0.270253
0.652531 0.427017 0.287092
0.685538 0.459701 0.321064
0.718942 0.493001 0.355531
0.752610 0.526758 0.390481
0.786453 0.560866 0.425875
0.820403 0.595238 0.461627
0.854429 0.629814 0.497688
0.888500 0.664514 0.533925
0.922601 0.699324 0.570318
0.956724 0.734178 0.606716
0.990868 0.769066 0.643094
0.100592 0.221463 0.082693
0.114924 0.224479 0.084998
0.130375 0.227350 0.087167
0.147096 0.230115 0.088858
0.164818 0.232809 0.089772
0.180717 0.235428 0.090106
0.198232 0.238429 0.090698
0.221437 0.242194 0.093009
0.242237 0.247620 0.100046
0.257872 0.255618 0.109047
0.289627 0.269616 0.118791
0.327173 0.281190 0.129077
0.360548 0.283541 0.128995
0.389988 0.278639 0.126771
0.417314 0.272682 0.133340
0.442691 0.271341 0.145817
0.468195 0.279634 0.160165
0.496607 0.298720 0.180537
0.525390 0.321739 0.203688
0.554951 0.346954 0.228562
0.586196 0.374087 0.253856
0.618878 0.401698 0.275893
0.652763 0.428504 0.289965
0.685794 0.460427 0.321689
0.719110 0.493522 0.356069
0.752726 0.527119 0.390854
0.786530 0.561130 0.426173
0.820458 0.595411 0.461818
0.854466 0.629937 0.497844
0.888522 0.664612 0.534069
0.922618 0.699372 0.570364
0.956736 0.734215 0.606760
0.990873 0.769100 0.643142
0.132486 0.271140 0.108795
0.134271 0.273118 0.102667
0.133702 0.275044 0.095434
0.154901 0.276973 0.098929
0.174930 0.278829 0.102263
0.192009 0.280629 0.105094
0.210487 0.282794 0.107359
0.234583 0.285837 0.108292
0.263600 0.289678 0.111376
0.288816 0.294935 0.124196
0.305483 0.302907 0.141574
0.335862 0.313743 0.157620
0.365020 0.315593 0.163280
0.392533 0.311338 0.156912
0.419179 0.304408 0.154741
0.444272 0.298193 0.165607
0.469507 0.299113 0.182549
0.497607 0.311916 0.202583
0.526101 0.330971 0.222083
0.555448 0.353615 0.242647
0.586549 0.378932 0.264314
0.619135 0.405238 0.283693
0.652957 0.431109 0.296097
0.686165 0.461484 0.322686
0.719359 0.494281 0.356832
0.752888 0.527667 0.391471
0.786641 0.561488 0.426548
0.820533 0.595672 0.462107
0.854514 0.630109 0.498026
0.888561 0.664729 0.534189
0.922638 0.699463 0.570497
0.956752 0.734285 0.606858
0.990888 0.769139 0.643172
0.179807 0.316656 0.147731
0.182481 0.317986 0.140625
0.183784 0.319280 0.132209
0.183036 0.320546 0.122264
0.191674 0.321804 0.119744
0.207592 0.323040 0.124213
0.224421 0.324516 0.129360
0.245386 0.326609 0.135301
0.271605 0.329580 0.138696
0.303554 0.333374 0.142742
0.331582 0.338319 0.163475
0.348699 0.345949 0.187128
0.372119 0.348556 0.196372
0.396473 0.344792 0.196324
0.421573 0.338053 0.188915
0.446197 0.330119 0.188164
0.471201 0.325658 0.201513
0.498957 0.331055 0.222695
0.527107 0.343918 0.241874
0.556174 0.362723 0.259599
0.587070 0.385542 0.277710
0.619511 0.410107 0.294143
0.653237 0.434746 0.304542
0.686714 0.462970 0.324057
0.719714 0.495383 0.358030
0.753124 0.528454 0.392368
0.786803 0.562037 0.427193
0.820643 0.596051 0.462558
0.854589 0.630379 0.498352
0.888609 0.664906 0.534395
0.922671 0.699597 0.570653
0.956778 0.734350 0.606896
0.990908 0.769172 0.643179
0.213807 0.351309 0.186184
0.215675 0.352192 0.180744
0.216911 0.353060 0.174199
0.217420 0.353910 0.166207
0.216940 0.354749 0.156271
0.215795 0.355575 0.145145
0.231021 0.356590 0.151115
0.249806 0.358027 0.159480
0.272579 0.360051 0.168968
0.300230 0.362913 0.175170
0.334002 0.366638 0.178722
0.364096 0.371328 0.198813
0.381561 0.378674 0.221913
0.403048 0.378440 0.228790
0.425239 0.372139 0.226749
0.448631 0.363983 0.219541
0.473327 0.357380 0.222129
0.500766 0.357060 0.239992
0.528499 0.362668 0.260276
0.557211 0.375463 0.278161
0.587811 0.394572 0.294104
0.620051 0.416749 0.307672
0.653634 0.439738 0.315813
0.687514 0.465054 0.325989
0.720238 0.496950 0.359733
0.753477 0.529579 0.393652
0.787040 0.562823 0.428080
0.820802 0.596611 0.463238
0.854703 0.630753 0.498798
0.888686 0.665157 0.534678
0.922727 0.699757 0.570831
0.956811 0.734480 0.607063
0.990927 0.769269 0.643341
0.240663 0.381996 0.216362
0.241741 0.382595 0.212420
0.242530 0.383186 0.207971
0.242978 0.383768 0.202889
0.243001 0.384342 0.197029
0.242522 0.384913 0.190285
0.241162 0.385603 0.180390
0.254543 0.386612 0.183394
0.274663 0.388037 0.191891
0.298605 0.390035 0.201782
0.327155 0.392856 0.209031
0.361961 0.396580 0.211807
0.393571 0.401162 0.230409
0.411382 0.408400 0.252891
0.431472 0.406116 0.258093
0.452265 0.398266 0.255232
0.476069 0.391120 0.250913
0.503091 0.388148 0.258743
0.530360 0.388178 0.276312
0.558640 0.393926 0.295631
0.588874 0.407126 0.312252
0.620829 0.425739 0.324274
0.654203 0.446518 0.330463
0.688414 0.468783 0.332379
0.720994 0.499176 0.362300
0.753985 0.531197 0.395592
0.787385 0.563977 0.429497
0.821037 0.597396 0.464161
0.854862 0.631303 0.499453
0.888796 0.665550 0.535194
0.922802 0.700004 0.571093
0.956865 0.734654 0.607273
0.990965 0.769384 0.643437
0.262390 0.410228 0.241121
0.262890 0.410634 0.238108
0.263234 0.411038 0.234832
0.263380 0.411433 0.231259
0.263324 0.411828 0.227330
0.263045 0.412216 0.222996
0.262401 0.412695 0.217146
0.261740 0.413382 0.208188
0.278829 0.414385 0.214259
0.299572 0.415801 0.222473
0.324034 0.417782 0.232248
0.352944 0.420568 0.239882
0.388326 0.424281 0.242071
0.420935 0.428791 0.259415
0.439002 0.435952 0.281150
0.458373 0.432478 0.285406
0.480061 0.425510 0.284398
0.506084 0.421339 0.284932
0.532765 0.418690 0.293676
0.560563 0.419095 0.310926
0.590340 0.425332 0.329511
0.621918 0.438139 0.342987
0.655009 0.455625 0.348550
0.688998 0.475871 0.349300
0.722095 0.502299 0.366045
0.754715 0.533495 0.398468
0.787877 0.565639 0.431614
0.821374 0.598560 0.465633
0.855091 0.632107 0.500466
0.888954 0.666095 0.535821
0.922903 0.700401 0.571605
0.956933 0.734925 0.607635
0.991015 0.769560 0.643661
0.280095 0.437239 0.262287
0.280150 0.437520 0.259903
0.280105 0.437791 0.257370
0.279990 0.438062 0.254695
0.279788 0.438334 0.251861
0.279438 0.438603 0.248859
0.278903 0.438934 0.244933
0.277849 0.439407 0.238657
0.286871 0.440108 0.238595
0.304108 0.441111 0.244291
0.324930 0.442522 0.252057
0.349536 0.444503 0.261521
0.378594 0.447281 0.269149
0.414191 0.451011 0.270860
0.447459 0.455520 0.287156
0.465807 0.462685 0.308228
0.486524 0.460239 0.313701
0.510252 0.455483 0.316045
0.535877 0.451383 0.317865
0.563027 0.449335 0.327397
0.592277 0.450347 0.344548
0.623396 0.456109 0.360951
0.656114 0.468009 0.369182
0.689807 0.485292 0.370030
0.723698 0.506577 0.371346
0.755764 0.536771 0.402847
0.788589 0.567993 0.434718
0.821867 0.600223 0.467783
0.855432 0.633256 0.501897
0.889191 0.666884 0.536806
0.923071 0.700945 0.572264
0.957046 0.735292 0.608057
0.991092 0.769813 0.643957
0.295091 0.466291 0.282633
0.294833 0.466482 0.280701
0.294505 0.466671 0.278711
0.294179 0.466858 0.276641
0.293790 0.467046 0.274494
0.293289 0.467236 0.272286
0.292692 0.467462 0.269448
0.291985 0.467796 0.265259
0.301985 0.468288 0.267314
0.315700 0.468994 0.271029
0.332811 0.470005 0.276363
0.353456 0.471433 0.283694
0.377947 0.473437 0.292751
0.406938 0.476252 0.300231
0.442606 0.480052 0.301573
0.476445 0.484631 0.317035
0.495057 0.491911 0.337536
0.516733 0.490194 0.344077
0.540132 0.485224 0.347072
0.566216 0.481825 0.350297
0.594736 0.480593 0.360424
0.625306 0.481172 0.376393
0.657560 0.485876 0.389418
0.690894 0.497921 0.393766
0.724863 0.515367 0.390949
0.757277 0.541284 0.409150
0.789611 0.571339 0.439417
0.822568 0.602621 0.471060
0.855913 0.634941 0.504119
0.889517 0.668057 0.538319
0.923304 0.701733 0.573228
0.957205 0.735832 0.608678
0.991204 0.770191 0.644414
0.306263 0.496565 0.302486
0.305778 0.496693 0.300951
0.305313 0.496821 0.299407
0.304887 0.496947 0.297816
0.304490 0.497078 0.296264
0.304167 0.497202 0.294711
0.307842 0.497364 0.295153
0.313760 0.497596 0.296240
0.321728 0.497933 0.297854
0.332267 0.498419 0.300227
0.345786 0.499122 0.303715
0.362751 0.500126 0.308782
0.383283 0.501545 0.315777
0.407671 0.503531 0.324480
0.436569 0.506330 0.331773
0.472291 0.510117 0.332775
0.506386 0.514675 0.347528
0.525117 0.521929 0.367616
0.546608 0.519916 0.374175
0.570577 0.515606 0.378354
0.597872 0.513190 0.382666
0.627660 0.511904 0.392135
0.659361 0.511346 0.406490
0.692277 0.515807 0.417343
0.725940 0.528291 0.418110
0.759453 0.547390 0.417917
0.791061 0.576013 0.446355
0.823567 0.606008 0.475923
0.856607 0.637339 0.507452
0.890001 0.669723 0.540505
0.923641 0.702880 0.574654
0.957437 0.736639 0.609733
0.991358 0.770738 0.645092
0.315884 0.526612 0.323553
0.318748 0.526702 0.323934
0.321490 0.526790 0.324315
0.324199 0.526882 0.324705
0.326832 0.526967 0.325095
0.329411 0.527056 0.325483
0.332490 0.527165 0.325976
0.336766 0.527322 0.326681
0.342714 0.527552 0.327731
0.350709 0.527887 0.329275
0.361360 0.528372 0.331568
0.374975 0.529069 0.334945
0.391997 0.530064 0.339833
0.412594 0.531478 0.346665
0.437082 0.533457 0.355229
0.466039 0.536242 0.362462
0.501868 0.540026 0.363302
0.536227 0.544584 0.377707
0.555043 0.551850 0.397661
0.577179 0.550420 0.405016
0.602205 0.547090 0.410275
0.630599 0.545026 0.414397
0.661462 0.543169 0.422974
0.693917 0.541786 0.436824
0.727265 0.546219 0.445379
0.761098 0.559123 0.442486
0.793120 0.582405 0.456178
0.824978 0.610772 0.483209
0.857596 0.640756 0.512443
0.890688 0.672135 0.543882
0.924112 0.704564 0.576958
0.957772 0.737782 0.611178
0.991585 0.771532 0.646109
0.350514 0.557535 0.356572
0.351016 0.557627 0.356395
0.351470 0.557715 0.356221
0.351973 0.557806 0.356057
0.352856 0.557889 0.356001
0.354744 0.557949 0.356269
0.356946 0.558023 0.356586
0.360193 0.558131 0.357072
0.364634 0.558289 0.357780
0.370807 0.558518 0.358807
0.379041 0.558852 0.360325
0.390042 0.559332 0.362579
0.404052 0.560024 0.365927
0.421453 0.561017 0.370799
0.442437 0.562423 0.377632
0.467191 0.564398 0.386224
0.496430 0.567178 0.393605
0.532491 0.570970 0.394418
0.567139 0.575542 0.408776
0.586047 0.582850 0.428810
0.608853 0.582059 0.436886
0.634733 0.579330 0.442453
0.664044 0.577302 0.446144
0.695736 0.574797 0.454335
0.728763 0.572568 0.467574
0.762381 0.577128 0.473559
0.796059 0.590925 0.469071
0.826958 0.617345 0.493645
0.858983 0.645557 0.519847
0.891667 0.675564 0.548928
0.924798 0.706977 0.580342
0.958248 0.739444 0.613422
0.991923 0.772665 0.647542
0.417025 0.588968 0.404294
0.416878 0.589023 0.403867
0.416703 0.589077 0.403444
0.416471 0.589134 0.403014
0.416259 0.589190 0.402566
0.416082 0.589244 0.402121
0.415748 0.589313 0.401576
0.415355 0.589412 0.400761
0.414646 0.589563 0.399544
0.413555 0.589783 0.397694
0.413493 0.590107 0.395962
0.415213 0.590594 0.394671
0.418360 0.591329 0.393457
0.432657 0.592035 0.396634
0.450842 0.593021 0.401621
0.472603 0.594417 0.408631
0.498005 0.596378 0.417510
0.527705 0.599147 0.425259
0.564132 0.602931 0.426180
0.599061 0.607506 0.440668
0.618038 0.614840 0.460935
0.641322 0.614521 0.469481
0.667870 0.612169 0.475120
0.697940 0.609998 0.478337
0.730311 0.606723 0.486193
0.763748 0.603740 0.498740
0.797509 0.608579 0.502092
0.829725 0.626260 0.507678
0.860913 0.652246 0.530629
0.893037 0.680405 0.556476
0.925766 0.710418 0.585436
0.958933 0.741846 0.616779
0.992405 0.774331 0.649768
0.475236 0.621330 0.453388
0.475249 0.621365 0.453180
0.475234 0.621397 0.452954
0.475248 0.621430 0.452754
0.475215 0.621458 0.452520
0.475228 0.621493 0.452310
0.475246 0.621533 0.452047
0.475194 0.621594 0.451642
0.475206 0.621678 0.451067
0.475084 0.621808 0.450172
0.474940 0.621998 0.448859
0.474646 0.622284 0.446866
0.473923 0.622714 0.443744
0.472266 0.623371 0.438688
0.471979 0.624375 0.433217
0.480475 0.625786 0.432722
0.503151 0.627169 0.439996
0.529382 0.629110 0.449266
0.559719 0.631850 0.457461
0.596522 0.635628 0.458586
0.631704 0.640199 0.473231
0.650741 0.647550 0.493780
0.674366 0.647578 0.502644
0.701441 0.645426 0.508169
0.732142 0.643000 0.510908
0.765059 0.638899 0.518508
0.798765 0.635320 0.530306
0.832563 0.640588 0.531285
0.863576 0.661387 0.545222
0.894939 0.687128 0.567317
0.927137 0.715245 0.592920
0.959900 0.745272 0.621829
0.993084 0.776708 0.653088
0.524860 0.654381 0.499416
0.524871 0.654402 0.499296
0.524883 0.654424 0.499198
0.524936 0.654443 0.499089
0.524973 0.654465 0.498985
0.525029 0.654487 0.498874
0.525042 0.654512 0.498739
0.525111 0.654551 0.498542
0.525188 0.654608 0.498250
0.525318 0.654688 0.497820
0.525429 0.654808 0.497165
0.525639 0.654982 0.496192
0.525929 0.655232 0.494724
0.526250 0.655599 0.492423
0.526402 0.656157 0.488743
0.525736 0.657042 0.482596
0.523562 0.658457 0.472550
0.534207 0.660462 0.471908
0.561301 0.662375 0.481563
0.592235 0.665087 0.490207
0.629500 0.668843 0.491511
0.664891 0.673402 0.506346
0.683946 0.680767 0.527135
0.707812 0.681038 0.536174
0.735305 0.678995 0.541517
0.766540 0.676220 0.543797
0.799861 0.671372 0.551282
0.833734 0.667396 0.562359
0.867302 0.673596 0.562622
0.897533 0.696410 0.582169
0.929019 0.721993 0.603781
0.961264 0.750087 0.629257
0.994060 0.780116 0.658093
0.570011 0.687771 0.542726
0.570046 0.687786 0.542680
0.570075 0.687801 0.542624
0.570103 0.687816 0.542567
0.570119 0.687832 0.542508
0.570185 0.687843 0.542454
0.570198 0.687862 0.542379
0.570300 0.687888 0.542291
0.570326 0.687930 0.542131
0.570464 0.687983 0.541924
0.570662 0.688066 0.541607
0.570909 0.688186 0.541115
0.571289 0.688360 0.540401
0.571784 0.688617 0.539297
0.572417 0.688991 0.537578
0.573244 0.689529 0.534833
0.574087 0.690308 0.530190
0.574062 0.691540 0.521892
0.573523 0.693610 0.509700
0.593609 0.696017 0.514267
0.625171 0.698693 0.523347
0.662823 0.702426 0.524815
0.698443 0.706969 0.539828
0.717509 0.714342 0.560841
0.741553 0.714780 0.569956
0.769383 0.712758 0.575072
0.801031 0.709665 0.577007
0.834640 0.704167 0.584463
0.868584 0.699989 0.594948
0.901086 0.709025 0.600167
0.931566 0.731351 0.618698
0.963127 0.756862 0.640128
0.995414 0.784932 0.665492
0.612259 0.721410 0.583948
0.612288 0.721419 0.583919
0.612335 0.721429 0.583890
0.612345 0.721443 0.583866
0.612389 0.721449 0.583840
0.612379 0.721463 0.583797
0.612445 0.721472 0.583767
0.612498 0.721488 0.583719
0.612540 0.721518 0.583643
0.612684 0.721554 0.583528
0.612790 0.721616 0.583361
0.613029 0.721695 0.583112
0.613297 0.721820 0.582729
0.613780 0.721994 0.582191
0.614402 0.722250 0.581345
0.615286 0.722625 0.580030
0.616417 0.723167 0.577902
0.617868 0.723956 0.574350
0.619315 0.725094 0.567894
0.618774 0.726940 0.554913
0.626205 0.729915 0.547288
0.658414 0.732557 0.556778
0.696474 0.736261 0.558402
0.732256 0.740787 0.573579
0.751319 0.748166 0.594772
0.775487 0.748724 0.603904
0.803585 0.746679 0.608816
0.835549 0.743281 0.610503
0.869340 0.737314 0.618033
0.903284 0.733176 0.628187
0.935040 0.744168 0.636801
0.965668 0.766230 0.654887
0.997282 0.791678 0.676211
0.652539 0.755233 0.623549
0.652564 0.755238 0.623536
0.652590 0.755246 0.623527
0.652614 0.755253 0.623506
0.652621 0.755260 0.623484
0.652649 0.755267 0.623475
0.652675 0.755277 0.623455
0.652703 0.755289 0.623428
0.652753 0.755306 0.623377
0.652853 0.755330 0.623317
0.652944 0.755372 0.623235
0.653107 0.755430 0.623099
0.653332 0.755515 0.622900
0.653697 0.755634 0.622615
0.654190 0.755811 0.622184
0.654861 0.756072 0.621491
0.655871 0.756446 0.620449
0.657222 0.756993 0.618767
0.659002 0.757786 0.615917
0.661097 0.758930 0.610758
0.662677 0.760611 0.600297
0.663476 0.763596 0.583792
0.691869 0.766594 0.590443
0.730259 0.770273 0.592202
0.766232 0.774779 0.607505
0.785301 0.782164 0.628857
0.809558 0.782808 0.637974
0.837856 0.780724 0.642732
0.870049 0.777087 0.644289
0.903910 0.770894 0.651968
0.937797 0.766930 0.662092
0.969115 0.779097 0.672780
0.999810 0.801048 0.690839
0.691383 0.789190 0.661889
0.691427 0.789193 0.661890
0.691430 0.789198 0.661868
0.691436 0.789206 0.661864
0.691458 0.789209 0.661860
0.691444 0.789216 0.661841
0.691486 0.789219 0.661841
0.691513 0.789227 0.661827
0.691522 0.789242 0.661789
0.691598 0.789260 0.661761
0.691680 0.789288 0.661710
0.691812 0.789327 0.661647
0.691976 0.789384 0.661539
0.692220 0.789465 0.661373
0.692611 0.789584 0.661142
0.693073 0.789769 0.660767
0.693815 0.790028 0.660221
0.694898 0.790405 0.659359
0.696372 0.790954 0.657973
0.698341 0.791750 0.655602
0.700847 0.792901 0.651302
0.703419 0.794558 0.642558
0.702382 0.797328 0.622319
0.725525 0.800748 0.624292
0.764239 0.804401 0.626150
0.800349 0.808892 0.641574
0.819411 0.816280 0.663034
0.843731 0.816974 0.672129
0.872174 0.814862 0.676802
