StdX-ACES-OCIOv2.0/studio/LMT_AnalyticFilmic6_ACEScct_33.cube
TITLE "Generated by Foundry::LUT"
LUT_3D_SIZE 9
0.042338 0.042338 0.042338
0.074975 0.072797 0.072918
0.150321 0.073252 0.073354
0.344346 0.114323 0.077720
0.463516 0.225912 0.093073
0.585276 0.359827 0.220753
0.718468 0.491537 0.354147
0.854332 0.629459 0.497276
0.990843 0.768997 0.642995
0.073135 0.084108 0.073112
0.093929 0.093571 0.074796
0.171025 0.122370 0.077492
0.350994 0.167021 0.084748
0.465414 0.240555 0.095139
0.585527 0.364080 0.230969
0.718647 0.492093 0.354681
0.854368 0.629598 0.497455
0.990853 0.769027 0.643086
0.089098 0.173456 0.077944
0.145828 0.189047 0.081460
0.210683 0.209448 0.092006
0.357586 0.253034 0.108395
0.467224 0.266217 0.137236
0.585949 0.370599 0.246062
0.718942 0.493001 0.355531
0.854429 0.629814 0.497688
0.990868 0.769066 0.643094
0.213807 0.351309 0.186184
0.216940 0.354749 0.156271
0.272579 0.360051 0.168968
0.381561 0.378674 0.221913
0.473327 0.357380 0.222129
0.587811 0.394572 0.294104
0.720238 0.496950 0.359733
0.854703 0.630753 0.498798
0.990927 0.769269 0.643341
0.295091 0.466291 0.282633
0.293790 0.467046 0.274494
0.301985 0.468288 0.267314
0.377947 0.473437 0.292751
0.495057 0.491911 0.337536
0.594736 0.480593 0.360424
0.724863 0.515367 0.390949
0.855913 0.634941 0.504119
0.991204 0.770191 0.644414
0.417025 0.588968 0.404294
0.416259 0.589190 0.402566
0.414646 0.589563 0.399544
0.418360 0.591329 0.393457
0.498005 0.596378 0.417510
0.618038 0.614840 0.460935
0.730311 0.606723 0.486193
0.860913 0.652246 0.530629
0.992405 0.774331 0.649768
0.612259 0.721410 0.583948
0.612389 0.721449 0.583840
0.612540 0.721518 0.583643
0.613297 0.721820 0.582729
0.616417 0.723167 0.577902
0.626205 0.729915 0.547288
0.751319 0.748166 0.594772
0.869340 0.737314 0.618033
0.997282 0.791678 0.676211
0.766003 0.857387 0.735676
0.766033 0.857399 0.735669
0.766105 0.857410 0.735656
0.766326 0.857476 0.735571
0.767202 0.857788 0.735132
0.771267 0.859156 0.732722
0.781143 0.865310 0.703537
0.887835 0.884728 0.731511
1.006820 0.873925 0.755634
0.908459 0.994374 0.876435
0.908417 0.994381 0.876414
0.908443 0.994385 0.876428
0.908502 0.994399 0.876402
0.908678 0.994465 0.876326
0.909567 0.994781 0.875936
0.913458 0.996175 0.873746
0.923369 1.002387 0.846512
1.025123 1.022030 0.868703
0.072807 0.072848 0.072933
0.080846 0.073513 0.079960
0.149268 0.078317 0.105867
0.351465 0.104260 0.131505
0.464280 0.226441 0.119969
0.585759 0.355992 0.215738
0.718513 0.490877 0.353758
0.854350 0.629298 0.497100
0.990847 0.768972 0.643006
0.075381 0.087536 0.087417
0.095195 0.095194 0.095195
0.203235 0.088540 0.082800
0.356646 0.127682 0.083635
0.465723 0.231905 0.100593
0.586019 0.360348 0.225127
0.718689 0.491440 0.354265
0.854384 0.629428 0.497252
0.990857 0.768978 0.642991
0.084768 0.172362 0.117685
0.088444 0.194754 0.093616
0.216439 0.211582 0.098672
0.364233 0.218464 0.115823
0.468161 0.257362 0.130638
0.586435 0.367291 0.240655
0.718986 0.492359 0.355103
0.854448 0.629638 0.497490
0.990880 0.769022 0.643017
0.193289 0.354629 0.222509
0.210308 0.354901 0.199761
0.237883 0.360200 0.167000
0.382138 0.378659 0.225829
0.474450 0.349989 0.224224
0.588274 0.392116 0.290845
0.720286 0.496340 0.359119
0.854720 0.630584 0.498600
0.990930 0.769240 0.643313
0.295405 0.466693 0.295799
0.295344 0.467108 0.287501
0.293448 0.468342 0.273882
0.370091 0.473514 0.291585
0.495246 0.491903 0.337862
0.595167 0.478787 0.360353
0.724976 0.514739 0.389584
0.855932 0.634782 0.503897
0.991203 0.770163 0.644410
0.417498 0.588947 0.406972
0.416833 0.589159 0.405309
0.415521 0.589527 0.402431
0.416236 0.591256 0.394123
0.496219 0.596406 0.417230
0.618082 0.614841 0.461089
0.730447 0.606214 0.486084
0.860937 0.652111 0.530338
0.992408 0.774295 0.649721
0.612171 0.721415 0.584265
0.612283 0.721456 0.584151
0.612452 0.721525 0.583958
0.613210 0.721825 0.583062
0.616354 0.723177 0.578280
0.625747 0.729921 0.547185
0.751327 0.748168 0.594826
0.869374 0.737189 0.617997
0.997289 0.791638 0.676109
0.765966 0.857392 0.735736
0.766033 0.857395 0.735731
0.766085 0.857412 0.735707
0.766305 0.857476 0.735631
0.767161 0.857790 0.735180
0.771227 0.859157 0.732771
0.781166 0.865310 0.703673
0.887855 0.884732 0.731535
1.006829 0.873885 0.755617
0.908460 0.994375 0.876446
0.908417 0.994381 0.876425
0.908443 0.994385 0.876439
0.908503 0.994399 0.876423
0.908703 0.994465 0.876338
0.909566 0.994778 0.875947
0.913412 0.996179 0.873747
0.923396 1.002388 0.846539
1.025136 1.022030 0.868713
0.072810 0.074299 0.096435
0.106546 0.081770 0.141518
0.175538 0.093036 0.173265
0.342306 0.135463 0.250056
0.466437 0.228736 0.204824
0.586396 0.357708 0.245582
0.718579 0.489811 0.353411
0.854383 0.629024 0.496792
0.990854 0.768897 0.642918
0.081732 0.111359 0.156617
0.103993 0.101384 0.208419
0.203574 0.117958 0.204862
0.357121 0.137035 0.234873
0.466823 0.237670 0.180662
0.586614 0.357855 0.235353
0.718758 0.490368 0.353817
0.854413 0.629170 0.497016
0.990867 0.768926 0.642947
0.098067 0.192949 0.192762
0.109226 0.203300 0.203645
0.218412 0.218412 0.218412
0.371204 0.231728 0.210193
0.468950 0.255003 0.166576
0.587168 0.361745 0.234037
0.719054 0.491296 0.354562
0.854478 0.629364 0.497198
0.990887 0.768944 0.642881
0.164046 0.345161 0.255456
0.165660 0.350358 0.241350
0.218910 0.364888 0.231389
0.382949 0.379624 0.270728
0.474553 0.346436 0.251544
0.588963 0.388352 0.286063
0.720363 0.495308 0.358195
0.854752 0.630315 0.498298
0.990945 0.769159 0.643173
0.283099 0.468328 0.311649
0.285836 0.468004 0.303214
0.286745 0.468470 0.289426
0.362940 0.473571 0.298966
0.495347 0.491909 0.342023
0.595865 0.475778 0.360504
0.725164 0.513674 0.387256
0.855968 0.634515 0.503500
0.991209 0.770097 0.644315
0.417416 0.589024 0.411422
0.417445 0.589145 0.409729
0.416525 0.589493 0.407062
0.412782 0.591154 0.395573
0.493168 0.596452 0.416750
0.618152 0.614845 0.461372
0.730666 0.605375 0.485909
0.860979 0.651876 0.529854
0.992419 0.774222 0.649578
0.611994 0.721426 0.584786
0.612083 0.721467 0.584673
0.612313 0.721534 0.584493
0.613091 0.721835 0.583619
0.616240 0.723187 0.578907
0.624966 0.729937 0.547014
0.751342 0.748167 0.594908
0.869429 0.736980 0.617942
0.997295 0.791598 0.676052
0.765926 0.857392 0.735820
0.765993 0.857398 0.735819
0.766029 0.857415 0.735796
0.766225 0.857477 0.735690
0.767146 0.857790 0.735272
0.771209 0.859158 0.732871
0.781224 0.865304 0.703904
0.887850 0.884731 0.731551
1.006834 0.873851 0.755606
0.908394 0.994382 0.876455
0.908415 0.994379 0.876461
0.908444 0.994386 0.876462
0.908478 0.994400 0.876433
0.908655 0.994465 0.876350
0.909545 0.994782 0.875957
0.913453 0.996169 0.873771
0.923371 1.002388 0.846581
1.025137 1.022030 0.868721
0.100770 0.120417 0.306718
0.177375 0.118044 0.333312
0.247913 0.156835 0.330678
0.348323 0.224124 0.347154
0.460664 0.255785 0.359929
0.588163 0.364276 0.329289
0.719222 0.491207 0.379908
0.854510 0.627802 0.495684
0.990900 0.768627 0.642606
0.107268 0.173342 0.334853
0.145564 0.149639 0.337878
0.244867 0.180347 0.343852
0.354093 0.239822 0.353774
0.463421 0.257067 0.356606
0.588473 0.365396 0.324292
0.719318 0.491183 0.377701
0.854545 0.627943 0.495838
0.990901 0.768655 0.642607
0.137648 0.241807 0.333352
0.152586 0.230248 0.345351
0.246941 0.243231 0.365970
0.364789 0.282660 0.365334
0.469172 0.270105 0.351894
0.588805 0.367477 0.316343
0.719476 0.491139 0.374024
0.854610 0.628148 0.496025
0.990921 0.768680 0.642630
0.233938 0.359933 0.359849
0.241216 0.362203 0.362246
0.266732 0.368181 0.368449
0.382992 0.382992 0.382992
0.479199 0.360861 0.344296
0.588117 0.389506 0.319392
0.720626 0.491533 0.359860
0.854885 0.629102 0.497045
0.990982 0.768903 0.642885
0.265013 0.459690 0.359233
0.264430 0.460806 0.355726
0.267295 0.463357 0.350664
0.363316 0.477643 0.365220
0.495604 0.492827 0.397067
0.596140 0.470429 0.378948
0.725990 0.508836 0.376920
0.856115 0.633345 0.501909
0.991248 0.769813 0.643933
0.410036 0.590352 0.429576
0.410579 0.590384 0.428079
0.411523 0.590448 0.425522
0.412530 0.591166 0.413517
0.479165 0.596722 0.415724
0.618528 0.614876 0.462649
0.731638 0.601573 0.485244
0.861167 0.650845 0.527707
0.992461 0.773954 0.649175
0.611183 0.721503 0.587128
0.611361 0.721522 0.586983
0.611573 0.721589 0.586821
0.612394 0.721888 0.586006
0.615816 0.723238 0.581638
0.622195 0.729946 0.546740
0.751411 0.748172 0.595357
0.869686 0.735996 0.617701
0.997354 0.791334 0.675480
0.765771 0.857398 0.736231
0.765781 0.857410 0.736219
0.765817 0.857427 0.736192
0.766037 0.857493 0.736113
0.766992 0.857796 0.735699
0.771061 0.859167 0.733346
0.781458 0.865294 0.704969
0.887873 0.884730 0.731669
1.006909 0.873595 0.755542
0.908390 0.994378 0.876544
0.908421 0.994382 0.876564
0.908398 0.994385 0.876535
0.908386 0.994403 0.876512
0.908659 0.994469 0.876445
0.909522 0.994781 0.876058
0.913391 0.996179 0.873873
0.923422 1.002387 0.846813
1.025137 1.022030 0.868745
0.220916 0.237765 0.440404
0.235426 0.229754 0.441539
0.278155 0.232473 0.452200
0.359838 0.276961 0.450723
0.464828 0.340814 0.464248
0.583742 0.387149 0.482508
0.721910 0.496883 0.461972
0.855419 0.627346 0.514628
0.991065 0.767350 0.641158
0.223443 0.254395 0.444476
0.238268 0.245804 0.448089
0.268003 0.239841 0.453284
0.358166 0.281201 0.452807
0.465635 0.344297 0.465164
0.584507 0.386818 0.481768
0.722008 0.497079 0.460879
0.855437 0.627350 0.514148
0.991071 0.767386 0.641241
0.227439 0.280396 0.444897
0.239371 0.272497 0.450774
0.263986 0.262838 0.457309
0.358087 0.295294 0.457469
0.467127 0.354751 0.466759
0.585625 0.386908 0.480460
0.722176 0.497379 0.459030
0.855470 0.627343 0.513392
0.991089 0.767428 0.641250
0.266076 0.351935 0.445681
0.268003 0.349322 0.448962
0.276833 0.345650 0.452317
0.360010 0.360313 0.466815
0.473756 0.402172 0.473535
0.588651 0.405526 0.476710
0.722942 0.498547 0.450645
0.855610 0.627296 0.509710
0.991149 0.767624 0.641461
0.352140 0.473978 0.473924
0.353997 0.474445 0.474410
0.357951 0.475369 0.475387
0.400685 0.480588 0.480588
0.496085 0.496085 0.496085
0.600646 0.484301 0.468164
0.727290 0.501843 0.409247
0.856710 0.628033 0.497092
0.991426 0.768551 0.642427
0.382991 0.583003 0.479797
0.382774 0.583239 0.478989
0.382358 0.583652 0.477636
0.381558 0.585906 0.471708
0.464873 0.600930 0.474220
0.619252 0.615845 0.506758
0.736059 0.583981 0.483877
0.861960 0.646206 0.518591
0.992642 0.772731 0.647382
0.603695 0.722842 0.596716
0.603879 0.722853 0.596589
0.604214 0.722868 0.596367
0.605585 0.722945 0.595374
0.610900 0.723687 0.590974
0.616778 0.729752 0.553958
0.751845 0.748214 0.596567
0.870851 0.731522 0.616645
0.997578 0.790251 0.673298
0.764892 0.857454 0.738042
0.764957 0.857454 0.738031
0.764953 0.857476 0.737989
0.765191 0.857536 0.737908
0.766154 0.857845 0.737544
0.770417 0.859210 0.735423
0.782266 0.865257 0.709579
0.887931 0.884738 0.732250
1.007192 0.872536 0.755262
0.908164 0.994388 0.876923
0.908211 0.994388 0.876927
0.908170 0.994395 0.876922
0.908234 0.994412 0.876907
0.908411 0.994481 0.876808
0.909293 0.994790 0.876430
0.913259 0.996185 0.874317
0.923591 1.002377 0.847807
1.025151 1.022029 0.868840
0.358099 0.368428 0.569521
0.360756 0.365911 0.570251
0.365426 0.361672 0.571570
0.399495 0.358221 0.578822
0.486821 0.403803 0.580442
0.589986 0.465795 0.589729
0.718008 0.518719 0.615475
0.858806 0.632632 0.598331
0.992225 0.764593 0.650638
0.359353 0.372129 0.571022
0.361963 0.369692 0.571729
0.366548 0.365605 0.572995
0.398143 0.359807 0.579832
0.486897 0.404467 0.581614
0.590375 0.466381 0.590201
0.718211 0.518558 0.615316
0.858834 0.632659 0.598075
0.992226 0.764603 0.650557
0.361395 0.378020 0.573492
0.363884 0.375732 0.574131
0.368283 0.371885 0.575314
0.395816 0.363144 0.581189
0.487045 0.405670 0.583566
0.591041 0.467394 0.591001
0.718550 0.518280 0.615038
0.858871 0.632745 0.597695
0.992235 0.764590 0.650357
0.369238 0.401493 0.583929
0.371251 0.399621 0.584318
0.374863 0.396506 0.585067
0.394670 0.384575 0.588929
0.487782 0.413702 0.591991
0.594171 0.472858 0.594742
0.720094 0.517095 0.613758
0.859039 0.633038 0.595909
0.992265 0.764590 0.649600
0.394033 0.476917 0.576644
0.394338 0.476267 0.577531
0.394949 0.475180 0.579059
0.400197 0.470196 0.586964
0.484369 0.479642 0.603681
0.602105 0.518155 0.602981
0.727816 0.513374 0.606059
0.859827 0.634256 0.587653
0.992401 0.764556 0.645967
0.477245 0.598380 0.598384
0.477388 0.598489 0.598494
0.477632 0.598662 0.598686
0.478901 0.599527 0.599625
0.501044 0.604918 0.605275
0.619635 0.619635 0.619635
0.742762 0.592428 0.569366
0.864213 0.637765 0.547190
0.993392 0.767231 0.641625
0.548112 0.717696 0.620473
0.548192 0.717760 0.620337
0.548243 0.717854 0.620128
0.548840 0.718336 0.619195
0.552107 0.720897 0.615153
0.572636 0.734536 0.594507
0.753819 0.748991 0.617213
0.876118 0.711165 0.610698
0.998574 0.785262 0.663372
0.757531 0.858804 0.745371
0.757558 0.858809 0.745357
0.757688 0.858805 0.745350
0.757971 0.858821 0.745208
0.759393 0.858905 0.744629
0.765127 0.859646 0.742252
0.780393 0.865571 0.722789
0.888396 0.884770 0.733771
1.008516 0.867652 0.753994
0.907222 0.994445 0.878605
0.907289 0.994439 0.878629
0.907272 0.994445 0.878598
0.907304 0.994460 0.878597
0.907531 0.994525 0.878529
0.908491 0.994835 0.878198
0.912534 0.996228 0.876281
0.924186 1.002380 0.852227
1.025225 1.022032 0.869411
0.490044 0.504689 0.699935
0.490694 0.504132 0.700182
0.491770 0.503201 0.700599
0.496767 0.499011 0.702523
0.532144 0.492285 0.712825
0.622437 0.537885 0.717204
0.723392 0.600029 0.723067
0.855152 0.654108 0.752026
0.995954 0.770072 0.735713
0.490340 0.505474 0.700251
0.490988 0.504927 0.700498
0.492024 0.504017 0.700902
0.497024 0.499852 0.702824
0.531824 0.492681 0.713007
0.622474 0.538017 0.717496
0.723486 0.600156 0.723180
0.855199 0.654066 0.751987
0.995963 0.770071 0.735641
0.490798 0.506793 0.700755
0.491435 0.506247 0.701000
0.492488 0.505341 0.701410
0.497455 0.501231 0.703322
0.531291 0.493375 0.713279
0.622549 0.538250 0.717977
0.723645 0.600370 0.723375
0.855282 0.653999 0.751933
0.995966 0.770099 0.735563
0.492813 0.512476 0.702954
0.493408 0.511965 0.703189
0.494451 0.511093 0.703592
0.499224 0.507216 0.705456
0.528796 0.497027 0.714224
0.622885 0.539314 0.720173
0.724362 0.601344 0.724252
0.855632 0.653690 0.751666
0.996008 0.770157 0.735202
0.500216 0.535813 0.711582
0.500712 0.535401 0.711797
0.501579 0.534710 0.712163
0.505629 0.531571 0.713846
0.527802 0.518922 0.721165
0.624859 0.545707 0.730734
0.727907 0.606499 0.728578
0.857262 0.652331 0.750402
0.996176 0.770447 0.733434
0.528287 0.612781 0.735121
0.528397 0.612579 0.735384
0.528599 0.612244 0.735824
0.529546 0.610699 0.737851
0.536624 0.602774 0.747639
0.625120 0.597396 0.767455
0.744548 0.634984 0.748495
0.865454 0.647401 0.742746
0.996989 0.771633 0.725343
0.610370 0.732434 0.732488
0.610374 0.732462 0.732509
0.610438 0.732499 0.732551
0.610661 0.732677 0.732740
0.611775 0.733561 0.733712
0.619196 0.739422 0.740115
0.753342 0.753342 0.753342
0.887198 0.701186 0.672951
1.001426 0.775157 0.685787
0.701142 0.855161 0.761995
0.701124 0.855175 0.761964
0.701188 0.855201 0.761936
0.701301 0.855299 0.761759
0.702232 0.855801 0.761046
0.706978 0.858447 0.758002
0.733868 0.870791 0.744221
0.891221 0.885325 0.742985
1.014442 0.845657 0.745979
0.899598 0.995816 0.885373
0.899578 0.995823 0.885365
0.899677 0.995816 0.885379
0.899683 0.995825 0.885346
0.899979 0.995840 0.885222
0.901386 0.995921 0.884713
0.907010 0.996676 0.882597
0.921835 1.002711 0.864587
1.025730 1.022055 0.870739
0.625063 0.642610 0.834636
0.625202 0.642487 0.834696
0.625468 0.642262 0.834813
0.626559 0.641354 0.835279
0.631819 0.637066 0.837548
0.668559 0.628627 0.849693
0.760070 0.674817 0.855203
0.859793 0.736982 0.859390
0.992403 0.791439 0.889257
0.625131 0.642777 0.834713
0.625305 0.642645 0.834783
0.625521 0.642450 0.834876
0.626628 0.641521 0.835357
0.631848 0.637262 0.837607
0.668480 0.628717 0.849733
0.760083 0.674849 0.855272
0.859809 0.737007 0.859418
0.992407 0.791465 0.889261
0.625283 0.643044 0.834852
0.625445 0.642916 0.834921
0.625648 0.642721 0.835012
0.626746 0.641806 0.835482
0.631981 0.637542 0.837742
0.668373 0.628872 0.849793
0.760107 0.674898 0.855394
0.859849 0.737054 0.859464
0.992423 0.791454 0.889248
0.625810 0.644275 0.835423
0.625983 0.644150 0.835496
0.626202 0.643945 0.835595
0.627299 0.643033 0.836073
0.632496 0.638819 0.838321
0.667815 0.629648 0.850012
0.760206 0.675118 0.855913
0.860014 0.737263 0.859663
0.992508 0.791355 0.889186
0.628224 0.649720 0.837991
0.628372 0.649600 0.838051
0.628622 0.649399 0.838163
0.629641 0.648540 0.838623
0.634685 0.644527 0.840817
0.665438 0.633311 0.851012
0.760697 0.676156 0.858303
0.860764 0.738218 0.860605
0.992866 0.791065 0.888932
0.636866 0.672374 0.847736
0.637006 0.672266 0.847805
0.637186 0.672124 0.847885
0.638077 0.671416 0.848314
0.642340 0.668141 0.850324
0.665665 0.654677 0.859035
0.763451 0.682255 0.869831
0.864531 0.743188 0.865270
0.994543 0.789659 0.887672
0.665981 0.748706 0.873197
0.665990 0.748661 0.873231
0.666041 0.748579 0.873312
0.666210 0.748234 0.873595
0.667111 0.746597 0.875002
0.673919 0.738575 0.882834
0.765752 0.728236 0.911196
0.882716 0.769321 0.887626
1.002932 0.784522 0.880138
0.746852 0.869245 0.869310
0.746833 0.869247 0.869311
0.746841 0.869257 0.869319
0.746910 0.869291 0.869361
0.747110 0.869470 0.869562
0.748154 0.870374 0.870542
0.755275 0.876292 0.877072
0.889986 0.889986 0.889986
1.027543 0.828602 0.801465
0.842720 0.992709 0.900553
0.842722 0.992713 0.900556
0.842746 0.992717 0.900542
0.842688 0.992733 0.900497
0.843005 0.992851 0.900368
0.843826 0.993347 0.899644
0.848673 0.995939 0.896737
0.874655 1.008036 0.883723
1.028804 1.022509 0.879088
0.759271 0.781672 0.968337
0.759317 0.781640 0.968354
0.759343 0.781606 0.968366
0.759604 0.781402 0.968500
0.760724 0.780479 0.969028
0.766175 0.776197 0.971614
0.804063 0.766786 0.985423
0.897871 0.812365 0.993097
0.997429 0.873944 0.997130
0.759308 0.781703 0.968358
0.759309 0.781690 0.968366
0.759377 0.781643 0.968396
0.759625 0.781430 0.968516
0.760737 0.780516 0.969049
0.766203 0.776236 0.971630
0.804005 0.766827 0.985434
0.897859 0.812374 0.993123
0.997433 0.873946 0.997134
0.759314 0.781767 0.968384
0.759354 0.781734 0.968408
0.759398 0.781696 0.968432
0.759666 0.781487 0.968550
0.760784 0.780570 0.969087
0.766246 0.776288 0.971664
0.804010 0.766853 0.985443
0.897865 0.812377 0.993161
0.997438 0.873961 0.997142
0.759473 0.782019 0.968541
0.759496 0.782004 0.968555
0.759541 0.781952 0.968576
0.759801 0.781739 0.968696
0.760919 0.780831 0.969238
0.766353 0.776562 0.971803
0.803918 0.767015 0.985487
0.897891 0.812433 0.993279
0.997476 0.874002 0.997197
0.760138 0.783176 0.969222
0.760175 0.783141 0.969242
0.760212 0.783112 0.969254
0.760471 0.782906 0.969385
0.761562 0.781997 0.969912
0.766959 0.777773 0.972467
0.803394 0.767806 0.985711
0.898028 0.812655 0.993821
0.997647 0.874194 0.997402
0.763030 0.788328 0.972203
0.763013 0.788325 0.972198
0.763043 0.788295 0.972224
0.763286 0.788095 0.972335
0.764350 0.787230 0.972863
0.769629 0.783168 0.975374
0.801155 0.771489 0.986764
0.898645 0.813706 0.996353
0.998429 0.875123 0.998390
0.773227 0.810082 0.983381
0.773235 0.810074 0.983386
0.773294 0.810032 0.983412
0.773475 0.809885 0.983512
0.774390 0.809160 0.983998
0.778837 0.805827 0.986299
0.803068 0.792007 0.996036
0.901999 0.819739 1.008566
1.002347 0.879907 1.003334
0.804237 0.885387 1.011890
0.804230 0.885392 1.011880
0.804213 0.885387 1.011879
0.804311 0.885297 1.011981
0.804450 0.884929 1.012302
0.805435 0.883225 1.013893
0.812767 0.874660 1.022778
0.907489 0.861727 1.053977
1.021191 0.905106 1.026945
0.884187 1.006582 1.006643
0.884164 1.006580 1.006643
0.884190 1.006578 1.006650
0.884220 1.006588 1.006660
0.884223 1.006617 1.006700
0.884461 1.006810 1.006899
0.885546 1.007708 1.007906
0.892505 1.013684 1.014526
1.027302 1.027302 1.027302
