StdX-ACES-OCIOv2.0/studio/LMT_AnalyticFilmic2_ACEScct_33.cube
TITLE "Generated by Foundry::LUT"
LUT_3D_SIZE 5
0.002932 -0.000557 0.019555
0.243744 0.025594 0.019284
0.483658 0.264822 0.139495
0.721237 0.515782 0.419561
0.958789 0.751282 0.639610
0.013451 0.246564 0.033459
0.261654 0.244252 0.035962
0.484029 0.305385 0.209994
0.721251 0.517821 0.422921
0.958790 0.751382 0.639811
0.247397 0.486186 0.250303
0.308789 0.486364 0.254444
0.497644 0.484071 0.273556
0.721548 0.544595 0.460107
0.958802 0.752910 0.642860
0.503018 0.723786 0.494119
0.506469 0.723795 0.494273
0.546848 0.723928 0.496615
0.735280 0.721623 0.505827
0.959107 0.780873 0.684507
0.741638 0.961305 0.718465
0.741805 0.961306 0.718472
0.744346 0.961312 0.718585
0.784616 0.961445 0.720855
0.973019 0.959070 0.722028
-0.046628 -0.039181 0.278700
0.249113 0.025754 0.263006
0.483961 0.277462 0.278857
0.721235 0.516990 0.426885
0.958789 0.751335 0.639992
0.048238 0.211544 0.281989
0.249628 0.254368 0.270052
0.483867 0.322910 0.289248
0.721248 0.519016 0.429938
0.958790 0.751435 0.640192
0.251082 0.486415 0.316910
0.310415 0.486595 0.318626
0.496963 0.484647 0.328059
0.721540 0.545281 0.465024
0.958802 0.752962 0.643228
0.503165 0.723798 0.497952
0.506610 0.723806 0.498098
0.546927 0.723940 0.500326
0.735254 0.721648 0.509141
0.959107 0.780899 0.684756
0.741646 0.961306 0.718651
0.741813 0.961306 0.718658
0.744353 0.961313 0.718770
0.784620 0.961446 0.721035
0.973017 0.959071 0.722205
-0.377466 -0.315545 0.499874
0.001160 -0.303005 0.499127
0.487182 0.304025 0.486910
0.721354 0.529467 0.497176
0.958788 0.752151 0.645678
-0.413397 0.038063 0.499775
-0.045044 0.035322 0.499295
0.487350 0.341246 0.487145
0.721349 0.531793 0.497927
0.958788 0.752250 0.645865
0.314371 0.483340 0.493006
0.345583 0.484317 0.492679
0.490530 0.493653 0.490709
0.721460 0.556741 0.513554
0.958800 0.753766 0.648698
0.505599 0.723981 0.540623
0.508939 0.723989 0.540705
0.548291 0.724123 0.541970
0.734869 0.722043 0.547643
0.959105 0.781301 0.688501
0.741763 0.961315 0.721468
0.741930 0.961315 0.721475
0.744467 0.961322 0.721584
0.784682 0.961455 0.723770
0.973003 0.959089 0.724895
-4.559281 -3.504606 0.722783
-4.233922 -3.499763 0.722745
0.337585 -3.332371 0.722054
0.724946 0.551655 0.710148
0.958860 0.765385 0.716672
-4.595193 -3.203784 0.722783
-4.270367 -3.199734 0.722746
0.332825 -3.044275 0.722067
0.724954 0.553639 0.710159
0.958860 0.765486 0.716733
-5.060391 0.391416 0.722648
-4.745921 0.390982 0.722626
0.179126 0.389241 0.722166
0.725081 0.579380 0.710337
0.958863 0.767021 0.717678
0.553022 0.728326 0.711245
0.554859 0.728334 0.711253
0.579001 0.728466 0.711379
0.730608 0.729818 0.713739
0.959065 0.790765 0.738207
0.744322 0.961506 0.764014
0.744483 0.961507 0.764018
0.746939 0.961513 0.764079
0.786124 0.961647 0.765335
0.972712 0.959456 0.766291
-48.754055 -31.771221 0.945758
-48.473988 -31.766878 0.945756
-44.119183 -31.702988 0.945721
0.677874 -28.366072 0.944845
0.962701 0.789599 0.933387
-48.784737 -31.511377 0.945758
-48.504105 -31.507467 0.945756
-44.151367 -31.443848 0.945721
0.677810 -28.119719 0.944846
0.962701 0.789695 0.933388
-49.256554 -27.485418 0.945756
-48.977310 -27.481892 0.945754
-44.629036 -27.428164 0.945719
0.676806 -24.298185 0.944858
0.962707 0.791170 0.933396
-57.073978 0.694965 0.945517
-56.804848 0.694952 0.945516
-52.635036 0.694758 0.945498
0.654951 0.693403 0.944959
0.962833 0.816962 0.933574
0.791927 0.965923 0.934502
0.792015 0.965923 0.934503
0.793365 0.965930 0.934509
0.817313 0.966061 0.934635
0.969568 0.966719 0.936694
