StdX-ACES-OCIOv2.0/studio/LMT_AnalyticFilmic8_ACEScct_33.cube
TITLE "Generated by Foundry::LUT"
LUT_3D_SIZE 5
0.038894 0.038894 0.038894
0.166102 0.070925 0.076253
0.465371 0.197351 0.204596
0.693135 0.495173 0.464270
0.941806 0.742465 0.707409
0.090071 0.229765 0.072735
0.253624 0.256723 0.066290
0.471473 0.287852 0.222736
0.693806 0.496680 0.463749
0.941838 0.742544 0.707360
0.135882 0.502984 0.097427
0.290048 0.506310 0.129391
0.517796 0.516922 0.180716
0.703687 0.518100 0.454313
0.942367 0.743430 0.706734
0.620855 0.722626 0.575137
0.621165 0.722825 0.574602
0.624991 0.726214 0.563996
0.749011 0.748583 0.472965
0.951986 0.763633 0.702007
0.867972 0.973089 0.812972
0.867954 0.973101 0.812927
0.868302 0.973237 0.812617
0.874211 0.976115 0.804763
1.000321 0.999464 0.666475
0.069279 0.073619 0.141009
0.213705 0.081643 0.210707
0.468626 0.200288 0.278414
0.692758 0.493454 0.466595
0.941795 0.742389 0.707509
0.058157 0.232578 0.232297
0.233313 0.233307 0.233314
0.469895 0.241415 0.239310
0.693433 0.494991 0.466078
0.941830 0.742418 0.707458
0.086685 0.497872 0.241955
0.097288 0.504697 0.092994
0.516882 0.515391 0.226189
0.703466 0.515640 0.455314
0.942351 0.743297 0.706858
0.620592 0.722430 0.576390
0.620867 0.722637 0.575855
0.624814 0.725976 0.565699
0.748878 0.748427 0.476272
0.951983 0.763446 0.701964
0.867908 0.973089 0.812994
0.867913 0.973094 0.812981
0.868226 0.973230 0.812665
0.874170 0.976106 0.804837
1.000319 0.999462 0.666561
0.183988 0.223903 0.488087
0.278576 0.163002 0.491788
0.482795 0.293362 0.481433
0.697850 0.488486 0.521056
0.941550 0.740542 0.709171
0.169167 0.294270 0.493117
0.250646 0.245589 0.500346
0.485459 0.313005 0.484691
0.698011 0.489082 0.519598
0.941581 0.740636 0.709154
0.163944 0.493116 0.492899
0.205565 0.493930 0.493802
0.493570 0.493580 0.493571
0.701077 0.501026 0.496928
0.942103 0.741498 0.708552
0.611970 0.721037 0.591758
0.612471 0.721164 0.591318
0.619133 0.723510 0.583966
0.748156 0.747178 0.499174
0.951949 0.760896 0.701370
0.867469 0.972981 0.813797
0.867502 0.972985 0.813799
0.867819 0.973120 0.813495
0.873852 0.975971 0.805884
1.000322 0.999424 0.667718
0.430649 0.500081 0.705242
0.433837 0.497890 0.705469
0.497415 0.470266 0.712046
0.712380 0.557608 0.709664
0.948208 0.722136 0.763765
0.431133 0.502355 0.706185
0.434328 0.500203 0.706414
0.495598 0.472081 0.712364
0.712596 0.558020 0.709939
0.948218 0.722146 0.763680
0.434341 0.533692 0.718804
0.437368 0.532121 0.719034
0.484078 0.506731 0.721948
0.716313 0.565178 0.714594
0.948379 0.722373 0.762452
0.534810 0.725407 0.724925
0.535259 0.725446 0.724971
0.539228 0.726298 0.725921
0.728090 0.728101 0.728099
0.952174 0.730645 0.735862
0.851956 0.972216 0.826811
0.852036 0.972218 0.826812
0.852551 0.972300 0.826539
0.862996 0.974292 0.820765
1.000773 0.998894 0.681635
0.663351 0.721792 0.969007
0.663637 0.721581 0.969038
0.667559 0.718485 0.969467
0.749603 0.633451 0.979286
0.969617 0.761437 0.969070
0.663288 0.721928 0.969063
0.663597 0.721725 0.969087
0.667464 0.718649 0.969512
0.749524 0.633665 0.979309
0.969632 0.761429 0.969091
0.663564 0.723842 0.969852
0.663855 0.723653 0.969869
0.667931 0.720550 0.970305
0.748066 0.637732 0.979535
0.969815 0.761700 0.969340
0.661149 0.760405 0.983446
0.661437 0.760299 0.983461
0.665663 0.758167 0.983891
0.736154 0.701684 0.990976
0.974164 0.767633 0.975077
-55.194103 0.979218 0.979264
-55.356541 0.979227 0.979276
-55.320034 0.979268 0.979319
-54.841518 0.980252 0.980450
0.977205 0.977220 0.977222
