StdX-ACES-OCIOv2.0/studio/LMT_AnalyticFilmic7_ACEScct_33.cube
TITLE "Generated by Foundry::LUT"
LUT_3D_SIZE 5
-0.016852 -0.016852 -0.016852
0.207920 0.072157 0.077579
0.455469 0.209084 0.193243
0.687963 0.454065 0.448333
0.935617 0.709985 0.699080
0.117710 0.254826 0.076995
0.261812 0.265101 0.091781
0.458596 0.278090 0.199638
0.688379 0.456418 0.448098
0.935640 0.710069 0.699086
0.300845 0.486049 0.264176
0.311634 0.488164 0.231321
0.488046 0.487297 0.290500
0.693379 0.493459 0.448581
0.935931 0.711859 0.699022
0.598074 0.712029 0.558814
0.598395 0.712130 0.558332
0.602438 0.713829 0.549301
0.721002 0.720252 0.525420
0.941299 0.745603 0.700186
0.868704 0.957032 0.829261
0.868708 0.957038 0.829276
0.868936 0.957106 0.829094
0.873503 0.958592 0.825014
0.969887 0.969236 0.774590
0.069749 0.075940 0.153584
0.232575 0.112518 0.229505
0.458683 0.215260 0.277346
0.688086 0.450620 0.449977
0.935636 0.709750 0.699161
0.075204 0.263325 0.263035
0.266323 0.266323 0.266323
0.460698 0.252644 0.251927
0.688505 0.453001 0.449694
0.935650 0.709902 0.699170
0.280427 0.487001 0.308847
0.286961 0.488402 0.274310
0.488328 0.487204 0.302426
0.693665 0.490082 0.449158
0.935946 0.711642 0.699100
0.597741 0.712024 0.559949
0.598063 0.712127 0.559485
0.602279 0.713808 0.550740
0.721039 0.720245 0.525676
0.941306 0.745493 0.700218
0.868680 0.957033 0.829326
0.868708 0.957038 0.829314
0.868913 0.957108 0.829138
0.873497 0.958585 0.825046
0.969905 0.969232 0.774617
0.211001 0.237310 0.476591
0.290045 0.214063 0.480667
0.465650 0.338118 0.464303
0.691877 0.460098 0.509216
0.935836 0.706710 0.700265
0.198787 0.293299 0.482327
0.267038 0.263169 0.488387
0.467296 0.354386 0.466168
0.692115 0.459918 0.507483
0.935865 0.706780 0.700256
0.239915 0.487446 0.487332
0.277070 0.487788 0.487717
0.488586 0.488586 0.488586
0.696347 0.460773 0.480014
0.936160 0.708592 0.700154
0.587879 0.713405 0.575594
0.588469 0.713418 0.575117
0.595919 0.714136 0.567424
0.721696 0.720158 0.528583
0.941575 0.742807 0.700615
0.868424 0.957044 0.829916
0.868408 0.957054 0.829880
0.868701 0.957111 0.829738
0.873302 0.958593 0.825743
0.969926 0.969226 0.774846
0.463517 0.481740 0.713428
0.466533 0.479020 0.713762
0.520870 0.448474 0.719712
0.701332 0.573420 0.700349
0.941046 0.708065 0.758337
0.463741 0.484369 0.714260
0.466734 0.481739 0.714594
0.519478 0.450108 0.720145
0.701572 0.573743 0.700642
0.941056 0.708057 0.758261
0.463048 0.519819 0.725259
0.466045 0.517980 0.725623
0.509474 0.488212 0.729796
0.705649 0.579626 0.705622
0.941242 0.707914 0.757027
0.465730 0.722643 0.722669
0.465900 0.722697 0.722731
0.468501 0.723647 0.723797
0.722455 0.722455 0.722455
0.945636 0.708322 0.731116
0.859458 0.958788 0.840604
0.859537 0.958781 0.840602
0.859855 0.958791 0.840389
0.867014 0.959241 0.836432
0.970695 0.969093 0.778234
0.705864 0.738015 0.957866
0.706003 0.737903 0.957882
0.708537 0.735890 0.958295
0.767572 0.699507 0.967564
0.950436 0.822440 0.949472
0.705882 0.738125 0.957912
0.706034 0.737997 0.957945
0.708580 0.735988 0.958351
0.767485 0.699612 0.967584
0.950445 0.822457 0.949483
0.706390 0.739693 0.958706
0.706532 0.739583 0.958725
0.709024 0.737602 0.959140
0.766439 0.701077 0.967842
0.950647 0.822672 0.949734
0.711197 0.770067 0.972361
0.711341 0.769984 0.972382
0.713661 0.768532 0.972783
0.760197 0.735131 0.979519
0.955211 0.828024 0.955474
0.712915 0.971912 0.971955
0.712939 0.971910 0.971967
0.712926 0.971947 0.972018
0.715203 0.972935 0.973147
0.971510 0.971510 0.971510
