StdX-ACES-OCIOv2.0/studio/LMT_AnalyticFilmic5_ACEScct_33.cube
TITLE "Generated by Foundry::LUT"
LUT_3D_SIZE 5
0.000000 0.000000 0.000000
0.173671 0.075107 0.072005
0.453623 0.259849 0.186113
0.705381 0.521759 0.464270
0.948611 0.790713 0.745360
0.124306 0.232708 0.092204
0.244776 0.243352 0.106935
0.457642 0.296984 0.229786
0.706022 0.522378 0.464292
0.948636 0.790765 0.745403
0.334960 0.493520 0.326376
0.361038 0.493787 0.327750
0.498989 0.495872 0.352281
0.710087 0.544575 0.487515
0.949065 0.791336 0.745698
0.647100 0.734591 0.617754
0.647010 0.734784 0.617162
0.642783 0.738364 0.605046
0.748289 0.745665 0.613614
0.958448 0.799826 0.746381
0.913774 0.980417 0.881818
0.913779 0.980421 0.881806
0.913786 0.980544 0.881533
0.914188 0.983201 0.874481
0.998054 0.995635 0.865360
0.025432 0.031014 0.232468
0.236170 0.050577 0.234816
0.457597 0.227922 0.210417
0.705427 0.521417 0.465181
0.948623 0.790686 0.745372
0.012589 0.249196 0.249559
0.250000 0.250000 0.250000
0.461158 0.285588 0.238833
0.706071 0.522052 0.465210
0.948649 0.790730 0.745407
0.297310 0.495329 0.337752
0.337712 0.495507 0.338984
0.499795 0.496449 0.360051
0.710375 0.543644 0.487196
0.949072 0.791314 0.745716
0.647595 0.734421 0.619249
0.647537 0.734602 0.618712
0.644161 0.738005 0.607441
0.748289 0.745670 0.614474
0.958459 0.799801 0.746423
0.913769 0.980411 0.881878
0.913795 0.980411 0.881857
0.913802 0.980534 0.881584
0.914254 0.983184 0.874555
0.998048 0.995636 0.865404
-0.244237 -0.197893 0.492840
0.097675 -0.190104 0.492859
0.489892 0.271646 0.489274
0.707179 0.515360 0.488751
0.948815 0.790149 0.745441
-0.275369 0.094881 0.495251
0.071314 0.101846 0.494945
0.490511 0.325026 0.489988
0.707646 0.516550 0.488233
0.948845 0.790178 0.745449
0.336618 0.496327 0.496231
0.363055 0.496561 0.496483
0.499998 0.499998 0.499998
0.713195 0.538239 0.495168
0.949279 0.790764 0.745768
0.646811 0.733985 0.632715
0.646888 0.734138 0.632383
0.647165 0.736681 0.625905
0.748802 0.746030 0.621417
0.958601 0.799489 0.747037
0.913893 0.980319 0.882687
0.913879 0.980334 0.882677
0.913930 0.980447 0.882422
0.914508 0.983057 0.875668
0.998038 0.995640 0.866150
-1.036780 0.384892 0.730964
-0.729232 0.384548 0.731043
0.475289 0.386388 0.732031
0.736862 0.566873 0.735124
0.953818 0.780255 0.753471
-1.157869 0.392026 0.731462
-0.851031 0.391864 0.731538
0.472970 0.392799 0.732530
0.737102 0.567495 0.735431
0.953840 0.780298 0.753453
-3.183576 0.464995 0.738730
-2.876952 0.464563 0.738815
0.417717 0.460293 0.739856
0.740651 0.577072 0.740051
0.954192 0.781044 0.753328
0.587943 0.747083 0.747053
0.588130 0.747151 0.747133
0.592233 0.748109 0.748190
0.750001 0.750001 0.750001
0.962294 0.792984 0.752974
0.910893 0.980491 0.892717
0.910946 0.980492 0.892702
0.911010 0.980599 0.892530
0.912611 0.982858 0.888214
0.998554 0.995966 0.873411
0.360072 0.698633 0.979110
0.385633 0.698602 0.979117
0.505719 0.698334 0.979226
0.744262 0.696477 0.980853
0.986575 0.823896 0.984517
0.344755 0.698787 0.979136
0.372951 0.698720 0.979146
0.506994 0.698412 0.979250
0.744214 0.696557 0.980883
0.986585 0.823933 0.984528
-0.975232 0.700581 0.979603
-0.783561 0.700597 0.979610
0.470968 0.700332 0.979707
0.742697 0.698239 0.981350
0.986801 0.824230 0.984803
-47.875195 0.735989 0.988351
-47.475449 0.735970 0.988350
-42.772942 0.735571 0.988462
0.697033 0.730049 0.990250
0.990771 0.831267 0.990128
0.846550 0.996918 0.996852
0.846616 0.996911 0.996852
0.846773 0.996956 0.996911
0.849729 0.997973 0.998045
1.000003 1.000001 1.000007
