StdX-ACES-OCIOv2.0/studio/LMT_AnalyticFilmic2_ACEScct_33.cube
TITLE "Generated by Foundry::LUT"
LUT_3D_SIZE 33
0.002932 -0.000557 0.019555
0.030960 0.002921 0.017978
0.057531 0.004068 0.019107
0.084158 0.005426 0.020035
0.114698 0.007846 0.019922
0.146771 0.010879 0.019375
0.180243 0.014488 0.018964
0.212475 0.019293 0.018841
0.243744 0.025594 0.019284
0.274445 0.034008 0.020584
0.304781 0.045701 0.023008
0.334882 0.062375 0.026980
0.364723 0.090909 0.034836
0.394519 0.130465 0.046713
0.424236 0.182395 0.067433
0.453956 0.226183 0.095301
0.483658 0.264822 0.139495
0.513359 0.300013 0.191599
0.543058 0.333083 0.233150
0.572757 0.364858 0.269010
0.602454 0.395809 0.301744
0.632150 0.426223 0.332602
0.661846 0.456285 0.362278
0.691542 0.486112 0.391180
0.721237 0.515782 0.419561
0.750932 0.545348 0.447589
0.780626 0.574845 0.475369
0.810320 0.604295 0.502975
0.840015 0.633717 0.530453
0.869708 0.663120 0.557837
0.899401 0.692512 0.585147
0.929095 0.721897 0.612404
0.958789 0.751282 0.639610
0.005746 0.029338 0.018420
0.037085 0.029940 0.017206
0.058888 0.031633 0.020678
0.085459 0.032781 0.021806
0.117497 0.033780 0.022877
0.149045 0.035190 0.023685
0.181759 0.037297 0.024456
0.213460 0.040712 0.025377
0.244409 0.045909 0.026618
0.274897 0.053574 0.028440
0.305081 0.064892 0.031253
0.334982 0.084586 0.037075
0.364821 0.111649 0.044980
0.394590 0.150322 0.057053
0.424288 0.195195 0.077315
0.453992 0.233757 0.104917
0.483682 0.269575 0.148970
0.513375 0.303083 0.197313
0.543069 0.335108 0.236561
0.572764 0.366210 0.271183
0.602459 0.396719 0.303180
0.632154 0.426839 0.333574
0.661849 0.456703 0.362944
0.691544 0.486396 0.391640
0.721238 0.515976 0.419882
0.750933 0.545481 0.447813
0.780627 0.574936 0.475526
0.810320 0.604357 0.503085
0.840015 0.633760 0.530530
0.869708 0.663149 0.557891
0.899402 0.692531 0.585185
0.929095 0.721911 0.612431
0.958789 0.751292 0.639630
0.007103 0.056903 0.019991
0.035135 0.057570 0.020651
0.067213 0.057097 0.019861
0.096015 0.056299 0.021240
0.121184 0.061087 0.024127
0.151749 0.062019 0.025703
0.183681 0.063182 0.027119
0.214828 0.064948 0.029183
0.245342 0.068980 0.032078
0.275458 0.076656 0.035839
0.305395 0.088193 0.040584
0.335224 0.105611 0.046664
0.364987 0.131461 0.054757
0.394693 0.168406 0.067226
0.424355 0.205943 0.087257
0.454036 0.240523 0.114630
0.483710 0.273976 0.158494
0.513393 0.305999 0.202709
0.543081 0.337064 0.239862
0.572773 0.367530 0.273313
0.602465 0.397614 0.304598
0.632158 0.427448 0.334537
0.661852 0.457118 0.363606
0.691546 0.486680 0.392098
0.721240 0.516170 0.420201
0.750934 0.545613 0.448036
0.780627 0.575026 0.475682
0.810321 0.604419 0.503194
0.840016 0.633802 0.530607
0.869708 0.663178 0.557945
0.899402 0.692551 0.585223
0.929095 0.721925 0.612457
0.958789 0.751301 0.639648
0.008255 0.085487 0.021557
0.034954 0.087394 0.022562
0.070282 0.084722 0.022124
0.099844 0.086655 0.022680
0.143647 0.080296 0.023434
0.166808 0.090407 0.021767
0.187206 0.095603 0.026641
0.215255 0.098598 0.030724
0.245591 0.102574 0.033725
0.275697 0.108340 0.038094
0.305641 0.116869 0.044344
0.335442 0.130854 0.052363
0.365160 0.153632 0.062239
0.394810 0.183890 0.076355
0.424434 0.215482 0.096831
0.454086 0.246722 0.124243
0.483741 0.278101 0.167253
0.513413 0.308780 0.207800
0.543094 0.338955 0.243052
0.572781 0.368820 0.275398
0.602471 0.398496 0.305996
0.632162 0.428051 0.335490
0.661855 0.457530 0.364263
0.691548 0.486962 0.392555
0.721241 0.516363 0.420519
0.750935 0.545745 0.448259
0.780628 0.575117 0.475838
0.810321 0.604481 0.503304
0.840016 0.633845 0.530684
0.869708 0.663207 0.557999
0.899402 0.692571 0.585261
0.929095 0.721938 0.612484
0.958789 0.751310 0.639667
0.008344 0.119360 0.023096
0.034876 0.120967 0.024198
0.066392 0.120793 0.023806
0.107793 0.114975 0.024510
0.138751 0.118838 0.024160
0.189838 0.113179 0.014144
0.201521 0.115107 0.025789
0.221718 0.129371 0.025957
0.246056 0.134472 0.035082
0.275920 0.139912 0.039647
0.305795 0.147862 0.046018
0.335595 0.159517 0.055196
0.365303 0.176176 0.067059
0.394922 0.198167 0.083674
0.424516 0.224350 0.105615
0.454141 0.252533 0.133562
0.483775 0.282007 0.175113
0.513434 0.311448 0.212603
0.543108 0.340789 0.246134
0.572790 0.370083 0.277439
0.602477 0.399364 0.307375
0.632166 0.428647 0.336434
0.661857 0.457940 0.364916
0.691550 0.487242 0.393009
0.721242 0.516555 0.420836
0.750936 0.545877 0.448481
0.780629 0.575207 0.475994
0.810322 0.604543 0.503413
0.840016 0.633887 0.530760
0.869709 0.663236 0.558053
0.899402 0.692591 0.585299
0.929096 0.721952 0.612511
0.958789 0.751320 0.639686
0.008818 0.151323 0.024645
0.035327 0.152839 0.025766
0.064199 0.153681 0.026043
0.110014 0.148212 0.024733
0.145544 0.144564 0.027423
0.173411 0.149663 0.025842
0.219499 0.144630 0.009140
0.230927 0.145189 0.027867
0.250938 0.163754 0.029611
0.276197 0.169516 0.041143
0.305955 0.175748 0.047575
0.335704 0.184104 0.056863
0.365414 0.195329 0.070033
0.395020 0.211452 0.089207
0.424597 0.232899 0.113209
0.454198 0.258095 0.142413
0.483811 0.285744 0.182175
0.513457 0.314019 0.217125
0.543122 0.342572 0.249110
0.572799 0.371320 0.279435
0.602483 0.400220 0.308735
0.632170 0.429237 0.337370
0.661860 0.458346 0.365565
0.691552 0.487522 0.393461
0.721244 0.516747 0.421153
0.750937 0.546009 0.448702
0.780629 0.575297 0.476149
0.810322 0.604605 0.503523
0.840016 0.633929 0.530837
0.869709 0.663265 0.558107
0.899402 0.692611 0.585338
0.929096 0.721966 0.612538
0.958789 0.751329 0.639704
0.009616 0.183957 0.026557
0.036128 0.184974 0.027683
0.065342 0.185707 0.028313
0.108612 0.183580 0.026725
0.152117 0.178592 0.027051
0.179452 0.177182 0.030129
0.202830 0.181881 0.027987
0.245767 0.174372 0.011953
0.259208 0.181447 0.028787
0.279114 0.195653 0.037079
0.306168 0.200602 0.049494
0.335840 0.206707 0.058783
0.365515 0.214915 0.072323
0.395120 0.226340 0.094113
0.424688 0.243095 0.120787
0.454268 0.264747 0.152375
0.483858 0.290171 0.189881
0.513487 0.317073 0.222328
0.543141 0.344705 0.252628
0.572811 0.372810 0.281831
0.602491 0.401257 0.310381
0.632176 0.429956 0.338508
0.661864 0.458842 0.366356
0.691554 0.487864 0.394014
0.721245 0.516982 0.421540
0.750938 0.546170 0.448974
0.780630 0.575408 0.476340
0.810323 0.604681 0.503657
0.840017 0.633982 0.530932
0.869709 0.663301 0.558174
0.899402 0.692636 0.585384
0.929096 0.721983 0.612571
0.958790 0.751340 0.639728
0.011035 0.215603 0.029357
0.037558 0.216267 0.030485
0.069737 0.216723 0.031324
0.107356 0.216349 0.030583
0.151560 0.213862 0.028890
0.186278 0.210546 0.029690
0.209273 0.209004 0.033388
0.232233 0.213368 0.031193
0.272728 0.204961 0.016026
0.287846 0.215719 0.030393
0.307972 0.226608 0.047326
0.336051 0.231205 0.061592
0.365650 0.237227 0.075134
0.395229 0.245238 0.098818
0.424802 0.257118 0.128960
0.454364 0.274298 0.164134
0.483929 0.296425 0.199392
0.513533 0.321365 0.229238
0.543170 0.347717 0.257486
0.572830 0.374929 0.285212
0.602503 0.402742 0.312732
0.632183 0.430992 0.340148
0.661869 0.459561 0.367503
0.691558 0.488360 0.394817
0.721248 0.517325 0.422103
0.750940 0.546406 0.449370
0.780631 0.575570 0.476619
0.810323 0.604792 0.503853
0.840017 0.634058 0.531070
0.869710 0.663353 0.558270
0.899403 0.692671 0.585452
0.929096 0.722007 0.612619
0.958790 0.751357 0.639762
0.013451 0.246564 0.033459
0.042939 0.246950 0.034604
0.075691 0.247258 0.035588
0.109619 0.247354 0.035643
0.148016 0.246766 0.034375
0.185202 0.245027 0.032696
0.214624 0.242254 0.033152
0.238933 0.240177 0.038127
0.261654 0.244252 0.035962
0.300397 0.235536 0.021486
0.316704 0.248279 0.033513
0.337237 0.257063 0.061497
0.365849 0.261472 0.079951
0.395355 0.267331 0.103900
0.424928 0.275410 0.136575
0.454485 0.287686 0.175494
0.484029 0.305385 0.209994
0.513603 0.327398 0.237949
0.543215 0.351938 0.263992
0.572858 0.377917 0.289895
0.602521 0.404854 0.316053
0.632195 0.432475 0.342490
0.661877 0.460596 0.369152
0.691563 0.489079 0.395978
0.721251 0.517821 0.422921
0.750942 0.546748 0.449946
0.780633 0.575805 0.477025
0.810325 0.604954 0.504138
0.840018 0.634169 0.531271
0.869710 0.663429 0.558412
0.899403 0.692724 0.585553
0.929096 0.722043 0.612689
0.958790 0.751382 0.639811
0.020673 0.277044 0.039485
0.052939 0.277265 0.040646
0.084074 0.277492 0.041709
0.115756 0.277662 0.042282
0.149490 0.277653 0.042030
0.181884 0.277282 0.040837
0.212501 0.276045 0.038685
0.243164 0.273329 0.038395
0.268505 0.270903 0.045061
0.291105 0.274741 0.043034
0.328642 0.266006 0.028863
0.345725 0.279763 0.039095
0.366634 0.287184 0.084320
0.395550 0.291453 0.111117
0.425061 0.297315 0.143853
0.454622 0.305486 0.185079
0.484158 0.318163 0.220289
0.513706 0.336001 0.247931
0.543285 0.357853 0.272290
0.572903 0.382102 0.296197
0.602550 0.407831 0.320658
0.632214 0.434583 0.345798
0.661889 0.462078 0.371507
0.691571 0.490113 0.397649
0.721257 0.518540 0.424103
0.750946 0.547245 0.450781
0.780636 0.576148 0.477614
0.810327 0.605190 0.504554
0.840020 0.634331 0.531564
0.869711 0.663541 0.558619
0.899404 0.692800 0.585698
0.929097 0.722096 0.612792
0.958790 0.751418 0.639884
0.035274 0.307217 0.048328
0.065826 0.307375 0.049479
0.095915 0.307536 0.050587
0.126169 0.307681 0.051454
0.157258 0.307781 0.051881
0.184206 0.307791 0.051722
0.210140 0.307590 0.050629
0.240393 0.306601 0.047664
0.271889 0.303979 0.046272
0.298042 0.301316 0.055242
0.320587 0.304967 0.053506
0.357163 0.296335 0.041629
0.374656 0.310680 0.053362
0.396142 0.317116 0.118568
0.425258 0.321358 0.153914
0.454759 0.327206 0.193023
0.484306 0.335491 0.228927
0.513840 0.348390 0.257749
0.543389 0.366259 0.281943
0.572973 0.387957 0.304279
0.602595 0.411999 0.326869
0.632242 0.437556 0.350386
0.661907 0.464186 0.374831
0.691584 0.491596 0.400032
0.721265 0.519575 0.425802
0.750952 0.547964 0.451987
0.780639 0.576645 0.478468
0.810329 0.605533 0.505158
0.840021 0.634567 0.531990
0.869712 0.663703 0.558920
0.899404 0.692912 0.585911
0.929097 0.722172 0.612941
0.958791 0.751470 0.639989
0.053849 0.337236 0.061256
0.083388 0.337346 0.062401
0.112662 0.337457 0.063530
0.141933 0.337565 0.064550
0.170096 0.337662 0.065355
0.192108 0.337736 0.065852
0.213661 0.337776 0.065937
0.238956 0.337662 0.064862
0.268630 0.336866 0.061865
0.300572 0.334373 0.060058
0.327419 0.331527 0.073453
0.349890 0.334989 0.074469
0.385892 0.326538 0.062983
0.403807 0.341111 0.073828
0.425753 0.346972 0.165117
0.454956 0.351191 0.202529
0.484451 0.357029 0.235691
0.513994 0.365409 0.265978
0.543526 0.378417 0.291514
0.573078 0.396264 0.313749
0.602665 0.417827 0.334849
0.632287 0.441721 0.356573
0.661936 0.467160 0.379440
0.691602 0.493705 0.403393
0.721277 0.521059 0.428224
0.750960 0.549000 0.453720
0.780645 0.577365 0.479701
0.810333 0.606031 0.506034
0.840024 0.634910 0.532610
0.869714 0.663939 0.559358
0.899406 0.693074 0.586220
0.929098 0.722284 0.613160
0.958791 0.751547 0.640143
0.078342 0.367120 0.083520
0.107046 0.367194 0.084881
0.135577 0.367269 0.086235
0.163589 0.367344 0.087550
0.186003 0.367417 0.088773
0.203716 0.367484 0.089857
0.221530 0.367556 0.090932
0.242662 0.367624 0.091853
0.267457 0.367581 0.091530
0.296790 0.366954 0.087416
0.329268 0.364584 0.083008
0.356828 0.361587 0.100484
0.379340 0.364908 0.102988
0.414968 0.356607 0.091183
0.433098 0.371281 0.104245
0.455383 0.376765 0.213284
0.484649 0.380977 0.243552
0.514145 0.386814 0.272205
0.543684 0.395253 0.299525
0.573216 0.408300 0.323175
0.602769 0.426093 0.344221
0.632358 0.447543 0.364523
0.661982 0.471327 0.385648
0.691631 0.496683 0.408047
0.721296 0.523171 0.431636
0.750972 0.550486 0.456188
0.780653 0.578403 0.481472
0.810339 0.606752 0.507297
0.840028 0.635409 0.533508
0.869717 0.664283 0.559994
0.899408 0.693312 0.586671
0.929099 0.722447 0.613478
0.958792 0.751659 0.640368
0.112211 0.396935 0.116472
0.140250 0.396986 0.117757
0.167260 0.397038 0.119041
0.188369 0.397090 0.120317
0.205138 0.397141 0.121563
0.219081 0.397192 0.122753
0.233581 0.397252 0.124106
0.251189 0.397331 0.125783
0.272066 0.397416 0.127376
0.296555 0.397415 0.127384
0.325575 0.396894 0.122017
0.358302 0.394622 0.114487
0.386331 0.391532 0.138045
0.408865 0.394758 0.143986
0.444149 0.386608 0.136634
0.462428 0.401331 0.154868
0.485045 0.406527 0.252923
0.514344 0.410736 0.279235
0.543839 0.416571 0.305451
0.573376 0.425038 0.331047
0.602908 0.438081 0.353558
0.632463 0.455807 0.373851
0.662052 0.477159 0.393611
0.691677 0.500859 0.414305
0.721326 0.526155 0.436352
0.750992 0.552603 0.459661
0.780666 0.579892 0.483992
0.810347 0.607791 0.509109
0.840034 0.636131 0.534803
0.869721 0.664783 0.560916
0.899410 0.693656 0.587325
0.929101 0.722684 0.613941
0.958793 0.751822 0.640696
0.160027 0.426712 0.162137
0.182536 0.426747 0.163273
0.200156 0.426783 0.164392
0.214628 0.426818 0.165495
0.226911 0.426854 0.166578
0.237591 0.426890 0.167631
0.249081 0.426933 0.168874
0.263468 0.426995 0.170553
0.280936 0.427078 0.172635
0.301635 0.427172 0.174758
0.325892 0.427198 0.175646
0.354628 0.426752 0.171194
0.387448 0.424574 0.162623
0.415835 0.421427 0.189378
0.438397 0.424567 0.196742
0.473481 0.416524 0.192186
0.491902 0.431230 0.204393
0.514725 0.436265 0.287834
0.544039 0.440476 0.312011
0.573532 0.446309 0.336786
0.603069 0.454783 0.361329
0.632602 0.467796 0.383128
0.662157 0.485445 0.402930
0.691748 0.506710 0.422312
0.721372 0.530344 0.442681
0.751021 0.555596 0.464453
0.780686 0.582013 0.487533
0.810360 0.609283 0.511685
0.840042 0.637174 0.536660
0.869727 0.665507 0.562244
0.899414 0.694157 0.588271
0.929104 0.723030 0.614612
0.958795 0.752060 0.641171
0.207463 0.456459 0.210006
0.220606 0.456483 0.210697
0.231917 0.456507 0.211381
0.241845 0.456532 0.212060
0.250690 0.456556 0.212732
0.258668 0.456580 0.213396
0.267522 0.456610 0.214202
0.278954 0.456654 0.215345
0.293263 0.456717 0.216916
0.310624 0.456803 0.218934
0.331178 0.456905 0.221104
0.355250 0.456952 0.222200
0.383789 0.456565 0.218714
0.416716 0.454454 0.210884
0.445400 0.451255 0.231712
0.467999 0.454334 0.237981
0.502969 0.446358 0.234731
0.521476 0.461041 0.243513
0.544413 0.465991 0.320136
0.573733 0.470199 0.343061
0.603226 0.476034 0.366935
0.632763 0.484500 0.390817
0.662296 0.497468 0.412164
0.691853 0.515035 0.431643
0.721443 0.536220 0.450751
0.751067 0.559799 0.470865
0.780716 0.585015 0.492409
0.810380 0.611412 0.515299
0.840055 0.638669 0.539296
0.869735 0.666552 0.564147
0.899420 0.694883 0.589634
0.929108 0.723532 0.615584
0.958798 0.752407 0.641862
0.247397 0.486186 0.250303
0.255574 0.486203 0.250703
0.263003 0.486220 0.251101
0.269812 0.486236 0.251497
0.276090 0.486253 0.251891
0.281922 0.486270 0.252283
0.288567 0.486290 0.252762
0.297393 0.486320 0.253455
0.308789 0.486364 0.254444
0.323048 0.486427 0.255815
0.340347 0.486515 0.257593
0.360813 0.486622 0.259530
0.384776 0.486681 0.260538
0.413187 0.486328 0.257425
0.446163 0.484258 0.249857
0.475022 0.481029 0.267945
0.497644 0.484071 0.273556
0.532555 0.476132 0.270587
0.551112 0.490796 0.277507
0.574105 0.495705 0.350874
0.603427 0.499915 0.373031
0.632919 0.505750 0.396324
0.662456 0.514198 0.419787
0.691991 0.527108 0.440848
0.721548 0.544595 0.460107
0.751139 0.565705 0.479011
0.780762 0.589236 0.498915
0.810410 0.614423 0.520266
0.840075 0.640803 0.542987
0.869749 0.668052 0.566845
0.899429 0.695930 0.591585
0.929114 0.724259 0.616983
0.958802 0.752910 0.642860
0.283449 0.515903 0.285635
0.288716 0.515914 0.285883
0.293664 0.515926 0.286129
0.298327 0.515937 0.286375
0.302737 0.515948 0.286621
0.306920 0.515960 0.286865
0.311791 0.515974 0.287164
0.318421 0.515995 0.287600
0.327228 0.516025 0.288232
0.338600 0.516069 0.289137
0.352826 0.516132 0.290397
0.370083 0.516221 0.292038
0.390495 0.516330 0.293836
0.414388 0.516396 0.294762
0.442731 0.516061 0.291766
0.475729 0.514014 0.284234
0.504682 0.510768 0.300911
0.527315 0.513790 0.306033
0.562205 0.505867 0.302857
0.580790 0.520514 0.308580
0.603800 0.525413 0.380625
0.633121 0.529623 0.402303
0.662613 0.535458 0.425212
0.692151 0.543884 0.448411
0.721685 0.556733 0.469290
0.751243 0.574138 0.488401
0.780834 0.595175 0.507145
0.810457 0.618663 0.526870
0.840106 0.643826 0.548048
0.869769 0.670193 0.570619
0.899443 0.697434 0.594349
0.929123 0.725310 0.618984
0.958808 0.753639 0.644297
0.317243 0.545611 0.318229
0.320708 0.545619 0.318388
0.324032 0.545627 0.318547
0.327225 0.545634 0.318706
0.330296 0.545642 0.318864
0.333257 0.545650 0.319021
0.336759 0.545660 0.319215
0.341621 0.545674 0.319497
0.348240 0.545694 0.319907
0.357032 0.545725 0.320503
0.368387 0.545769 0.321357
0.382590 0.545832 0.322549
0.399821 0.545922 0.324105
0.420202 0.546032 0.325806
0.444058 0.546102 0.326647
0.472360 0.545775 0.323634
0.505371 0.543738 0.316011
0.534365 0.540483 0.331946
0.557006 0.543496 0.336663
0.591896 0.535574 0.332971
0.610495 0.550209 0.337834
0.633496 0.555117 0.409737
0.662814 0.559328 0.431116
0.692306 0.565163 0.453768
0.721844 0.573563 0.476801
0.751380 0.586348 0.497571
0.780938 0.603670 0.516577
0.810529 0.624639 0.535194
0.840153 0.648086 0.554760
0.869800 0.673227 0.575780
0.899463 0.699582 0.598207
0.929137 0.726819 0.621816
0.958817 0.754692 0.646350
0.349646 0.575313 0.349190
0.351955 0.575318 0.349294
0.354200 0.575324 0.349399
0.356385 0.575329 0.349503
0.358513 0.575334 0.349607
0.360587 0.575340 0.349710
0.363069 0.575346 0.349838
0.366566 0.575356 0.350024
0.371422 0.575370 0.350295
0.378030 0.575391 0.350690
0.386813 0.575421 0.351262
0.398155 0.575465 0.352084
0.412342 0.575529 0.353232
0.429557 0.575618 0.354728
0.449922 0.575729 0.356353
0.473760 0.575800 0.357105
0.502049 0.575475 0.353995
0.535063 0.573439 0.346198
0.564065 0.570181 0.361775
0.586706 0.573193 0.366125
0.621614 0.565264 0.361725
0.640217 0.579891 0.365891
0.663194 0.584816 0.438426
0.692508 0.589028 0.459624
0.721998 0.594863 0.482100
0.751538 0.603238 0.505033
0.781075 0.615958 0.525737
0.810633 0.633200 0.544670
0.840226 0.654100 0.563180
0.869847 0.677509 0.582600
0.899494 0.702629 0.603470
0.929157 0.728974 0.625761
0.958831 0.756206 0.649251
0.381157 0.605011 0.379123
0.382710 0.605015 0.379192
0.384233 0.605019 0.379261
0.385727 0.605022 0.379331
0.387195 0.605026 0.379400
0.388638 0.605030 0.379469
0.390379 0.605034 0.379555
0.392858 0.605041 0.379679
0.396352 0.605050 0.379860
0.401202 0.605065 0.380124
0.407803 0.605085 0.380508
0.416576 0.605115 0.381065
0.427909 0.605159 0.381866
0.442086 0.605223 0.382984
0.459291 0.605313 0.384437
0.479648 0.605424 0.386000
0.503482 0.605494 0.386659
0.531775 0.605167 0.383399
0.564787 0.603127 0.375368
0.593774 0.599870 0.390823
0.616415 0.602885 0.394823
0.651349 0.594943 0.389550
0.669952 0.609561 0.393125
0.692892 0.614514 0.466830
0.722201 0.618726 0.487926
0.751691 0.624562 0.510281
0.781231 0.632910 0.533155
0.810768 0.645566 0.553827
0.840329 0.662728 0.572702
0.869920 0.683563 0.591122
0.899542 0.706934 0.610405
0.929189 0.732034 0.631130
0.958852 0.758369 0.653286
0.412086 0.634708 0.408394
0.413135 0.634710 0.408441
0.414171 0.634713 0.408487
0.415194 0.634715 0.408533
0.416204 0.634718 0.408580
0.417202 0.634720 0.408626
0.418414 0.634723 0.408683
0.420153 0.634728 0.408767
0.422630 0.634734 0.408889
0.426120 0.634744 0.409067
0.430965 0.634758 0.409326
0.437559 0.634779 0.409703
0.446327 0.634809 0.410251
0.457653 0.634853 0.411036
0.471823 0.634917 0.412131
0.489022 0.635006 0.413550
0.509379 0.635117 0.415058
0.533218 0.635186 0.415622
0.561523 0.634855 0.412171
0.594533 0.632806 0.403864
0.623491 0.629552 0.419354
0.646128 0.632573 0.423007
0.681095 0.624614 0.416743
0.699692 0.639225 0.419768
0.722590 0.644210 0.495040
0.751894 0.648422 0.516087
0.781383 0.654258 0.538358
0.810923 0.662581 0.561204
0.840464 0.675174 0.581861
0.870023 0.692259 0.600694
0.899615 0.713028 0.619032
0.929237 0.736362 0.638183
0.958884 0.761443 0.658765
0.442629 0.664401 0.437227
0.443341 0.664403 0.437258
0.444047 0.664405 0.437289
0.444746 0.664407 0.437321
0.445440 0.664408 0.437353
0.446127 0.664410 0.437384
0.446966 0.664412 0.437423
0.448177 0.664415 0.437479
0.449915 0.664420 0.437562
0.452390 0.664426 0.437682
0.455878 0.664436 0.437858
0.460718 0.664450 0.438114
0.467308 0.664471 0.438488
0.476070 0.664501 0.439028
0.487390 0.664545 0.439804
0.501556 0.664609 0.440882
0.518752 0.664698 0.442272
0.539111 0.664808 0.443730
0.562962 0.664875 0.444192
0.591287 0.664538 0.440525
0.624292 0.662479 0.431905
0.653211 0.659229 0.447532
0.675845 0.662258 0.450839
0.710848 0.654280 0.443452
0.729437 0.668886 0.445967
0.752289 0.673904 0.523118
0.781586 0.678118 0.544154
0.811075 0.683955 0.566364
0.840617 0.692253 0.589200
0.870157 0.704784 0.609856
0.899718 0.721792 0.628654
0.929310 0.742497 0.646913
0.958932 0.765794 0.665937
0.472911 0.694095 0.465771
0.473395 0.694096 0.465792
0.473876 0.694097 0.465813
0.474355 0.694098 0.465835
0.474830 0.694099 0.465856
0.475304 0.694101 0.465878
0.475882 0.694102 0.465903
0.476721 0.694104 0.465942
0.477931 0.694107 0.465998
0.479668 0.694112 0.466079
0.482142 0.694118 0.466199
0.485626 0.694128 0.466373
0.490462 0.694142 0.466627
0.497049 0.694163 0.466996
0.505807 0.694193 0.467532
0.517121 0.694237 0.468299
0.531284 0.694301 0.469364
0.548480 0.694390 0.470731
0.568845 0.694499 0.472139
0.592710 0.694564 0.472498
0.621060 0.694219 0.468587
0.654058 0.692149 0.459631
0.682934 0.688904 0.475473
0.705562 0.691941 0.478422
0.740605 0.683943 0.469810
0.759183 0.698540 0.471817
0.781987 0.703597 0.551102
0.811277 0.707812 0.572156
0.840767 0.713650 0.594323
0.870309 0.721925 0.617159
0.899850 0.734395 0.637823
0.929412 0.751331 0.656590
0.959005 0.771971 0.674774
0.503018 0.723786 0.494119
0.503348 0.723787 0.494133
0.503676 0.723788 0.494148
0.504004 0.723789 0.494162
0.504330 0.723790 0.494177
0.504655 0.723791 0.494191
0.505053 0.723791 0.494209
0.505631 0.723793 0.494235
0.506469 0.723795 0.494273
0.507679 0.723798 0.494329
0.509415 0.723803 0.494410
0.511887 0.723809 0.494529
0.515368 0.723819 0.494702
0.520201 0.723833 0.494954
0.526784 0.723854 0.495321
0.535539 0.723884 0.495853
0.546848 0.723928 0.496615
0.561011 0.723992 0.497670
0.578207 0.724081 0.499013
0.598579 0.724189 0.500374
0.622461 0.724252 0.500623
0.650837 0.723899 0.496454
0.683828 0.721815 0.487137
0.712656 0.718576 0.503246
0.735280 0.721623 0.505827
0.770363 0.713605 0.495874
0.788930 0.728194 0.497384
0.811685 0.733289 0.579022
0.840970 0.737505 0.600113
0.870459 0.743344 0.622248
0.900001 0.751598 0.645092
0.929544 0.764008 0.665769
0.959107 0.780873 0.684507
0.533006 0.753478 0.522336
0.533231 0.753478 0.522346
0.533456 0.753479 0.522356
0.533680 0.753479 0.522366
0.533903 0.753480 0.522376
0.534126 0.753480 0.522385
0.534399 0.753481 0.522398
0.534797 0.753482 0.522415
0.535375 0.753483 0.522442
0.536212 0.753485 0.522479
0.537421 0.753489 0.522534
0.539156 0.753493 0.522616
0.541626 0.753500 0.522734
0.545105 0.753509 0.522906
0.549936 0.753523 0.523157
0.556516 0.753544 0.523522
0.565267 0.753574 0.524051
0.576573 0.753619 0.524807
0.590735 0.753682 0.525851
0.607933 0.753771 0.527174
0.628314 0.753878 0.528487
0.652214 0.753938 0.528623
0.680619 0.753577 0.524180
0.713600 0.751480 0.514483
0.742380 0.748247 0.530902
0.764998 0.751304 0.533102
0.800121 0.743264 0.521708
0.818677 0.757845 0.522699
0.841385 0.762982 0.606894
0.870663 0.767199 0.628039
0.900150 0.773039 0.650149
0.929694 0.781271 0.673007
0.959238 0.793624 0.693699
0.562914 0.783169 0.550464
0.563068 0.783169 0.550470
0.563221 0.783170 0.550477
0.563374 0.783170 0.550484
0.563527 0.783170 0.550490
0.563680 0.783171 0.550498
0.563867 0.783171 0.550506
0.564140 0.783172 0.550518
0.564538 0.783173 0.550536
0.565116 0.783174 0.550561
0.565953 0.783177 0.550599
0.567160 0.783180 0.550654
0.568894 0.783184 0.550735
0.571362 0.783191 0.550852
0.574839 0.783200 0.551024
0.579667 0.783215 0.551274
0.586245 0.783235 0.551638
0.594993 0.783265 0.552165
0.606295 0.783310 0.552917
0.620457 0.783373 0.553952
0.637660 0.783461 0.555254
0.658050 0.783568 0.556518
0.681968 0.783625 0.556539
0.710400 0.783255 0.551808
0.743373 0.781143 0.541710
0.772102 0.777917 0.558472
0.794716 0.780985 0.560277
0.829880 0.772925 0.547307
0.848424 0.787497 0.547777
