StdX-ACES-OCIOv2.0/studio/LMT_AnalyticFilmic6_ACEScct_33.cube
TITLE "Generated by Foundry::LUT"
LUT_3D_SIZE 5
0.042338 0.042338 0.042338
0.150321 0.073252 0.073354
0.463516 0.225912 0.093073
0.718468 0.491537 0.354147
0.990843 0.768997 0.642995
0.089098 0.173456 0.077944
0.210683 0.209448 0.092006
0.467224 0.266217 0.137236
0.718942 0.493001 0.355531
0.990868 0.769066 0.643094
0.295091 0.466291 0.282633
0.301985 0.468288 0.267314
0.495057 0.491911 0.337536
0.724863 0.515367 0.390949
0.991204 0.770191 0.644414
0.612259 0.721410 0.583948
0.612540 0.721518 0.583643
0.616417 0.723167 0.577902
0.751319 0.748166 0.594772
0.997282 0.791678 0.676211
0.908459 0.994374 0.876435
0.908443 0.994385 0.876428
0.908678 0.994465 0.876326
0.913458 0.996175 0.873746
1.025123 1.022030 0.868703
0.072810 0.074299 0.096435
0.175538 0.093036 0.173265
0.466437 0.228736 0.204824
0.718579 0.489811 0.353411
0.990854 0.768897 0.642918
0.098067 0.192949 0.192762
0.218412 0.218412 0.218412
0.468950 0.255003 0.166576
0.719054 0.491296 0.354562
0.990887 0.768944 0.642881
0.283099 0.468328 0.311649
0.286745 0.468470 0.289426
0.495347 0.491909 0.342023
0.725164 0.513674 0.387256
0.991209 0.770097 0.644315
0.611994 0.721426 0.584786
0.612313 0.721534 0.584493
0.616240 0.723187 0.578907
0.751342 0.748167 0.594908
0.997295 0.791598 0.676052
0.908394 0.994382 0.876455
0.908444 0.994386 0.876462
0.908655 0.994465 0.876350
0.913453 0.996169 0.873771
1.025137 1.022030 0.868721
0.220916 0.237765 0.440404
0.278155 0.232473 0.452200
0.464828 0.340814 0.464248
0.721910 0.496883 0.461972
0.991065 0.767350 0.641158
0.227439 0.280396 0.444897
0.263986 0.262838 0.457309
0.467127 0.354751 0.466759
0.722176 0.497379 0.459030
0.991089 0.767428 0.641250
0.352140 0.473978 0.473924
0.357951 0.475369 0.475387
0.496085 0.496085 0.496085
0.727290 0.501843 0.409247
0.991426 0.768551 0.642427
0.603695 0.722842 0.596716
0.604214 0.722868 0.596367
0.610900 0.723687 0.590974
0.751845 0.748214 0.596567
0.997578 0.790251 0.673298
0.908164 0.994388 0.876923
0.908170 0.994395 0.876922
0.908411 0.994481 0.876808
0.913259 0.996185 0.874317
1.025151 1.022029 0.868840
0.490044 0.504689 0.699935
0.491770 0.503201 0.700599
0.532144 0.492285 0.712825
0.723392 0.600029 0.723067
0.995954 0.770072 0.735713
0.490798 0.506793 0.700755
0.492488 0.505341 0.701410
0.531291 0.493375 0.713279
0.723645 0.600370 0.723375
0.995966 0.770099 0.735563
0.500216 0.535813 0.711582
0.501579 0.534710 0.712163
0.527802 0.518922 0.721165
0.727907 0.606499 0.728578
0.996176 0.770447 0.733434
0.610370 0.732434 0.732488
0.610438 0.732499 0.732551
0.611775 0.733561 0.733712
0.753342 0.753342 0.753342
1.001426 0.775157 0.685787
0.899598 0.995816 0.885373
0.899677 0.995816 0.885379
0.899979 0.995840 0.885222
0.907010 0.996676 0.882597
1.025730 1.022055 0.870739
0.759271 0.781672 0.968337
0.759343 0.781606 0.968366
0.760724 0.780479 0.969028
0.804063 0.766786 0.985423
0.997429 0.873944 0.997130
0.759314 0.781767 0.968384
0.759398 0.781696 0.968432
0.760784 0.780570 0.969087
0.804010 0.766853 0.985443
0.997438 0.873961 0.997142
0.760138 0.783176 0.969222
0.760212 0.783112 0.969254
0.761562 0.781997 0.969912
0.803394 0.767806 0.985711
0.997647 0.874194 0.997402
0.773227 0.810082 0.983381
0.773294 0.810032 0.983412
0.774390 0.809160 0.983998
0.803068 0.792007 0.996036
1.002347 0.879907 1.003334
0.884187 1.006582 1.006643
0.884190 1.006578 1.006650
0.884223 1.006617 1.006700
0.885546 1.007708 1.007906
1.027302 1.027302 1.027302
