StdX-ACES-OCIOv2.0/studio/LMT_filmic_ACEScct_33.cube
TITLE "Generated by Foundry::LUT"
LUT_3D_SIZE 9
0.084322 0.084322 0.084322
0.169621 0.153076 0.153868
0.260279 0.146016 0.148554
0.375963 0.162172 0.137422
0.499459 0.213884 0.198220
0.620825 0.353260 0.320597
0.742531 0.500924 0.457489
0.865233 0.639455 0.590012
0.989931 0.765544 0.713130
0.154601 0.190505 0.154263
0.195532 0.197488 0.154484
0.259760 0.222818 0.150706
0.376065 0.232655 0.144997
0.499211 0.261220 0.201291
0.620728 0.364678 0.321791
0.742512 0.502930 0.457745
0.865233 0.639809 0.590060
0.989934 0.765587 0.713145
0.179396 0.265981 0.147822
0.226733 0.268825 0.151562
0.270053 0.274218 0.157155
0.376334 0.287614 0.155436
0.498984 0.305463 0.205427
0.620623 0.380348 0.323467
0.742488 0.506107 0.458145
0.865235 0.640379 0.590113
0.989932 0.765712 0.713146
0.188971 0.378606 0.166054
0.242178 0.378848 0.167065
0.290212 0.379237 0.168632
0.380065 0.380828 0.173849
0.499461 0.389389 0.213329
0.620640 0.425458 0.327733
0.742419 0.518722 0.459752
0.865239 0.642912 0.590395
0.989940 0.766243 0.713179
0.263812 0.499924 0.237815
0.289767 0.499991 0.237453
0.320431 0.500102 0.236842
0.392497 0.500506 0.234244
0.501160 0.501359 0.227749
0.623139 0.509865 0.322985
0.742866 0.557086 0.462687
0.865320 0.653252 0.591333
0.989966 0.768641 0.713349
0.390773 0.623553 0.356267
0.396841 0.623578 0.356043
0.406013 0.623618 0.355675
0.437914 0.623793 0.354071
0.513268 0.624417 0.346776
0.625291 0.625338 0.324903
0.747622 0.634193 0.445108
0.866577 0.685630 0.590793
0.990152 0.778412 0.713828
0.526909 0.747856 0.485782
0.528048 0.747863 0.485716
0.529972 0.747874 0.485615
0.537904 0.747926 0.485164
0.566806 0.748158 0.483093
0.638668 0.748973 0.473861
0.750062 0.750123 0.445575
0.872692 0.758756 0.566055
0.991844 0.809311 0.711125
0.657427 0.872572 0.612209
0.657636 0.872571 0.612167
0.658065 0.872573 0.612149
0.659813 0.872585 0.612019
0.667067 0.872648 0.611563
0.694529 0.872898 0.609454
0.764301 0.873794 0.600160
0.874953 0.875091 0.573090
0.997955 0.883253 0.686404
0.783335 0.997522 0.735577
0.783261 0.997527 0.735607
0.783427 0.997524 0.735563
0.783605 0.997535 0.735574
0.785444 0.997543 0.735456
0.792845 0.997596 0.735003
0.819974 0.997852 0.733043
0.889515 0.998748 0.724462
0.999901 1.000090 0.701290
0.140128 0.144309 0.165883
0.183242 0.149628 0.179948
0.264259 0.143149 0.210310
0.378836 0.141931 0.221319
0.501589 0.173780 0.239724
0.621646 0.340127 0.326426
0.742718 0.498857 0.458638
0.865262 0.639152 0.590324
0.989934 0.765495 0.713209
0.152867 0.193305 0.192985
0.196819 0.196817 0.196817
0.276002 0.193768 0.194393
0.383805 0.186223 0.191996
0.501365 0.227378 0.227715
0.621518 0.353523 0.327430
0.742701 0.500906 0.458893
0.865264 0.639508 0.590377
0.989933 0.765556 0.713221
0.150771 0.270481 0.216338
0.189220 0.274825 0.191393
0.273749 0.273244 0.188150
0.383788 0.269089 0.188745
0.500950 0.288578 0.230492
0.621367 0.371624 0.329133
0.742671 0.504192 0.459291
0.865260 0.640094 0.590417
0.989935 0.765664 0.713234
0.133902 0.380799 0.220848
0.178763 0.381905 0.189796
0.267493 0.381745 0.188188
0.381232 0.380637 0.184020
0.501297 0.384241 0.231356
0.621116 0.421718 0.334339
0.742594 0.517148 0.460897
0.865262 0.642650 0.590707
0.989942 0.766212 0.713271
0.206656 0.501074 0.251115
0.257908 0.500753 0.248432
0.300672 0.500839 0.247534
0.386270 0.501125 0.243525
0.501481 0.501293 0.232533
0.623599 0.508628 0.328122
0.742945 0.556443 0.464275
0.865342 0.653027 0.591676
0.989969 0.768596 0.713434
0.382251 0.623734 0.359056
0.388927 0.623761 0.358841
0.399040 0.623801 0.358451
0.433454 0.623966 0.356753
0.511799 0.624565 0.349176
0.625361 0.625324 0.326203
0.747739 0.633901 0.446223
0.866594 0.685495 0.591128
0.990150 0.778382 0.713950
0.525275 0.747899 0.486363
0.526495 0.747905 0.486302
0.528447 0.747917 0.486191
0.536463 0.747969 0.485739
0.565845 0.748198 0.483672
0.638352 0.749006 0.474353
0.750078 0.750119 0.445852
0.872719 0.758689 0.566271
0.991850 0.809265 0.711212
0.656934 0.872585 0.612328
0.657363 0.872581 0.612283
0.657650 0.872588 0.612279
0.659469 0.872593 0.612147
0.666813 0.872655 0.611719
0.694302 0.872909 0.609617
0.764217 0.873807 0.600315
0.874963 0.875089 0.573118
0.997967 0.883228 0.686457
0.783175 0.997528 0.735608
0.783179 0.997532 0.735602
0.783346 0.997529 0.735580
0.783682 0.997534 0.735580
0.785361 0.997545 0.735492
0.792774 0.997601 0.735041
0.819921 0.997857 0.733060
0.889489 0.998754 0.724481
0.999901 1.000090 0.701313
0.144782 0.149172 0.219898
0.206547 0.140221 0.258393
0.267121 0.142923 0.265608
0.378921 0.141960 0.281298
0.501256 0.180242 0.292878
0.623305 0.317726 0.341506
0.742991 0.495600 0.460735
0.865299 0.638718 0.590878
0.989936 0.765417 0.713364
0.145735 0.212938 0.263205
0.196299 0.195285 0.278242
0.275975 0.192125 0.276473
0.383973 0.184253 0.271644
0.502587 0.208691 0.281193
0.622794 0.335005 0.339759
0.742967 0.497769 0.460981
0.865300 0.639058 0.590920
0.989938 0.765482 0.713373
0.155978 0.270818 0.270599
0.188263 0.274537 0.274647
0.273113 0.273113 0.273113
0.382553 0.270207 0.270796
0.501153 0.276030 0.275708
0.622346 0.357390 0.339385
0.742940 0.501179 0.461387
0.865297 0.639662 0.590983
0.989939 0.765608 0.713382
0.153792 0.380151 0.283743
0.177064 0.381928 0.269733
0.266436 0.381691 0.268325
0.381120 0.380750 0.263630
0.501495 0.380956 0.274977
0.621942 0.415074 0.344270
0.742843 0.514689 0.463024
0.865305 0.642199 0.591255
0.989944 0.766136 0.713422
-0.028541 0.503292 0.273863
0.113902 0.502721 0.270212
0.251513 0.502174 0.266008
0.374547 0.502265 0.259996
0.502017 0.501220 0.241580
0.624319 0.506628 0.336585
0.743095 0.555312 0.466695
0.865372 0.652701 0.592279
0.989974 0.768523 0.713591
0.364149 0.624136 0.364276
0.373979 0.624062 0.363473
0.386080 0.624100 0.363088
0.425384 0.624258 0.361274
0.509280 0.624817 0.353208
0.625495 0.625299 0.328426
0.747933 0.633405 0.448062
0.866626 0.685265 0.591685
0.990151 0.778331 0.714093
0.522493 0.747970 0.487337
0.523691 0.747979 0.487269
0.525707 0.747989 0.487164
0.534077 0.748040 0.486693
0.564304 0.748263 0.484602
0.637764 0.749070 0.475199
0.750107 0.750113 0.446298
0.872771 0.758564 0.566666
0.991859 0.809219 0.711320
0.656442 0.872602 0.612528
0.656663 0.872604 0.612529
0.657085 0.872603 0.612497
0.658785 0.872619 0.612377
0.666252 0.872677 0.611894
0.693931 0.872924 0.609781
0.764083 0.873819 0.600449
0.874964 0.875088 0.573226
0.997976 0.883211 0.686527
0.783008 0.997534 0.735640
0.783096 0.997533 0.735659
0.783176 0.997532 0.735651
0.783516 0.997537 0.735630
0.785194 0.997551 0.735531
0.792624 0.997603 0.735085
0.819865 0.997858 0.733104
0.889486 0.998750 0.724512
0.999910 1.000083 0.701299
0.148395 0.166232 0.368734
0.218224 0.134740 0.378664
0.279792 0.138661 0.377738
0.379995 0.137188 0.379809
0.501250 0.180016 0.385468
0.623579 0.313185 0.404664
0.743751 0.488050 0.477229
0.865423 0.636973 0.593542
0.989961 0.765069 0.714005
0.158674 0.231454 0.369331
0.201743 0.201247 0.381217
0.274305 0.192154 0.384175
0.383296 0.181006 0.383946
0.502519 0.208630 0.382796
0.623065 0.331362 0.404130
0.743643 0.490397 0.476888
0.865417 0.637368 0.593590
0.989956 0.765172 0.714019
0.165449 0.284173 0.374466
0.200473 0.274571 0.382088
0.272833 0.272263 0.382633
0.382061 0.269786 0.382318
0.501454 0.273245 0.380821
0.622272 0.354553 0.403299
0.743464 0.494139 0.476296
0.865419 0.637966 0.593665
0.989962 0.765280 0.714039
0.182323 0.379641 0.379539
0.197341 0.380978 0.381010
0.269160 0.381116 0.381152
0.380651 0.380651 0.380651
0.499657 0.383368 0.382819
0.619953 0.414175 0.401636
0.743122 0.508606 0.475874
0.865421 0.640593 0.593950
0.989967 0.765810 0.714088
0.217188 0.500997 0.387872
0.259289 0.500624 0.386914
0.301384 0.500180 0.385651
0.385871 0.500515 0.384450
0.501258 0.501270 0.380963
0.621100 0.508837 0.406230
0.743357 0.551791 0.478970
0.865466 0.651393 0.595008
0.989990 0.768219 0.714235
-0.090144 0.626476 0.389228
0.049873 0.626353 0.388289
0.232577 0.626156 0.386745
0.374738 0.625665 0.381603
0.496824 0.626037 0.371597
0.626119 0.625191 0.338976
0.748771 0.631238 0.456265
0.866522 0.685097 0.595426
0.990159 0.778125 0.714778
0.508437 0.748315 0.491758
0.510221 0.748295 0.491567
0.512578 0.748307 0.491459
0.522378 0.748358 0.490981
0.556568 0.748576 0.488771
0.635202 0.749333 0.478929
0.750262 0.750077 0.448294
0.872991 0.758030 0.568361
0.991898 0.808964 0.711891
0.653792 0.872675 0.613448
0.654082 0.872676 0.613407
0.654452 0.872679 0.613378
0.656276 0.872688 0.613238
0.663815 0.872754 0.612840
0.692296 0.873000 0.610635
0.763513 0.873882 0.601224
0.875019 0.875070 0.573594
0.998035 0.883071 0.686893
0.782500 0.997550 0.735830
0.782423 0.997555 0.735819
0.782588 0.997552 0.735824
0.783014 0.997552 0.735835
0.784700 0.997566 0.735721
0.792097 0.997620 0.735284
0.819527 0.997874 0.733286
0.889382 0.998763 0.724670
0.999920 1.000081 0.701363
0.226136 0.274107 0.474925
0.246178 0.258029 0.478208
0.290863 0.226072 0.491255
0.384973 0.186453 0.500252
0.501963 0.154265 0.502152
0.623917 0.308277 0.505890
0.742464 0.497943 0.539790
0.863958 0.644018 0.617383
0.989982 0.763968 0.717240
0.231367 0.293788 0.478299
0.249863 0.280689 0.482170
0.284135 0.254490 0.490907
0.382321 0.237110 0.498343
0.501537 0.219378 0.501602
0.623542 0.325740 0.505607
0.742329 0.500196 0.539767
0.863940 0.644346 0.617313
0.989989 0.764014 0.717244
0.236974 0.319456 0.483346
0.254324 0.310886 0.486491
0.282666 0.294017 0.492660
0.379365 0.287567 0.495501
0.500128 0.284618 0.499832
0.622813 0.350057 0.505250
0.742115 0.503744 0.539706
0.863896 0.644950 0.617221
0.989985 0.764161 0.717262
0.248279 0.389714 0.493392
0.262356 0.387246 0.495224
0.285943 0.383253 0.498550
0.381525 0.383339 0.495563
0.499049 0.386320 0.498629
0.620482 0.411779 0.504536
0.741217 0.517722 0.539457
0.863719 0.647494 0.616778
0.989988 0.764716 0.717303
0.273617 0.500221 0.500106
0.296085 0.499945 0.499806
0.324918 0.499528 0.499357
0.395538 0.499564 0.499430
0.501271 0.501271 0.501271
0.618571 0.512091 0.510037
0.738585 0.560515 0.539982
0.863399 0.657888 0.616586
0.990008 0.767188 0.717492
0.432526 0.621540 0.518829
0.436067 0.621476 0.518648
0.441596 0.621381 0.518350
0.462778 0.621085 0.517307
0.521802 0.622090 0.516680
0.624558 0.625136 0.516222
0.740867 0.640040 0.548428
0.864438 0.689757 0.617818
0.990160 0.777304 0.718097
0.187853 0.750836 0.515533
0.249338 0.750809 0.515319
0.303074 0.750764 0.514973
0.396198 0.750571 0.513441
0.507580 0.750090 0.508057
0.622046 0.750658 0.496381
0.750958 0.749940 0.458087
0.873995 0.755585 0.576215
0.991660 0.809255 0.716477
0.640135 0.873034 0.617561
0.640564 0.873025 0.617505
0.641250 0.873021 0.617474
0.643356 0.873034 0.617340
0.652345 0.873091 0.616871
0.684497 0.873332 0.614640
0.760831 0.874168 0.604727
0.875173 0.875033 0.575452
0.998300 0.882470 0.688519
0.779670 0.997629 0.736738
0.779759 0.997628 0.736703
0.779760 0.997635 0.736727
0.780115 0.997636 0.736726
0.781945 0.997650 0.736592
0.789634 0.997703 0.736151
0.817789 0.997953 0.734163
0.888748 0.998834 0.725413
0.999949 1.000076 0.701759
0.343587 0.408648 0.583494
0.347641 0.405778 0.584688
0.354548 0.400789 0.586641
0.397125 0.379634 0.599356
0.499981 0.367575 0.610233
0.620849 0.372977 0.619558
0.743100 0.495714 0.631988
0.862656 0.650533 0.673331
0.987793 0.774433 0.743720
0.344875 0.411842 0.585407
0.348976 0.409164 0.586488
0.355948 0.404479 0.588289
0.395803 0.383596 0.599750
0.499405 0.375224 0.609583
0.620556 0.381853 0.619194
0.742986 0.497895 0.631957
0.862623 0.650894 0.673337
0.987787 0.774491 0.743701
0.347072 0.417301 0.588089
0.351209 0.414865 0.589053
0.358085 0.410632 0.590687
0.393727 0.390188 0.600337
0.498550 0.386433 0.608622
0.620107 0.394673 0.618637
0.742796 0.501413 0.631910
0.862571 0.651489 0.673342
0.987776 0.774623 0.743683
0.355585 0.440455 0.596441
0.359500 0.438760 0.597175
0.366000 0.435826 0.598457
0.395018 0.421236 0.605001
0.496544 0.423526 0.606142
0.618697 0.435063 0.616970
0.742007 0.515323 0.631734
0.862347 0.654040 0.673343
0.987736 0.775142 0.743570
0.373469 0.510626 0.612802
0.376652 0.510108 0.613181
0.382023 0.509238 0.613825
0.409242 0.506019 0.614889
0.503772 0.508443 0.609167
0.618257 0.518144 0.616947
0.739499 0.558334 0.631762
0.861395 0.664591 0.673358
0.987555 0.777556 0.743100
0.467115 0.620744 0.620279
0.469429 0.620690 0.620227
0.473105 0.620608 0.620139
0.487747 0.620333 0.619859
0.535045 0.621015 0.620692
0.625279 0.625279 0.625279
0.738108 0.643257 0.640070
0.858686 0.699121 0.674798
0.987278 0.787180 0.742724
0.596488 0.743230 0.651492
0.596916 0.743220 0.651457
0.597652 0.743204 0.651403
0.600872 0.743132 0.651170
0.614176 0.742970 0.650318
0.657730 0.744580 0.650309
0.748677 0.749768 0.652431
0.862223 0.769328 0.684246
0.988709 0.816660 0.742853
0.339665 0.875752 0.640387
0.354658 0.875747 0.640320
0.374251 0.875735 0.640270
0.430063 0.875683 0.639915
0.522097 0.875487 0.638422
0.633758 0.874976 0.633109
0.746936 0.875594 0.621319
0.875946 0.874860 0.584509
0.999440 0.879774 0.696074
0.765431 0.998015 0.740805
0.765536 0.998010 0.740755
0.765735 0.998008 0.740746
0.766156 0.998013 0.740720
0.768303 0.998023 0.740623
0.777241 0.998081 0.740177
0.809575 0.998316 0.738067
0.885887 0.999146 0.728857
1.000108 1.000035 0.703544
0.470519 0.542485 0.695932
0.471240 0.542008 0.696197
0.472497 0.541194 0.696636
0.478325 0.537481 0.698563
0.517358 0.522249 0.711716
0.619439 0.525881 0.720762
0.740078 0.545153 0.737179
0.863542 0.649069 0.758351
0.986384 0.780854 0.799567
0.470805 0.543090 0.696466
0.471550 0.542615 0.696723
0.472841 0.541805 0.697151
0.478666 0.538144 0.699036
0.517118 0.522871 0.711869
0.619340 0.526939 0.720635
0.740014 0.546280 0.737104
0.863515 0.649407 0.758348
0.986378 0.780910 0.799562
0.471358 0.544097 0.697317
0.472110 0.543627 0.697565
0.473383 0.542847 0.697971
0.479234 0.539258 0.699800
0.516727 0.523902 0.712118
0.619179 0.528665 0.720430
0.739909 0.548109 0.736982
0.863471 0.649961 0.758343
0.986367 0.781018 0.799562
0.473816 0.548682 0.700675
0.474587 0.548253 0.700890
0.475884 0.547531 0.701252
0.481788 0.544211 0.702897
0.515055 0.528626 0.713150
0.618558 0.535864 0.719598
0.739483 0.555676 0.736486
0.863285 0.652432 0.758320
0.986319 0.781571 0.799568
0.483907 0.569164 0.711510
0.484677 0.568841 0.711671
0.485935 0.568307 0.711945
0.491586 0.565863 0.713209
0.518278 0.553701 0.719939
0.617589 0.562851 0.717778
0.738177 0.583095 0.735069
0.862487 0.662642 0.758242
0.986088 0.783974 0.799559
0.507288 0.635431 0.732671
0.507924 0.635329 0.732740
0.509030 0.635152 0.732846
0.514122 0.634391 0.733245
0.545777 0.632336 0.729273
0.629255 0.635885 0.724322
0.738706 0.650639 0.736631
0.860034 0.696782 0.758716
0.985120 0.793950 0.799541
0.623685 0.742666 0.741951
0.624007 0.742658 0.741945
0.624491 0.742650 0.741935
0.626763 0.742593 0.741885
0.636421 0.742436 0.741740
0.671549 0.743689 0.743230
0.750063 0.750063 0.750063
0.859619 0.772144 0.768354
0.982425 0.826921 0.800831
0.734983 0.866685 0.779952
0.735044 0.866685 0.779948
0.735220 0.866677 0.779950
0.735800 0.866665 0.779891
0.738442 0.866606 0.779677
0.749521 0.866500 0.778914
0.787627 0.868415 0.779166
0.873318 0.874672 0.781899
0.986577 0.895014 0.809391
-0.249136 1.000933 0.763254
-0.249136 1.000932 0.763247
-0.249136 1.000929 0.763233
-0.249136 1.000922 0.763165
0.325502 1.000866 0.762848
0.621586 1.000646 0.761373
0.754561 1.000089 0.756227
0.871246 1.000661 0.745039
1.000942 0.999836 0.712192
0.596295 0.672586 0.813238
0.596453 0.672489 0.813302
0.596658 0.672344 0.813396
0.597795 0.671638 0.813850
0.603040 0.668383 0.815890
0.640448 0.655021 0.830123
0.742147 0.662559 0.838480
0.862424 0.684885 0.858670
0.987461 0.778879 0.883573
0.596367 0.672708 0.813367
0.596522 0.672613 0.813428
0.596754 0.672455 0.813531
0.597849 0.671764 0.813976
0.603111 0.668515 0.816013
0.640398 0.655133 0.830166
0.742129 0.662752 0.838452
0.862407 0.685100 0.858647
0.987453 0.778962 0.883569
0.596482 0.672911 0.813583
0.596640 0.672813 0.813646
0.596865 0.672667 0.813741
0.597959 0.671977 0.814187
0.603258 0.668735 0.816202
0.640324 0.655326 0.830228
0.742101 0.663064 0.838406
0.862382 0.685449 0.858624
0.987441 0.779081 0.883572
0.597021 0.673825 0.814517
0.597195 0.673726 0.814575
0.597448 0.673578 0.814664
0.598553 0.672898 0.815095
0.603868 0.669718 0.817044
0.639942 0.656227 0.830506
0.741964 0.664470 0.838214
0.862291 0.686906 0.858513
0.987403 0.779594 0.883566
0.599631 0.678070 0.818292
0.599796 0.677985 0.818342
0.600035 0.677845 0.818429
0.601185 0.677213 0.818805
0.606565 0.674246 0.820562
0.638456 0.660372 0.831714
0.741450 0.670535 0.837457
0.861870 0.693240 0.858038
0.987207 0.781939 0.883548
0.610533 0.697106 0.830603
0.610669 0.697048 0.830639
0.610914 0.696937 0.830707
0.612031 0.696456 0.830993
0.617262 0.694190 0.832353
0.642654 0.682952 0.839582
0.740983 0.694018 0.836076
0.860666 0.716805 0.856812
0.986416 0.791551 0.883485
0.637229 0.760816 0.854493
0.637379 0.760798 0.854496
0.637617 0.760760 0.854515
0.638690 0.760600 0.854583
0.644854 0.759965 0.854293
0.675802 0.758193 0.848971
0.754580 0.762123 0.844766
0.861800 0.778667 0.859330
0.984043 0.824079 0.883996
0.758365 0.866460 0.865623
0.758415 0.866461 0.865626
0.758470 0.866463 0.865635
0.758977 0.866441 0.865611
0.760862 0.866406 0.865576
0.769220 0.866295 0.865497
0.800690 0.867799 0.867281
0.875011 0.875012 0.875012
0.984123 0.897575 0.893538
0.861075 0.991527 0.904934
0.861107 0.991522 0.904934
0.861110 0.991526 0.904929
0.861282 0.991518 0.904929
0.861840 0.991505 0.904873
0.864476 0.991446 0.904663
0.875448 0.991338 0.903897
0.913107 0.993292 0.904132
0.998239 0.999682 0.907091
0.721005 0.800905 0.933023
0.721027 0.800884 0.933040
0.721060 0.800855 0.933067
0.721302 0.800707 0.933174
0.722286 0.800059 0.933666
0.727211 0.796997 0.935894
0.763944 0.784047 0.951602
0.866332 0.791483 0.960662
0.986649 0.813630 0.982487
0.721002 0.800936 0.933053
0.721029 0.800912 0.933073
0.721054 0.800893 0.933094
0.721298 0.800740 0.933201
0.722313 0.800081 0.933703
0.727199 0.797028 0.935931
0.763911 0.784084 0.951616
0.866331 0.791510 0.960662
0.986649 0.813663 0.982483
0.721023 0.800980 0.933110
0.721080 0.800954 0.933117
0.721122 0.800918 0.933151
0.721317 0.800782 0.933254
0.722298 0.800140 0.933746
0.727242 0.797076 0.935968
0.763917 0.784117 0.951623
0.866318 0.791593 0.960648
0.986647 0.813733 0.982482
0.721124 0.801166 0.933342
0.721151 0.801158 0.933342
0.721236 0.801108 0.933377
0.721436 0.800969 0.933483
0.722451 0.800328 0.933961
0.727370 0.797277 0.936177
0.763840 0.784292 0.951694
0.866288 0.791878 0.960614
0.986621 0.814046 0.982454
0.721708 0.802024 0.934351
0.721708 0.802008 0.934371
0.721793 0.801976 0.934382
0.721995 0.801837 0.934488
0.723028 0.801200 0.934961
0.728015 0.798200 0.937098
0.763505 0.785123 0.951992
0.866161 0.793198 0.960423
0.986522 0.815452 0.982341
0.724336 0.806058 0.938453
0.724372 0.806042 0.938463
0.724439 0.806014 0.938477
0.724656 0.805885 0.938577
0.725755 0.805282 0.938984
0.730842 0.802458 0.940918
0.762063 0.789035 0.953264
0.865681 0.798915 0.959681
0.986114 0.821470 0.981886
0.735669 0.824175 0.951864
0.735674 0.824172 0.951868
0.735718 0.824152 0.951882
0.735962 0.824045 0.951949
0.737030 0.823581 0.952268
0.741981 0.821385 0.953776
0.766714 0.810367 0.961779
0.865374 0.821259 0.958500
0.984948 0.844067 0.980737
0.763781 0.886176 0.977841
0.763852 0.886162 0.977842
0.763925 0.886156 0.977845
0.764166 0.886113 0.977868
0.765132 0.885968 0.977939
0.771121 0.885335 0.977673
0.801535 0.883625 0.972187
0.879505 0.887579 0.968355
0.986391 0.904270 0.983740
0.884158 0.991315 0.990431
0.884189 0.991313 0.990430
0.884189 0.991317 0.990430
0.884277 0.991312 0.990430
0.884721 0.991302 0.990420
0.886623 0.991264 0.990387
0.894835 0.991160 0.990317
0.925979 0.992705 0.992153
1.000005 1.000005 1.000005
