StdX-ACES-OCIOv2.0/studio/LMT_AnalyticFilmic7_ACEScct_33.cube
TITLE "Generated by Foundry::LUT"
LUT_3D_SIZE 9
-0.016852 -0.016852 -0.016852
0.079080 0.072706 0.073060
0.207920 0.072157 0.077579
0.346519 0.115994 0.100320
0.455469 0.209084 0.193243
0.566465 0.338726 0.326301
0.687963 0.454065 0.448333
0.811491 0.580939 0.573303
0.935617 0.709985 0.699080
0.074011 0.122792 0.073044
0.133824 0.136173 0.074479
0.230145 0.180373 0.084656
0.352939 0.196088 0.109982
0.456925 0.237798 0.191784
0.566686 0.345746 0.326968
0.688115 0.454989 0.448249
0.811526 0.581148 0.573292
0.935627 0.710006 0.699098
0.117710 0.254826 0.076995
0.205777 0.257176 0.080823
0.261812 0.265101 0.091781
0.359045 0.269796 0.135200
0.458596 0.278090 0.199638
0.567046 0.356410 0.328204
0.688379 0.456418 0.448098
0.811576 0.581512 0.573271
0.935640 0.710069 0.699086
0.234593 0.378763 0.187459
0.239388 0.383157 0.130617
0.292529 0.383172 0.137380
0.384727 0.384450 0.182910
0.464486 0.365587 0.243594
0.568722 0.393665 0.335603
0.689529 0.462648 0.447517
0.811818 0.583004 0.573193
0.935687 0.710405 0.699071
0.300845 0.486049 0.264176
0.299763 0.487189 0.247755
0.311634 0.488164 0.231321
0.388421 0.486841 0.263540
0.488046 0.487297 0.290500
0.575098 0.477590 0.370378
0.693379 0.493459 0.448581
0.812884 0.589669 0.572901
0.935931 0.711859 0.699022
0.401649 0.598324 0.366839
0.400337 0.598675 0.363024
0.398581 0.599226 0.357019
0.414153 0.600339 0.350199
0.497468 0.598861 0.379391
0.599862 0.599042 0.403149
0.698342 0.592786 0.484109
0.817298 0.617014 0.573425
0.936989 0.718371 0.698880
0.598074 0.712029 0.558814
0.598193 0.712067 0.558627
0.598395 0.712130 0.558332
0.599218 0.712428 0.556930
0.602438 0.713829 0.549301
0.613983 0.720904 0.494406
0.721002 0.720252 0.525420
0.824774 0.711947 0.603443
0.941299 0.745603 0.700186
0.739062 0.833207 0.700767
0.739073 0.833221 0.700760
0.739143 0.833228 0.700713
0.739343 0.833287 0.700568
0.740278 0.833540 0.699863
0.744190 0.834740 0.695996
0.753796 0.841442 0.650514
0.845080 0.844414 0.649995
0.949802 0.836119 0.728485
0.868704 0.957032 0.829261
0.868684 0.957037 0.829260
0.868708 0.957038 0.829276
0.868765 0.957049 0.829235
0.868936 0.957106 0.829094
0.869792 0.957378 0.828466
0.873503 0.958592 0.825014
0.882951 0.965254 0.784258
0.969887 0.969236 0.774590
0.071541 0.072291 0.074701
0.098591 0.074388 0.095372
0.208950 0.089348 0.147681
0.352162 0.107891 0.190744
0.456435 0.203874 0.229425
0.566980 0.330914 0.328681
0.688011 0.452771 0.448941
0.811507 0.580631 0.573425
0.935624 0.709912 0.699109
0.071865 0.129398 0.128771
0.136978 0.136976 0.136985
0.255303 0.112362 0.116550
0.358770 0.123393 0.131332
0.457621 0.215941 0.211298
0.567179 0.338568 0.329172
0.688164 0.453675 0.448854
0.811542 0.580826 0.573412
0.935631 0.709916 0.699121
0.074230 0.262414 0.181341
0.106892 0.270958 0.116267
0.267132 0.264509 0.114251
0.364953 0.243501 0.141576
0.459364 0.262707 0.214136
0.567535 0.350032 0.330193
0.688430 0.455132 0.448688
0.811599 0.581144 0.573388
0.935640 0.710010 0.699123
0.205434 0.381059 0.235976
0.226913 0.382235 0.204788
0.261887 0.386569 0.146019
0.385503 0.384255 0.191456
0.465226 0.360337 0.248259
0.569167 0.389398 0.336857
0.689581 0.461409 0.448060
0.811837 0.582686 0.573301
0.935694 0.710333 0.699084
0.299279 0.485861 0.285920
0.299892 0.486681 0.271799
0.298599 0.488547 0.244581
0.381291 0.487729 0.263161
0.488298 0.487241 0.291035
0.575497 0.476128 0.370420
0.693487 0.492216 0.448795
0.812904 0.589335 0.573003
0.935939 0.711752 0.699038
0.402360 0.598146 0.372196
0.401236 0.598479 0.368724
0.398881 0.599064 0.362360
0.407955 0.600612 0.349599
0.495872 0.599068 0.379287
0.599920 0.599028 0.403409
0.698465 0.592369 0.484006
0.817322 0.616734 0.573481
0.936988 0.718316 0.698890
0.597981 0.712020 0.559246
0.598080 0.712062 0.559069
0.598242 0.712134 0.558760
0.599066 0.712431 0.557365
0.602393 0.713822 0.549853
0.613594 0.720952 0.494308
0.721012 0.720252 0.525522
0.824805 0.711845 0.603419
0.941298 0.745570 0.700202
0.739023 0.833212 0.700842
0.739069 0.833215 0.700822
0.739104 0.833230 0.700787
0.739302 0.833290 0.700628
0.740259 0.833541 0.699923
0.744117 0.834752 0.696093
0.753795 0.841434 0.650748
0.845111 0.844408 0.650015
0.949824 0.836067 0.728461
0.868723 0.957025 0.829293
0.868684 0.957037 0.829272
0.868708 0.957038 0.829288
0.868765 0.957048 0.829257
0.868959 0.957104 0.829117
0.869790 0.957374 0.828479
0.873460 0.958600 0.825021
0.882974 0.965251 0.784296
0.969905 0.969233 0.774602
0.069749 0.075940 0.153584
0.156222 0.088963 0.214396
0.232575 0.112518 0.229505
0.345033 0.167893 0.264189
0.458683 0.215260 0.277346
0.567950 0.328899 0.341534
0.688086 0.450620 0.449977
0.811540 0.580097 0.573624
0.935636 0.709750 0.699161
0.065055 0.175475 0.255299
0.139835 0.131830 0.284910
0.258335 0.159254 0.259007
0.357791 0.176912 0.255760
0.459506 0.222476 0.263995
0.567875 0.330494 0.336333
0.688244 0.451526 0.449874
0.811573 0.580292 0.573613
0.935643 0.709790 0.699153
0.075204 0.263325 0.263035
0.097733 0.270689 0.271073
0.266323 0.266323 0.266323
0.372875 0.246234 0.248511
0.460698 0.252644 0.251927
0.568255 0.339561 0.334198
0.688505 0.453001 0.449694
0.811630 0.580611 0.573593
0.935650 0.709902 0.699170
0.136994 0.383964 0.282812
0.164505 0.385942 0.266872
0.243375 0.388994 0.249720
0.385978 0.384725 0.266153
0.465492 0.359153 0.277529
0.569827 0.382420 0.339482
0.689663 0.459391 0.448984
0.811868 0.582128 0.573509
0.935708 0.710190 0.699136
0.280427 0.487001 0.308847
0.284724 0.487176 0.296674
0.286961 0.488402 0.274310
0.375723 0.487991 0.282362
0.488328 0.487204 0.302426
0.576122 0.473734 0.370771
0.693665 0.490082 0.449158
0.812943 0.588817 0.573185
0.935946 0.711642 0.699100
0.402268 0.597983 0.380695
0.402137 0.598205 0.377356
0.400528 0.598744 0.371834
0.399917 0.600847 0.350953
0.493073 0.599424 0.379106
0.600019 0.599011 0.403912
0.698668 0.591678 0.483856
0.817365 0.616256 0.573561
0.937001 0.718127 0.698932
0.597741 0.712024 0.559949
0.597877 0.712060 0.559782
0.598063 0.712127 0.559485
0.598909 0.712423 0.558120
0.602279 0.713808 0.550740
0.612868 0.721048 0.494160
0.721039 0.720245 0.525676
0.824861 0.711662 0.603367
0.941306 0.745493 0.700218
0.738961 0.833213 0.700954
0.739045 0.833212 0.700946
0.739064 0.833232 0.700905
0.739240 0.833291 0.700729
0.740181 0.833549 0.700041
0.744098 0.834749 0.696221
0.753844 0.841416 0.651155
0.845104 0.844409 0.650049
0.949833 0.836033 0.728458
0.868680 0.957033 0.829326
0.868704 0.957031 0.829308
0.868708 0.957038 0.829314
0.868742 0.957050 0.829278
0.868913 0.957108 0.829138
0.869770 0.957379 0.828494
0.873497 0.958585 0.825046
0.882953 0.965252 0.784364
0.969905 0.969232 0.774617
0.092536 0.130702 0.356900
0.204224 0.110052 0.371121
0.276080 0.160848 0.360250
0.359354 0.231793 0.357421
0.452477 0.282566 0.365394
0.570135 0.340635 0.388064
0.688871 0.450312 0.462780
0.811677 0.577624 0.574545
0.935675 0.709197 0.699360
0.077442 0.198494 0.385500
0.158071 0.162749 0.380325
0.272184 0.190435 0.375045
0.365013 0.248586 0.364014
0.455100 0.285277 0.363682
0.570344 0.341057 0.384973
0.688934 0.450382 0.461767
0.811710 0.577837 0.574538
0.935676 0.709271 0.699359
0.078017 0.277017 0.385421
0.128358 0.261151 0.392278
0.264858 0.260193 0.395201
0.373351 0.292474 0.373283
0.459517 0.298822 0.362864
0.570310 0.343999 0.380039
0.689051 0.450446 0.460086
0.811766 0.578162 0.574497
0.935693 0.709298 0.699351
0.121338 0.384237 0.384085
0.144386 0.385767 0.385772
0.231264 0.388125 0.388340
0.385773 0.385773 0.385773
0.471434 0.364439 0.363995
0.569472 0.378146 0.372042
0.689985 0.451423 0.454221
0.812012 0.579673 0.574398
0.935746 0.709657 0.699338
0.229207 0.488361 0.376737
0.236871 0.488816 0.372963
0.266456 0.489114 0.368736
0.373811 0.488524 0.372027
0.488250 0.487571 0.384152
0.576230 0.470797 0.390775
0.694479 0.480451 0.451252
0.813088 0.586484 0.573985
0.935981 0.711096 0.699264
0.390700 0.598545 0.411056
0.391523 0.598653 0.408655
0.392946 0.598838 0.404481
0.394073 0.600240 0.383289
0.479961 0.600948 0.381015
0.600504 0.598943 0.406318
0.699562 0.588592 0.483291
0.817538 0.614198 0.573939
0.937045 0.717641 0.699097
0.596749 0.712039 0.563084
0.596961 0.712049 0.562891
0.597148 0.712120 0.562603
0.598043 0.712407 0.561349
0.601688 0.713766 0.554566
0.609667 0.721456 0.493478
0.721127 0.720231 0.526515
0.825090 0.710877 0.603149
0.941361 0.744996 0.700282
0.738791 0.833214 0.701463
0.738798 0.833224 0.701433
0.738852 0.833235 0.701406
0.739056 0.833299 0.701266
0.740012 0.833547 0.700574
0.743960 0.834747 0.696827
0.754030 0.841343 0.652834
0.845136 0.844400 0.650265
0.949894 0.835828 0.728394
0.868653 0.957030 0.829420
0.868661 0.957036 0.829429
0.868661 0.957037 0.829407
0.868671 0.957052 0.829374
0.868912 0.957106 0.829241
0.869744 0.957376 0.828619
0.873438 0.958596 0.825179
0.882993 0.965237 0.784715
0.969906 0.969232 0.774666
0.211001 0.237310 0.476591
0.236958 0.222775 0.475329
0.290045 0.214063 0.480667
0.377957 0.271551 0.471393
0.465650 0.338118 0.464303
0.564823 0.400432 0.477281
0.691877 0.460098 0.509216
0.812688 0.574092 0.585906
0.935836 0.706710 0.700265
0.206660 0.259835 0.480831
0.235132 0.243812 0.482566
0.275899 0.226794 0.482319
0.376205 0.277506 0.473918
0.466460 0.342185 0.465253
0.565418 0.400543 0.476805
0.691963 0.460035 0.508566
0.812698 0.574121 0.585676
0.935848 0.706735 0.700270
0.198787 0.293299 0.482327
0.226199 0.280604 0.486380
0.267038 0.263169 0.488387
0.374761 0.295916 0.477944
0.467296 0.354386 0.466168
0.566094 0.401794 0.476054
0.692115 0.459918 0.507483
0.812726 0.574131 0.585320
0.935865 0.706780 0.700256
0.204491 0.374727 0.485035
0.218034 0.371213 0.487561
0.251306 0.365903 0.487913
0.367922 0.368179 0.486161
0.472162 0.401301 0.471501
0.568635 0.418230 0.475709
0.692773 0.459542 0.502571
0.812817 0.574262 0.583646
0.935920 0.707089 0.700236
0.239915 0.487446 0.487332
0.248701 0.487721 0.487636
0.277070 0.487788 0.487717
0.371820 0.487682 0.487607
0.488586 0.488586 0.488586
0.582156 0.475977 0.475447
0.696347 0.460773 0.480014
0.813704 0.575846 0.578125
0.936160 0.708592 0.700154
0.324758 0.600958 0.485726
0.325521 0.601076 0.484769
0.327640 0.601269 0.483212
0.337597 0.602231 0.476022
0.463173 0.603077 0.468402
0.600946 0.599460 0.477693
0.703636 0.573809 0.483564
0.818317 0.604863 0.576234
0.937226 0.715184 0.699881
0.587879 0.713405 0.575594
0.588088 0.713413 0.575420
0.588469 0.713418 0.575117
0.590012 0.713475 0.573741
0.595919 0.714136 0.567424
0.602825 0.721716 0.506194
0.721696 0.720158 0.528583
0.826153 0.707196 0.602267
0.941575 0.742807 0.700615
0.737850 0.833247 0.703758
0.737876 0.833251 0.703737
0.737930 0.833262 0.703703
0.738151 0.833316 0.703562
0.739105 0.833574 0.702927
0.743263 0.834748 0.699499
0.754700 0.841056 0.660037
0.845216 0.844385 0.651372
0.950157 0.834976 0.728152
0.868424 0.957044 0.829916
0.868466 0.957036 0.829902
0.868408 0.957054 0.829880
0.868489 0.957061 0.829862
0.868701 0.957111 0.829738
0.869554 0.957375 0.829099
0.873302 0.958593 0.825743
0.883127 0.965175 0.786220
0.969926 0.969226 0.774846
0.344787 0.353746 0.595249
0.349456 0.349143 0.595406
0.357051 0.340993 0.595704
0.401030 0.326157 0.598011
0.494512 0.385039 0.591371
0.580076 0.451241 0.579153
0.687005 0.520087 0.598278
0.816351 0.583034 0.633563
0.937046 0.699360 0.709519
0.345133 0.358468 0.596813
0.349799 0.354083 0.596968
0.357390 0.346394 0.597247
0.398803 0.328206 0.599039
0.494512 0.385580 0.592576
0.580444 0.451810 0.579598
0.687180 0.519991 0.598170
0.816370 0.583022 0.633416
0.937050 0.699343 0.709464
0.345518 0.365898 0.599367
0.350139 0.361896 0.599496
0.357718 0.354849 0.599746
0.394839 0.332858 0.600433
0.494519 0.386607 0.594586
0.581068 0.452811 0.580349
0.687469 0.519860 0.597995
0.816404 0.583007 0.633195
0.937049 0.699384 0.709400
0.344877 0.394191 0.610121
0.349390 0.391293 0.610106
0.356831 0.386273 0.610143
0.388639 0.364148 0.609939
0.494247 0.395139 0.602970
0.583973 0.458276 0.583835
0.688776 0.519262 0.597183
0.816556 0.582880 0.632166
0.937077 0.699387 0.709019
0.328082 0.487350 0.603900
0.330445 0.486478 0.604640
0.334598 0.484982 0.605900
0.355627 0.477520 0.612050
0.480647 0.474163 0.612399
0.589770 0.505533 0.590074
0.695194 0.516761 0.592907
0.817248 0.582429 0.627409
0.937165 0.699546 0.707338
0.349866 0.600639 0.600609
0.350075 0.600735 0.600708
0.350776 0.600882 0.600884
0.353799 0.601636 0.601724
0.432333 0.604167 0.604520
0.600905 0.600905 0.600905
0.711523 0.569214 0.576097
0.820880 0.583364 0.605694
0.937992 0.704161 0.703930
0.512920 0.719641 0.612513
0.513206 0.719662 0.612361
0.513655 0.719692 0.612112
0.515807 0.719841 0.610981
0.524425 0.720682 0.605602
0.550018 0.727222 0.572175
0.723845 0.720455 0.564576
0.831006 0.688907 0.600844
0.942534 0.732760 0.702624
0.729885 0.834829 0.713040
0.729933 0.834829 0.713013
0.730008 0.834830 0.712965
0.730331 0.834829 0.712784
0.731854 0.834839 0.711964
0.737766 0.835299 0.708379
0.752931 0.841059 0.679687
0.845822 0.844302 0.654060
0.951353 0.830954 0.727119
0.867443 0.957096 0.832021
0.867505 0.957082 0.832043
0.867491 0.957091 0.832007
0.867522 0.957104 0.832000
0.867742 0.957157 0.831880
0.868675 0.957413 0.831314
0.872566 0.958608 0.828238
0.883591 0.964957 0.792765
0.970026 0.969205 0.775934
0.463517 0.481740 0.713428
0.464648 0.480732 0.713553
0.466533 0.479020 0.713762
0.474817 0.471016 0.714698
0.520870 0.448474 0.719712
0.617985 0.505755 0.716020
0.701332 0.573420 0.700349
0.811692 0.643331 0.722446
0.941046 0.708065 0.758337
0.463611 0.482718 0.713749
0.464715 0.481740 0.713867
0.466602 0.480053 0.714079
0.474882 0.472149 0.715012
0.520376 0.449018 0.719892
0.618009 0.505832 0.716323
0.701421 0.573538 0.700457
0.811735 0.643301 0.722420
0.941048 0.708078 0.758309
0.463741 0.484369 0.714260
0.464831 0.483406 0.714386
0.466734 0.481739 0.714594
0.475017 0.473972 0.715536
0.519478 0.450108 0.720145
0.618059 0.505985 0.716824
0.701572 0.573743 0.700642
0.811803 0.643265 0.722384
0.941056 0.708057 0.758261
0.464134 0.491477 0.716482
0.465250 0.490575 0.716609
0.467162 0.489024 0.716823
0.475417 0.481846 0.717778
0.515252 0.455772 0.721056
0.618262 0.506677 0.719074
0.702256 0.574677 0.701483
0.812101 0.643108 0.722216
0.941092 0.708044 0.758054
0.463048 0.519819 0.725259
0.464185 0.519135 0.725396
0.466045 0.517980 0.725623
0.474163 0.512741 0.726617
0.509474 0.488212 0.729796
0.619427 0.511650 0.729774
0.705649 0.579626 0.705622
0.813495 0.642372 0.721422
0.941242 0.707914 0.757027
0.435181 0.607703 0.749056
0.436028 0.607406 0.749263
0.437319 0.606903 0.749611
0.443078 0.604567 0.751215
0.471052 0.591702 0.759053
0.610137 0.569520 0.765374
0.721254 0.607642 0.724403
0.820330 0.638917 0.717197
0.941951 0.707465 0.752382
0.465730 0.722643 0.722669
0.465803 0.722664 0.722691
0.465900 0.722697 0.722731
0.466241 0.722856 0.722908
0.468501 0.723647 0.723797
0.482211 0.728895 0.729713
0.722455 0.722455 0.722455
0.842674 0.660035 0.683002
0.945636 0.708322 0.731116
0.662343 0.842347 0.740611
0.662433 0.842349 0.740579
0.662419 0.842361 0.740526
0.662948 0.842379 0.740337
0.664953 0.842501 0.739396
0.673480 0.843205 0.735019
0.703471 0.848872 0.711497
0.849105 0.844289 0.669874
0.956811 0.810675 0.725071
0.859458 0.958788 0.840604
0.859438 0.958797 0.840596
0.859537 0.958781 0.840602
0.859546 0.958792 0.840563
0.859855 0.958791 0.840389
0.861312 0.958795 0.839643
0.867014 0.959241 0.836432
0.881452 0.965070 0.810442
0.970695 0.969093 0.778234
0.585439 0.608845 0.836062
0.585721 0.608607 0.836107
0.586160 0.608231 0.836165
0.588118 0.606547 0.836438
0.596902 0.598410 0.837678
0.644837 0.571927 0.844214
0.743180 0.629756 0.841581
0.825284 0.698040 0.824230
0.936479 0.768160 0.847212
0.585447 0.609062 0.836139
0.585749 0.608803 0.836187
0.586164 0.608453 0.836239
0.588126 0.606763 0.836509
0.596877 0.598672 0.837748
0.644742 0.572066 0.844247
0.743189 0.629774 0.841644
0.825307 0.698064 0.824256
0.936487 0.768181 0.847215
0.585539 0.609366 0.836271
0.585834 0.609116 0.836319
0.586235 0.608768 0.836374
0.588189 0.607100 0.836636
0.596992 0.599000 0.837883
0.644543 0.572304 0.844309
0.743207 0.629797 0.841769
0.825342 0.698105 0.824300
0.936493 0.768166 0.847205
0.585766 0.610839 0.836845
0.586041 0.610609 0.836885
0.586474 0.610250 0.836942
0.588421 0.608604 0.837211
0.597207 0.600621 0.838461
0.643643 0.573493 0.844537
0.743283 0.629901 0.842307
0.825501 0.698302 0.824495
0.936566 0.768136 0.847169
0.586753 0.617321 0.839358
0.587038 0.617093 0.839400
0.587469 0.616758 0.839456
0.589397 0.615216 0.839724
0.598103 0.607789 0.840981
0.639553 0.579190 0.845483
0.743645 0.630465 0.844746
0.826221 0.699214 0.825397
0.936874 0.767965 0.847002
0.587626 0.644077 0.849011
0.587879 0.643904 0.849057
0.588264 0.643673 0.849111
0.590148 0.642487 0.849389
0.598650 0.636898 0.850681
0.635119 0.610160 0.855004
0.745607 0.634462 0.856388
0.829849 0.703931 0.829890
0.938303 0.767219 0.846231
0.563989 0.730569 0.875312
0.564201 0.730488 0.875344
0.564431 0.730388 0.875391
0.565758 0.729880 0.875604
0.571618 0.727523 0.876611
0.599026 0.714979 0.882113
0.739345 0.683006 0.897133
0.847280 0.728893 0.851343
0.945315 0.763628 0.842109
0.588066 0.847056 0.847105
0.587941 0.847063 0.847111
0.587950 0.847068 0.847123
0.588159 0.847105 0.847152
0.588571 0.847262 0.847337
0.590422 0.848071 0.848258
0.601728 0.853443 0.854372
0.846676 0.846676 0.846676
0.970192 0.772160 0.804569
0.793356 0.966722 0.866395
0.793358 0.966726 0.866398
0.793406 0.966722 0.866380
0.793350 0.966740 0.866336
0.793947 0.966753 0.866152
0.795714 0.966876 0.865218
0.803880 0.967575 0.861020
0.832210 0.973269 0.838840
0.974304 0.968948 0.792323
0.705864 0.738015 0.957866
0.705949 0.737959 0.957876
0.706003 0.737903 0.957882
0.706480 0.737534 0.957970
0.708537 0.735890 0.958295
0.717879 0.727902 0.959856
0.767572 0.699507 0.967564
0.868475 0.754632 0.966961
0.950436 0.822440 0.949472
0.705907 0.738046 0.957883
0.705911 0.738024 0.957890
0.706035 0.737939 0.957909
0.706499 0.737564 0.957984
0.708536 0.735932 0.958316
0.717905 0.727950 0.959871
0.767486 0.699574 0.967576
0.868462 0.754638 0.966990
0.950439 0.822442 0.949475
0.705882 0.738125 0.957912
0.705954 0.738066 0.957928
0.706034 0.737997 0.957945
0.706532 0.737627 0.958015
0.708580 0.735988 0.958351
0.717945 0.728006 0.959902
0.767485 0.699612 0.967584
0.868467 0.754628 0.967029
0.950445 0.822457 0.949483
0.705990 0.738402 0.958059
0.706028 0.738373 0.958069
0.706119 0.738286 0.958082
0.706604 0.737911 0.958156
0.708652 0.736284 0.958495
0.717982 0.728338 0.960041
0.767326 0.699863 0.967626
0.868486 0.754663 0.967150
0.950484 0.822495 0.949538
0.706390 0.739693 0.958706
0.706462 0.739632 0.958719
0.706532 0.739583 0.958725
0.707011 0.739214 0.958810
0.709024 0.737602 0.959140
0.718331 0.729762 0.960687
0.766439 0.701077 0.967842
0.868597 0.754766 0.967700
0.950647 0.822672 0.949734
0.708043 0.745454 0.961543
0.708017 0.745453 0.961539
0.708069 0.745399 0.961560
0.708539 0.745054 0.961628
0.710537 0.743532 0.961969
0.719836 0.736098 0.963517
0.762466 0.706591 0.968845
0.869086 0.755264 0.970276
0.951406 0.823542 0.950690
0.711197 0.770067 0.972361
0.711215 0.770053 0.972365
0.711341 0.769984 0.972382
0.711730 0.769741 0.972451
0.713661 0.768532 0.972783
0.722458 0.762804 0.974329
0.760197 0.735131 0.979519
0.871644 0.758781 0.982567
0.955211 0.828024 0.955474
0.692991 0.854263 1.001178
0.692961 0.854271 1.001170
0.692911 0.854267 1.001170
0.693399 0.854128 1.001243
0.694470 0.853601 1.001485
0.700216 0.851085 1.002656
0.727361 0.837424 1.009020
0.869269 0.799887 1.027353
0.973460 0.851739 0.978314
0.712915 0.971912 0.971955
0.712778 0.971912 0.971959
0.712939 0.971910 0.971967
0.713076 0.971916 0.971974
0.712926 0.971947 0.972018
0.713374 0.972119 0.972197
0.715203 0.972935 0.973147
0.725727 0.978373 0.979376
0.971510 0.971510 0.971510
