StdX-ACES-OCIOv2.0/studio/LMT_AnalyticFilmic_ACEScct_33.cube
TITLE "Generated by Foundry::LUT"
LUT_3D_SIZE 9
0.005165 0.001520 0.019565
0.122896 0.011365 0.020855
0.245339 0.032460 0.020353
0.365009 0.117814 0.029766
0.484005 0.293152 0.121955
0.602753 0.421211 0.272570
0.721429 0.541638 0.373395
0.840099 0.660426 0.456692
0.958774 0.778798 0.514781
0.012010 0.122160 0.023125
0.151165 0.125339 0.011426
0.247406 0.140666 0.039570
0.365327 0.202931 0.063555
0.484015 0.311843 0.137760
0.602753 0.425324 0.275265
0.721429 0.542515 0.374271
0.840099 0.660612 0.457050
0.958774 0.778838 0.514970
0.021912 0.246509 0.033561
0.143009 0.248346 0.038279
0.266086 0.248311 0.007843
0.366352 0.265434 0.101432
0.484128 0.331504 0.185759
0.602758 0.431414 0.281214
0.721430 0.543938 0.375814
0.840099 0.660921 0.457646
0.958774 0.778904 0.515286
0.066024 0.366688 0.082353
0.184181 0.367144 0.089971
0.264346 0.367880 0.101664
0.382166 0.367935 0.015154
0.485173 0.384697 0.268571
0.602850 0.450977 0.316817
0.721436 0.549757 0.383742
0.840100 0.662269 0.460366
0.958775 0.779197 0.516679
0.236008 0.485763 0.248554
0.270350 0.485864 0.250830
0.306705 0.486031 0.254468
0.383149 0.486768 0.268623
0.500298 0.486940 0.073365
0.603881 0.503448 0.392356
0.721537 0.569027 0.426664
0.840109 0.667932 0.473587
0.958776 0.780510 0.522963
0.372125 0.604575 0.378564
0.379340 0.604596 0.378951
0.390050 0.604633 0.379590
0.425337 0.604794 0.382373
0.501792 0.605523 0.393775
0.618891 0.605650 0.108201
0.722562 0.622046 0.505810
0.840222 0.686822 0.531667
0.958788 0.786031 0.549682
0.493392 0.723310 0.494288
0.494979 0.723314 0.494367
0.497553 0.723322 0.494499
0.508084 0.723357 0.495082
0.543607 0.723517 0.497686
0.620325 0.724240 0.508391
0.737590 0.724305 -0.456928
0.841243 0.740633 0.617168
0.958914 0.804594 0.634430
0.611982 0.842035 0.607449
0.612332 0.842036 0.607467
0.612913 0.842038 0.607494
0.615448 0.842045 0.607618
0.626082 0.842080 0.608180
0.661857 0.842239 0.610692
0.738861 0.842955 0.621009
0.856317 0.842959 -5.500762
0.959928 0.859232 0.727984
0.730054 0.960760 0.720131
0.730133 0.960760 0.720134
0.730262 0.960761 0.720140
0.730834 0.960762 0.720167
0.733395 0.960770 0.720286
0.744124 0.960804 0.720830
0.780139 0.960962 0.723262
0.857414 0.961673 0.733232
0.975046 0.961620 -36.940720
-0.005854 -0.008902 0.172415
0.128389 0.014787 0.146797
0.247058 0.025042 0.158202
0.365721 0.084030 0.189887
0.484231 0.290329 0.222687
0.602793 0.421071 0.295070
0.721436 0.541651 0.379330
0.840100 0.660434 0.458511
0.958774 0.778800 0.515530
0.020504 0.089129 0.178876
0.132604 0.132996 0.158628
0.249209 0.151315 0.160285
0.365955 0.214956 0.174345
0.484217 0.312363 0.221949
0.602791 0.425334 0.296496
0.721436 0.542535 0.380103
0.840100 0.660621 0.458855
0.958775 0.778840 0.515714
0.026852 0.248404 0.158481
0.146336 0.250449 0.164850
0.260413 0.251517 0.156642
0.366726 0.268297 0.208266
0.484254 0.334941 0.234916
0.602793 0.431641 0.300164
0.721436 0.543967 0.381475
0.840100 0.660930 0.459435
0.958775 0.778906 0.516026
0.071346 0.367117 0.198804
0.188293 0.367576 0.203215
0.265684 0.368334 0.210005
0.380883 0.368755 0.168847
0.485256 0.385212 0.294153
0.602870 0.451718 0.327471
0.721442 0.549825 0.388640
0.840101 0.662280 0.462077
0.958775 0.779200 0.517407
0.238416 0.485865 0.281408
0.271901 0.485965 0.282862
0.307675 0.486131 0.285218
0.383471 0.486867 0.294856
0.500013 0.487100 0.196000
0.603895 0.503538 0.397854
0.721539 0.569187 0.429126
0.840110 0.667950 0.474974
0.958777 0.780513 0.523631
0.372441 0.604593 0.385315
0.379627 0.604615 0.385668
0.390300 0.604651 0.386251
0.425495 0.604812 0.388791
0.501841 0.605542 0.399314
0.618828 0.605680 0.204969
0.722564 0.622062 0.507025
0.840223 0.686856 0.532249
0.958788 0.786035 0.550141
0.493439 0.723313 0.495740
0.495025 0.723318 0.495817
0.497597 0.723326 0.495946
0.508122 0.723361 0.496518
0.543631 0.723521 0.499071
0.620332 0.724244 0.509593
0.737576 0.724311 -0.357936
0.841243 0.740636 0.617437
0.958914 0.804601 0.634572
0.611987 0.842036 0.607764
0.612338 0.842037 0.607781
0.612919 0.842039 0.607808
0.615455 0.842046 0.607931
0.626086 0.842081 0.608491
0.661860 0.842239 0.610992
0.738862 0.842956 0.621271
0.856314 0.842960 -5.416044
0.959928 0.859232 0.728043
0.730055 0.960760 0.720199
0.730133 0.960760 0.720202
0.730262 0.960761 0.720208
0.730834 0.960762 0.720235
0.733396 0.960770 0.720354
0.744124 0.960804 0.720898
0.780140 0.960962 0.723327
0.857414 0.961673 0.733289
0.975045 0.961621 -36.865452
-0.023081 -0.026099 0.280020
0.131943 -0.009328 0.270773
0.250688 0.035428 0.262664
0.366368 0.083595 0.275424
0.484543 0.280091 0.292151
0.602860 0.420536 0.323334
0.721447 0.541660 0.388406
0.840102 0.660447 0.461452
0.958775 0.778805 0.516758
-0.007460 0.131790 0.270874
0.117131 0.117469 0.276399
0.252680 0.158226 0.264581
0.366821 0.196632 0.276959
0.484564 0.307297 0.288135
0.602857 0.425045 0.323638
0.721447 0.542554 0.389036
0.840102 0.660634 0.461780
0.958775 0.778845 0.516939
0.046389 0.220259 0.281058
0.164321 0.227578 0.280832
0.253995 0.255800 0.270095
0.367596 0.277055 0.272400
0.484551 0.336351 0.285674
0.602854 0.431734 0.325080
0.721447 0.544004 0.390163
0.840102 0.660944 0.462333
0.958775 0.778911 0.517247
0.084724 0.367902 0.275454
0.195672 0.368353 0.277023
0.268479 0.369099 0.279562
0.378829 0.370020 0.271683
0.485361 0.386549 0.322525
0.602906 0.452804 0.342832
0.721452 0.549928 0.396244
0.840103 0.662297 0.464853
0.958775 0.779204 0.518605
0.241940 0.486025 0.315896
0.274209 0.486125 0.316803
0.309135 0.486290 0.318288
0.384010 0.487023 0.324556
0.499542 0.487359 0.275269
0.603916 0.503701 0.406145
0.721544 0.569447 0.433073
0.840111 0.667979 0.477238
0.958777 0.780518 0.524728
0.372951 0.604624 0.395332
0.380092 0.604646 0.395639
0.390704 0.604682 0.396147
0.425751 0.604843 0.398369
0.501925 0.605572 0.407690
0.618721 0.605730 0.272388
0.722567 0.622088 0.509002
0.840223 0.686913 0.533210
0.958788 0.786042 0.550900
0.493515 0.723319 0.498097
0.495099 0.723324 0.498172
0.497669 0.723332 0.498297
0.508185 0.723367 0.498850
0.543670 0.723526 0.501321
0.620343 0.724250 0.511552
0.737552 0.724320 -0.193127
0.841243 0.740640 0.617884
0.958914 0.804613 0.634805
0.611998 0.842037 0.608284
0.612348 0.842038 0.608300
0.612928 0.842039 0.608328
0.615464 0.842047 0.608450
0.626095 0.842082 0.609006
0.661866 0.842241 0.611490
0.738863 0.842957 0.621705
0.856308 0.842962 -5.274452
0.959928 0.859233 0.728143
0.730055 0.960760 0.720312
0.730133 0.960760 0.720315
0.730262 0.960761 0.720321
0.730835 0.960763 0.720348
0.733396 0.960770 0.720468
0.744125 0.960805 0.721010
0.780140 0.960962 0.723436
0.857414 0.961673 0.733384
0.975043 0.961621 -36.742737
-0.093004 -0.091089 0.390533
0.066616 -0.093489 0.389255
0.246234 -0.061861 0.384888
0.369125 0.131820 0.375067
0.484997 0.256430 0.387562
0.603142 0.414567 0.395124
0.721498 0.541501 0.420412
0.840110 0.660498 0.473456
0.958776 0.778823 0.522019
-0.095239 0.072351 0.389178
0.052082 0.057945 0.389378
0.239950 0.064616 0.386707
0.369557 0.219757 0.375480
0.485098 0.284665 0.387876
0.603142 0.420098 0.394247
0.721498 0.542444 0.420646
0.840110 0.660687 0.473724
0.958776 0.778863 0.522187
-0.062338 0.249697 0.384623
0.060795 0.244038 0.386458
0.230439 0.234927 0.387637
0.370271 0.279702 0.376164
0.485280 0.317134 0.388128
0.603140 0.428378 0.393019
0.721497 0.543975 0.421094
0.840110 0.661000 0.474172
0.958776 0.778929 0.522473
0.148038 0.357040 0.385274
0.225697 0.358205 0.385191
0.281630 0.360028 0.385120
0.372674 0.374923 0.379929
0.485887 0.396769 0.381726
0.603122 0.455068 0.392429
0.721497 0.550218 0.423996
0.840111 0.662367 0.476233
0.958776 0.779223 0.523734
0.254038 0.486675 0.387949
0.282410 0.486774 0.388287
0.314466 0.486937 0.388846
0.386073 0.487659 0.391285
0.497482 0.488425 0.380904
0.603988 0.504704 0.434166
0.721566 0.570521 0.448780
0.840118 0.668103 0.486656
0.958778 0.780540 0.529452
0.375021 0.604757 0.428335
0.381982 0.604778 0.428530
0.392355 0.604814 0.428854
0.426802 0.604975 0.430276
0.502303 0.605701 0.436428
0.618251 0.605948 0.374285
0.722581 0.622212 0.517197
0.840225 0.687160 0.537361
0.958789 0.786074 0.554202
0.493844 0.723344 0.507753
0.495423 0.723349 0.507819
0.497981 0.723357 0.507928
0.508457 0.723392 0.508413
0.543842 0.723552 0.510583
0.620393 0.724275 0.519685
0.737446 0.724362 0.297675
0.841245 0.740660 0.619840
0.958914 0.804665 0.635839
0.612041 0.842041 0.610559
0.612392 0.842042 0.610574
0.612972 0.842044 0.610601
0.615505 0.842052 0.610720
0.626131 0.842087 0.611259
0.661888 0.842245 0.613666
0.738867 0.842962 0.623608
0.856285 0.842970 -4.643592
0.959928 0.859236 0.728585
0.730059 0.960761 0.720814
0.730136 0.960761 0.720818
0.730266 0.960762 0.720823
0.730838 0.960763 0.720849
0.733400 0.960771 0.720968
0.744128 0.960805 0.721507
0.780142 0.960963 0.723916
0.857414 0.961674 0.733806
0.975039 0.961622 -36.204033
-0.374749 -0.317527 0.501770
-0.229142 -0.325003 0.501608
0.011387 -0.329742 0.501161
0.360316 -0.235253 0.497009
0.486964 0.294221 0.486820
0.603499 0.386848 0.498991
0.721735 0.537412 0.498809
0.840149 0.660568 0.513736
0.958782 0.778902 0.542561
-0.380091 -0.168206 0.501542
-0.237920 -0.178803 0.501472
-0.001883 -0.189249 0.501170
0.358929 -0.120086 0.497447
0.487058 0.312738 0.486911
0.603523 0.393127 0.499022
0.721735 0.538568 0.498628
0.840149 0.660766 0.513846
0.958782 0.778942 0.542689
-0.380933 0.078746 0.500986
-0.244697 0.064381 0.501053
-0.017549 0.045861 0.500996
0.356509 0.073089 0.498092
0.487215 0.336268 0.487062
0.603564 0.402638 0.499053
0.721734 0.540446 0.498343
0.840149 0.661095 0.514035
0.958782 0.779009 0.542901
-0.264406 0.367208 0.496416
-0.153120 0.366053 0.496868
0.032477 0.364013 0.497553
0.347088 0.354993 0.498996
0.487910 0.396413 0.487734
0.603761 0.435704 0.498759
0.721728 0.548169 0.497324
0.840149 0.662530 0.514935
0.958782 0.779305 0.543842
0.285945 0.485575 0.490516
0.305838 0.485821 0.490467
0.330685 0.486224 0.490390
0.392813 0.487939 0.490091
0.491006 0.493239 0.490722
0.604226 0.515193 0.492322
0.721716 0.573411 0.499244
0.840151 0.668533 0.520113
0.958783 0.780633 0.548160
0.382288 0.605305 0.499891
0.388654 0.605326 0.499964
0.398225 0.605362 0.500085
0.430617 0.605520 0.500621
0.503753 0.606237 0.503019
0.616144 0.606860 0.489822
0.722625 0.622974 0.545658
0.840237 0.688222 0.554091
0.958793 0.786212 0.567818
0.495188 0.723455 0.540481
0.496738 0.723460 0.540523
0.499254 0.723468 0.540593
0.509570 0.723502 0.540902
0.544544 0.723662 0.542294
0.620632 0.724383 0.548324
0.736967 0.724547 0.469463
0.841252 0.740755 0.628144
0.958914 0.804903 0.640398
0.612230 0.842062 0.620119
0.612580 0.842063 0.620133
0.613159 0.842065 0.620156
0.615687 0.842073 0.620260
0.626288 0.842107 0.620732
0.661986 0.842266 0.622847
0.738888 0.842983 0.631708
0.856177 0.843005 -1.780253
0.959928 0.859252 0.730567
0.730074 0.960765 0.723062
0.730152 0.960765 0.723065
0.730281 0.960765 0.723071
0.730853 0.960767 0.723096
0.733414 0.960775 0.723211
0.744140 0.960809 0.723733
0.780149 0.960967 0.726071
0.857412 0.961678 0.735700
0.975015 0.961629 -33.729885
-1.670755 -1.267409 0.613397
-1.535465 -1.276532 0.613370
-1.311368 -1.289980 0.613315
-0.318522 -1.323999 0.612910
0.476651 -0.943319 0.608390
0.604734 0.415346 0.598428
0.722006 0.507178 0.609948
0.840337 0.657797 0.601816
0.958809 0.779125 0.600577
-1.676036 -1.128325 0.613342
-1.541538 -1.138134 0.613321
-1.318728 -1.152748 0.613275
-0.330602 -1.192412 0.612907
0.476349 -0.837347 0.608497
0.604755 0.419665 0.598449
0.722011 0.508614 0.609939
0.840337 0.658039 0.601782
0.958809 0.779167 0.600624
-1.682989 -0.897370 0.613240
-1.549857 -0.908179 0.613227
-1.329200 -0.924613 0.613195
-0.349309 -0.973396 0.612891
0.475837 -0.660873 0.608671
0.604789 0.426366 0.598482
0.722021 0.510953 0.609923
0.840337 0.658441 0.601726
0.958809 0.779237 0.600706
-1.686785 0.127071 0.612634
-1.559751 0.112824 0.612655
-1.348946 0.090234 0.612682
-0.409485 0.007353 0.612654
0.473454 0.130663 0.609381
0.604943 0.450745 0.598632
0.722065 0.520669 0.609825
0.840335 0.660198 0.601496
0.958809 0.779546 0.601066
-1.149202 0.486503 0.607422
-1.047152 0.486273 0.607535
-0.877731 0.485883 0.607719
-0.123709 0.484037 0.608489
0.463910 0.474967 0.610319
0.605640 0.513197 0.599312
0.722275 0.555325 0.608713
0.840328 0.667587 0.600793
0.958809 0.780931 0.602781
0.400608 0.607007 0.599224
0.405694 0.607040 0.599228
0.413490 0.607095 0.599235
0.441069 0.607331 0.599274
0.508085 0.608265 0.599604
0.609691 0.610677 0.602113
0.722647 0.632598 0.604109
0.840329 0.691484 0.606032
0.958815 0.786734 0.611722
0.499611 0.723910 0.611728
0.501076 0.723915 0.611743
0.503456 0.723922 0.611770
0.513262 0.723957 0.611885
0.546911 0.724114 0.612411
0.621513 0.724828 0.614763
0.734817 0.725320 0.598381
0.841270 0.741329 0.657021
0.958916 0.805933 0.658515
0.612959 0.842153 0.652596
0.613305 0.842154 0.652605
0.613879 0.842156 0.652620
0.616383 0.842164 0.652686
0.626895 0.842198 0.652988
0.662364 0.842356 0.654348
0.738998 0.843072 0.660245
0.855690 0.843161 0.558262
0.959929 0.859324 0.738987
0.730136 0.960782 0.732521
0.730213 0.960782 0.732525
0.730343 0.960782 0.732529
0.730914 0.960784 0.732551
0.733473 0.960791 0.732652
0.744191 0.960826 0.733111
0.780179 0.960983 0.735168
0.857406 0.961695 0.743761
0.974905 0.961658 -22.484964
-7.521275 -5.179187 0.725128
-7.393269 -5.189036 0.725123
-7.180803 -5.205049 0.725114
-6.242388 -5.270024 0.725066
-2.014742 -5.444622 0.724652
0.593566 -3.751544 0.719569
0.722547 0.529706 0.709999
0.840536 0.626456 0.720420
0.958950 0.777415 0.703599
-7.525412 -5.048553 0.725113
-7.397586 -5.058554 0.725109
-7.185454 -5.074813 0.725100
-6.248434 -5.140872 0.725054
-2.025844 -5.321194 0.724651
0.593501 -3.654030 0.719596
0.722552 0.530728 0.710004
0.840538 0.626783 0.720413
0.958950 0.777466 0.703593
-7.531915 -4.831199 0.725088
-7.404401 -4.841467 0.725084
-7.192828 -4.858070 0.725076
-6.258021 -4.926009 0.725034
-2.043930 -5.115812 0.724647
0.593392 -3.491703 0.719639
0.722560 0.532401 0.710011
0.840540 0.627327 0.720402
0.958950 0.777550 0.703585
-7.554627 -3.865746 0.724966
-7.428533 -3.876995 0.724964
-7.219422 -3.895174 0.724960
-6.294741 -3.970719 0.724934
-2.119694 -4.201271 0.724623
0.592899 -2.768774 0.719830
0.722593 0.539448 0.710044
0.840550 0.629708 0.720348
0.958949 0.777927 0.703547
-7.531654 0.292516 0.724234
-7.412289 0.289771 0.724241
-7.214042 0.285037 0.724252
-6.336217 0.260985 0.724292
-2.354124 -0.009980 0.724307
0.590518 0.299865 0.720631
0.722747 0.565379 0.710196
0.840596 0.639837 0.720064
0.958948 0.779611 0.703400
-4.890566 0.605970 0.718169
-4.796409 0.605926 0.718197
-4.639913 0.605852 0.718243
-3.946042 0.605517 0.718445
-0.804658 0.603859 0.719321
0.580907 0.594859 0.721602
0.723445 0.630107 0.710884
0.840806 0.675960 0.717839
0.958941 0.786682 0.703206
0.509066 0.725637 0.710413
0.510365 0.725642 0.710417
0.512481 0.725649 0.710423
0.521270 0.725683 0.710453
0.552195 0.725836 0.710589
0.623564 0.726529 0.711204
0.727955 0.728446 0.713707
0.841137 0.749526 0.716585
0.958957 0.809383 0.712658
0.614834 0.842523 0.723551
0.615172 0.842523 0.723554
0.615732 0.842525 0.723560
0.618178 0.842533 0.723585
0.628462 0.842567 0.723698
0.663351 0.842723 0.724213
0.739349 0.843433 0.726518
0.853502 0.843804 0.706500
0.959921 0.859750 0.768266
0.730297 0.960855 0.764738
0.730374 0.960855 0.764741
0.730502 0.960855 0.764744
0.731073 0.960857 0.764758
0.733626 0.960864 0.764823
0.744323 0.960899 0.765116
0.780257 0.961056 0.766442
0.857397 0.961767 0.772187
0.974410 0.961787 0.634883
-33.816532 -21.228199 0.836886
-33.689564 -21.239447 0.836885
-33.479290 -21.257702 0.836884
-32.554035 -21.336670 0.836877
-28.458820 -21.655306 0.836832
-10.382342 -22.501690 0.836403
0.710662 -14.792789 0.830649
0.840429 0.642638 0.821554
0.959089 0.746453 0.830310
-33.819244 -21.104982 0.836882
-33.692150 -21.116291 0.836881
-33.481823 -21.134867 0.836880
-32.557182 -21.213783 0.836873
-28.463665 -21.533396 0.836829
-10.392334 -22.385973 0.836402
0.710648 -14.703054 0.830656
0.840430 0.642880 0.821555
0.959089 0.746527 0.830307
-33.823124 -20.900204 0.836875
-33.696472 -20.911362 0.836875
-33.486374 -20.929947 0.836873
-32.562038 -21.009659 0.836866
-28.471285 -21.331100 0.836823
-10.409231 -22.193056 0.836401
0.710625 -14.553692 0.830666
0.840432 0.643282 0.821557
0.959090 0.746651 0.830302
-33.840145 -19.988361 0.836844
-33.713692 -19.999861 0.836844
-33.504307 -20.018839 0.836842
-32.583618 -20.099817 0.836836
-28.504517 -20.429260 0.836798
-10.483084 -21.333975 0.836396
0.710522 -13.888333 0.830714
0.840439 0.645049 0.821564
0.959092 0.747200 0.830280
-33.888283 -15.845570 0.836692
-33.764183 -15.857893 0.836692
-33.558449 -15.878218 0.836692
-32.652122 -15.965951 0.836690
-28.626940 -16.328745 0.836671
-10.796051 -17.419664 0.836359
0.710043 -10.855800 0.830928
0.840473 0.652638 0.821598
0.959102 0.749662 0.830175
-33.529690 0.445045 0.835797
-33.414394 0.444596 0.835800
-33.223476 0.443866 0.835803
-32.378117 0.440555 0.835819
-28.594994 0.424506 0.835879
-11.690363 0.290466 0.835951
0.707691 0.450574 0.831830
0.840627 0.680171 0.821752
0.959149 0.760137 0.829642
-20.530483 0.725262 0.828765
-20.442678 0.725254 0.828771
-20.296463 0.725240 0.828783
-19.647047 0.725179 0.828832
-16.714359 0.724897 0.829056
-3.588639 0.723466 0.830036
0.698076 0.714682 0.832833
0.841326 0.747138 0.822450
0.959338 0.797228 0.826161
0.614150 0.843895 0.822097
0.614491 0.843896 0.822098
0.615055 0.843898 0.822099
0.617521 0.843905 0.822106
0.627881 0.843939 0.822135
0.662963 0.844092 0.822268
0.739175 0.844785 0.822870
0.846230 0.846393 0.825199
0.959674 0.866333 0.829366
0.729712 0.961146 0.835391
0.729790 0.961146 0.835391
0.729919 0.961147 0.835392
0.730495 0.961149 0.835398
0.733065 0.961156 0.835422
0.743829 0.961190 0.835533
0.779934 0.961346 0.836035
0.857255 0.962052 0.838285
0.972190 0.962311 0.814144
-153.610092 -86.746460 0.948659
-153.480499 -86.759773 0.948659
-153.264587 -86.781479 0.948659
-152.302124 -86.878746 0.948658
-147.902863 -87.315323 0.948653
-128.289734 -89.106422 0.948612
-50.479214 -93.202309 0.948166
0.827835 -57.947052 0.941656
0.958373 0.755294 0.933104
-153.610123 -86.630745 0.948658
-153.481140 -86.643166 0.948658
-153.265228 -86.664803 0.948658
-152.302765 -86.762146 0.948657
-147.903793 -87.199562 0.948652
-128.293839 -88.990578 0.948611
-50.488781 -93.092743 0.948166
0.827832 -57.863941 0.941657
0.958374 0.755351 0.933104
-153.611816 -86.436256 0.948656
-153.482101 -86.449287 0.948656
-153.266144 -86.471840 0.948656
-152.303940 -86.568542 0.948655
-147.905762 -87.005798 0.948650
-128.298630 -88.799957 0.948609
-50.503902 -92.911804 0.948166
0.827827 -57.726711 0.941660
0.958374 0.755447 0.933105
-153.613785 -85.575005 0.948648
-153.485275 -85.587029 0.948648
-153.269608 -85.608902 0.948647
-152.308044 -85.706848 0.948646
-147.912231 -86.145874 0.948642
-128.322433 -87.947952 0.948602
-50.572414 -92.103752 0.948164
0.827806 -57.113583 0.941671
0.958376 0.755872 0.933106
-153.623550 -81.645134 0.948608
-153.493286 -81.659126 0.948608
-153.278931 -81.680756 0.948608
-152.319412 -81.780678 0.948607
-147.935516 -82.227905 0.948603
-128.424026 -84.066086 0.948570
-50.880245 -88.419144 0.948156
0.827708 -54.319984 0.941725
0.958383 0.757780 0.933114
-153.522675 -63.835125 0.948416
-153.394852 -63.849678 0.948416
-153.182312 -63.873684 0.948416
-152.235184 -63.980156 0.948417
-147.905121 -64.461922 0.948418
-128.752365 -66.447784 0.948411
-52.166656 -71.647659 0.948106
0.827251 -41.597305 0.941963
0.958417 0.765944 0.933148
-150.315506 0.589160 0.947316
-150.195236 0.589074 0.947316
-149.994354 0.588924 0.947318
-149.100906 0.588265 0.947323
-145.014221 0.585191 0.947347
-127.520805 0.571325 0.947439
-55.478935 0.491781 0.947586
0.824957 0.591820 0.942978
0.958571 0.795126 0.933304
-85.718025 0.844289 0.939249
-85.633186 0.844288 0.939251
-85.492218 0.844285 0.939253
-84.865540 0.844274 0.939265
-82.032219 0.844225 0.939320
-69.439247 0.844000 0.939565
-14.301589 0.842837 0.940638
0.815423 0.834435 0.944008
0.959271 0.864286 0.934013
0.717336 0.962196 0.933789
0.717427 0.962196 0.933789
0.717579 0.962196 0.933789
0.718251 0.962198 0.933791
0.721247 0.962205 0.933797
0.733627 0.962239 0.933825
0.773645 0.962391 0.933955
0.854947 0.963084 0.934543
0.964584 0.964413 0.936617
