StdX-ACES-OCIOv2.0/studio/LMT_AnalyticFilmic5_ACEScct_33.cube
TITLE "Generated by Foundry::LUT"
LUT_3D_SIZE 9
0.000000 0.000000 0.000000
0.075537 0.072485 0.072647
0.173671 0.075107 0.072005
0.319674 0.132989 0.091076
0.453623 0.259849 0.186113
0.579453 0.395261 0.335097
0.705381 0.521759 0.464270
0.826067 0.659926 0.611637
0.948611 0.790713 0.745360
0.073784 0.103920 0.074848
0.114919 0.113908 0.077615
0.206208 0.154925 0.084679
0.326093 0.201073 0.109389
0.455166 0.274821 0.206391
0.579835 0.398351 0.338731
0.705622 0.521993 0.464279
0.826113 0.659993 0.611672
0.948619 0.790735 0.745378
0.124306 0.232708 0.092204
0.200221 0.234130 0.092939
0.244776 0.243352 0.106935
0.340092 0.256407 0.134070
0.457642 0.296984 0.229786
0.580465 0.403213 0.344442
0.706022 0.522378 0.464292
0.826195 0.660100 0.611731
0.948636 0.790765 0.745403
0.205109 0.367334 0.188418
0.247335 0.367723 0.192180
0.292709 0.367995 0.194116
0.373518 0.370481 0.220162
0.467634 0.372241 0.269098
0.583150 0.422787 0.364773
0.707296 0.525509 0.466922
0.826549 0.660559 0.611961
0.948712 0.790869 0.745449
0.334960 0.493520 0.326376
0.345707 0.493620 0.326901
0.361038 0.493787 0.327750
0.409867 0.494286 0.329225
0.498989 0.495872 0.352281
0.593081 0.496384 0.400253
0.710087 0.544575 0.487515
0.828169 0.662525 0.612819
0.949065 0.791336 0.745698
0.461426 0.618749 0.453563
0.462460 0.618935 0.453363
0.463977 0.619257 0.453072
0.478426 0.619662 0.453379
0.531472 0.619987 0.454809
0.623752 0.620835 0.482795
0.719582 0.618494 0.522315
0.835679 0.669097 0.612868
0.950662 0.793435 0.746721
0.647100 0.734591 0.617754
0.647092 0.734658 0.617532
0.647010 0.734784 0.617162
0.646705 0.735326 0.615463
0.642783 0.738364 0.605046
0.654930 0.745338 0.579854
0.748289 0.745665 0.613614
0.844937 0.742887 0.647228
0.958448 0.799826 0.746381
0.785797 0.856139 0.755435
0.785807 0.856148 0.755399
0.785806 0.856174 0.755349
0.785849 0.856271 0.755126
0.786043 0.856709 0.754033
0.786078 0.858939 0.747787
0.779275 0.870477 0.704797
0.873059 0.870597 0.740959
0.968161 0.871800 0.778285
0.913774 0.980417 0.881818
0.913776 0.980418 0.881803
0.913779 0.980421 0.881806
0.913794 0.980438 0.881756
0.913786 0.980544 0.881533
0.914003 0.980981 0.880488
0.914188 0.983201 0.874481
0.904271 0.995460 0.829599
0.998054 0.995635 0.865360
0.068653 0.070762 0.075013
0.099450 0.068464 0.095212
0.205791 0.060045 0.122067
0.333547 0.075128 0.110680
0.456625 0.241882 0.171563
0.579806 0.393582 0.334752
0.705396 0.521647 0.464636
0.826076 0.659891 0.611675
0.948610 0.790707 0.745372
0.059883 0.118889 0.118468
0.125004 0.124995 0.124999
0.239660 0.105217 0.096315
0.342512 0.128665 0.094030
0.458073 0.261823 0.192979
0.580199 0.396748 0.338297
0.705636 0.521888 0.464651
0.826128 0.659956 0.611709
0.948623 0.790713 0.745365
0.047169 0.243992 0.147358
0.095154 0.256077 0.114328
0.254074 0.249205 0.117291
0.350131 0.222773 0.134703
0.460395 0.285753 0.222757
0.580850 0.401686 0.343922
0.706036 0.522273 0.464660
0.826208 0.660055 0.611758
0.948641 0.790737 0.745383
0.070256 0.372375 0.196223
0.184802 0.372310 0.199466
0.266713 0.372250 0.203887
0.375496 0.371753 0.223452
0.469571 0.366191 0.271374
0.583619 0.421086 0.364584
0.707395 0.525125 0.466731
0.826558 0.660523 0.611999
0.948717 0.790851 0.745455
0.316443 0.494636 0.327994
0.330235 0.494710 0.328483
0.349049 0.494842 0.329318
0.404259 0.495232 0.331560
0.499266 0.496075 0.355294
0.593349 0.495511 0.401842
0.710202 0.544198 0.487362
0.828183 0.662493 0.612863
0.949071 0.791333 0.745703
0.459858 0.618766 0.454361
0.460839 0.618957 0.454133
0.462537 0.619267 0.453795
0.475466 0.619918 0.453667
0.530103 0.620216 0.455240
0.623783 0.620860 0.483886
0.719650 0.618289 0.522696
0.835696 0.669045 0.612888
0.950673 0.793410 0.746701
0.647284 0.734529 0.618321
0.647274 0.734594 0.618115
0.647207 0.734713 0.617755
0.646959 0.735248 0.616072
0.643299 0.738229 0.605958
0.654616 0.745387 0.579939
0.748290 0.745667 0.613934
0.844959 0.742836 0.647333
0.958450 0.799820 0.746405
0.785810 0.856127 0.755509
0.785798 0.856143 0.755501
0.785794 0.856162 0.755445
0.785859 0.856258 0.755215
0.786039 0.856704 0.754125
0.786110 0.858925 0.747925
0.779199 0.870489 0.704812
0.873057 0.870593 0.741039
0.968168 0.871781 0.778308
0.913772 0.980414 0.881844
0.913750 0.980418 0.881824
0.913778 0.980420 0.881816
0.913818 0.980434 0.881770
0.913832 0.980538 0.881555
0.914007 0.980983 0.880501
0.914233 0.983189 0.874516
0.904265 0.995457 0.829604
0.998048 0.995637 0.865390
0.025432 0.031014 0.232468
0.131945 0.034918 0.234231
0.236170 0.050577 0.234816
0.345798 0.038361 0.225634
0.457597 0.227922 0.210417
0.580236 0.391264 0.335676
0.705427 0.521417 0.465181
0.826103 0.659823 0.611728
0.948623 0.790686 0.745372
-0.014214 0.119569 0.257367
0.084003 0.074885 0.278095
0.256941 0.101204 0.259995
0.353203 0.097002 0.220259
0.458877 0.256977 0.218434
0.580625 0.394670 0.339124
0.705672 0.521657 0.465193
0.826151 0.659877 0.611751
0.948627 0.790706 0.745393
0.012589 0.249196 0.249559
0.086321 0.254030 0.254648
0.250000 0.250000 0.250000
0.357548 0.236606 0.220240
0.461158 0.285588 0.238833
0.581269 0.399926 0.344701
0.706071 0.522052 0.465210
0.826231 0.659990 0.611813
0.948649 0.790730 0.745407
0.050991 0.373555 0.262973
0.171677 0.373454 0.264055
0.262252 0.373372 0.265873
0.375735 0.372614 0.274143
0.470355 0.362657 0.288372
0.584013 0.419729 0.366052
0.707501 0.524672 0.466778
0.826586 0.660449 0.612046
0.948730 0.790831 0.745460
0.297310 0.495329 0.337752
0.314862 0.495398 0.338217
0.337712 0.495507 0.338984
0.398987 0.495917 0.341618
0.499795 0.496449 0.360051
0.593895 0.493891 0.404144
0.710375 0.543644 0.487196
0.828206 0.662428 0.612923
0.949072 0.791314 0.745716
0.466112 0.618008 0.460166
0.460379 0.618808 0.456611
0.460045 0.619296 0.455155
0.470198 0.620349 0.454178
0.527770 0.620597 0.455957
0.623823 0.620905 0.485753
0.719747 0.617992 0.523416
0.835724 0.668969 0.612929
0.950676 0.793408 0.746731
0.647595 0.734421 0.619249
0.647569 0.734490 0.619049
0.647537 0.734602 0.618712
0.647322 0.735124 0.617093
0.644161 0.738005 0.607441
0.654034 0.745484 0.580104
0.748289 0.745670 0.614474
0.844984 0.742763 0.647492
0.958459 0.799801 0.746423
0.785840 0.856110 0.755684
0.785809 0.856126 0.755658
0.785847 0.856143 0.755591
0.785910 0.856238 0.755376
0.786045 0.856686 0.754308
0.786176 0.858897 0.748137
0.779073 0.870504 0.704840
0.873044 0.870592 0.741170
0.968176 0.871761 0.778332
0.913769 0.980411 0.881878
0.913747 0.980415 0.881861
0.913795 0.980411 0.881857
0.913792 0.980436 0.881813
0.913802 0.980534 0.881584
0.914025 0.980974 0.880539
0.914254 0.983184 0.874555
0.904239 0.995467 0.829609
0.998048 0.995636 0.865404
-0.097961 -0.107735 0.380837
0.042967 -0.103330 0.379535
0.230233 -0.081377 0.376641
0.368548 0.048232 0.369184
0.467249 0.168022 0.352948
0.582926 0.379299 0.352914
0.705568 0.520272 0.467600
0.826203 0.659503 0.611926
0.948655 0.790595 0.745402
-0.104932 0.028423 0.379890
0.033280 0.027083 0.379395
0.227338 0.039798 0.377417
0.369347 0.166400 0.369864
0.468075 0.225373 0.354439
0.583365 0.382840 0.352556
0.705804 0.520565 0.467657
0.826249 0.659571 0.611965
0.948664 0.790601 0.745400
-0.093724 0.226739 0.378652
0.031424 0.222919 0.379047
0.221769 0.220040 0.378552
0.370564 0.259865 0.370904
0.469481 0.278105 0.356328
0.583721 0.390227 0.354806
0.706202 0.521019 0.467707
0.826327 0.659681 0.612025
0.948683 0.790641 0.745427
0.094302 0.373285 0.373420
0.197123 0.373456 0.373564
0.269413 0.373740 0.373817
0.375000 0.375000 0.375001
0.474999 0.376636 0.364534
0.586387 0.415266 0.372235
0.707748 0.523543 0.468817
0.826683 0.660149 0.612271
0.948758 0.790727 0.745465
0.318146 0.494321 0.399396
0.331680 0.494415 0.399615
0.350121 0.494582 0.399989
0.402905 0.495286 0.401631
0.499723 0.497013 0.408539
0.596403 0.487501 0.415651
0.710722 0.542717 0.488872
0.828302 0.662168 0.613214
0.949111 0.791217 0.745730
0.481462 0.615775 0.482029
0.480516 0.616172 0.480689
0.478456 0.616878 0.478269
0.457366 0.621008 0.462131
0.516214 0.622441 0.459252
0.624363 0.621267 0.490240
0.720201 0.616658 0.526567
0.835807 0.668783 0.613372
0.950717 0.793301 0.746749
0.648777 0.733988 0.623143
0.648801 0.734046 0.622977
0.648790 0.734155 0.622677
0.648741 0.734641 0.621298
0.647181 0.737165 0.613263
0.651622 0.745874 0.580774
0.748264 0.745685 0.616929
0.845078 0.742480 0.648252
0.958482 0.799747 0.746536
0.785912 0.856042 0.756362
0.785920 0.856052 0.756357
0.785961 0.856072 0.756290
0.786006 0.856171 0.756077
0.786194 0.856604 0.755026
0.786463 0.858787 0.749075
0.778551 0.870595 0.704990
0.873030 0.870595 0.741773
0.968210 0.871679 0.778480
0.913777 0.980392 0.882020
0.913810 0.980398 0.882012
0.913784 0.980402 0.882006
0.913811 0.980429 0.881952
0.913862 0.980513 0.881732
0.914041 0.980965 0.880702
0.914262 0.983165 0.874756
0.904146 0.995480 0.829644
0.998062 0.995640 0.865552
-0.244237 -0.197893 0.492840
-0.116402 -0.196094 0.492871
0.097675 -0.190104 0.492859
0.359509 -0.121892 0.492112
0.489892 0.271646 0.489274
0.592385 0.337950 0.480280
0.707179 0.515360 0.488751
0.826671 0.657975 0.612697
0.948815 0.790149 0.745441
-0.279108 -0.118095 0.494885
-0.147858 -0.113890 0.494724
0.071735 -0.104565 0.494426
0.358784 -0.023709 0.492763
0.490129 0.295868 0.489545
0.592452 0.346904 0.480361
0.707351 0.515819 0.488558
0.826718 0.658053 0.612747
0.948827 0.790164 0.745450
-0.275369 0.094881 0.495251
-0.145907 0.096534 0.495152
0.071314 0.101846 0.494945
0.358755 0.166704 0.493521
0.490511 0.325026 0.489988
0.592617 0.360076 0.480524
0.707646 0.516550 0.488233
0.826800 0.658161 0.612801
0.948845 0.790178 0.745449
-0.200440 0.361843 0.495933
-0.083913 0.361378 0.496067
0.113396 0.360666 0.496255
0.358379 0.359864 0.496258
0.492267 0.394510 0.491942
0.594163 0.404903 0.481682
0.708934 0.519587 0.486867
0.827151 0.658670 0.613079
0.948921 0.790290 0.745514
0.336618 0.496327 0.496231
0.347620 0.496411 0.496326
0.363055 0.496561 0.496483
0.409897 0.497206 0.497154
0.499998 0.499998 0.499998
0.601099 0.499710 0.487086
0.713195 0.538239 0.495168
0.828749 0.660874 0.614218
0.949279 0.790764 0.745768
0.460221 0.618494 0.526504
0.460367 0.618733 0.526050
0.460629 0.619128 0.525282
0.461398 0.620922 0.521426
0.517401 0.622415 0.519563
0.625566 0.622492 0.526015
0.722659 0.610778 0.540319
0.835892 0.668957 0.616885
0.950867 0.792886 0.746867
0.646811 0.733985 0.632715
0.646834 0.734044 0.632593
0.646888 0.734138 0.632383
0.647040 0.734570 0.631406
0.647165 0.736681 0.625905
0.638894 0.747861 0.583792
0.748802 0.746030 0.621417
0.845440 0.741432 0.652110
0.958601 0.799489 0.747037
0.786357 0.855736 0.759361
0.786353 0.855757 0.759327
0.786371 0.855773 0.759283
0.786445 0.855858 0.759104
0.786725 0.856273 0.758199
0.787439 0.858323 0.753091
0.775908 0.871019 0.705675
0.872989 0.870592 0.744521
0.968342 0.871313 0.779101
0.913893 0.980319 0.882687
0.913896 0.980323 0.882685
0.913879 0.980334 0.882677
0.913916 0.980345 0.882617
0.913930 0.980447 0.882422
0.914129 0.980892 0.881408
0.914508 0.983057 0.875668
0.903571 0.995571 0.829787
0.998038 0.995640 0.866150
-0.674865 -0.299757 0.612047
-0.554273 -0.300922 0.612126
-0.352616 -0.302564 0.612259
0.300503 -0.295104 0.612709
0.487972 -0.028334 0.613085
0.614610 0.415986 0.613822
0.718584 0.469436 0.606602
0.829955 0.651303 0.624733
0.949552 0.788136 0.745414
-0.723209 -0.247633 0.612795
-0.602099 -0.249534 0.612880
-0.399660 -0.251855 0.613006
0.292500 -0.247178 0.613453
0.487614 0.010184 0.613805
0.614966 0.417733 0.614280
0.718738 0.470215 0.606560
0.829987 0.651406 0.624713
0.949566 0.788139 0.745412
-0.802665 -0.159821 0.614035
-0.681009 -0.162181 0.614111
-0.479961 -0.165765 0.614248
0.277515 -0.166032 0.614679
0.486990 0.075525 0.614987
0.615554 0.420623 0.615029
0.718985 0.471495 0.606481
0.830055 0.651534 0.624668
0.949582 0.788174 0.745433
-1.185346 0.225569 0.619419
-1.060277 0.222954 0.619487
-0.855412 0.219436 0.619598
0.082842 0.209019 0.619948
0.483569 0.267886 0.620001
0.617975 0.433379 0.618151
0.720057 0.477287 0.606103
0.830327 0.652196 0.624518
0.949662 0.788280 0.745496
-1.867476 0.475419 0.628310
-1.744815 0.475219 0.628342
-1.538828 0.474873 0.628398
-0.606255 0.473515 0.628569
0.472637 0.470849 0.628168
0.620632 0.509547 0.621077
0.723388 0.509730 0.603871
0.831585 0.654967 0.623902
0.950009 0.788804 0.745813
0.429837 0.623015 0.623113
0.430843 0.623108 0.623215
0.432624 0.623256 0.623375
0.445486 0.623685 0.623836
0.517592 0.623900 0.624007
0.625000 0.625000 0.625000
0.729293 0.618843 0.604704
0.838328 0.664961 0.623601
0.951601 0.791017 0.747086
0.621062 0.739517 0.660344
0.621077 0.739570 0.660281
0.621193 0.739646 0.660166
0.621608 0.740011 0.659639
0.623162 0.741706 0.656886
0.629495 0.749534 0.637467
0.751207 0.747810 0.645338
0.847836 0.736020 0.667270
0.959215 0.798222 0.748632
0.783468 0.856073 0.766761
0.783491 0.856075 0.766723
0.783492 0.856101 0.766707
0.783599 0.856181 0.766565
0.783938 0.856569 0.765887
0.785211 0.858434 0.762153
0.762350 0.873091 0.708620
0.873537 0.870932 0.748993
0.968944 0.869746 0.782032
0.914160 0.980049 0.885599
0.914165 0.980053 0.885594
0.914171 0.980058 0.885579
0.914187 0.980077 0.885544
0.914246 0.980171 0.885355
0.914544 0.980582 0.884467
0.915319 0.982626 0.879524
0.900829 0.996008 0.830478
0.998001 0.995625 0.868930
-1.036780 0.384892 0.730964
-0.922175 0.384704 0.730994
-0.729232 0.384548 0.731043
0.127548 0.384104 0.731257
0.475289 0.386388 0.732031
0.616826 0.441574 0.733039
0.736862 0.566873 0.735124
0.842393 0.611515 0.733314
0.953818 0.780255 0.753471
-1.085850 0.387607 0.731154
-0.967281 0.387500 0.731181
-0.777154 0.387392 0.731231
0.080877 0.386766 0.731448
0.474473 0.388807 0.732218
0.616785 0.442555 0.733221
0.736949 0.567118 0.735235
0.842432 0.611630 0.733304
0.953826 0.780273 0.753472
-1.157869 0.392026 0.731462
-1.041993 0.391971 0.731488
-0.851031 0.391864 0.731538
0.006741 0.391169 0.731758
0.472970 0.392799 0.732530
0.616681 0.444078 0.733535
0.737102 0.567495 0.735431
0.842493 0.611857 0.733294
0.953840 0.780298 0.753453
-1.500200 0.409714 0.732823
-1.385623 0.409585 0.732854
-1.192270 0.409402 0.732905
-0.331466 0.408632 0.733121
0.465959 0.408597 0.733912
0.616201 0.450759 0.734906
0.737763 0.569248 0.736296
0.842772 0.612689 0.733226
0.953905 0.780447 0.753445
-3.183576 0.464995 0.738730
-3.066472 0.464782 0.738762
-2.876952 0.464563 0.738815
-2.003338 0.463438 0.739039
0.417717 0.460293 0.739856
0.613225 0.477798 0.740819
0.740651 0.577072 0.740051
0.844018 0.616700 0.732860
0.954192 0.781044 0.753328
-12.861365 0.584478 0.760952
-12.736736 0.584365 0.760955
-12.519329 0.584203 0.760945
-11.575215 0.583605 0.760936
-7.068180 0.581253 0.761086
0.585087 0.576999 0.760045
0.748405 0.624556 0.749718
0.849186 0.636553 0.729977
0.955479 0.783622 0.752909
0.587943 0.747083 0.747053
0.587956 0.747113 0.747086
0.588130 0.747151 0.747133
0.588901 0.747322 0.747322
0.592233 0.748109 0.748190
0.625182 0.750261 0.750536
0.750001 0.750001 0.750001
0.856191 0.740163 0.725183
0.962294 0.792984 0.752974
0.758828 0.862510 0.789348
0.758809 0.862519 0.789339
0.758878 0.862533 0.789311
0.758966 0.862612 0.789232
0.759428 0.862957 0.788795
0.761235 0.864591 0.786575
0.755097 0.874422 0.763097
0.876498 0.872921 0.768101
0.972153 0.862621 0.794606
0.910893 0.980491 0.892717
0.910919 0.980490 0.892709
0.910946 0.980492 0.892702
0.910938 0.980514 0.892667
0.911010 0.980599 0.892530
0.911357 0.980989 0.891878
0.912611 0.982858 0.888214
0.886412 0.998186 0.833460
0.998554 0.995966 0.873411
-1.315008 0.558672 0.854318
-1.219313 0.558665 0.854332
-0.993707 0.558569 0.854344
-0.172191 0.558336 0.854421
0.466048 0.557782 0.854707
0.613425 0.557757 0.855758
0.743783 0.593296 0.857065
0.861254 0.698359 0.859182
0.966900 0.741335 0.858784
-1.375702 0.559055 0.854364
-1.249298 0.558961 0.854374
-1.073098 0.558900 0.854392
-0.231870 0.558720 0.854464
0.465475 0.558113 0.854749
0.613281 0.558038 0.855801
0.743780 0.593395 0.857112
0.861262 0.698449 0.859207
0.966901 0.741391 0.858789
-1.474623 0.559550 0.854443
-1.348923 0.559404 0.854459
-1.152709 0.559403 0.854468
-0.309240 0.559229 0.854536
0.463580 0.558454 0.854834
0.612957 0.558441 0.855884
0.743770 0.593558 0.857191
0.861306 0.698463 0.859258
0.966913 0.741417 0.858785
-1.800467 0.561544 0.854792
-1.703154 0.561544 0.854800
-1.494063 0.561433 0.854815
-0.678136 0.561310 0.854884
0.454669 0.560553 0.855179
0.611720 0.560336 0.856227
0.743654 0.594442 0.857540
0.861467 0.698738 0.859479
0.966985 0.741591 0.858768
-3.473916 0.570694 0.856340
-3.342467 0.570641 0.856350
-3.158798 0.570666 0.856360
-2.319429 0.570419 0.856429
0.393435 0.569520 0.856732
0.605428 0.568517 0.857795
0.743188 0.598241 0.859112
0.862181 0.700159 0.860419
0.967285 0.742284 0.858703
-11.692725 0.605766 0.862917
-11.592587 0.605684 0.862931
-11.380657 0.605623 0.862944
-10.531262 0.605315 0.863018
-6.627717 0.604172 0.863331
0.563643 0.600572 0.864473
0.740305 0.614903 0.865842
0.865300 0.706413 0.864555
0.968618 0.745687 0.858348
-63.496262 0.703741 0.888207
-63.392365 0.703698 0.888214
-63.207962 0.703632 0.888215
-62.306282 0.703354 0.888224
-58.340466 0.702239 0.888287
-39.061962 0.697649 0.888912
0.702092 0.687247 0.889284
0.875078 0.742387 0.877094
0.974178 0.763111 0.855394
0.721384 0.871833 0.871768
0.721499 0.871829 0.871768
0.721508 0.871843 0.871774
0.721476 0.871892 0.871829
0.722130 0.872067 0.872034
0.724759 0.872881 0.872936
0.741014 0.876027 0.876421
0.874998 0.874998 0.874998
0.981596 0.864432 0.849357
0.885520 0.987236 0.914679
0.885551 0.987235 0.914674
0.885585 0.987232 0.914677
0.885540 0.987264 0.914651
0.885632 0.987339 0.914559
0.886065 0.987689 0.914150
0.887736 0.989341 0.911924
0.880264 0.999377 0.888476
1.001549 0.997918 0.892904
0.360072 0.698633 0.979110
0.366664 0.698601 0.979117
0.385633 0.698602 0.979117
0.423247 0.698509 0.979143
0.505719 0.698334 0.979226
0.621105 0.697382 0.979583
0.744262 0.696477 0.980853
0.870139 0.726743 0.982368
0.986575 0.823896 0.984517
0.372117 0.698565 0.979128
0.367484 0.698681 0.979121
0.379958 0.698660 0.979128
0.420818 0.698652 0.979147
0.507048 0.698381 0.979236
0.620523 0.697514 0.979591
0.744110 0.696464 0.980880
0.870163 0.726765 0.982367
0.986586 0.823901 0.984528
0.344755 0.698787 0.979136
0.358141 0.698683 0.979154
0.372951 0.698720 0.979146
0.412364 0.698688 0.979173
0.506994 0.698412 0.979250
0.620205 0.697562 0.979613
0.744214 0.696557 0.980883
0.870125 0.726820 0.982395
0.986585 0.823933 0.984528
0.320069 0.699026 0.979227
0.321815 0.699057 0.979230
0.339253 0.698963 0.979241
0.408365 0.698985 0.979249
0.501582 0.698699 0.979342
0.619007 0.697952 0.979686
0.743991 0.696901 0.980964
0.870093 0.726943 0.982477
0.986627 0.823983 0.984575
-0.975232 0.700581 0.979603
-0.969160 0.700620 0.979603
-0.783561 0.700597 0.979610
-0.071722 0.700580 0.979629
0.470968 0.700332 0.979707
0.612725 0.699455 0.980071
0.742697 0.698239 0.981350
0.870056 0.727565 0.982855
0.986801 0.824230 0.984803
-9.001515 0.707738 0.981264
-8.688539 0.707511 0.981284
-8.596181 0.707529 0.981284
-7.841681 0.707584 0.981296
-3.754838 0.707291 0.981375
0.575837 0.706242 0.981758
0.736843 0.704388 0.983048
0.869598 0.730361 0.984561
0.987540 0.825506 0.985802
-47.875195 0.735989 0.988351
-47.665348 0.735952 0.988343
-47.475449 0.735970 0.988350
-46.724850 0.735857 0.988378
-42.772942 0.735571 0.988462
-24.951834 0.734225 0.988850
0.697033 0.730049 0.990250
0.866798 0.743367 0.991837
0.990771 0.831267 0.990128
-303.328918 0.824398 1.014706
-303.076111 0.824374 1.014706
-302.718628 0.824340 1.014706
-301.800262 0.824287 1.014700
-297.911041 0.824022 1.014701
-279.592987 0.822773 1.014737
-190.668503 0.817863 1.015549
0.826695 0.808013 1.016305
1.000421 0.866005 1.002686
0.846550 0.996918 0.996852
0.846615 0.996911 0.996852
0.846616 0.996911 0.996852
0.846623 0.996923 0.996859
0.846773 0.996956 0.996911
0.847210 0.997147 0.997121
0.849729 0.997973 0.998045
0.865387 1.001129 1.001567
1.000003 1.000001 1.000007
