StdX-ACES-OCIOv2.0/studio/LMT_AnalyticFilmic4_ACEScct_33.cube
TITLE "Generated by Foundry::LUT"
LUT_3D_SIZE 9
0.000510 0.000052 0.020215
0.074966 0.071274 0.083784
0.154598 0.073160 0.081935
0.306969 0.126702 0.096426
0.454062 0.262321 0.202922
0.591875 0.406965 0.350375
0.729947 0.543671 0.482710
0.861845 0.689703 0.631480
0.996033 0.830357 0.769097
0.072095 0.091013 0.083706
0.098787 0.098237 0.085865
0.178994 0.129033 0.090225
0.312237 0.180375 0.113563
0.455393 0.275580 0.217472
0.592222 0.409743 0.353283
0.730211 0.543923 0.482757
0.861895 0.689774 0.631520
0.996041 0.830381 0.769115
0.100398 0.204788 0.092861
0.162538 0.209100 0.094844
0.220882 0.217190 0.105166
0.326433 0.237322 0.132625
0.457581 0.294278 0.237616
0.592797 0.414116 0.357963
0.730650 0.544340 0.482834
0.861984 0.689888 0.631586
0.996059 0.830414 0.769139
0.146737 0.352681 0.156276
0.209525 0.353388 0.163176
0.265387 0.354363 0.170404
0.363081 0.356819 0.206262
0.466960 0.365862 0.272069
0.595278 0.431518 0.375891
0.731998 0.547323 0.485308
0.862370 0.690378 0.631850
0.996143 0.830532 0.769189
0.292420 0.491637 0.302576
0.309449 0.491802 0.303545
0.331946 0.492078 0.305146
0.394445 0.493136 0.310177
0.501262 0.494788 0.343396
0.604746 0.502405 0.407040
0.734624 0.564730 0.503923
0.864141 0.692504 0.632879
0.996529 0.831060 0.769456
0.432401 0.629407 0.434604
0.433939 0.629611 0.434316
0.436154 0.629963 0.433881
0.458156 0.630474 0.434606
0.528079 0.631304 0.439150
0.638597 0.632307 0.478628
0.743693 0.636790 0.533974
0.872419 0.700050 0.634069
0.998278 0.833445 0.770555
0.658720 0.758107 0.614983
0.658684 0.758173 0.614719
0.658540 0.758299 0.614273
0.657966 0.758840 0.612231
0.651922 0.761860 0.599491
0.663881 0.769130 0.567731
0.775685 0.769703 0.614144
0.881347 0.773460 0.663132
1.006906 0.841208 0.771147
0.814475 0.892268 0.758750
0.814484 0.892277 0.758708
0.814475 0.892303 0.758649
0.814499 0.892401 0.758385
0.814602 0.892841 0.757092
0.813900 0.895079 0.749717
0.800770 0.906740 0.696249
0.912993 0.907127 0.745837
1.016571 0.914656 0.797121
0.956421 1.028944 0.888877
0.956422 1.028945 0.888858
0.956425 1.028949 0.888862
0.956438 1.028965 0.888802
0.956396 1.029073 0.888540
0.956523 1.029514 0.887294
0.955965 1.031753 0.880185
0.938459 1.044187 0.824561
1.050502 1.044596 0.874297
0.069068 0.070520 0.085998
0.089737 0.070307 0.099744
0.187267 0.066767 0.123012
0.324438 0.080561 0.123881
0.457872 0.247073 0.198265
0.592327 0.405594 0.350456
0.729967 0.543583 0.483031
0.861856 0.689669 0.631512
0.996031 0.830348 0.769108
0.063935 0.099368 0.117649
0.106345 0.106790 0.122932
0.220907 0.097207 0.100623
0.332840 0.125796 0.104001
0.459063 0.264975 0.210581
0.592685 0.408444 0.353251
0.730230 0.543840 0.483082
0.861913 0.689739 0.631551
0.996046 0.830358 0.769103
0.046877 0.217905 0.133015
0.077731 0.230470 0.107109
0.231447 0.222829 0.113101
0.338775 0.205117 0.137794
0.461022 0.286326 0.231932
0.593284 0.412900 0.357792
0.730669 0.544256 0.483155
0.862000 0.689845 0.631608
0.996065 0.830384 0.769122
0.017957 0.357891 0.162713
0.116821 0.358135 0.169018
0.234148 0.358589 0.178263
0.365329 0.358049 0.209999
0.469325 0.360031 0.275238
0.595857 0.430270 0.375706
0.732120 0.547012 0.485161
0.862381 0.690343 0.631883
0.996148 0.830511 0.769196
0.258616 0.492794 0.303916
0.283890 0.492933 0.304856
0.314124 0.493172 0.306434
0.387740 0.494087 0.312293
0.501623 0.495055 0.346758
0.605079 0.501587 0.408663
0.734764 0.564417 0.503793
0.864157 0.692473 0.632918
0.996535 0.831055 0.769461
0.429914 0.629430 0.435598
0.431374 0.629637 0.435270
0.433903 0.629976 0.434782
0.453661 0.630739 0.434804
0.526411 0.631536 0.439534
0.638651 0.632353 0.479840
0.743775 0.636596 0.534358
0.872440 0.700001 0.634085
0.998291 0.833419 0.770538
0.658989 0.758054 0.615649
0.658952 0.758120 0.615402
0.658828 0.758238 0.614970
0.658327 0.758772 0.612949
0.652643 0.761736 0.600605
0.663494 0.769179 0.567811
0.775692 0.769712 0.614498
0.881372 0.773412 0.663237
1.006909 0.841200 0.771171
0.814496 0.892257 0.758835
0.814480 0.892274 0.758824
0.814469 0.892293 0.758760
0.814518 0.892390 0.758487
0.814603 0.892838 0.757198
0.813951 0.895066 0.749875
0.800674 0.906752 0.696263
0.912992 0.907123 0.745926
1.016579 0.914638 0.797146
0.956420 1.028942 0.888907
0.956391 1.028946 0.888885
0.956424 1.028948 0.888874
0.956470 1.028961 0.888817
0.956455 1.029066 0.888563
0.956528 1.029517 0.887309
0.956025 1.031741 0.880224
0.938454 1.044183 0.824568
1.050495 1.044600 0.874326
0.037607 0.045832 0.224645
0.115056 0.047675 0.229254
0.217259 0.064605 0.229980
0.338247 0.058712 0.228806
0.459291 0.234536 0.231414
0.592886 0.403698 0.351806
0.730009 0.543401 0.483510
0.861887 0.689606 0.631557
0.996046 0.830325 0.769110
0.004655 0.105994 0.250948
0.078289 0.076578 0.272423
0.240299 0.101929 0.255517
0.345406 0.101574 0.223777
0.460265 0.260172 0.234932
0.593238 0.406754 0.354475
0.730277 0.543658 0.483560
0.861939 0.689665 0.631585
0.996050 0.830346 0.769129
0.046635 0.183551 0.257091
0.095382 0.204300 0.258627
0.229021 0.229911 0.244309
0.348410 0.226120 0.218305
0.462153 0.286928 0.247775
0.593825 0.411497 0.358895
0.730714 0.544082 0.483640
0.862027 0.689784 0.631654
0.996074 0.830374 0.769145
0.007601 0.360290 0.246572
0.109303 0.360474 0.248544
0.232682 0.360838 0.251771
0.366322 0.360333 0.265264
0.470482 0.357080 0.291560
0.596360 0.429366 0.377028
0.732251 0.546646 0.485223
0.862414 0.690274 0.631922
0.996162 0.830488 0.769202
0.217095 0.493621 0.316078
0.256357 0.493755 0.316941
0.296985 0.493973 0.318358
0.381862 0.494878 0.324020
0.502306 0.495528 0.352055
0.605746 0.500062 0.411072
0.734974 0.563959 0.503654
0.864184 0.692410 0.632970
0.996537 0.831032 0.769473
0.440969 0.628719 0.443446
0.430987 0.629508 0.438518
0.429963 0.630015 0.436480
0.445449 0.631186 0.435175
0.523554 0.631923 0.440169
0.638724 0.632439 0.481904
0.743892 0.636320 0.535070
0.872473 0.699929 0.634120
0.998294 0.833413 0.770567
0.659443 0.757962 0.616736
0.659387 0.758032 0.616496
0.659308 0.758143 0.616093
0.658854 0.758664 0.614152
0.653845 0.761530 0.602411
0.662775 0.769278 0.567968
0.775700 0.769726 0.615094
0.881402 0.773343 0.663395
1.006918 0.841179 0.771189
0.814546 0.892245 0.759035
0.814504 0.892261 0.759006
0.814543 0.892277 0.758927
0.814593 0.892372 0.758671
0.814623 0.892825 0.757408
0.814048 0.895042 0.750121
0.800518 0.906767 0.696293
0.912979 0.907127 0.746067
1.016588 0.914618 0.797171
0.956419 1.028940 0.888947
0.956389 1.028944 0.888928
0.956449 1.028939 0.888920
0.956439 1.028965 0.888869
0.956421 1.029063 0.888598
0.956553 1.029508 0.887351
0.956055 1.031736 0.880268
0.938419 1.044194 0.824572
1.050495 1.044600 0.874342
-0.067557 -0.050616 0.378320
0.050089 -0.047072 0.377407
0.220464 -0.029984 0.375209
0.363008 0.099670 0.368513
0.469829 0.202349 0.357379
0.596124 0.394700 0.368460
0.730196 0.542511 0.485625
0.862005 0.689306 0.631716
0.996083 0.830220 0.769144
-0.074871 0.055272 0.377143
0.041118 0.055443 0.376936
0.217213 0.066548 0.375589
0.363808 0.188387 0.368957
0.470510 0.240736 0.358439
0.596563 0.397672 0.368087
0.730453 0.542810 0.485712
0.862055 0.689378 0.631759
0.996093 0.830228 0.769143
-0.072457 0.219576 0.375865
0.035100 0.217248 0.376336
0.210356 0.216064 0.376188
0.364931 0.259124 0.369606
0.471696 0.283228 0.359745
0.596835 0.403927 0.369672
0.730888 0.543280 0.485821
0.862141 0.689493 0.631827
0.996113 0.830271 0.769170
0.137941 0.340088 0.381103
0.211536 0.342615 0.380553
0.269662 0.346698 0.379612
0.367674 0.368466 0.372429
0.476654 0.376103 0.364763
0.599266 0.426301 0.383668
0.732559 0.545764 0.487033
0.862529 0.689990 0.632108
0.996196 0.830371 0.769213
0.275514 0.493869 0.390293
0.296949 0.494026 0.390645
0.323611 0.494296 0.391238
0.390965 0.495442 0.393838
0.503050 0.497498 0.404616
0.608773 0.494194 0.422823
0.735397 0.563215 0.505151
0.864296 0.692158 0.633220
0.996582 0.830922 0.769495
0.466607 0.626747 0.471258
0.465011 0.627144 0.469557
0.461596 0.627851 0.466456
0.425140 0.631950 0.444941
0.509015 0.633818 0.443061
0.639427 0.632894 0.486904
0.744439 0.635083 0.538187
0.872569 0.699743 0.634507
0.998341 0.833291 0.770596
0.661186 0.757599 0.621274
0.661196 0.757657 0.621077
0.661146 0.757766 0.620720
0.660920 0.758253 0.619077
0.658075 0.760768 0.609417
0.659782 0.769677 0.568602
0.775711 0.769797 0.617791
0.881513 0.773079 0.664135
1.006944 0.841112 0.771298
0.814680 0.892190 0.759813
0.814689 0.892200 0.759806
0.814731 0.892220 0.759727
0.814758 0.892321 0.759474
0.814858 0.892756 0.758232
0.814471 0.894947 0.751204
0.799866 0.906861 0.696451
0.912972 0.907144 0.746725
1.016627 0.914541 0.797322
0.956440 1.028924 0.889111
0.956480 1.028929 0.889099
0.956446 1.028933 0.889093
0.956471 1.028961 0.889027
0.956507 1.029045 0.888766
0.956585 1.029502 0.887539
0.956081 1.031721 0.880502
0.938303 1.044208 0.824616
1.050516 1.044605 0.874511
-0.162069 -0.035432 0.494089
-0.038322 -0.032413 0.494188
0.169712 -0.024725 0.494286
0.366062 0.050354 0.493974
0.496383 0.314110 0.492399
0.606162 0.371354 0.486755
0.731982 0.540232 0.503523
0.862560 0.687940 0.632277
0.996268 0.829718 0.769204
-0.194564 0.041612 0.496150
-0.067614 0.046560 0.496046
0.146912 0.056892 0.495843
0.365405 0.142134 0.494574
0.496626 0.328754 0.492620
0.606209 0.377954 0.486673
0.732171 0.540602 0.503411
0.862612 0.688019 0.632331
0.996281 0.829735 0.769213
-0.193816 0.213551 0.496437
-0.068212 0.214959 0.496392
0.144512 0.218309 0.496276
0.365323 0.246511 0.495235
0.497013 0.348701 0.492980
0.606351 0.388111 0.486553
0.732492 0.541196 0.503221
0.862701 0.688132 0.632395
0.996302 0.829752 0.769214
-0.138055 0.370472 0.496787
-0.023262 0.370255 0.496960
0.170858 0.369925 0.497218
0.364247 0.370201 0.497578
0.498737 0.405006 0.494576
0.607888 0.426332 0.486265
0.733900 0.543705 0.502416
0.863082 0.688657 0.632714
0.996385 0.829877 0.769283
0.329581 0.496616 0.498997
0.341738 0.496994 0.498961
0.358606 0.497631 0.498898
0.409119 0.500243 0.498668
0.506192 0.506021 0.501153
0.614605 0.508513 0.492652
0.738310 0.559897 0.511003
0.864824 0.690957 0.634036
0.996777 0.830411 0.769559
0.441005 0.630599 0.522153
0.441006 0.630840 0.521617
0.441033 0.631240 0.520710
0.440472 0.633052 0.516139
0.514797 0.634919 0.514665
0.641405 0.635030 0.525728
0.747337 0.629727 0.551826
0.872651 0.699772 0.637603
0.998515 0.832809 0.770743
0.659394 0.757819 0.632146
0.659404 0.757879 0.632001
0.659440 0.757974 0.631754
0.659491 0.758409 0.630598
0.658938 0.760526 0.624072
0.643520 0.771727 0.571280
0.776423 0.770235 0.622789
0.881938 0.772122 0.667835
1.007077 0.840792 0.771786
0.815429 0.891948 0.763243
0.815418 0.891970 0.763203
0.815435 0.891986 0.763151
0.815503 0.892071 0.762938
0.815729 0.892490 0.761866
0.815972 0.894550 0.755833
0.796551 0.907297 0.697159
0.912975 0.907199 0.749748
1.016779 0.914189 0.797954
0.956634 1.028863 0.889875
0.956637 1.028867 0.889872
0.956613 1.028879 0.889863
0.956654 1.028889 0.889791
0.956641 1.028993 0.889560
0.956748 1.029443 0.888352
0.956461 1.031626 0.881552
0.937582 1.044302 0.824785
1.050497 1.044619 0.875163
-0.122569 0.312435 0.617204
0.013534 0.312669 0.617296
0.214450 0.313122 0.617450
0.376066 0.317278 0.617981
0.510158 0.360731 0.618489
0.633617 0.464059 0.621127
0.743921 0.518980 0.614624
0.866211 0.684308 0.641121
0.997123 0.827565 0.769142
-0.170209 0.321660 0.617966
-0.033400 0.321774 0.618064
0.188232 0.322074 0.618212
0.373071 0.325433 0.618740
0.509984 0.364819 0.619226
0.634013 0.465357 0.621595
0.744092 0.519708 0.614538
0.866246 0.684386 0.641125
0.997138 0.827569 0.769142
-0.248339 0.335238 0.619229
-0.110970 0.335271 0.619318
0.116873 0.335387 0.619477
0.367958 0.337654 0.619990
0.509669 0.371313 0.620435
0.634668 0.467511 0.622359
0.744368 0.520906 0.614386
0.866322 0.684488 0.641116
0.997155 0.827606 0.769164
-0.629316 0.380825 0.624707
-0.488014 0.380578 0.624790
-0.255950 0.380318 0.624922
0.336341 0.380058 0.625359
0.507687 0.397110 0.625565
0.637364 0.477104 0.625541
0.745568 0.526340 0.613655
0.866621 0.685007 0.641129
0.997243 0.827723 0.769236
-1.326972 0.504825 0.633270
-1.189253 0.504711 0.633317
-0.957527 0.504510 0.633398
0.098451 0.503713 0.633676
0.499086 0.502371 0.633655
0.639665 0.534877 0.627730
0.749317 0.555126 0.609396
0.868008 0.687246 0.641201
0.997621 0.828291 0.769586
0.428930 0.639869 0.627136
0.430149 0.639976 0.627242
0.432301 0.640145 0.627409
0.447628 0.640672 0.627893
0.528468 0.641297 0.628260
0.644189 0.643253 0.630401
0.754929 0.637389 0.615908
0.875425 0.696514 0.643011
0.999362 0.830729 0.771001
0.629450 0.764315 0.662055
0.629448 0.764370 0.661981
0.629557 0.764447 0.661848
0.629913 0.764820 0.661236
0.631075 0.766541 0.658038
0.634914 0.774405 0.635265
0.779523 0.772463 0.648790
0.884690 0.767199 0.682647
1.007772 0.839253 0.773375
0.812177 0.892528 0.771707
0.812204 0.892529 0.771664
0.812199 0.892556 0.771643
0.812312 0.892637 0.771474
0.812636 0.893030 0.770667
0.813724 0.894907 0.766240
0.779038 0.909443 0.699944
0.913707 0.907632 0.754742
1.017468 0.912696 0.800910
0.957167 1.028657 0.893224
0.957172 1.028661 0.893218
0.957178 1.028666 0.893200
0.957193 1.028685 0.893158
0.957238 1.028780 0.892931
0.957487 1.029194 0.891866
0.957780 1.031254 0.885992
0.934123 1.044754 0.825584
1.050511 1.044658 0.878235
0.450613 0.526679 0.739945
0.454693 0.526687 0.739978
0.461140 0.526736 0.740032
0.484935 0.527007 0.740263
0.548680 0.529167 0.741088
0.653192 0.552785 0.741855
0.765345 0.614842 0.743765
0.879169 0.674791 0.741574
1.001832 0.822344 0.773418
0.449169 0.527469 0.740139
0.453454 0.527492 0.740169
0.459904 0.527549 0.740223
0.484045 0.527777 0.740458
0.548352 0.529873 0.741280
0.653199 0.553222 0.742043
0.765447 0.615062 0.743884
0.879213 0.674923 0.741549
1.001841 0.822358 0.773424
0.447060 0.528784 0.740454
0.451354 0.528814 0.740482
0.457991 0.528871 0.740536
0.482623 0.529073 0.740775
0.547732 0.531063 0.741600
0.653182 0.553920 0.742367
0.765625 0.615410 0.744092
0.879283 0.675167 0.741514
1.001857 0.822376 0.773416
0.436023 0.534539 0.741841
0.440873 0.534549 0.741875
0.448462 0.534575 0.741931
0.475743 0.534702 0.742167
0.544938 0.536200 0.743017
0.653088 0.557031 0.743786
0.766399 0.617015 0.745013
0.879602 0.676127 0.741333
1.001929 0.822495 0.773453
0.331589 0.558182 0.747848
0.347987 0.558130 0.747885
0.369103 0.558098 0.747943
0.427980 0.557895 0.748193
0.528778 0.557761 0.749096
0.651952 0.570720 0.749911
0.769773 0.624162 0.749006
0.881027 0.680611 0.740444
1.002248 0.822965 0.773532
-9.850260 0.637791 0.770105
-9.691331 0.637721 0.770113
-9.414729 0.637616 0.770109
-8.208480 0.637248 0.770131
-2.378103 0.635894 0.770427
0.634225 0.633388 0.769744
0.778421 0.663572 0.758848
0.886981 0.700443 0.735388
1.003681 0.825066 0.773938
0.606921 0.776541 0.755281
0.606936 0.776574 0.755315
0.607134 0.776616 0.755364
0.607999 0.776809 0.755562
0.611737 0.777690 0.756469
0.647925 0.780216 0.759005
0.782154 0.780489 0.759642
0.893878 0.768660 0.741783
1.011236 0.834014 0.776457
0.783522 0.899906 0.796059
0.783497 0.899915 0.796049
0.783573 0.899929 0.796017
0.783653 0.900011 0.795926
0.784086 0.900364 0.795423
0.785675 0.902030 0.792860
0.773326 0.911789 0.765244
0.917331 0.909842 0.775576
1.021090 0.905993 0.813617
0.953285 1.029380 0.901597
0.953318 1.029378 0.901586
0.953350 1.029381 0.901576
0.953335 1.029402 0.901535
0.953406 1.029489 0.901370
0.953749 1.029882 0.900578
0.954831 1.031759 0.896184
0.915358 1.047017 0.828673
1.051251 1.045088 0.883262
0.632569 0.685851 0.867250
0.633025 0.685862 0.867264
0.634060 0.685849 0.867277
0.637774 0.685866 0.867359
0.653141 0.686058 0.867660
0.701621 0.687701 0.868727
0.794729 0.708417 0.869353
0.899873 0.754750 0.869703
1.015362 0.822204 0.866885
0.632350 0.686007 0.867296
0.632941 0.685990 0.867307
0.633765 0.685992 0.867326
0.637568 0.686020 0.867402
0.653094 0.686195 0.867703
0.701570 0.687820 0.868772
0.794739 0.708481 0.869402
0.899886 0.754827 0.869731
1.015363 0.822245 0.866887
0.631997 0.686227 0.867377
0.632596 0.686198 0.867394
0.633501 0.686211 0.867404
0.637321 0.686239 0.867476
0.652891 0.686370 0.867790
0.701450 0.688007 0.868857
0.794753 0.708588 0.869485
0.899936 0.754858 0.869785
1.015377 0.822278 0.866878
0.630944 0.687144 0.867735
0.631407 0.687153 0.867743
0.632392 0.687137 0.867759
0.636144 0.687178 0.867832
0.651957 0.687305 0.868143
0.701012 0.688855 0.869210
0.794749 0.709103 0.869849
0.900129 0.755151 0.870023
1.015460 0.822483 0.866831
0.624987 0.691399 0.869316
0.625659 0.691392 0.869327
0.626583 0.691413 0.869337
0.630711 0.691407 0.869412
0.647512 0.691455 0.869733
0.698797 0.692655 0.870827
0.794783 0.711391 0.871494
0.900968 0.756568 0.871029
1.015808 0.823309 0.866643
0.585758 0.709714 0.876010
0.586593 0.709691 0.876025
0.588293 0.709677 0.876040
0.594832 0.709612 0.876122
0.619621 0.709414 0.876465
0.686046 0.709167 0.877693
0.794261 0.721561 0.878547
0.904646 0.762818 0.875455
1.017358 0.827157 0.865730
-46.542164 0.777072 0.901281
-46.388901 0.777049 0.901290
-46.122265 0.777011 0.901293
-44.815559 0.776848 0.901313
-39.034740 0.776214 0.901423
-10.355021 0.773814 0.902275
0.773110 0.768493 0.903084
0.915940 0.794573 0.888646
1.023381 0.843254 0.860277
0.754915 0.913814 0.884260
0.755041 0.913810 0.884261
0.755048 0.913825 0.884268
0.755017 0.913879 0.884324
0.755743 0.914076 0.884538
0.758649 0.914986 0.885478
0.776406 0.918533 0.889135
0.920061 0.917736 0.888879
1.031222 0.903117 0.870987
0.923209 1.037127 0.925708
0.923245 1.037126 0.925703
0.923286 1.037124 0.925707
0.923224 1.037156 0.925675
0.923308 1.037233 0.925569
0.923708 1.037591 0.925097
0.925127 1.039274 0.922527
0.911113 1.049234 0.894914
1.054930 1.047217 0.904578
0.791497 0.835275 0.996024
0.791570 0.835271 0.996032
0.791782 0.835272 0.996031
0.792412 0.835267 0.996059
0.795263 0.835296 0.996145
0.807810 0.835383 0.996515
0.849270 0.836856 0.997762
0.935534 0.856710 0.998099
1.035713 0.891182 0.997252
0.791640 0.835268 0.996043
0.791582 0.835300 0.996035
0.791727 0.835300 0.996042
0.792370 0.835316 0.996062
0.795344 0.835320 0.996156
0.807711 0.835430 0.996523
0.849211 0.836872 0.997789
0.935553 0.856722 0.998097
1.035724 0.891189 0.997263
0.791399 0.835346 0.996051
0.791532 0.835327 0.996069
0.791669 0.835333 0.996061
0.792246 0.835348 0.996089
0.795358 0.835342 0.996170
0.807676 0.835463 0.996546
0.849265 0.836905 0.997792
0.935531 0.856751 0.998128
1.035724 0.891213 0.997263
0.791342 0.835497 0.996144
0.791357 0.835510 0.996148
0.791482 0.835489 0.996159
0.792266 0.835507 0.996167
0.795185 0.835509 0.996264
0.807532 0.835647 0.996621
0.849205 0.837073 0.997877
0.935530 0.856838 0.998214
1.035771 0.891267 0.997313
0.790505 0.836307 0.996529
0.790509 0.836320 0.996529
0.790662 0.836319 0.996536
0.791237 0.836332 0.996557
0.794330 0.836333 0.996639
0.806833 0.836437 0.997016
0.848805 0.837786 0.998276
0.935615 0.857279 0.998611
1.035975 0.891540 0.997556
0.786153 0.840029 0.998228
0.786438 0.839970 0.998250
0.786513 0.839976 0.998249
0.787141 0.840008 0.998263
0.790492 0.839986 0.998347
0.803527 0.840014 0.998748
0.847085 0.841046 1.000036
0.935768 0.859222 1.000412
1.036852 0.892880 0.998629
0.760320 0.856008 1.005438
0.760537 0.855988 1.005430
0.760763 0.856000 1.005438
0.761641 0.855976 1.005468
0.766014 0.855926 1.005561
0.783361 0.855699 1.005985
0.836574 0.855418 1.007467
0.935813 0.867978 1.008107
1.040672 0.898854 1.003266
-206.449432 0.916810 1.031621
-206.036774 0.916796 1.031623
-205.455093 0.916778 1.031625
-203.972229 0.916745 1.031621
-197.602463 0.916599 1.031634
-167.400772 0.915928 1.031730
-15.836523 0.913683 1.032838
0.916062 0.909268 1.034065
1.051942 0.929607 1.016577
0.893564 1.051417 1.013595
0.893637 1.051410 1.013595
0.893637 1.051410 1.013595
0.893643 1.051423 1.013603
0.893813 1.051461 1.013657
0.894295 1.051674 1.013876
0.897061 1.052598 1.014839
0.914017 1.056155 1.018532
1.057931 1.055009 1.018125
