StdX-ACES-OCIOv2.0/studio/LMT_AnalyticFilmic4_ACEScct_33.cube
TITLE "Generated by Foundry::LUT"
LUT_3D_SIZE 33
0.000510 0.000052 0.020215
0.022316 0.022042 0.042313
0.044123 0.044033 0.064410
0.067553 0.066998 0.081217
0.074966 0.071274 0.083784
0.079034 0.071860 0.082843
0.092988 0.070956 0.083161
0.122651 0.069904 0.081839
0.154598 0.073160 0.081935
0.194267 0.080895 0.081665
0.232722 0.091147 0.083411
0.270036 0.105500 0.088227
0.306969 0.126702 0.096426
0.347166 0.150814 0.105507
0.384833 0.184597 0.124768
0.419743 0.223491 0.160685
0.454062 0.262321 0.202922
0.488229 0.300322 0.243230
0.522452 0.337296 0.281534
0.556940 0.372956 0.317439
0.591875 0.406965 0.350375
0.626870 0.440488 0.382396
0.661761 0.474022 0.414415
0.696522 0.507651 0.446544
0.729947 0.543671 0.482710
0.762771 0.580707 0.520822
0.795692 0.617361 0.558330
0.828707 0.653689 0.595234
0.861845 0.689703 0.631480
0.895124 0.725394 0.666999
0.928573 0.760732 0.701753
0.962247 0.795654 0.735657
0.996033 0.830357 0.769097
0.026471 0.026232 0.046523
0.027811 0.027583 0.047881
0.048239 0.048183 0.068580
0.070820 0.071111 0.083919
0.083709 0.073508 0.082973
0.094374 0.075179 0.082058
0.109247 0.076469 0.082185
0.130429 0.080495 0.081559
0.162207 0.085768 0.082166
0.198762 0.092197 0.084448
0.235091 0.101932 0.088198
0.271448 0.116679 0.093855
0.308080 0.138217 0.102284
0.348740 0.160353 0.110714
0.385534 0.192538 0.130689
0.420220 0.228882 0.166441
0.454396 0.265883 0.206655
0.488466 0.302678 0.245689
0.522621 0.338851 0.283151
0.557058 0.374000 0.318528
0.591959 0.407676 0.351114
0.626935 0.440964 0.382890
0.661800 0.474356 0.414761
0.696552 0.507876 0.446785
0.730010 0.543740 0.482730
0.762818 0.580752 0.520835
0.795723 0.617391 0.558343
0.828728 0.653718 0.595257
0.861857 0.689726 0.631497
0.895136 0.725403 0.667002
0.928593 0.760732 0.701747
0.962255 0.795652 0.735653
0.996040 0.830362 0.769094
0.052434 0.052414 0.072831
0.053773 0.053764 0.074188
0.055168 0.055148 0.075361
0.073163 0.072416 0.084365
0.086855 0.079330 0.083361
0.099348 0.083203 0.082684
0.113561 0.086510 0.083591
0.134996 0.091207 0.084501
0.166835 0.097097 0.085960
0.201863 0.104869 0.088355
0.237202 0.115643 0.092173
0.272910 0.130884 0.098127
0.309283 0.151804 0.107123
0.350054 0.169560 0.116456
0.386220 0.199694 0.137053
0.420685 0.233870 0.172085
0.454728 0.269273 0.210351
0.488697 0.304957 0.248128
0.522788 0.340379 0.284772
0.557178 0.375025 0.319607
0.592046 0.408377 0.351846
0.626996 0.441445 0.383392
0.661844 0.474684 0.415108
0.696584 0.508103 0.447027
0.730077 0.543805 0.482747
0.762860 0.580795 0.520850
0.795747 0.617426 0.558364
0.828745 0.653743 0.595270
0.861868 0.689741 0.631505
0.895145 0.725417 0.667016
0.928594 0.760740 0.701750
0.962258 0.795655 0.735652
0.996035 0.830368 0.769107
0.070686 0.074699 0.084258
0.072442 0.076143 0.084126
0.075109 0.077453 0.084237
0.078768 0.078723 0.084386
0.090664 0.086791 0.084265
0.103471 0.093259 0.084830
0.118870 0.099076 0.085454
0.141235 0.105429 0.086411
0.172492 0.112723 0.087951
0.205662 0.121678 0.090431
0.239666 0.133249 0.094419
0.274556 0.148458 0.100817
0.310640 0.166795 0.110700
0.351244 0.178432 0.122332
0.386885 0.206314 0.143711
0.421152 0.238544 0.177557
0.455063 0.272491 0.213958
0.488938 0.307147 0.250514
0.522956 0.341866 0.286367
0.557301 0.376029 0.320670
0.592134 0.409061 0.352562
0.627055 0.441927 0.383902
0.661884 0.475012 0.415453
0.696613 0.508325 0.447261
0.730144 0.543868 0.482756
0.762907 0.580841 0.520862
0.795778 0.617460 0.558377
0.828763 0.653769 0.595286
0.861884 0.689759 0.631513
0.895153 0.725431 0.667028
0.928596 0.760750 0.701759
0.962255 0.795676 0.735673
0.996032 0.830384 0.769121
0.072095 0.091013 0.083706
0.078137 0.092846 0.084198
0.084517 0.094797 0.084701
0.092336 0.096255 0.084963
0.098787 0.098237 0.085865
0.110445 0.104132 0.086686
0.126774 0.110685 0.087626
0.149370 0.119594 0.088720
0.178994 0.129033 0.090225
0.210098 0.139178 0.092747
0.242557 0.151633 0.096779
0.276453 0.166509 0.103207
0.312237 0.180375 0.113563
0.352351 0.187278 0.127927
0.387539 0.212591 0.150455
0.421609 0.242975 0.182789
0.455393 0.275580 0.217472
0.489172 0.309281 0.252875
0.523127 0.343321 0.287938
0.557419 0.377027 0.321734
0.592222 0.409743 0.353283
0.627116 0.442396 0.384397
0.661931 0.475338 0.415800
0.696642 0.508548 0.447495
0.730211 0.543923 0.482757
0.762947 0.580893 0.520890
0.795808 0.617489 0.558388
0.828785 0.653786 0.595291
0.861895 0.689774 0.631520
0.895157 0.725448 0.667043
0.928606 0.760756 0.701758
0.962264 0.795667 0.735658
0.996041 0.830381 0.769115
0.075729 0.108567 0.084764
0.083840 0.110819 0.085422
0.092311 0.113106 0.086014
0.103432 0.114296 0.086088
0.113441 0.115454 0.087070
0.120314 0.118793 0.088325
0.135028 0.125379 0.089534
0.159053 0.132549 0.091087
0.185970 0.144345 0.092886
0.214852 0.157050 0.095277
0.245751 0.169164 0.099330
0.278581 0.181681 0.105780
0.314239 0.191753 0.116185
0.353407 0.196258 0.132928
0.388188 0.218692 0.157057
0.422069 0.247233 0.187752
0.455721 0.278565 0.220892
0.489410 0.311360 0.255189
0.523293 0.344752 0.289505
0.557538 0.378010 0.322789
0.592309 0.410411 0.353987
0.627174 0.442860 0.384889
0.661969 0.475662 0.416142
0.696671 0.508772 0.447738
0.730275 0.543991 0.482775
0.762992 0.580936 0.520899
0.795835 0.617526 0.558409
0.828806 0.653808 0.595298
0.861909 0.689791 0.631533
0.895173 0.725453 0.667038
0.928611 0.760768 0.701765
0.962267 0.795671 0.735666
0.996037 0.830379 0.769114
0.080737 0.131813 0.086272
0.090548 0.134317 0.087093
0.101162 0.136718 0.087671
0.114499 0.137973 0.087693
0.128140 0.138399 0.088316
0.138315 0.140529 0.089834
0.148152 0.145382 0.091645
0.169423 0.153759 0.093566
0.194826 0.161711 0.096106
0.220991 0.175267 0.098807
0.249925 0.186950 0.102650
0.281473 0.197257 0.109121
0.318550 0.199774 0.119454
0.354652 0.207261 0.138277
0.388972 0.226165 0.164209
0.422635 0.252314 0.193424
0.456129 0.282117 0.224931
0.489704 0.313830 0.257955
0.523501 0.346479 0.291394
0.557688 0.379189 0.324059
0.592410 0.411243 0.354874
0.627249 0.443435 0.385500
0.662022 0.476055 0.416559
0.696709 0.509040 0.448021
0.730355 0.544071 0.482793
0.763042 0.580996 0.520928
0.795873 0.617573 0.558437
0.828826 0.653841 0.595325
0.861925 0.689811 0.631543
0.895175 0.725482 0.667063
0.928620 0.760776 0.701772
0.962273 0.795683 0.735672
0.996046 0.830395 0.769124
0.088598 0.166888 0.088774
0.100216 0.169182 0.089730
0.112867 0.171255 0.090339
0.127904 0.172513 0.090406
0.144572 0.172749 0.090597
0.159635 0.173088 0.091643
0.172205 0.175380 0.093831
0.184698 0.181324 0.096896
0.205849 0.188332 0.099945
0.230257 0.194633 0.104028
0.256309 0.206911 0.108022
0.286148 0.215675 0.114165
0.322125 0.215936 0.124446
0.356407 0.222709 0.144851
0.390108 0.237186 0.172447
0.423447 0.259602 0.200746
0.456722 0.287133 0.230446
0.490125 0.317341 0.261854
0.523807 0.348921 0.294078
0.557903 0.380891 0.325908
0.592570 0.412420 0.356134
0.627358 0.444263 0.386382
0.662098 0.476637 0.417182
0.696760 0.509444 0.448455
0.730478 0.544177 0.482805
0.763124 0.581073 0.520949
0.795923 0.617627 0.558457
0.828863 0.653881 0.595338
0.861953 0.689838 0.631555
0.895197 0.725492 0.667058
0.928629 0.760789 0.701773
0.962277 0.795702 0.735685
0.996051 0.830389 0.769116
0.100398 0.204788 0.092861
0.113833 0.206292 0.093920
0.128247 0.207667 0.094640
0.144468 0.208684 0.094893
0.162538 0.209100 0.094844
0.178387 0.209057 0.095166
0.193263 0.209125 0.096567
0.207423 0.211124 0.100083
0.220882 0.217190 0.105166
0.241937 0.222014 0.110000
0.266053 0.227242 0.116266
0.295075 0.233933 0.121357
0.326433 0.237322 0.132625
0.358915 0.242935 0.153235
0.391752 0.252947 0.181177
0.424627 0.270329 0.209252
0.457581 0.294278 0.237616
0.490744 0.322292 0.267193
0.524254 0.352377 0.297853
0.558222 0.383311 0.328529
0.592797 0.414116 0.357963
0.627518 0.445458 0.387666
0.662208 0.477466 0.418075
0.696838 0.510017 0.449075
0.730650 0.544340 0.482834
0.763236 0.581193 0.520988
0.795996 0.617715 0.558500
0.828915 0.653945 0.595375
0.861984 0.689888 0.631586
0.895219 0.725523 0.667076
0.928644 0.760809 0.701786
0.962296 0.795701 0.735671
0.996059 0.830414 0.769139
0.115967 0.242034 0.099427
0.131003 0.243018 0.100618
0.146772 0.243947 0.101548
0.163299 0.244749 0.102125
0.178652 0.245323 0.102322
0.192777 0.245573 0.102252
0.208098 0.245477 0.102422
0.225601 0.245187 0.104212
0.242058 0.246542 0.109738
0.257285 0.252372 0.118391
0.279538 0.252233 0.125926
0.304038 0.258153 0.133820
0.332105 0.263057 0.145259
0.362536 0.267071 0.165066
0.394166 0.273924 0.190185
0.426343 0.285835 0.218089
0.458831 0.304736 0.245974
0.491651 0.329317 0.274116
0.524897 0.357261 0.303034
0.558688 0.386724 0.332218
0.593122 0.416537 0.360588
0.627745 0.447167 0.389517
0.662369 0.478664 0.419367
0.696952 0.510857 0.449981
0.730891 0.544607 0.482936
0.763403 0.581365 0.521046
0.796109 0.617841 0.558552
0.828984 0.654033 0.595419
0.862035 0.689953 0.631622
0.895254 0.725564 0.667094
0.928666 0.760849 0.701815
0.962306 0.795733 0.735698
0.996069 0.830422 0.769134
0.112780 0.280851 0.109421
0.130188 0.281362 0.110911
0.147958 0.281862 0.112345
0.165586 0.282344 0.113616
0.180996 0.282781 0.114621
0.194712 0.283139 0.115286
0.210112 0.283406 0.115578
0.230525 0.283260 0.115177
0.254722 0.282073 0.116084
0.276224 0.281787 0.124527
0.293010 0.287302 0.138775
0.315414 0.285024 0.152199
0.339791 0.291049 0.164764
0.367732 0.294670 0.180062
0.397716 0.298980 0.201122
0.428835 0.306788 0.226771
0.460632 0.319951 0.254585
0.492962 0.339584 0.282204
0.525843 0.364186 0.309731
0.559363 0.391536 0.337258
0.593596 0.419940 0.364262
0.628075 0.449593 0.392165
0.662602 0.480378 0.421235
0.697118 0.512044 0.451271
0.731232 0.545036 0.483154
0.763649 0.581611 0.521115
0.796270 0.618023 0.558628
0.829097 0.654167 0.595488
0.862107 0.690040 0.631670
0.895304 0.725631 0.667133
0.928702 0.760892 0.701836
0.962332 0.795762 0.735720
0.996086 0.830444 0.769147
0.122966 0.317260 0.126378
0.142711 0.317532 0.127982
0.162216 0.317812 0.129574
0.178907 0.318084 0.131106
0.192953 0.318355 0.132512
0.205316 0.318609 0.133728
0.218825 0.318885 0.134898
0.236350 0.319166 0.135882
0.259055 0.319092 0.135800
0.286341 0.317755 0.136663
0.310456 0.316785 0.149980
0.328175 0.322126 0.171813
0.350674 0.318671 0.187109
0.375036 0.324362 0.198951
0.402844 0.327343 0.214936
0.432464 0.332059 0.236786
0.463236 0.340650 0.262825
0.494842 0.354537 0.290454
0.527200 0.374302 0.317526
0.560343 0.398364 0.343790
0.594289 0.424727 0.369305
0.628556 0.453024 0.395903
0.662937 0.482824 0.423925
0.697355 0.513764 0.453163
0.731703 0.545697 0.483560
0.764012 0.581966 0.521215
0.796511 0.618290 0.558749
0.829255 0.654360 0.595586
0.862209 0.690184 0.631752
0.895378 0.725723 0.667181
0.928750 0.760967 0.701880
0.962360 0.795816 0.735744
0.996112 0.830481 0.769163
0.146737 0.352681 0.156276
0.166999 0.352857 0.158082
0.183631 0.353034 0.159834
0.197531 0.353211 0.161548
0.209525 0.353388 0.163176
0.220049 0.353565 0.164710
0.231660 0.353773 0.166419
0.246558 0.354049 0.168472
0.265387 0.354363 0.170404
0.289401 0.354386 0.170736
0.318645 0.353049 0.170379
0.344682 0.351621 0.184552
0.363081 0.356819 0.206262
0.385650 0.352591 0.221089
0.410010 0.357952 0.232599
0.437630 0.360707 0.249542
0.466960 0.365862 0.272069
0.497533 0.374994 0.298253
0.529141 0.389063 0.325443
0.561754 0.408328 0.351371
0.595278 0.431518 0.375891
0.629244 0.457835 0.401036
0.663423 0.486260 0.427698
0.697695 0.516209 0.455866
0.731998 0.547323 0.485308
0.764541 0.582466 0.521328
0.796856 0.618666 0.558900
0.829484 0.654642 0.595732
0.862370 0.690378 0.631850
0.895483 0.725875 0.667272
0.928822 0.761054 0.701922
0.962415 0.795875 0.735767
0.996143 0.830532 0.769189
0.183110 0.387638 0.195071
0.197565 0.387764 0.196160
0.210003 0.387882 0.197226
0.220743 0.388006 0.198279
0.230346 0.388128 0.199323
0.238991 0.388247 0.200318
0.248562 0.388392 0.201499
0.260959 0.388610 0.203118
0.276687 0.388900 0.205071
0.296385 0.389235 0.206942
0.321166 0.389331 0.207188
0.351594 0.388039 0.205747
0.378962 0.386310 0.218697
0.397825 0.391408 0.240040
0.420429 0.386675 0.254631
0.444711 0.391854 0.266391
0.472139 0.394646 0.284180
0.501280 0.400172 0.307105
0.531854 0.409418 0.332950
0.563743 0.422924 0.359031
0.596696 0.441408 0.383561
0.630239 0.464623 0.407734
0.664119 0.491082 0.432896
0.698197 0.519640 0.459661
0.732353 0.549750 0.488009
0.765329 0.583143 0.521416
0.797373 0.619198 0.559093
0.829825 0.655034 0.595915
0.862597 0.690662 0.631997
0.895639 0.726072 0.667374
0.928936 0.761195 0.701994
0.962488 0.795982 0.735832
0.996195 0.830582 0.769209
0.220801 0.422371 0.232448
0.230729 0.422456 0.233103
0.239516 0.422541 0.233735
0.247567 0.422622 0.234374
0.254803 0.422711 0.234998
0.261486 0.422796 0.235630
0.269052 0.422907 0.236398
0.279157 0.423055 0.237460
0.292119 0.423270 0.238910
0.308342 0.423577 0.240727
0.328572 0.423930 0.242417
0.353827 0.424075 0.242465
0.385044 0.422812 0.240158
0.413251 0.420909 0.252259
0.432450 0.425920 0.273728
0.454989 0.420924 0.288734
0.479007 0.426246 0.301819
0.506217 0.429391 0.320038
0.535457 0.434857 0.342077
0.566460 0.443239 0.366245
0.598676 0.455973 0.391256
0.631642 0.474488 0.415579
0.665119 0.497868 0.439680
0.698905 0.524462 0.464899
0.732858 0.553180 0.491829
0.766439 0.584207 0.521693
0.798124 0.619951 0.559334
0.830326 0.655599 0.596168
0.862932 0.691074 0.632209
0.895864 0.726371 0.667536
0.929083 0.761416 0.702119
0.962587 0.796133 0.735912
0.996269 0.830685 0.769259
0.257599 0.457005 0.268257
0.264360 0.457067 0.268647
0.270350 0.457133 0.269038
0.276238 0.457187 0.269417
0.281613 0.457248 0.269806
0.286669 0.457309 0.270197
0.292479 0.457386 0.270669
0.300393 0.457491 0.271345
0.310794 0.457647 0.272309
0.324116 0.457871 0.273639
0.340811 0.458177 0.275298
0.361371 0.458550 0.276806
0.387019 0.458719 0.276614
0.418782 0.457462 0.273765
0.447592 0.455418 0.285655
0.466901 0.460375 0.308441
0.489198 0.455492 0.324860
0.513078 0.460911 0.337795
0.540380 0.464012 0.354722
0.570018 0.468798 0.374986
0.601366 0.476360 0.398294
0.633597 0.489080 0.423392
0.666529 0.507694 0.447642
0.699918 0.531238 0.471742
0.733586 0.557982 0.497070
0.767416 0.586868 0.524192
0.799248 0.620959 0.559533
0.831060 0.656392 0.596487
0.863427 0.691666 0.632498
0.896192 0.726792 0.667753
0.929318 0.761713 0.702269
0.962743 0.796337 0.736010
0.996373 0.830847 0.769348
0.292420 0.491637 0.302576
0.297007 0.491679 0.302820
0.301408 0.491719 0.303064
0.305502 0.491762 0.303302
0.309449 0.491802 0.303545
0.313220 0.491847 0.303789
0.317662 0.491898 0.304094
0.323803 0.491970 0.304527
0.331946 0.492078 0.305146
0.342747 0.492231 0.306046
0.356392 0.492455 0.307269
0.373437 0.492764 0.308800
0.394445 0.493136 0.310177
0.420491 0.493304 0.309795
0.452710 0.492033 0.306546
0.481966 0.489868 0.318824
0.501262 0.494788 0.343396
0.523427 0.490009 0.360011
0.547260 0.495423 0.372276
0.574785 0.498237 0.387725
0.604746 0.502405 0.407040
0.636243 0.509588 0.430324
0.668477 0.522282 0.455519
0.701342 0.541030 0.479770
0.734624 0.564730 0.503923
0.768169 0.591641 0.529413
0.800942 0.622242 0.559494
0.832146 0.657487 0.596848
0.864141 0.692504 0.632879
0.896682 0.727404 0.668065
0.929646 0.762145 0.702487
0.962975 0.796651 0.736169
0.996529 0.831060 0.769456
0.325368 0.526289 0.335711
0.328565 0.526317 0.335866
0.331656 0.526347 0.336023
0.334689 0.526372 0.336185
0.337481 0.526407 0.336342
0.340303 0.526434 0.336504
0.343827 0.526461 0.336689
0.348378 0.526512 0.336974
0.354785 0.526583 0.337381
0.363294 0.526691 0.337971
0.374483 0.526839 0.338828
0.388671 0.527055 0.340011
0.406161 0.527358 0.341486
0.427601 0.527714 0.342746
0.454010 0.527878 0.342153
0.486663 0.526586 0.338420
0.516333 0.524299 0.351289
0.535637 0.529187 0.377252
0.557688 0.524469 0.394171
0.581485 0.529877 0.405981
0.609205 0.532460 0.420427
0.639484 0.536009 0.438887
0.671082 0.542885 0.462341
0.703304 0.555556 0.487644
0.736074 0.574477 0.511961
0.769227 0.598355 0.536240
0.802636 0.625438 0.561939
0.833773 0.658921 0.597093
0.865210 0.693663 0.633329
0.897390 0.728283 0.668482
0.930124 0.762785 0.702810
0.963307 0.797094 0.736391
0.996750 0.831386 0.769619
0.356777 0.560958 0.368084
0.359023 0.560982 0.368199
0.361370 0.560997 0.368304
0.363500 0.561016 0.368410
0.365733 0.561031 0.368514
0.367855 0.561048 0.368609
0.370286 0.561071 0.368751
0.373856 0.561103 0.368933
0.378832 0.561147 0.369211
0.385618 0.561214 0.369614
0.394626 0.561309 0.370197
0.406257 0.561452 0.371044
0.420912 0.561657 0.372215
0.438988 0.561936 0.373659
0.460859 0.562278 0.374901
0.487715 0.562420 0.374113
0.520786 0.561085 0.369765
0.550707 0.558721 0.383084
0.570003 0.563571 0.410860
0.591909 0.558962 0.428335
0.615662 0.564393 0.439741
0.643601 0.566735 0.453023
0.674245 0.569573 0.470598
0.705886 0.576256 0.494367
0.738057 0.588961 0.519803
0.770716 0.608044 0.544227
0.803731 0.632110 0.568691
0.836267 0.660585 0.596724
0.866795 0.695213 0.633743
0.898443 0.729493 0.668971
0.930836 0.763680 0.703219
0.963794 0.797725 0.736678
0.997081 0.831844 0.769842
0.388115 0.595592 0.400384
0.389710 0.595606 0.400452
0.391435 0.595615 0.400530
0.393084 0.595627 0.400602
0.394640 0.595639 0.400670
0.396183 0.595651 0.400750
0.398120 0.595659 0.400828
0.400745 0.595682 0.400953
0.404505 0.595711 0.401139
0.409692 0.595756 0.401415
0.416773 0.595816 0.401813
0.426266 0.595903 0.402394
0.438352 0.596037 0.403232
0.453566 0.596224 0.404396
0.472051 0.596488 0.405826
0.494375 0.596805 0.407023
0.521598 0.596920 0.406085
0.554943 0.595558 0.401145
0.585092 0.593116 0.414940
0.604301 0.597944 0.444672
0.626082 0.593499 0.462590
0.649811 0.598937 0.473505
0.677987 0.601024 0.485535
0.708994 0.603138 0.502255
0.740635 0.609705 0.526411
0.772735 0.622488 0.552011
0.805255 0.641768 0.576588
0.838133 0.665997 0.601289
0.869205 0.697090 0.633719
0.899994 0.731138 0.669483
0.931872 0.764940 0.703740
0.964498 0.798656 0.737103
0.997566 0.832506 0.770144
0.432401 0.629407 0.434604
0.432756 0.629460 0.434524
0.433149 0.629510 0.434451
0.433541 0.629559 0.434388
0.433939 0.629611 0.434316
0.434230 0.629664 0.434249
0.434630 0.629728 0.434170
0.435250 0.629825 0.434049
0.436154 0.629963 0.433881
0.437340 0.630171 0.433652
0.441009 0.630335 0.433634
0.448496 0.630388 0.434024
0.458156 0.630474 0.434606
0.470802 0.630590 0.435429
0.486409 0.630768 0.436589
0.505361 0.631015 0.438010
0.528079 0.631304 0.439150
0.555595 0.631392 0.438049
0.589199 0.629995 0.432601
0.619481 0.627498 0.446824
0.638597 0.632307 0.478628
0.660223 0.628066 0.496861
0.683945 0.633492 0.507242
0.712359 0.635347 0.518039
0.743693 0.636790 0.533974
0.775317 0.643263 0.558482
0.807320 0.656167 0.584251
0.839696 0.675635 0.609044
0.872419 0.700050 0.634069
0.902360 0.733175 0.669663
0.933428 0.766643 0.704279
0.965552 0.799926 0.737591
0.998278 0.833445 0.770555
0.500044 0.661551 0.480385
0.499109 0.661670 0.479695
0.498147 0.661790 0.478992
0.497069 0.661915 0.478245
0.496003 0.662043 0.477471
0.494806 0.662173 0.476652
0.493187 0.662345 0.475606
0.490590 0.662606 0.473921
0.486003 0.663026 0.471121
0.483950 0.663329 0.469502
0.484509 0.663561 0.468821
0.486264 0.663839 0.468382
0.488694 0.664257 0.467826
0.491953 0.664886 0.467104
0.503465 0.665126 0.467652
0.519499 0.665287 0.468795
0.538851 0.665509 0.470197
0.561894 0.665780 0.471284
0.589742 0.665833 0.469984
0.623528 0.664398 0.464129
0.653885 0.661864 0.478784
0.672872 0.666659 0.512626
0.694358 0.662651 0.531089
0.718060 0.668060 0.540943
0.746697 0.669711 0.550558
0.778297 0.670603 0.565884
0.809916 0.676974 0.590607
0.841802 0.690020 0.616572
0.874034 0.709674 0.641616
0.906125 0.735142 0.668351
0.935756 0.768816 0.704576
0.967102 0.801683 0.738136
0.999327 0.834757 0.771047
0.564572 0.692961 0.530915
0.564363 0.693016 0.530670
0.564215 0.693069 0.530415
0.564035 0.693123 0.530178
0.563797 0.693182 0.529925
0.563613 0.693234 0.529653
0.563378 0.693301 0.529344
0.563009 0.693402 0.528871
0.562419 0.693553 0.528162
0.561554 0.693778 0.527098
0.560173 0.694112 0.525426
0.557739 0.694638 0.522758
0.553198 0.695481 0.518179
0.542018 0.697047 0.508675
0.535657 0.698374 0.501786
0.539999 0.699263 0.500676
0.552755 0.699791 0.501018
0.572433 0.700000 0.502409
0.595797 0.700244 0.503432
0.623885 0.700273 0.501943
0.657894 0.698786 0.495670
0.688284 0.696224 0.510739
0.707139 0.701006 0.546601
0.728487 0.697242 0.565197
0.752190 0.702601 0.574570
0.780994 0.704139 0.583164
0.812803 0.704594 0.597979
0.844406 0.710887 0.622810
0.876167 0.724091 0.648978
0.908254 0.743905 0.674323
0.939450 0.771000 0.703580
0.969436 0.803916 0.738454
1.000880 0.836548 0.771585
0.614395 0.725278 0.574586
0.614359 0.725304 0.574480
0.614276 0.725339 0.574357
0.614213 0.725368 0.574238
0.614202 0.725396 0.574123
0.614092 0.725433 0.573988
0.614033 0.725468 0.573848
0.613955 0.725518 0.573620
0.613786 0.725601 0.573288
0.613587 0.725717 0.572812
0.613208 0.725897 0.572088
0.612632 0.726162 0.570977
0.611686 0.726562 0.569256
0.610016 0.727182 0.566502
0.606714 0.728189 0.561796
0.598909 0.729953 0.552462
0.581287 0.732876 0.534981
0.586883 0.734183 0.533447
0.606140 0.734471 0.534620
0.629807 0.734691 0.535580
0.658157 0.734684 0.533868
0.692310 0.733156 0.527198
0.722690 0.730578 0.542716
0.741418 0.735353 0.580470
0.762620 0.731837 0.599135
0.786308 0.737160 0.608136
0.815228 0.738667 0.615900
0.847182 0.738823 0.630334
0.878781 0.745035 0.655121
0.910419 0.758374 0.681495
0.942339 0.778380 0.707214
0.973124 0.806206 0.737577
1.003217 0.838831 0.771910
0.658720 0.758107 0.614983
0.658707 0.758126 0.614912
0.658714 0.758138 0.614852
0.658679 0.758162 0.614779
0.658684 0.758173 0.614719
0.658649 0.758194 0.614648
0.658615 0.758217 0.614574
0.658583 0.758249 0.614455
0.658540 0.758299 0.614273
0.658502 0.758364 0.614025
0.658393 0.758466 0.613646
0.658208 0.758619 0.613075
0.657966 0.758840 0.612231
0.657538 0.759180 0.610920
0.656744 0.759698 0.608854
0.655242 0.760512 0.605492
0.651922 0.761860 0.599491
0.642002 0.764418 0.586223
0.626757 0.767867 0.567242
0.639888 0.768933 0.566845
0.663881 0.769130 0.567731
0.692393 0.769102 0.565816
0.726718 0.767528 0.558721
0.757108 0.764927 0.574733
0.775685 0.769703 0.614144
0.796782 0.766410 0.632860
0.820428 0.771698 0.641614
0.849396 0.773284 0.648816
0.881347 0.773460 0.663132
0.913013 0.779469 0.687573
0.944523 0.792952 0.714151
0.976225 0.813304 0.740531
1.006906 0.841208 0.771147
0.700122 0.791282 0.653169
0.700086 0.791299 0.653133
0.700090 0.791306 0.653100
0.700097 0.791314 0.653057
0.700084 0.791330 0.653025
0.700088 0.791338 0.652990
0.700073 0.791354 0.652943
0.700082 0.791369 0.652879
0.700059 0.791404 0.652776
0.700035 0.791445 0.652633
0.700028 0.791507 0.652419
0.699989 0.791599 0.652101
0.699912 0.791739 0.651639
0.699798 0.791940 0.650921
0.699599 0.792241 0.649846
0.699220 0.792699 0.648152
0.698433 0.793405 0.645425
0.696676 0.794560 0.640773
0.691850 0.796586 0.631667
0.665354 0.801691 0.601087
0.673803 0.803370 0.599059
0.698031 0.803546 0.599871
0.726729 0.803494 0.597731
0.761175 0.801882 0.590215
0.791515 0.799280 0.606704
0.809978 0.804053 0.647564
0.830969 0.800959 0.666334
0.854570 0.806210 0.674997
0.883480 0.808016 0.681906
0.915318 0.808480 0.696377
0.947075 0.814264 0.720222
0.978466 0.827913 0.747050
1.009984 0.848538 0.774122
0.739578 0.824714 0.689688
0.739586 0.824722 0.689660
0.739588 0.824729 0.689647
0.739591 0.824734 0.689619
0.739575 0.824746 0.689602
0.739581 0.824750 0.689567
0.739606 0.824756 0.689554
0.739573 0.824777 0.689512
0.739584 0.824793 0.689462
0.739559 0.824823 0.689367
0.739583 0.824861 0.689244
0.739575 0.824919 0.689056
0.739544 0.825013 0.688778
0.739512 0.825144 0.688365
0.739518 0.825330 0.687751
0.739423 0.825619 0.686820
0.739267 0.826042 0.685356
0.738832 0.826696 0.683015
0.737846 0.827721 0.679059
0.734957 0.829491 0.671705
0.723134 0.833179 0.653242
0.709465 0.837545 0.631644
0.732185 0.837959 0.632014
0.761076 0.837880 0.629643
0.795594 0.836237 0.621721
0.825906 0.833631 0.638674
0.844287 0.838408 0.680681
0.865182 0.835480 0.699509
0.888715 0.840701 0.708251
