legacy/legacy-OCIOv1/studio/aces_RGC_33.cube
TITLE "Generated by Foundry::LUT"
LUT_3D_SIZE 9
0.000000 0.000000 0.000000
0.125000 0.091332 0.092676
0.250000 0.216027 0.217415
0.375000 0.337256 0.338746
0.500000 0.454328 0.456933
0.625000 0.400539 0.440710
0.750000 0.264417 0.320841
0.875000 0.150559 0.203288
1.000000 0.837438 0.817570
0.090194 0.125000 0.092676
0.125000 0.125000 0.092676
0.250000 0.216077 0.217415
0.375000 0.337259 0.338746
0.500000 0.454329 0.456933
0.625000 0.401135 0.440710
0.750000 0.276420 0.320841
0.875000 0.712405 0.203288
1.000000 0.873851 0.817570
0.214868 0.250000 0.217415
0.214933 0.250000 0.217415
0.250000 0.250000 0.217415
0.375000 0.337323 0.338746
0.500000 0.454367 0.456933
0.625000 0.413924 0.440710
0.750000 0.586890 0.320841
0.875000 0.748828 0.203288
1.000000 0.875872 0.817570
0.336014 0.375000 0.338746
0.336017 0.375000 0.338746
0.336101 0.375000 0.338746
0.375000 0.375000 0.338746
0.500000 0.455070 0.456933
0.625000 0.473293 0.440710
0.750000 0.623467 0.320841
0.875000 0.750848 0.203288
1.000000 0.876002 0.817570
0.452089 0.500000 0.456933
0.452091 0.500000 0.456933
0.452142 0.500000 0.456933
0.453083 0.500000 0.456933
0.500000 0.500000 0.456933
0.625000 0.518228 0.440710
0.750000 0.627181 0.320841
0.875000 0.751089 0.203288
1.000000 0.876018 0.817570
0.374039 0.625000 0.440710
0.374510 0.625000 0.440710
0.385880 0.625000 0.440710
0.459372 0.625000 0.440710
0.514051 0.625000 0.440710
0.625000 0.625000 0.440710
0.750000 0.643289 0.320841
0.875000 0.752185 0.203288
1.000000 0.876089 0.817570
0.242564 0.750000 0.320841
0.252270 0.750000 0.320841
0.527901 0.750000 0.320841
0.612152 0.750000 0.320841
0.617619 0.750000 0.320841
0.639127 0.750000 0.320841
0.750000 0.750000 0.320841
0.875000 0.768289 0.203288
1.000000 0.877185 0.817570
0.126762 0.875000 0.203288
0.655127 0.875000 0.203288
0.737694 0.875000 0.203288
0.740685 0.875000 0.203288
0.741036 0.875000 0.203288
0.742625 0.875000 0.203288
0.764127 0.875000 0.203288
0.875000 0.875000 0.203288
1.000000 0.893289 0.817570
0.780268 1.000000 0.817570
0.862729 1.000000 0.817570
0.865719 1.000000 0.817570
0.865909 1.000000 0.817570
0.865932 1.000000 0.817570
0.866037 1.000000 0.817570
0.867625 1.000000 0.817570
0.889127 1.000000 0.817570
1.000000 1.000000 0.817570
0.090194 0.091332 0.125000
0.125000 0.091332 0.125000
0.250000 0.216027 0.217427
0.375000 0.337256 0.338747
0.500000 0.454328 0.456933
0.625000 0.400539 0.440848
0.750000 0.264417 0.331095
0.875000 0.150559 0.692539
1.000000 0.837438 0.856441
0.090194 0.125000 0.125000
0.125000 0.125000 0.125000
0.250000 0.216077 0.217427
0.375000 0.337259 0.338747
0.500000 0.454329 0.456933
0.625000 0.401135 0.440848
0.750000 0.276420 0.331095
0.875000 0.712405 0.692539
1.000000 0.873851 0.856441
0.214868 0.250000 0.217427
0.214933 0.250000 0.217427
0.250000 0.250000 0.217427
0.375000 0.337323 0.338747
0.500000 0.454367 0.456933
0.625000 0.413924 0.440848
0.750000 0.586890 0.331095
0.875000 0.748828 0.692539
1.000000 0.875872 0.856441
0.336014 0.375000 0.338747
0.336017 0.375000 0.338747
0.336101 0.375000 0.338747
0.375000 0.375000 0.338747
0.500000 0.455070 0.456933
0.625000 0.473293 0.440848
0.750000 0.623467 0.331095
0.875000 0.750848 0.692539
1.000000 0.876002 0.856441
0.452089 0.500000 0.456933
0.452091 0.500000 0.456933
0.452142 0.500000 0.456933
0.453083 0.500000 0.456933
0.500000 0.500000 0.456933
0.625000 0.518228 0.440848
0.750000 0.627181 0.331095
0.875000 0.751089 0.692539
1.000000 0.876018 0.856441
0.374039 0.625000 0.440848
0.374510 0.625000 0.440848
0.385880 0.625000 0.440848
0.459372 0.625000 0.440848
0.514051 0.625000 0.440848
0.625000 0.625000 0.440848
0.750000 0.643289 0.331095
0.875000 0.752185 0.692539
1.000000 0.876089 0.856441
0.242564 0.750000 0.331095
0.252270 0.750000 0.331095
0.527901 0.750000 0.331095
0.612152 0.750000 0.331095
0.617619 0.750000 0.331095
0.639127 0.750000 0.331095
0.750000 0.750000 0.331095
0.875000 0.768289 0.692539
1.000000 0.877185 0.856441
0.126762 0.875000 0.692539
0.655127 0.875000 0.692539
0.737694 0.875000 0.692539
0.740685 0.875000 0.692539
0.741036 0.875000 0.692539
0.742625 0.875000 0.692539
0.764127 0.875000 0.692539
0.875000 0.875000 0.692539
1.000000 0.893289 0.856441
0.780268 1.000000 0.856441
0.862729 1.000000 0.856441
0.865719 1.000000 0.856441
0.865909 1.000000 0.856441
0.865932 1.000000 0.856441
0.866037 1.000000 0.856441
0.867625 1.000000 0.856441
0.889127 1.000000 0.856441
1.000000 1.000000 0.856441
0.214868 0.216027 0.250000
0.214933 0.216027 0.250000
0.250000 0.216027 0.250000
0.375000 0.337256 0.338763
0.500000 0.454328 0.456942
0.625000 0.400539 0.444087
0.750000 0.264417 0.567057
0.875000 0.150559 0.731413
1.000000 0.837438 0.858921
0.214868 0.216077 0.250000
0.214933 0.216077 0.250000
0.250000 0.216077 0.250000
0.375000 0.337259 0.338763
0.500000 0.454329 0.456942
0.625000 0.401135 0.444087
0.750000 0.276420 0.567057
0.875000 0.712405 0.731413
1.000000 0.873851 0.858921
0.214868 0.250000 0.250000
0.214933 0.250000 0.250000
0.250000 0.250000 0.250000
0.375000 0.337323 0.338763
0.500000 0.454367 0.456942
0.625000 0.413924 0.444087
0.750000 0.586890 0.567057
0.875000 0.748828 0.731413
1.000000 0.875872 0.858921
0.336014 0.375000 0.338763
0.336017 0.375000 0.338763
0.336101 0.375000 0.338763
0.375000 0.375000 0.338763
0.500000 0.455070 0.456942
0.625000 0.473293 0.444087
0.750000 0.623467 0.567057
0.875000 0.750848 0.731413
1.000000 0.876002 0.858921
0.452089 0.500000 0.456942
0.452091 0.500000 0.456942
0.452142 0.500000 0.456942
0.453083 0.500000 0.456942
0.500000 0.500000 0.456942
0.625000 0.518228 0.444087
0.750000 0.627181 0.567057
0.875000 0.751089 0.731413
1.000000 0.876018 0.858921
0.374039 0.625000 0.444087
0.374510 0.625000 0.444087
0.385880 0.625000 0.444087
0.459372 0.625000 0.444087
0.514051 0.625000 0.444087
0.625000 0.625000 0.444087
0.750000 0.643289 0.567057
0.875000 0.752185 0.731413
1.000000 0.876089 0.858921
0.242564 0.750000 0.567057
0.252270 0.750000 0.567057
0.527901 0.750000 0.567057
0.612152 0.750000 0.567057
0.617619 0.750000 0.567057
0.639127 0.750000 0.567057
0.750000 0.750000 0.567057
0.875000 0.768289 0.731413
1.000000 0.877185 0.858921
0.126762 0.875000 0.731413
0.655127 0.875000 0.731413
0.737694 0.875000 0.731413
0.740685 0.875000 0.731413
0.741036 0.875000 0.731413
0.742625 0.875000 0.731413
0.764127 0.875000 0.731413
0.875000 0.875000 0.731413
1.000000 0.893289 0.858921
0.780268 1.000000 0.858921
0.862729 1.000000 0.858921
0.865719 1.000000 0.858921
0.865909 1.000000 0.858921
0.865932 1.000000 0.858921
0.866037 1.000000 0.858921
0.867625 1.000000 0.858921
0.889127 1.000000 0.858921
1.000000 1.000000 0.858921
0.336014 0.337256 0.375000
0.336017 0.337256 0.375000
0.336101 0.337256 0.375000
0.375000 0.337256 0.375000
0.500000 0.454328 0.457118
0.625000 0.400539 0.468104
0.750000 0.264417 0.605974
0.875000 0.150559 0.733892
1.000000 0.837438 0.859082
0.336014 0.337259 0.375000
0.336017 0.337259 0.375000
0.336101 0.337259 0.375000
0.375000 0.337259 0.375000
0.500000 0.454329 0.457118
0.625000 0.401135 0.468104
0.750000 0.276420 0.605974
0.875000 0.712405 0.733892
1.000000 0.873851 0.859082
0.336014 0.337323 0.375000
0.336017 0.337323 0.375000
0.336101 0.337323 0.375000
0.375000 0.337323 0.375000
0.500000 0.454367 0.457118
0.625000 0.413924 0.468104
0.750000 0.586890 0.605974
0.875000 0.748828 0.733892
1.000000 0.875872 0.859082
0.336014 0.375000 0.375000
0.336017 0.375000 0.375000
0.336101 0.375000 0.375000
0.375000 0.375000 0.375000
0.500000 0.455070 0.457118
0.625000 0.473293 0.468104
0.750000 0.623467 0.605974
0.875000 0.750848 0.733892
1.000000 0.876002 0.859082
0.452089 0.500000 0.457118
0.452091 0.500000 0.457118
0.452142 0.500000 0.457118
0.453083 0.500000 0.457118
0.500000 0.500000 0.457118
0.625000 0.518228 0.468104
0.750000 0.627181 0.605974
0.875000 0.751089 0.733892
1.000000 0.876018 0.859082
0.374039 0.625000 0.468104
0.374510 0.625000 0.468104
0.385880 0.625000 0.468104
0.459372 0.625000 0.468104
0.514051 0.625000 0.468104
0.625000 0.625000 0.468104
0.750000 0.643289 0.605974
0.875000 0.752185 0.733892
1.000000 0.876089 0.859082
0.242564 0.750000 0.605974
0.252270 0.750000 0.605974
0.527901 0.750000 0.605974
0.612152 0.750000 0.605974
0.617619 0.750000 0.605974
0.639127 0.750000 0.605974
0.750000 0.750000 0.605974
0.875000 0.768289 0.733892
1.000000 0.877185 0.859082
0.126762 0.875000 0.733892
0.655127 0.875000 0.733892
0.737694 0.875000 0.733892
0.740685 0.875000 0.733892
0.741036 0.875000 0.733892
0.742625 0.875000 0.733892
0.764127 0.875000 0.733892
0.875000 0.875000 0.733892
1.000000 0.893289 0.859082
0.780268 1.000000 0.859082
0.862729 1.000000 0.859082
0.865719 1.000000 0.859082
0.865909 1.000000 0.859082
0.865932 1.000000 0.859082
0.866037 1.000000 0.859082
0.867625 1.000000 0.859082
0.889127 1.000000 0.859082
1.000000 1.000000 0.859082
0.452089 0.454328 0.500000
0.452091 0.454328 0.500000
0.452142 0.454328 0.500000
0.453083 0.454328 0.500000
0.500000 0.454328 0.500000
0.625000 0.400539 0.507056
0.750000 0.264417 0.610549
0.875000 0.150559 0.734190
1.000000 0.837438 0.859102
0.452089 0.454329 0.500000
0.452091 0.454329 0.500000
0.452142 0.454329 0.500000
0.453083 0.454329 0.500000
0.500000 0.454329 0.500000
0.625000 0.401135 0.507056
0.750000 0.276420 0.610549
0.875000 0.712405 0.734190
1.000000 0.873851 0.859102
0.452089 0.454367 0.500000
0.452091 0.454367 0.500000
0.452142 0.454367 0.500000
0.453083 0.454367 0.500000
0.500000 0.454367 0.500000
0.625000 0.413924 0.507056
0.750000 0.586890 0.610549
0.875000 0.748828 0.734190
1.000000 0.875872 0.859102
0.452089 0.455070 0.500000
0.452091 0.455070 0.500000
0.452142 0.455070 0.500000
0.453083 0.455070 0.500000
0.500000 0.455070 0.500000
0.625000 0.473293 0.507056
0.750000 0.623467 0.610549
0.875000 0.750848 0.734190
1.000000 0.876002 0.859102
0.452089 0.500000 0.500000
0.452091 0.500000 0.500000
0.452142 0.500000 0.500000
0.453083 0.500000 0.500000
0.500000 0.500000 0.500000
0.625000 0.518228 0.507056
0.750000 0.627181 0.610549
0.875000 0.751089 0.734190
1.000000 0.876018 0.859102
0.374039 0.625000 0.507056
0.374510 0.625000 0.507056
0.385880 0.625000 0.507056
0.459372 0.625000 0.507056
0.514051 0.625000 0.507056
0.625000 0.625000 0.507056
0.750000 0.643289 0.610549
0.875000 0.752185 0.734190
1.000000 0.876089 0.859102
0.242564 0.750000 0.610549
0.252270 0.750000 0.610549
0.527901 0.750000 0.610549
0.612152 0.750000 0.610549
0.617619 0.750000 0.610549
0.639127 0.750000 0.610549
0.750000 0.750000 0.610549
0.875000 0.768289 0.734190
1.000000 0.877185 0.859102
0.126762 0.875000 0.734190
0.655127 0.875000 0.734190
0.737694 0.875000 0.734190
0.740685 0.875000 0.734190
0.741036 0.875000 0.734190
0.742625 0.875000 0.734190
0.764127 0.875000 0.734190
0.875000 0.875000 0.734190
1.000000 0.893289 0.859102
0.780268 1.000000 0.859102
0.862729 1.000000 0.859102
0.865719 1.000000 0.859102
0.865909 1.000000 0.859102
0.865932 1.000000 0.859102
0.866037 1.000000 0.859102
0.867625 1.000000 0.859102
0.889127 1.000000 0.859102
1.000000 1.000000 0.859102
0.374039 0.400539 0.625000
0.374510 0.400539 0.625000
0.385880 0.400539 0.625000
0.459372 0.400539 0.625000
0.514051 0.400539 0.625000
0.625000 0.400539 0.625000
0.750000 0.264417 0.632144
0.875000 0.150559 0.735554
1.000000 0.837438 0.859190
0.374039 0.401135 0.625000
0.374510 0.401135 0.625000
0.385880 0.401135 0.625000
0.459372 0.401135 0.625000
0.514051 0.401135 0.625000
0.625000 0.401135 0.625000
0.750000 0.276420 0.632144
0.875000 0.712405 0.735554
1.000000 0.873851 0.859190
0.374039 0.413924 0.625000
0.374510 0.413924 0.625000
0.385880 0.413924 0.625000
0.459372 0.413924 0.625000
0.514051 0.413924 0.625000
0.625000 0.413924 0.625000
0.750000 0.586890 0.632144
0.875000 0.748828 0.735554
1.000000 0.875872 0.859190
0.374039 0.473293 0.625000
0.374510 0.473293 0.625000
0.385880 0.473293 0.625000
0.459372 0.473293 0.625000
0.514051 0.473293 0.625000
0.625000 0.473293 0.625000
0.750000 0.623467 0.632144
0.875000 0.750848 0.735554
1.000000 0.876002 0.859190
0.374039 0.518228 0.625000
0.374510 0.518228 0.625000
0.385880 0.518228 0.625000
0.459372 0.518228 0.625000
0.514051 0.518228 0.625000
0.625000 0.518228 0.625000
0.750000 0.627181 0.632144
0.875000 0.751089 0.735554
1.000000 0.876018 0.859190
0.374039 0.625000 0.625000
0.374510 0.625000 0.625000
0.385880 0.625000 0.625000
0.459372 0.625000 0.625000
0.514051 0.625000 0.625000
0.625000 0.625000 0.625000
0.750000 0.643289 0.632144
0.875000 0.752185 0.735554
1.000000 0.876089 0.859190
0.242564 0.750000 0.632144
0.252270 0.750000 0.632144
0.527901 0.750000 0.632144
0.612152 0.750000 0.632144
0.617619 0.750000 0.632144
0.639127 0.750000 0.632144
0.750000 0.750000 0.632144
0.875000 0.768289 0.735554
1.000000 0.877185 0.859190
0.126762 0.875000 0.735554
0.655127 0.875000 0.735554
0.737694 0.875000 0.735554
0.740685 0.875000 0.735554
0.741036 0.875000 0.735554
0.742625 0.875000 0.735554
0.764127 0.875000 0.735554
0.875000 0.875000 0.735554
1.000000 0.893289 0.859190
0.780268 1.000000 0.859190
0.862729 1.000000 0.859190
0.865719 1.000000 0.859190
0.865909 1.000000 0.859190
0.865932 1.000000 0.859190
0.866037 1.000000 0.859190
0.867625 1.000000 0.859190
0.889127 1.000000 0.859190
1.000000 1.000000 0.859190
0.242564 0.264417 0.750000
0.252270 0.264417 0.750000
0.527901 0.264417 0.750000
0.612152 0.264417 0.750000
0.617619 0.264417 0.750000
0.639127 0.264417 0.750000
0.750000 0.264417 0.750000
0.875000 0.150559 0.757144
1.000000 0.837438 0.860554
0.242564 0.276420 0.750000
0.252270 0.276420 0.750000
0.527901 0.276420 0.750000
0.612152 0.276420 0.750000
0.617619 0.276420 0.750000
0.639127 0.276420 0.750000
0.750000 0.276420 0.750000
0.875000 0.712405 0.757144
1.000000 0.873851 0.860554
0.242564 0.586890 0.750000
0.252270 0.586890 0.750000
0.527901 0.586890 0.750000
0.612152 0.586890 0.750000
0.617619 0.586890 0.750000
0.639127 0.586890 0.750000
0.750000 0.586890 0.750000
0.875000 0.748828 0.757144
1.000000 0.875872 0.860554
0.242564 0.623467 0.750000
0.252270 0.623467 0.750000
0.527901 0.623467 0.750000
0.612152 0.623467 0.750000
0.617619 0.623467 0.750000
0.639127 0.623467 0.750000
0.750000 0.623467 0.750000
0.875000 0.750848 0.757144
1.000000 0.876002 0.860554
0.242564 0.627181 0.750000
0.252270 0.627181 0.750000
0.527901 0.627181 0.750000
0.612152 0.627181 0.750000
0.617619 0.627181 0.750000
0.639127 0.627181 0.750000
0.750000 0.627181 0.750000
0.875000 0.751089 0.757144
1.000000 0.876018 0.860554
0.242564 0.643289 0.750000
0.252270 0.643289 0.750000
0.527901 0.643289 0.750000
0.612152 0.643289 0.750000
0.617619 0.643289 0.750000
0.639127 0.643289 0.750000
0.750000 0.643289 0.750000
0.875000 0.752185 0.757144
1.000000 0.876089 0.860554
0.242564 0.750000 0.750000
0.252270 0.750000 0.750000
0.527901 0.750000 0.750000
0.612152 0.750000 0.750000
0.617619 0.750000 0.750000
0.639127 0.750000 0.750000
0.750000 0.750000 0.750000
0.875000 0.768289 0.757144
1.000000 0.877185 0.860554
0.126762 0.875000 0.757144
0.655127 0.875000 0.757144
0.737694 0.875000 0.757144
0.740685 0.875000 0.757144
0.741036 0.875000 0.757144
0.742625 0.875000 0.757144
0.764127 0.875000 0.757144
0.875000 0.875000 0.757144
1.000000 0.893289 0.860554
0.780268 1.000000 0.860554
0.862729 1.000000 0.860554
0.865719 1.000000 0.860554
0.865909 1.000000 0.860554
0.865932 1.000000 0.860554
0.866037 1.000000 0.860554
0.867625 1.000000 0.860554
0.889127 1.000000 0.860554
1.000000 1.000000 0.860554
0.126762 0.150559 0.875000
0.655127 0.150559 0.875000
0.737694 0.150559 0.875000
0.740685 0.150559 0.875000
0.741036 0.150559 0.875000
0.742625 0.150559 0.875000
0.764127 0.150559 0.875000
0.875000 0.150559 0.875000
1.000000 0.837438 0.882144
0.126762 0.712405 0.875000
0.655127 0.712405 0.875000
0.737694 0.712405 0.875000
0.740685 0.712405 0.875000
0.741036 0.712405 0.875000
0.742625 0.712405 0.875000
0.764127 0.712405 0.875000
0.875000 0.712405 0.875000
1.000000 0.873851 0.882144
0.126762 0.748828 0.875000
0.655127 0.748828 0.875000
0.737694 0.748828 0.875000
0.740685 0.748828 0.875000
0.741036 0.748828 0.875000
0.742625 0.748828 0.875000
0.764127 0.748828 0.875000
0.875000 0.748828 0.875000
1.000000 0.875872 0.882144
0.126762 0.750848 0.875000
0.655127 0.750848 0.875000
0.737694 0.750848 0.875000
0.740685 0.750848 0.875000
0.741036 0.750848 0.875000
0.742625 0.750848 0.875000
0.764127 0.750848 0.875000
0.875000 0.750848 0.875000
1.000000 0.876002 0.882144
0.126762 0.751089 0.875000
0.655127 0.751089 0.875000
0.737694 0.751089 0.875000
0.740685 0.751089 0.875000
0.741036 0.751089 0.875000
0.742625 0.751089 0.875000
0.764127 0.751089 0.875000
0.875000 0.751089 0.875000
1.000000 0.876018 0.882144
0.126762 0.752185 0.875000
0.655127 0.752185 0.875000
0.737694 0.752185 0.875000
0.740685 0.752185 0.875000
0.741036 0.752185 0.875000
0.742625 0.752185 0.875000
0.764127 0.752185 0.875000
0.875000 0.752185 0.875000
1.000000 0.876089 0.882144
0.126762 0.768289 0.875000
0.655127 0.768289 0.875000
0.737694 0.768289 0.875000
0.740685 0.768289 0.875000
0.741036 0.768289 0.875000
0.742625 0.768289 0.875000
0.764127 0.768289 0.875000
0.875000 0.768289 0.875000
1.000000 0.877185 0.882144
0.126762 0.875000 0.875000
0.655127 0.875000 0.875000
0.737694 0.875000 0.875000
0.740685 0.875000 0.875000
0.741036 0.875000 0.875000
0.742625 0.875000 0.875000
0.764127 0.875000 0.875000
0.875000 0.875000 0.875000
1.000000 0.893289 0.882144
0.780268 1.000000 0.882144
0.862729 1.000000 0.882144
0.865719 1.000000 0.882144
0.865909 1.000000 0.882144
0.865932 1.000000 0.882144
0.866037 1.000000 0.882144
0.867625 1.000000 0.882144
0.889127 1.000000 0.882144
1.000000 1.000000 0.882144
0.780268 0.837438 1.000000
0.862729 0.837438 1.000000
0.865719 0.837438 1.000000
0.865909 0.837438 1.000000
0.865932 0.837438 1.000000
0.866037 0.837438 1.000000
0.867625 0.837438 1.000000
0.889127 0.837438 1.000000
1.000000 0.837438 1.000000
0.780268 0.873851 1.000000
0.862729 0.873851 1.000000
0.865719 0.873851 1.000000
0.865909 0.873851 1.000000
0.865932 0.873851 1.000000
0.866037 0.873851 1.000000
0.867625 0.873851 1.000000
0.889127 0.873851 1.000000
1.000000 0.873851 1.000000
0.780268 0.875872 1.000000
0.862729 0.875872 1.000000
0.865719 0.875872 1.000000
0.865909 0.875872 1.000000
0.865932 0.875872 1.000000
0.866037 0.875872 1.000000
0.867625 0.875872 1.000000
0.889127 0.875872 1.000000
1.000000 0.875872 1.000000
0.780268 0.876002 1.000000
0.862729 0.876002 1.000000
0.865719 0.876002 1.000000
0.865909 0.876002 1.000000
0.865932 0.876002 1.000000
0.866037 0.876002 1.000000
0.867625 0.876002 1.000000
0.889127 0.876002 1.000000
1.000000 0.876002 1.000000
0.780268 0.876018 1.000000
0.862729 0.876018 1.000000
0.865719 0.876018 1.000000
0.865909 0.876018 1.000000
0.865932 0.876018 1.000000
0.866037 0.876018 1.000000
0.867625 0.876018 1.000000
0.889127 0.876018 1.000000
1.000000 0.876018 1.000000
0.780268 0.876089 1.000000
0.862729 0.876089 1.000000
0.865719 0.876089 1.000000
0.865909 0.876089 1.000000
0.865932 0.876089 1.000000
0.866037 0.876089 1.000000
0.867625 0.876089 1.000000
0.889127 0.876089 1.000000
1.000000 0.876089 1.000000
0.780268 0.877185 1.000000
0.862729 0.877185 1.000000
0.865719 0.877185 1.000000
0.865909 0.877185 1.000000
0.865932 0.877185 1.000000
0.866037 0.877185 1.000000
0.867625 0.877185 1.000000
0.889127 0.877185 1.000000
1.000000 0.877185 1.000000
0.780268 0.893289 1.000000
0.862729 0.893289 1.000000
0.865719 0.893289 1.000000
0.865909 0.893289 1.000000
0.865932 0.893289 1.000000
0.866037 0.893289 1.000000
0.867625 0.893289 1.000000
0.889127 0.893289 1.000000
1.000000 0.893289 1.000000
0.780268 1.000000 1.000000
0.862729 1.000000 1.000000
0.865719 1.000000 1.000000
0.865909 1.000000 1.000000
0.865932 1.000000 1.000000
0.866037 1.000000 1.000000
0.867625 1.000000 1.000000
0.889127 1.000000 1.000000
1.000000 1.000000 1.000000
