legacy/legacy-OCIOv1/studio/aces_RGC_33.cube
TITLE "Generated by Foundry::LUT"
LUT_3D_SIZE 33
0.000000 0.000000 0.000000
0.031250 0.001287 0.000779
0.062500 0.029234 0.030290
0.093750 0.060174 0.061455
0.125000 0.091332 0.092676
0.156250 0.122535 0.123901
0.187500 0.153739 0.155115
0.218750 0.184915 0.186297
0.250000 0.216027 0.217415
0.281250 0.247009 0.248405
0.312500 0.277734 0.279145
0.343750 0.307963 0.309402
0.375000 0.337256 0.338746
0.406250 0.365456 0.367039
0.437500 0.415114 0.416391
0.468750 0.457107 0.457771
0.500000 0.454328 0.456933
0.531250 0.450645 0.455822
0.562500 0.443381 0.453632
0.593750 0.429001 0.449295
0.625000 0.400539 0.440710
0.656250 0.362823 0.423722
0.687500 0.328653 0.390849
0.718750 0.296095 0.354353
0.750000 0.264417 0.320841
0.781250 0.233438 0.288874
0.812500 0.203406 0.258123
0.843750 0.175150 0.229051
0.875000 0.150559 0.203288
0.906250 0.133752 0.185275
0.937500 0.136370 0.192213
0.968750 0.723240 0.730100
1.000000 0.837438 0.817570
0.001008 0.031250 0.000779
0.031250 0.031250 0.000779
0.062500 0.032536 0.030290
0.093750 0.060479 0.061455
0.125000 0.091416 0.092676
0.156250 0.122565 0.123901
0.187500 0.153750 0.155115
0.218750 0.184920 0.186297
0.250000 0.216029 0.217415
0.281250 0.247010 0.248405
0.312500 0.277735 0.279145
0.343750 0.307963 0.309402
0.375000 0.337257 0.338746
0.406250 0.365456 0.367039
0.437500 0.415114 0.416391
0.468750 0.457107 0.457771
0.500000 0.454328 0.456933
0.531250 0.450645 0.455822
0.562500 0.443383 0.453632
0.593750 0.429008 0.449295
0.625000 0.400569 0.440710
0.656250 0.362884 0.423722
0.687500 0.328784 0.390849
0.718750 0.296381 0.354353
0.750000 0.265050 0.320841
0.781250 0.234843 0.288874
0.812500 0.206500 0.258123
0.843750 0.181867 0.229051
0.875000 0.165041 0.203288
0.906250 0.167659 0.185275
0.937500 0.691972 0.192213
0.968750 0.806186 0.730100
1.000000 0.858269 0.817570
0.028213 0.062500 0.030290
0.032257 0.062500 0.030290
0.062500 0.062500 0.030290
0.093750 0.063784 0.061455
0.125000 0.091721 0.092676
0.156250 0.122648 0.123901
0.187500 0.153780 0.155115
0.218750 0.184932 0.186297
0.250000 0.216035 0.217415
0.281250 0.247012 0.248405
0.312500 0.277736 0.279145
0.343750 0.307964 0.309402
0.375000 0.337257 0.338746
0.406250 0.365456 0.367039
0.437500 0.415114 0.416391
0.468750 0.457107 0.457771
0.500000 0.454328 0.456933
0.531250 0.450646 0.455822
0.562500 0.443386 0.453632
0.593750 0.429023 0.449295
0.625000 0.400637 0.440710
0.656250 0.363023 0.423722
0.687500 0.329078 0.390849
0.718750 0.297024 0.354353
0.750000 0.266466 0.320841
0.781250 0.237950 0.288874
0.812500 0.213233 0.258123
0.843750 0.196369 0.229051
0.875000 0.198987 0.203288
0.906250 0.660685 0.185275
0.937500 0.774932 0.192213
0.968750 0.827017 0.730100
1.000000 0.867354 0.817570
0.059062 0.093750 0.061455
0.059459 0.093750 0.061455
0.063506 0.093750 0.061455
0.093750 0.093750 0.061455
0.125000 0.095029 0.092676
0.156250 0.122954 0.123901
0.187500 0.153864 0.155115
0.218750 0.184962 0.186297
0.250000 0.216047 0.217415
0.281250 0.247018 0.248405
0.312500 0.277738 0.279145
0.343750 0.307965 0.309402
0.375000 0.337257 0.338746
0.406250 0.365456 0.367039
0.437500 0.415114 0.416391
0.468750 0.457107 0.457771
0.500000 0.454328 0.456933
0.531250 0.450648 0.455822
0.562500 0.443394 0.453632
0.593750 0.429057 0.449295
0.625000 0.400790 0.440710
0.656250 0.363338 0.423722
0.687500 0.329742 0.390849
0.718750 0.298463 0.354353
0.750000 0.269598 0.320841
0.781250 0.244712 0.288874
0.812500 0.227774 0.258123
0.843750 0.230392 0.229051
0.875000 0.629362 0.203288
0.906250 0.743673 0.185275
0.937500 0.795764 0.192213
0.968750 0.836102 0.730100
1.000000 0.871704 0.817570
0.090194 0.125000 0.092676
0.090303 0.125000 0.092676
0.090700 0.125000 0.092676
0.094752 0.125000 0.092676
0.125000 0.125000 0.092676
0.156250 0.126271 0.123901
0.187500 0.154170 0.155115
0.218750 0.185046 0.186297
0.250000 0.216077 0.217415
0.281250 0.247030 0.248405
0.312500 0.277743 0.279145
0.343750 0.307967 0.309402
0.375000 0.337259 0.338746
0.406250 0.365457 0.367039
0.437500 0.415114 0.416391
0.468750 0.457107 0.457771
0.500000 0.454329 0.456933
0.531250 0.450652 0.455822
0.562500 0.443411 0.453632
0.593750 0.429135 0.449295
0.625000 0.401135 0.440710
0.656250 0.364047 0.423722
0.687500 0.331228 0.390849
0.718750 0.301646 0.354353
0.750000 0.276420 0.320841
0.781250 0.259332 0.288874
0.812500 0.261950 0.258123
0.843750 0.597967 0.229051
0.875000 0.712405 0.203288
0.906250 0.764506 0.185275
0.937500 0.804849 0.192213
0.968750 0.840452 0.730100
1.000000 0.873851 0.817570
0.121387 0.156250 0.123901
0.121426 0.156250 0.123901
0.121535 0.156250 0.123901
0.121933 0.156250 0.123901
0.125994 0.156250 0.123901
0.156250 0.156250 0.123901
0.187500 0.157504 0.155115
0.218750 0.185354 0.186297
0.250000 0.216162 0.217415
0.281250 0.247061 0.248405
0.312500 0.277756 0.279145
0.343750 0.307973 0.309402
0.375000 0.337261 0.338746
0.406250 0.365458 0.367039
0.437500 0.415115 0.416391
0.468750 0.457107 0.457771
0.500000 0.454331 0.456933
0.531250 0.450660 0.455822
0.562500 0.443450 0.453632
0.593750 0.429309 0.449295
0.625000 0.401904 0.440710
0.656250 0.365635 0.423722
0.687500 0.334518 0.390849
0.718750 0.308590 0.354353
0.750000 0.291197 0.320841
0.781250 0.293815 0.288874
0.812500 0.566430 0.258123
0.843750 0.681120 0.229051
0.875000 0.733242 0.203288
0.906250 0.773592 0.185275
0.937500 0.809199 0.192213
0.968750 0.842599 0.730100
1.000000 0.874924 0.817570
0.152586 0.187500 0.155115
0.152601 0.187500 0.155115
0.152641 0.187500 0.155115
0.152750 0.187500 0.155115
0.153149 0.187500 0.155115
0.157229 0.187500 0.155115
0.187500 0.187500 0.155115
0.218750 0.188721 0.186297
0.250000 0.216474 0.217415
0.281250 0.247147 0.248405
0.312500 0.277788 0.279145
0.343750 0.307987 0.309402
0.375000 0.337268 0.338746
0.406250 0.365462 0.367039
0.437500 0.415116 0.416391
0.468750 0.457107 0.457771
0.500000 0.454335 0.456933
0.531250 0.450680 0.455822
0.562500 0.443538 0.453632
0.593750 0.429696 0.449295
0.625000 0.403581 0.440710
0.656250 0.369161 0.423722
0.687500 0.341718 0.390849
0.718750 0.323691 0.354353
0.750000 0.326310 0.320841
0.781250 0.534605 0.288874
0.812500 0.649800 0.258123
0.843750 0.701964 0.229051
0.875000 0.742329 0.203288
0.906250 0.777943 0.185275
0.937500 0.811346 0.192213
0.968750 0.843672 0.730100
1.000000 0.875463 0.817570
0.183759 0.218750 0.186297
0.183766 0.218750 0.186297
0.183781 0.218750 0.186297
0.183821 0.218750 0.186297
0.183931 0.218750 0.186297
0.184333 0.218750 0.186297
0.188450 0.218750 0.186297
0.218750 0.218750 0.186297
0.250000 0.219906 0.217415
0.281250 0.247467 0.248405
0.312500 0.277879 0.279145
0.343750 0.308022 0.309402
0.375000 0.337284 0.338746
0.406250 0.365470 0.367039
0.437500 0.415118 0.416391
0.468750 0.457108 0.457771
0.500000 0.454345 0.456933
0.531250 0.450724 0.455822
0.562500 0.443732 0.453632
0.593750 0.430539 0.449295
0.625000 0.407097 0.440710
0.656250 0.376930 0.423722
0.687500 0.357508 0.390849
0.718750 0.360129 0.354353
0.750000 0.502225 0.320841
0.781250 0.618413 0.288874
0.812500 0.670659 0.258123
0.843750 0.711054 0.229051
0.875000 0.746680 0.203288
0.906250 0.780090 0.185275
0.937500 0.812419 0.192213
0.968750 0.844211 0.730100
1.000000 0.875735 0.817570
0.214868 0.250000 0.217415
0.214870 0.250000 0.217415
0.214877 0.250000 0.217415
0.214893 0.250000 0.217415
0.214933 0.250000 0.217415
0.215044 0.250000 0.217415
0.215450 0.250000 0.217415
0.219644 0.250000 0.217415
0.250000 0.250000 0.217415
0.281250 0.251033 0.248405
0.312500 0.278213 0.279145
0.343750 0.308119 0.309402
0.375000 0.337323 0.338746
0.406250 0.365489 0.367039
0.437500 0.415123 0.416391
0.468750 0.457109 0.457771
0.500000 0.454367 0.456933
0.531250 0.450822 0.455822
0.562500 0.444154 0.453632
0.593750 0.432299 0.449295
0.625000 0.413924 0.440710
0.656250 0.394312 0.423722
0.687500 0.396939 0.390849
0.718750 0.479236 0.354353
0.750000 0.586890 0.320841
0.781250 0.639300 0.288874
0.812500 0.679753 0.258123
0.843750 0.715405 0.229051
0.875000 0.748828 0.203288
0.906250 0.781163 0.185275
0.937500 0.812958 0.192213
0.968750 0.844483 0.730100
1.000000 0.875872 0.817570
0.245843 0.281250 0.248405
0.245844 0.281250 0.248405
0.245847 0.281250 0.248405
0.245854 0.281250 0.248405
0.245870 0.281250 0.248405
0.245911 0.281250 0.248405
0.246024 0.281250 0.248405
0.246440 0.281250 0.248405
0.250788 0.281250 0.248405
0.281250 0.281250 0.248405
0.312500 0.282059 0.279145
0.343750 0.308484 0.309402
0.375000 0.337435 0.338746
0.406250 0.365539 0.367039
0.437500 0.415134 0.416391
0.468750 0.457111 0.457771
0.500000 0.454415 0.456933
0.531250 0.451031 0.455822
0.562500 0.445028 0.453632
0.593750 0.435693 0.449295
0.625000 0.425517 0.440710
0.656250 0.426584 0.423722
0.687500 0.467632 0.390849
0.718750 0.555096 0.354353
0.750000 0.607834 0.320841
0.781250 0.648401 0.288874
0.812500 0.684106 0.258123
0.843750 0.717553 0.229051
0.875000 0.749901 0.203288
0.906250 0.781702 0.185275
0.937500 0.813230 0.192213
0.968750 0.844620 0.730100
1.000000 0.875941 0.817570
0.276556 0.312500 0.279145
0.276557 0.312500 0.279145
0.276558 0.312500 0.279145
0.276561 0.312500 0.279145
0.276568 0.312500 0.279145
0.276585 0.312500 0.279145
0.276627 0.312500 0.279145
0.276745 0.312500 0.279145
0.277181 0.312500 0.279145
0.281847 0.312500 0.279145
0.312500 0.312500 0.279145
0.343750 0.312943 0.309402
0.375000 0.337867 0.338746
0.406250 0.365681 0.367039
0.437500 0.415161 0.416391
0.468750 0.457116 0.457771
0.500000 0.454516 0.456933
0.531250 0.451458 0.455822
0.562500 0.446690 0.453632
0.593750 0.441393 0.449295
0.625000 0.441584 0.440710
0.656250 0.461786 0.423722
0.687500 0.522759 0.390849
0.718750 0.576153 0.354353
0.750000 0.616951 0.320841
0.781250 0.652758 0.288874
0.812500 0.686254 0.258123
0.843750 0.718626 0.229051
0.875000 0.750440 0.203288
0.906250 0.781974 0.185275
0.937500 0.813367 0.192213
0.968750 0.844689 0.730100
1.000000 0.875976 0.817570
0.306763 0.343750 0.309402
0.306763 0.343750 0.309402
0.306764 0.343750 0.309402
0.306765 0.343750 0.309402
0.306768 0.343750 0.309402
0.306776 0.343750 0.309402
0.306794 0.343750 0.309402
0.306839 0.343750 0.309402
0.306966 0.343750 0.309402
0.307441 0.343750 0.309402
0.312797 0.343750 0.309402
0.343750 0.343750 0.309402
0.375000 0.343791 0.338746
0.406250 0.366247 0.367039
0.437500 0.415232 0.416391
0.468750 0.457127 0.457771
0.500000 0.454717 0.456933
0.531250 0.452248 0.455822
0.562500 0.449422 0.453632
0.593750 0.449181 0.449295
0.625000 0.458860 0.440710
0.656250 0.491382 0.423722
0.687500 0.544046 0.390849
0.718750 0.585303 0.354353
0.750000 0.621314 0.320841
0.781250 0.654908 0.288874
0.812500 0.687328 0.258123
0.843750 0.719166 0.229051
0.875000 0.750711 0.203288
0.906250 0.782111 0.185275
0.937500 0.813436 0.192213
0.968750 0.844724 0.730100
1.000000 0.875993 0.817570
0.336014 0.375000 0.338746
0.336014 0.375000 0.338746
0.336015 0.375000 0.338746
0.336015 0.375000 0.338746
0.336017 0.375000 0.338746
0.336021 0.375000 0.338746
0.336029 0.375000 0.338746
0.336050 0.375000 0.338746
0.336101 0.375000 0.338746
0.336248 0.375000 0.338746
0.336808 0.375000 0.338746
0.343761 0.375000 0.338746
0.375000 0.375000 0.338746
0.406250 0.375000 0.367039
0.437500 0.415440 0.416391
0.468750 0.457149 0.457771
0.500000 0.455070 0.456933
0.531250 0.453497 0.455822
0.562500 0.453056 0.453632
0.593750 0.457432 0.449295
0.625000 0.473293 0.440710
0.656250 0.511078 0.423722
0.687500 0.553262 0.390849
0.718750 0.589679 0.354353
0.750000 0.623467 0.320841
0.781250 0.655982 0.288874
0.812500 0.687867 0.258123
0.843750 0.719437 0.229051
0.875000 0.750848 0.203288
0.906250 0.782180 0.185275
0.937500 0.813471 0.192213
0.968750 0.844742 0.730100
1.000000 0.876002 0.817570
0.364138 0.406250 0.367039
0.364138 0.406250 0.367039
0.364138 0.406250 0.367039
0.364139 0.406250 0.367039
0.364140 0.406250 0.367039
0.364142 0.406250 0.367039
0.364146 0.406250 0.367039
0.364157 0.406250 0.367039
0.364182 0.406250 0.367039
0.364247 0.406250 0.367039
0.364432 0.406250 0.367039
0.365163 0.406250 0.367039
0.375000 0.406250 0.367039
0.406250 0.406250 0.367039
0.437500 0.416362 0.416391
0.468750 0.457186 0.457771
0.500000 0.455604 0.456933
0.531250 0.455115 0.455822
0.562500 0.456879 0.453632
0.593750 0.464370 0.449295
0.625000 0.483325 0.440710
0.656250 0.520570 0.423722
0.687500 0.557731 0.390849
0.718750 0.591870 0.354353
0.750000 0.624559 0.320841
0.781250 0.656530 0.288874
0.812500 0.688143 0.258123
0.843750 0.719576 0.229051
0.875000 0.750919 0.203288
0.906250 0.782215 0.185275
0.937500 0.813489 0.192213
0.968750 0.844751 0.730100
1.000000 0.876007 0.817570
0.414017 0.437500 0.416391
0.414017 0.437500 0.416391
0.414017 0.437500 0.416391
0.414017 0.437500 0.416391
0.414017 0.437500 0.416391
0.414018 0.437500 0.416391
0.414019 0.437500 0.416391
0.414022 0.437500 0.416391
0.414029 0.437500 0.416391
0.414044 0.437500 0.416391
0.414081 0.437500 0.416391
0.414176 0.437500 0.416391
0.414454 0.437500 0.416391
0.415656 0.437500 0.416391
0.437500 0.437500 0.416391
0.468750 0.457319 0.457771
0.500000 0.456976 0.456933
0.531250 0.458287 0.455822
0.562500 0.462542 0.453632
0.593750 0.472504 0.449295
0.625000 0.493333 0.440710
0.656250 0.527739 0.423722
0.687500 0.561245 0.390849
0.718750 0.593622 0.354353
0.750000 0.625437 0.320841
0.781250 0.656973 0.288874
0.812500 0.688366 0.258123
0.843750 0.719689 0.229051
0.875000 0.750976 0.203288
0.906250 0.782244 0.185275
0.937500 0.813503 0.192213
0.968750 0.844758 0.730100
1.000000 0.876010 0.817570
0.456536 0.468750 0.457771
0.456536 0.468750 0.457771
0.456536 0.468750 0.457771
0.456536 0.468750 0.457771
0.456536 0.468750 0.457771
0.456536 0.468750 0.457771
0.456537 0.468750 0.457771
0.456537 0.468750 0.457771
0.456539 0.468750 0.457771
0.456542 0.468750 0.457771
0.456549 0.468750 0.457771
0.456564 0.468750 0.457771
0.456593 0.468750 0.457771
0.456642 0.468750 0.457771
0.456820 0.468750 0.457771
0.468750 0.468750 0.457771
0.500000 0.468750 0.456933
0.531250 0.469490 0.455822
0.562500 0.474048 0.453632
0.593750 0.484442 0.449295
0.625000 0.505543 0.440710
0.656250 0.534566 0.423722
0.687500 0.564680 0.390849
0.718750 0.595353 0.354353
0.750000 0.626311 0.320841
0.781250 0.657414 0.288874
0.812500 0.688589 0.258123
0.843750 0.719801 0.229051
0.875000 0.751032 0.203288
0.906250 0.782273 0.185275
0.937500 0.813518 0.192213
0.968750 0.844765 0.730100
1.000000 0.876014 0.817570
0.452089 0.500000 0.456933
0.452089 0.500000 0.456933
0.452090 0.500000 0.456933
0.452090 0.500000 0.456933
0.452091 0.500000 0.456933
0.452094 0.500000 0.456933
0.452100 0.500000 0.456933
0.452113 0.500000 0.456933
0.452142 0.500000 0.456933
0.452207 0.500000 0.456933
0.452343 0.500000 0.456933
0.452612 0.500000 0.456933
0.453083 0.500000 0.456933
0.453789 0.500000 0.456933
0.455564 0.500000 0.456933
0.468750 0.500000 0.456933
0.500000 0.500000 0.456933
0.531250 0.500000 0.455822
0.562500 0.500000 0.453632
0.593750 0.502896 0.449295
0.625000 0.518228 0.440710
0.656250 0.541132 0.423722
0.687500 0.568046 0.390849
0.718750 0.597067 0.354353
0.750000 0.627181 0.320841
0.781250 0.657854 0.288874
0.812500 0.688811 0.258123
0.843750 0.719914 0.229051
0.875000 0.751089 0.203288
0.906250 0.782301 0.185275
0.937500 0.813532 0.192213
0.968750 0.844773 0.730100
1.000000 0.876018 0.817570
0.446197 0.531250 0.455822
0.446198 0.531250 0.455822
0.446199 0.531250 0.455822
0.446201 0.531250 0.455822
0.446206 0.531250 0.455822
0.446218 0.531250 0.455822
0.446244 0.531250 0.455822
0.446304 0.531250 0.455822
0.446435 0.531250 0.455822
0.446716 0.531250 0.455822
0.447288 0.531250 0.455822
0.448340 0.531250 0.455822
0.449986 0.531250 0.455822
0.452085 0.531250 0.455822
0.456095 0.531250 0.455822
0.469183 0.531250 0.455822
0.500000 0.531250 0.455822
0.531250 0.531250 0.455822
0.562500 0.531250 0.453632
0.593750 0.531250 0.449295
0.625000 0.534253 0.440710
0.656250 0.549539 0.423722
0.687500 0.572414 0.390849
0.718750 0.599312 0.354353
0.750000 0.628325 0.320841
0.781250 0.658435 0.288874
0.812500 0.689106 0.258123
0.843750 0.720063 0.229051
0.875000 0.751164 0.203288
0.906250 0.782339 0.185275
0.937500 0.813552 0.192213
0.968750 0.844782 0.730100
1.000000 0.876023 0.817570
0.434575 0.562500 0.453632
0.434577 0.562500 0.453632
0.434581 0.562500 0.453632
0.434592 0.562500 0.453632
0.434615 0.562500 0.453632
0.434667 0.562500 0.453632
0.434785 0.562500 0.453632
0.435047 0.562500 0.453632
0.435614 0.562500 0.453632
0.436785 0.562500 0.453632
0.438997 0.562500 0.453632
0.442593 0.562500 0.453632
0.447292 0.562500 0.453632
0.452135 0.562500 0.453632
0.459120 0.562500 0.453632
0.472652 0.562500 0.453632
0.500000 0.562500 0.453632
0.531250 0.562500 0.453632
0.562500 0.562500 0.453632
0.593750 0.562500 0.449295
0.625000 0.562500 0.440710
0.656250 0.565503 0.423722
0.687500 0.580789 0.390849
0.718750 0.603664 0.354353
0.750000 0.630562 0.320841
0.781250 0.659575 0.288874
0.812500 0.689685 0.258123
0.843750 0.720356 0.229051
0.875000 0.751313 0.203288
0.906250 0.782414 0.185275
0.937500 0.813589 0.192213
0.968750 0.844802 0.730100
1.000000 0.876032 0.817570
0.411565 0.593750 0.449295
0.411574 0.593750 0.449295
0.411595 0.593750 0.449295
0.411641 0.593750 0.449295
0.411745 0.593750 0.449295
0.411979 0.593750 0.449295
0.412500 0.593750 0.449295
0.413633 0.593750 0.449295
0.415991 0.593750 0.449295
0.420508 0.593750 0.449295
0.428003 0.593750 0.449295
0.438055 0.593750 0.449295
0.448466 0.593750 0.449295
0.457035 0.593750 0.449295
0.466868 0.593750 0.449295
0.480900 0.593750 0.449295
0.501691 0.593750 0.449295
0.531250 0.593750 0.449295
0.562500 0.593750 0.449295
0.593750 0.593750 0.449295
0.625000 0.593750 0.440710
0.656250 0.593750 0.423722
0.687500 0.596753 0.390849
0.718750 0.612039 0.354353
0.750000 0.634914 0.320841
0.781250 0.661812 0.288874
0.812500 0.690825 0.258123
0.843750 0.720935 0.229051
0.875000 0.751606 0.203288
0.906250 0.782563 0.185275
0.937500 0.813664 0.192213
0.968750 0.844839 0.730100
1.000000 0.876052 0.817570
0.374039 0.625000 0.440710
0.374063 0.625000 0.440710
0.374116 0.625000 0.440710
0.374237 0.625000 0.440710
0.374510 0.625000 0.440710
0.375124 0.625000 0.440710
0.376490 0.625000 0.440710
0.379484 0.625000 0.440710
0.385880 0.625000 0.440710
0.399144 0.625000 0.440710
0.419858 0.625000 0.440710
0.441608 0.625000 0.440710
0.459372 0.625000 0.440710
0.471506 0.625000 0.440710
0.483439 0.625000 0.440710
0.497809 0.625000 0.440710
0.514051 0.625000 0.440710
0.533022 0.625000 0.440710
0.562500 0.625000 0.440710
0.593750 0.625000 0.440710
0.625000 0.625000 0.440710
0.656250 0.625000 0.423722
0.687500 0.625000 0.390849
0.718750 0.628003 0.354353
0.750000 0.643289 0.320841
0.781250 0.666164 0.288874
0.812500 0.693062 0.258123
0.843750 0.722075 0.229051
0.875000 0.752185 0.203288
0.906250 0.782856 0.185275
0.937500 0.813813 0.192213
0.968750 0.844914 0.730100
1.000000 0.876089 0.817570
0.339040 0.656250 0.423722
0.339090 0.656250 0.423722
0.339201 0.656250 0.423722
0.339452 0.656250 0.423722
0.340017 0.656250 0.423722
0.341274 0.656250 0.423722
0.344025 0.656250 0.423722
0.349871 0.656250 0.423722
0.361823 0.656250 0.423722
0.385861 0.656250 0.423722
0.428147 0.656250 0.423722
0.464504 0.656250 0.423722
0.489005 0.656250 0.423722
0.503751 0.656250 0.423722
0.515390 0.656250 0.423722
0.525494 0.656250 0.423722
0.534539 0.656250 0.423722
0.545377 0.656250 0.423722
0.564272 0.656250 0.423722
0.593750 0.656250 0.423722
0.625000 0.656250 0.423722
0.656250 0.656250 0.423722
0.687500 0.656250 0.390849
0.718750 0.656250 0.354353
0.750000 0.659253 0.320841
0.781250 0.674539 0.288874
0.812500 0.697414 0.258123
0.843750 0.724312 0.229051
0.875000 0.753325 0.203288
0.906250 0.783435 0.185275
0.937500 0.814106 0.192213
0.968750 0.845063 0.730100
1.000000 0.876164 0.817570
0.306044 0.687500 0.390849
0.306151 0.687500 0.390849
0.306393 0.687500 0.390849
0.306936 0.687500 0.390849
0.308145 0.687500 0.390849
0.310787 0.687500 0.390849
0.316394 0.687500 0.390849
0.327789 0.687500 0.390849
0.350298 0.687500 0.390849
0.401557 0.687500 0.390849
0.474769 0.687500 0.390849
0.520668 0.687500 0.390849
0.537444 0.687500 0.390849
0.544682 0.687500 0.390849
0.550070 0.687500 0.390849
0.555117 0.687500 0.390849
0.559881 0.687500 0.390849
0.565831 0.687500 0.390849
0.576627 0.687500 0.390849
0.595522 0.687500 0.390849
0.625000 0.687500 0.390849
0.656250 0.687500 0.390849
0.687500 0.687500 0.390849
0.718750 0.687500 0.354353
0.750000 0.687500 0.320841
0.781250 0.690503 0.288874
0.812500 0.705789 0.258123
0.843750 0.728664 0.229051
0.875000 0.755562 0.203288
0.906250 0.784575 0.185275
0.937500 0.814685 0.192213
0.968750 0.845356 0.730100
1.000000 0.876313 0.817570
0.274019 0.718750 0.354353
0.274256 0.718750 0.354353
0.274789 0.718750 0.354353
0.275974 0.718750 0.354353
0.278566 0.718750 0.354353
0.284059 0.718750 0.354353
0.295196 0.718750 0.354353
0.317017 0.718750 0.354353
0.365025 0.718750 0.354353
0.495148 0.718750 0.354353
0.553611 0.718750 0.354353
0.570011 0.718750 0.354353
0.577022 0.718750 0.354353
0.580380 0.718750 0.354353
0.582998 0.718750 0.354353
0.585534 0.718750 0.354353
0.587996 0.718750 0.354353
0.591154 0.718750 0.354353
0.597081 0.718750 0.354353
0.607877 0.718750 0.354353
0.626772 0.718750 0.354353
0.656250 0.718750 0.354353
0.687500 0.718750 0.354353
0.718750 0.718750 0.354353
0.750000 0.718750 0.320841
0.781250 0.718750 0.288874
0.812500 0.721753 0.258123
0.843750 0.737039 0.229051
0.875000 0.759914 0.203288
0.906250 0.786812 0.185275
0.937500 0.815825 0.192213
0.968750 0.845935 0.730100
1.000000 0.876606 0.817570
0.242564 0.750000 0.320841
0.243092 0.750000 0.320841
0.244266 0.750000 0.320841
0.246833 0.750000 0.320841
0.252270 0.750000 0.320841
0.263282 0.750000 0.320841
0.284775 0.750000 0.320841
0.331287 0.750000 0.320841
0.527901 0.750000 0.320841
0.585698 0.750000 0.320841
0.601917 0.750000 0.320841
0.608869 0.750000 0.320841
0.612152 0.750000 0.320841
0.613784 0.750000 0.320841
0.615082 0.750000 0.320841
0.616360 0.750000 0.320841
0.617619 0.750000 0.320841
0.619258 0.750000 0.320841
0.622404 0.750000 0.320841
0.628331 0.750000 0.320841
0.639127 0.750000 0.320841
0.658022 0.750000 0.320841
0.687500 0.750000 0.320841
0.718750 0.750000 0.320841
0.750000 0.750000 0.320841
0.781250 0.750000 0.288874
0.812500 0.750000 0.258123
0.843750 0.753003 0.229051
0.875000 0.768289 0.203288
0.906250 0.791164 0.185275
0.937500 0.818062 0.192213
0.968750 0.847075 0.730100
1.000000 0.877185 0.817570
0.211618 0.781250 0.288874
0.212787 0.781250 0.288874
0.215341 0.781250 0.288874
0.220751 0.781250 0.288874
0.231700 0.781250 0.288874
0.253032 0.781250 0.288874
0.298831 0.781250 0.288874
0.560341 0.781250 0.288874
0.617367 0.781250 0.288874
0.633496 0.781250 0.288874
0.640419 0.781250 0.288874
0.643689 0.781250 0.288874
0.645291 0.781250 0.288874
0.646101 0.781250 0.288874
0.646750 0.781250 0.288874
0.647395 0.781250 0.288874
0.648035 0.781250 0.288874
0.648875 0.781250 0.288874
0.650508 0.781250 0.288874
0.653654 0.781250 0.288874
0.659581 0.781250 0.288874
0.670377 0.781250 0.288874
0.689272 0.781250 0.288874
0.718750 0.781250 0.288874
0.750000 0.781250 0.288874
0.781250 0.781250 0.288874
0.812500 0.781250 0.258123
0.843750 0.781250 0.229051
0.875000 0.784253 0.203288
0.906250 0.799539 0.185275
0.937500 0.822414 0.192213
0.968750 0.849312 0.730100
1.000000 0.878325 0.817570
0.181421 0.812500 0.258123
0.183969 0.812500 0.258123
0.189365 0.812500 0.258123
0.200284 0.812500 0.258123
0.221536 0.812500 0.258123
0.266984 0.812500 0.258123
0.592182 0.812500 0.258123
0.648828 0.812500 0.258123
0.664911 0.812500 0.258123
0.671820 0.812500 0.258123
0.675084 0.812500 0.258123
0.676683 0.812500 0.258123
0.677479 0.812500 0.258123
0.677884 0.812500 0.258123
0.678211 0.812500 0.258123
0.678536 0.812500 0.258123
0.678860 0.812500 0.258123
0.679288 0.812500 0.258123
0.680125 0.812500 0.258123
0.681758 0.812500 0.258123
0.684904 0.812500 0.258123
0.690831 0.812500 0.258123
0.701627 0.812500 0.258123
0.720522 0.812500 0.258123
0.750000 0.812500 0.258123
0.781250 0.812500 0.258123
0.812500 0.812500 0.258123
0.843750 0.812500 0.229051
0.875000 0.812500 0.203288
