legacy/legacy-OCIOv1/studio/aces_RGC_33.cube
TITLE "Generated by Foundry::LUT"
LUT_3D_SIZE 5
0.000000 0.000000 0.000000
0.250000 0.216027 0.217415
0.500000 0.454328 0.456933
0.750000 0.264417 0.320841
1.000000 0.837438 0.817570
0.214868 0.250000 0.217415
0.250000 0.250000 0.217415
0.500000 0.454367 0.456933
0.750000 0.586890 0.320841
1.000000 0.875872 0.817570
0.452089 0.500000 0.456933
0.452142 0.500000 0.456933
0.500000 0.500000 0.456933
0.750000 0.627181 0.320841
1.000000 0.876018 0.817570
0.242564 0.750000 0.320841
0.527901 0.750000 0.320841
0.617619 0.750000 0.320841
0.750000 0.750000 0.320841
1.000000 0.877185 0.817570
0.780268 1.000000 0.817570
0.865719 1.000000 0.817570
0.865932 1.000000 0.817570
0.867625 1.000000 0.817570
1.000000 1.000000 0.817570
0.214868 0.216027 0.250000
0.250000 0.216027 0.250000
0.500000 0.454328 0.456942
0.750000 0.264417 0.567057
1.000000 0.837438 0.858921
0.214868 0.250000 0.250000
0.250000 0.250000 0.250000
0.500000 0.454367 0.456942
0.750000 0.586890 0.567057
1.000000 0.875872 0.858921
0.452089 0.500000 0.456942
0.452142 0.500000 0.456942
0.500000 0.500000 0.456942
0.750000 0.627181 0.567057
1.000000 0.876018 0.858921
0.242564 0.750000 0.567057
0.527901 0.750000 0.567057
0.617619 0.750000 0.567057
0.750000 0.750000 0.567057
1.000000 0.877185 0.858921
0.780268 1.000000 0.858921
0.865719 1.000000 0.858921
0.865932 1.000000 0.858921
0.867625 1.000000 0.858921
1.000000 1.000000 0.858921
0.452089 0.454328 0.500000
0.452142 0.454328 0.500000
0.500000 0.454328 0.500000
0.750000 0.264417 0.610549
1.000000 0.837438 0.859102
0.452089 0.454367 0.500000
0.452142 0.454367 0.500000
0.500000 0.454367 0.500000
0.750000 0.586890 0.610549
1.000000 0.875872 0.859102
0.452089 0.500000 0.500000
0.452142 0.500000 0.500000
0.500000 0.500000 0.500000
0.750000 0.627181 0.610549
1.000000 0.876018 0.859102
0.242564 0.750000 0.610549
0.527901 0.750000 0.610549
0.617619 0.750000 0.610549
0.750000 0.750000 0.610549
1.000000 0.877185 0.859102
0.780268 1.000000 0.859102
0.865719 1.000000 0.859102
0.865932 1.000000 0.859102
0.867625 1.000000 0.859102
1.000000 1.000000 0.859102
0.242564 0.264417 0.750000
0.527901 0.264417 0.750000
0.617619 0.264417 0.750000
0.750000 0.264417 0.750000
1.000000 0.837438 0.860554
0.242564 0.586890 0.750000
0.527901 0.586890 0.750000
0.617619 0.586890 0.750000
0.750000 0.586890 0.750000
1.000000 0.875872 0.860554
0.242564 0.627181 0.750000
0.527901 0.627181 0.750000
0.617619 0.627181 0.750000
0.750000 0.627181 0.750000
1.000000 0.876018 0.860554
0.242564 0.750000 0.750000
0.527901 0.750000 0.750000
0.617619 0.750000 0.750000
0.750000 0.750000 0.750000
1.000000 0.877185 0.860554
0.780268 1.000000 0.860554
0.865719 1.000000 0.860554
0.865932 1.000000 0.860554
0.867625 1.000000 0.860554
1.000000 1.000000 0.860554
0.780268 0.837438 1.000000
0.865719 0.837438 1.000000
0.865932 0.837438 1.000000
0.867625 0.837438 1.000000
1.000000 0.837438 1.000000
0.780268 0.875872 1.000000
0.865719 0.875872 1.000000
0.865932 0.875872 1.000000
0.867625 0.875872 1.000000
1.000000 0.875872 1.000000
0.780268 0.876018 1.000000
0.865719 0.876018 1.000000
0.865932 0.876018 1.000000
0.867625 0.876018 1.000000
1.000000 0.876018 1.000000
0.780268 0.877185 1.000000
0.865719 0.877185 1.000000
0.865932 0.877185 1.000000
0.867625 0.877185 1.000000
1.000000 0.877185 1.000000
0.780268 1.000000 1.000000
0.865719 1.000000 1.000000
0.865932 1.000000 1.000000
0.867625 1.000000 1.000000
1.000000 1.000000 1.000000
