StdX_ACES/shot_luts/Show_shotNum_version_ACEScct.cube
TITLE "Generated by Foundry::LUT"
LUT_3D_SIZE 33
0.000000 0.000000 0.000000
0.006641 0.006641 0.006641
0.013281 0.013281 0.013281
0.019922 0.019922 0.019922
0.026562 0.026562 0.026562
0.033204 0.033204 0.033204
0.041379 0.041379 0.041379
0.053328 0.053328 0.053328
0.070791 0.070791 0.070791
0.096313 0.096313 0.096313
0.133616 0.133616 0.133616
0.182920 0.182920 0.182920
0.226203 0.226203 0.226203
0.264777 0.264777 0.264777
0.300688 0.300688 0.300688
0.334981 0.334981 0.334981
0.368250 0.368250 0.368250
0.400854 0.400854 0.400854
0.433017 0.433017 0.433017
0.464886 0.464886 0.464886
0.496557 0.496557 0.496557
0.528094 0.528094 0.528094
0.559540 0.559540 0.559540
0.590923 0.590923 0.590923
0.622265 0.622265 0.622265
0.653577 0.653577 0.653577
0.684870 0.684870 0.684870
0.716149 0.716149 0.716149
0.747419 0.747419 0.747419
0.778683 0.778683 0.778683
0.809942 0.809942 0.809942
0.841198 0.841198 0.841198
0.872453 0.872453 0.872453
0.022356 0.022356 0.022356
0.028997 0.028997 0.028997
0.035638 0.035638 0.035638
0.042278 0.042278 0.042278
0.048919 0.048919 0.048919
0.055561 0.055561 0.055561
0.063736 0.063736 0.063736
0.075684 0.075684 0.075684
0.093147 0.093147 0.093147
0.118670 0.118670 0.118670
0.155969 0.155969 0.155969
0.197522 0.197522 0.197522
0.235145 0.235145 0.235145
0.270487 0.270487 0.270487
0.304424 0.304424 0.304424
0.337463 0.337463 0.337463
0.369916 0.369916 0.369916
0.401978 0.401978 0.401978
0.433780 0.433780 0.433780
0.465405 0.465405 0.465405
0.496911 0.496911 0.496911
0.528335 0.528335 0.528335
0.559705 0.559705 0.559705
0.591036 0.591036 0.591036
0.622342 0.622342 0.622342
0.653630 0.653630 0.653630
0.684906 0.684906 0.684906
0.716174 0.716174 0.716174
0.747436 0.747436 0.747436
0.778694 0.778694 0.778694
0.809950 0.809950 0.809950
0.841204 0.841204 0.841204
0.872456 0.872456 0.872456
0.044712 0.044712 0.044712
0.051353 0.051353 0.051353
0.057994 0.057994 0.057994
0.064634 0.064634 0.064634
0.071275 0.071275 0.071275
0.077917 0.077917 0.077917
0.086092 0.086092 0.086092
0.098040 0.098040 0.098040
0.115503 0.115503 0.115503
0.141026 0.141026 0.141026
0.175595 0.175595 0.175595
0.209920 0.209920 0.209920
0.243209 0.243209 0.243209
0.275826 0.275826 0.275826
0.307999 0.307999 0.307999
0.339873 0.339873 0.339873
0.371549 0.371549 0.371549
0.403088 0.403088 0.403088
0.434536 0.434536 0.434536
0.465920 0.465920 0.465920
0.497263 0.497263 0.497263
0.528576 0.528576 0.528576
0.559869 0.559869 0.559869
0.591148 0.591148 0.591148
0.622418 0.622418 0.622418
0.653682 0.653682 0.653682
0.684942 0.684942 0.684942
0.716198 0.716198 0.716198
0.747452 0.747452 0.747452
0.778705 0.778705 0.778705
0.809958 0.809958 0.809958
0.841209 0.841209 0.841209
0.872460 0.872460 0.872460
0.067069 0.067069 0.067069
0.073709 0.073709 0.073709
0.080350 0.080350 0.080350
0.086991 0.086991 0.086991
0.093631 0.093631 0.093631
0.100273 0.100273 0.100273
0.108448 0.108448 0.108448
0.120396 0.120396 0.120396
0.137859 0.137859 0.137859
0.163005 0.163005 0.163005
0.191432 0.191432 0.191432
0.220693 0.220693 0.220693
0.250554 0.250554 0.250554
0.280840 0.280840 0.280840
0.311424 0.311424 0.311424
0.342215 0.342215 0.342215
0.373150 0.373150 0.373150
0.404183 0.404183 0.404183
0.435285 0.435285 0.435285
0.466433 0.466433 0.466433
0.497613 0.497613 0.497613
0.528816 0.528816 0.528816
0.560033 0.560033 0.560033
0.591261 0.591261 0.591261
0.622495 0.622495 0.622495
0.653735 0.653735 0.653735
0.684978 0.684978 0.684978
0.716223 0.716223 0.716223
0.747469 0.747469 0.747469
0.778717 0.778717 0.778717
0.809965 0.809965 0.809965
0.841214 0.841214 0.841214
0.872464 0.872464 0.872464
0.089425 0.089425 0.089425
0.096066 0.096066 0.096066
0.102706 0.102706 0.102706
0.109347 0.109347 0.109347
0.115988 0.115988 0.115988
0.122629 0.122629 0.122629
0.130804 0.130804 0.130804
0.142753 0.142753 0.142753
0.160072 0.160072 0.160072
0.181188 0.181188 0.181188
0.204709 0.204709 0.204709
0.230219 0.230219 0.230219
0.257298 0.257298 0.257298
0.285566 0.285566 0.285566
0.314713 0.314713 0.314713
0.344492 0.344492 0.344492
0.374720 0.374720 0.374720
0.405264 0.405264 0.405264
0.436027 0.436027 0.436027
0.466942 0.466942 0.466942
0.497962 0.497962 0.497962
0.529055 0.529055 0.529055
0.560197 0.560197 0.560197
0.591373 0.591373 0.591373
0.622572 0.622572 0.622572
0.653787 0.653787 0.653787
0.685014 0.685014 0.685014
0.716247 0.716247 0.716247
0.747486 0.747486 0.747486
0.778729 0.778729 0.778729
0.809973 0.809973 0.809973
0.841220 0.841220 0.841220
0.872467 0.872467 0.872467
0.111786 0.111786 0.111786
0.118426 0.118426 0.118426
0.125067 0.125067 0.125067
0.131708 0.131708 0.131708
0.138348 0.138348 0.138348
0.144990 0.144990 0.144990
0.153165 0.153165 0.153165
0.164566 0.164566 0.164566
0.178848 0.178848 0.178848
0.196076 0.196076 0.196076
0.216142 0.216142 0.216142
0.238757 0.238757 0.238757
0.263531 0.263531 0.263531
0.290037 0.290037 0.290037
0.317876 0.317876 0.317876
0.346708 0.346708 0.346708
0.376262 0.376262 0.376262
0.406331 0.406331 0.406331
0.436763 0.436763 0.436763
0.467448 0.467448 0.467448
0.498310 0.498310 0.498310
0.529293 0.529293 0.529293
0.560360 0.560360 0.560360
0.591485 0.591485 0.591485
0.622649 0.622649 0.622649
0.653840 0.653840 0.653840
0.685049 0.685049 0.685049
0.716272 0.716272 0.716272
0.747503 0.747503 0.747503
0.778740 0.778740 0.778740
0.809981 0.809981 0.809981
0.841225 0.841225 0.841225
0.872471 0.872471 0.872471
0.139308 0.139308 0.139308
0.145948 0.145948 0.145948
0.152589 0.152589 0.152589
0.159136 0.159136 0.159136
0.165239 0.165239 0.165239
0.170922 0.170922 0.170922
0.177417 0.177417 0.177417
0.186074 0.186074 0.186074
0.197285 0.197285 0.197285
0.211335 0.211335 0.211335
0.228331 0.228331 0.228331
0.248180 0.248180 0.248180
0.270607 0.270607 0.270607
0.295226 0.295226 0.295226
0.321610 0.321610 0.321610
0.349356 0.349356 0.349356
0.378120 0.378120 0.378120
0.407625 0.407625 0.407625
0.437659 0.437659 0.437659
0.468067 0.468067 0.468067
0.498736 0.498736 0.498736
0.529586 0.529586 0.529586
0.560561 0.560561 0.560561
0.591622 0.591622 0.591622
0.622743 0.622743 0.622743
0.653904 0.653904 0.653904
0.685094 0.685094 0.685094
0.716302 0.716302 0.716302
0.747524 0.747524 0.747524
0.778754 0.778754 0.778754
0.809991 0.809991 0.809991
0.841232 0.841232 0.841232
0.872476 0.872476 0.872476
0.176530 0.176530 0.176530
0.181505 0.181505 0.181505
0.186196 0.186196 0.186196
0.190635 0.190635 0.190635
0.194847 0.194847 0.194847
0.198854 0.198854 0.198854
0.203533 0.203533 0.203533
0.209925 0.209925 0.209925
0.218458 0.218458 0.218458
0.229525 0.229525 0.229525
0.243421 0.243421 0.243421
0.260262 0.260262 0.260262
0.279966 0.279966 0.279966
0.302265 0.302265 0.302265
0.326778 0.326778 0.326778
0.353079 0.353079 0.353079
0.380763 0.380763 0.380763
0.409481 0.409481 0.409481
0.438953 0.438953 0.438953
0.468963 0.468963 0.468963
0.499354 0.499354 0.499354
0.530011 0.530011 0.530011
0.560853 0.560853 0.560853
0.591823 0.591823 0.591823
0.622880 0.622880 0.622880
0.653999 0.653999 0.653999
0.685158 0.685158 0.685158
0.716346 0.716346 0.716346
0.747554 0.747554 0.747554
0.778775 0.778775 0.778775
0.810005 0.810005 0.810005
0.841242 0.841242 0.841242
0.872482 0.872482 0.872482
0.212691 0.212691 0.212691
0.215932 0.215932 0.215932
0.219050 0.219050 0.219050
0.222055 0.222055 0.222055
0.224953 0.224953 0.224953
0.227754 0.227754 0.227754
0.231076 0.231076 0.231076
0.235701 0.235701 0.235701
0.242026 0.242026 0.242026
0.250475 0.250475 0.250475
0.261446 0.261446 0.261446
0.275238 0.275238 0.275238
0.291974 0.291974 0.291974
0.311580 0.311580 0.311580
0.333794 0.333794 0.333794
0.358235 0.358235 0.358235
0.384480 0.384480 0.384480
0.412120 0.412120 0.412120
0.440807 0.440807 0.440807
0.470255 0.470255 0.470255
0.500250 0.500250 0.500250
0.530629 0.530629 0.530629
0.561279 0.561279 0.561279
0.592115 0.592115 0.592115
0.623081 0.623081 0.623081
0.654136 0.654136 0.654136
0.685252 0.685252 0.685252
0.716411 0.716411 0.716411
0.747598 0.747598 0.747598
0.778805 0.778805 0.778805
0.810026 0.810026 0.810026
0.841256 0.841256 0.841256
0.872492 0.872492 0.872492
0.247139 0.247139 0.247139
0.249287 0.249287 0.249287
0.251380 0.251380 0.251380
0.253421 0.253421 0.253421
0.255412 0.255412 0.255412
0.257357 0.257357 0.257357
0.259689 0.259689 0.259689
0.262984 0.262984 0.262984
0.267573 0.267573 0.267573
0.273852 0.273852 0.273852
0.282245 0.282245 0.282245
0.293152 0.293152 0.293152
0.306873 0.306873 0.306873
0.323539 0.323539 0.323539
0.343078 0.343078 0.343078
0.365233 0.365233 0.365233
0.389626 0.389626 0.389626
0.415832 0.415832 0.415832
0.443444 0.443444 0.443444
0.472108 0.472108 0.472108
0.501542 0.501542 0.501542
0.531525 0.531525 0.531525
0.561897 0.561897 0.561897
0.592541 0.592541 0.592541
0.623374 0.623374 0.623374
0.654337 0.654337 0.654337
0.685390 0.685390 0.685390
0.716505 0.716505 0.716505
0.747663 0.747663 0.747663
0.778849 0.778849 0.778849
0.810056 0.810056 0.810056
0.841276 0.841276 0.841276
0.872506 0.872506 0.872506
0.280509 0.280509 0.280509
0.281947 0.281947 0.281947
0.283360 0.283360 0.283360
0.284750 0.284750 0.284750
0.286116 0.286116 0.286116
0.287461 0.287461 0.287461
0.289086 0.289086 0.289086
0.291405 0.291405 0.291405
0.294682 0.294682 0.294682
0.299247 0.299247 0.299247
0.305495 0.305495 0.305495
0.313850 0.313850 0.313850
0.324713 0.324713 0.324713
0.338386 0.338386 0.338386
0.355004 0.355004 0.355004
0.374497 0.374497 0.374497
0.396613 0.396613 0.396613
0.420972 0.420972 0.420972
0.447152 0.447152 0.447152
0.474744 0.474744 0.474744
0.503394 0.503394 0.503394
0.532816 0.532816 0.532816
0.562792 0.562792 0.562792
0.593159 0.593159 0.593159
0.623799 0.623799 0.623799
0.654629 0.654629 0.654629
0.685591 0.685591 0.685591
0.716643 0.716643 0.716643
0.747757 0.747757 0.747757
0.778914 0.778914 0.778914
0.810100 0.810100 0.810100
0.841307 0.841307 0.841307
0.872527 0.872527 0.872527
0.313178 0.313178 0.313178
0.314148 0.314148 0.314148
0.315106 0.315106 0.315106
0.316054 0.316054 0.316054
0.316991 0.316991 0.316991
0.317917 0.317917 0.317917
0.319044 0.319044 0.319044
0.320662 0.320662 0.320662
0.322972 0.322972 0.322972
0.326236 0.326236 0.326236
0.330785 0.330785 0.330785
0.337012 0.337012 0.337012
0.345341 0.345341 0.345341
0.356174 0.356174 0.356174
0.369816 0.369816 0.369816
0.386401 0.386401 0.386401
0.405863 0.405863 0.405863
0.427951 0.427951 0.427951
0.452288 0.452288 0.452288
0.478450 0.478450 0.478450
0.506028 0.506028 0.506028
0.534668 0.534668 0.534668
0.564083 0.564083 0.564083
0.594054 0.594054 0.594054
0.624417 0.624417 0.624417
0.655055 0.655055 0.655055
0.685883 0.685883 0.685883
0.716843 0.716843 0.716843
0.747895 0.747895 0.747895
0.779008 0.779008 0.779008
0.810165 0.810165 0.810165
0.841351 0.841351 0.841351
0.872557 0.872557 0.872557
0.345385 0.345385 0.345385
0.346042 0.346042 0.346042
0.346694 0.346694 0.346694
0.347341 0.347341 0.347341
0.347983 0.347983 0.347983
0.348620 0.348620 0.348620
0.349397 0.349397 0.349397
0.350521 0.350521 0.350521
0.352135 0.352135 0.352135
0.354439 0.354439 0.354439
0.357694 0.357694 0.357694
0.362232 0.362232 0.362232
0.368444 0.368444 0.368444
0.376756 0.376756 0.376756
0.387569 0.387569 0.387569
0.401188 0.401188 0.401188
0.417751 0.417751 0.417751
0.437192 0.437192 0.437192
0.459262 0.459262 0.459262
0.483583 0.483583 0.483583
0.509733 0.509733 0.509733
0.537301 0.537301 0.537301
0.565934 0.565934 0.565934
0.595345 0.595345 0.595345
0.625312 0.625312 0.625312
0.655673 0.655673 0.655673
0.686309 0.686309 0.686309
0.717136 0.717136 0.717136
0.748095 0.748095 0.748095
0.779146 0.779146 0.779146
0.810259 0.810259 0.810259
0.841415 0.841415 0.841415
0.872601 0.872601 0.872601
0.377284 0.377284 0.377284
0.377730 0.377730 0.377730
0.378175 0.378175 0.378175
0.378617 0.378617 0.378617
0.379056 0.379056 0.379056
0.379493 0.379493 0.379493
0.380028 0.380028 0.380028
0.380804 0.380804 0.380804
0.381925 0.381925 0.381925
0.383536 0.383536 0.383536
0.385836 0.385836 0.385836
0.389086 0.389086 0.389086
0.393616 0.393616 0.393616
0.399819 0.399819 0.399819
0.408118 0.408118 0.408118
0.418918 0.418918 0.418918
0.432522 0.432522 0.432522
0.449069 0.449069 0.449069
0.468496 0.468496 0.468496
0.490553 0.490553 0.490553
0.514864 0.514864 0.514864
0.541005 0.541005 0.541005
0.568568 0.568568 0.568568
0.597196 0.597196 0.597196
0.626603 0.626603 0.626603
0.656568 0.656568 0.656568
0.686926 0.686926 0.686926
0.717561 0.717561 0.717561
0.748388 0.748388 0.748388
0.779346 0.779346 0.779346
0.810397 0.810397 0.810397
0.841510 0.841510 0.841510
0.872666 0.872666 0.872666
0.408974 0.408974 0.408974
0.409279 0.409279 0.409279
0.409582 0.409582 0.409582
0.409884 0.409884 0.409884
0.410185 0.410185 0.410185
0.410485 0.410485 0.410485
0.410852 0.410852 0.410852
0.411387 0.411387 0.411387
0.412162 0.412162 0.412162
0.413281 0.413281 0.413281
0.414890 0.414890 0.414890
0.417187 0.417187 0.417187
0.420433 0.420433 0.420433
0.424958 0.424958 0.424958
0.431154 0.431154 0.431154
0.439446 0.439446 0.439446
0.450235 0.450235 0.450235
0.463829 0.463829 0.463829
0.480366 0.480366 0.480366
0.499784 0.499784 0.499784
0.521831 0.521831 0.521831
0.546135 0.546135 0.546135
0.572271 0.572271 0.572271
0.599828 0.599828 0.599828
0.628454 0.628454 0.628454
0.657858 0.657858 0.657858
0.687821 0.687821 0.687821
0.718179 0.718179 0.718179
0.748813 0.748813 0.748813
0.779639 0.779639 0.779639
0.810597 0.810597 0.810597
0.841647 0.841647 0.841647
0.872760 0.872760 0.872760
0.440524 0.440524 0.440524
0.440732 0.440732 0.440732
0.440939 0.440939 0.440939
0.441146 0.441146 0.441146
0.441351 0.441351 0.441351
0.441557 0.441557 0.441557
0.441809 0.441809 0.441809
0.442177 0.442177 0.442177
0.442711 0.442711 0.442711
0.443485 0.443485 0.443485
0.444603 0.444603 0.444603
0.446211 0.446211 0.446211
0.448506 0.448506 0.448506
0.451749 0.451749 0.451749
0.456270 0.456270 0.456270
0.462462 0.462462 0.462462
0.470748 0.470748 0.470748
0.481531 0.481531 0.481531
0.495118 0.495118 0.495118
0.511648 0.511648 0.511648
0.531059 0.531059 0.531059
0.553101 0.553101 0.553101
0.577399 0.577399 0.577399
0.603531 0.603531 0.603531
0.631086 0.631086 0.631086
0.659709 0.659709 0.659709
0.689112 0.689112 0.689112
0.719074 0.719074 0.719074
0.749431 0.749431 0.749431
0.780064 0.780064 0.780064
0.810890 0.810890 0.810890
0.841848 0.841848 0.841848
0.872898 0.872898 0.872898
0.471979 0.471979 0.471979
0.472121 0.472121 0.472121
0.472263 0.472263 0.472263
0.472404 0.472404 0.472404
0.472545 0.472545 0.472545
0.472686 0.472686 0.472686
0.472859 0.472859 0.472859
0.473111 0.473111 0.473111
0.473478 0.473478 0.473478
0.474011 0.474011 0.474011
0.474785 0.474785 0.474785
0.475903 0.475903 0.475903
0.477510 0.477510 0.477510
0.479803 0.479803 0.479803
0.483045 0.483045 0.483045
0.487564 0.487564 0.487564
0.493752 0.493752 0.493752
0.502034 0.502034 0.502034
0.512813 0.512813 0.512813
0.526395 0.526395 0.526395
0.542920 0.542920 0.542920
0.562326 0.562326 0.562326
0.584364 0.584364 0.584364
0.608659 0.608659 0.608659
0.634788 0.634788 0.634788
0.662341 0.662341 0.662341
0.690963 0.690963 0.690963
0.720365 0.720365 0.720365
0.750326 0.750326 0.750326
0.780682 0.780682 0.780682
0.811315 0.811315 0.811315
0.842140 0.842140 0.842140
0.873098 0.873098 0.873098
0.503369 0.503369 0.503369
0.503466 0.503466 0.503466
0.503563 0.503563 0.503563
0.503659 0.503659 0.503659
0.503756 0.503756 0.503756
0.503852 0.503852 0.503852
0.503971 0.503971 0.503971
0.504143 0.504143 0.504143
0.504396 0.504396 0.504396
0.504762 0.504762 0.504762
0.505296 0.505296 0.505296
0.506069 0.506069 0.506069
0.507186 0.507186 0.507186
0.508793 0.508793 0.508793
0.511085 0.511085 0.511085
0.514325 0.514325 0.514325
0.518843 0.518843 0.518843
0.525029 0.525029 0.525029
0.533309 0.533309 0.533309
0.544084 0.544084 0.544084
0.557663 0.557663 0.557663
0.574185 0.574185 0.574185
0.593588 0.593588 0.593588
0.615623 0.615623 0.615623
0.639916 0.639916 0.639916
0.666043 0.666043 0.666043
0.693595 0.693595 0.693595
0.722215 0.722215 0.722215
0.751616 0.751616 0.751616
0.781577 0.781577 0.781577
0.811933 0.811933 0.811933
0.842566 0.842566 0.842566
0.873391 0.873391 0.873391
0.534715 0.534715 0.534715
0.534781 0.534781 0.534781
0.534847 0.534847 0.534847
0.534913 0.534913 0.534913
0.534979 0.534979 0.534979
0.535045 0.535045 0.535045
0.535126 0.535126 0.535126
0.535245 0.535245 0.535245
0.535418 0.535418 0.535418
0.535669 0.535669 0.535669
0.536036 0.536036 0.536036
0.536569 0.536569 0.536569
0.537342 0.537342 0.537342
0.538460 0.538460 0.538460
0.540066 0.540066 0.540066
0.542357 0.542357 0.542357
0.545597 0.545597 0.545597
0.550113 0.550113 0.550113
0.556298 0.556298 0.556298
0.564575 0.564575 0.564575
0.575349 0.575349 0.575349
0.588926 0.588926 0.588926
0.605446 0.605446 0.605446
0.624846 0.624846 0.624846
0.646879 0.646879 0.646879
0.671171 0.671171 0.671171
0.697296 0.697296 0.697296
0.724847 0.724847 0.724847
0.753467 0.753467 0.753467
0.782867 0.782867 0.782867
0.812828 0.812828 0.812828
0.843184 0.843184 0.843184
0.873816 0.873816 0.873816
0.566030 0.566030 0.566030
0.566075 0.566075 0.566075
0.566120 0.566120 0.566120
0.566166 0.566166 0.566166
0.566211 0.566211 0.566211
0.566256 0.566256 0.566256
0.566312 0.566312 0.566312
0.566393 0.566393 0.566393
0.566511 0.566511 0.566511
0.566684 0.566684 0.566684
0.566936 0.566936 0.566936
0.567303 0.567303 0.567303
0.567836 0.567836 0.567836
0.568609 0.568609 0.568609
0.569725 0.569725 0.569725
0.571331 0.571331 0.571331
0.573623 0.573623 0.573623
0.576861 0.576861 0.576861
0.581376 0.581376 0.581376
0.587560 0.587560 0.587560
0.595837 0.595837 0.595837
0.606609 0.606609 0.606609
0.620184 0.620184 0.620184
0.636702 0.636702 0.636702
0.656102 0.656102 0.656102
0.678133 0.678133 0.678133
0.702424 0.702424 0.702424
0.728549 0.728549 0.728549
0.756099 0.756099 0.756099
0.784718 0.784718 0.784718
0.814118 0.814118 0.814118
0.844078 0.844078 0.844078
0.874434 0.874434 0.874434
0.597325 0.597325 0.597325
0.597356 0.597356 0.597356
0.597387 0.597387 0.597387
0.597418 0.597418 0.597418
0.597449 0.597449 0.597449
0.597480 0.597480 0.597480
0.597518 0.597518 0.597518
0.597573 0.597573 0.597573
0.597654 0.597654 0.597654
0.597772 0.597772 0.597772
0.597945 0.597945 0.597945
0.598197 0.598197 0.598197
0.598564 0.598564 0.598564
0.599097 0.599097 0.599097
0.599870 0.599870 0.599870
0.600986 0.600986 0.600986
0.602592 0.602592 0.602592
0.604883 0.604883 0.604883
0.608121 0.608121 0.608121
0.612636 0.612636 0.612636
0.618819 0.618819 0.618819
0.627095 0.627095 0.627095
0.637866 0.637866 0.637866
0.651440 0.651440 0.651440
0.667957 0.667957 0.667957
0.687355 0.687355 0.687355
0.709386 0.709386 0.709386
0.733676 0.733676 0.733676
0.759800 0.759800 0.759800
0.787350 0.787350 0.787350
0.815969 0.815969 0.815969
0.845369 0.845369 0.845369
0.875328 0.875328 0.875328
0.628605 0.628605 0.628605
0.628626 0.628626 0.628626
0.628647 0.628647 0.628647
0.628669 0.628669 0.628669
0.628690 0.628690 0.628690
0.628711 0.628711 0.628711
0.628737 0.628737 0.628737
0.628775 0.628775 0.628775
0.628831 0.628831 0.628831
0.628912 0.628912 0.628912
0.629030 0.629030 0.629030
0.629203 0.629203 0.629203
0.629455 0.629455 0.629455
0.629821 0.629821 0.629821
0.630354 0.630354 0.630354
0.631127 0.631127 0.631127
0.632244 0.632244 0.632244
0.633849 0.633849 0.633849
0.636140 0.636140 0.636140
0.639378 0.639378 0.639378
0.643892 0.643892 0.643892
0.650075 0.650075 0.650075
0.658350 0.658350 0.658350
0.669121 0.669121 0.669121
0.682694 0.682694 0.682694
0.699210 0.699210 0.699210
0.718608 0.718608 0.718608
0.740638 0.740638 0.740638
0.764927 0.764927 0.764927
0.791051 0.791051 0.791051
0.818601 0.818601 0.818601
0.847219 0.847219 0.847219
0.876619 0.876619 0.876619
0.659876 0.659876 0.659876
0.659891 0.659891 0.659891
0.659905 0.659905 0.659905
0.659920 0.659920 0.659920
0.659934 0.659934 0.659934
0.659949 0.659949 0.659949
0.659967 0.659967 0.659967
0.659992 0.659992 0.659992
0.660030 0.660030 0.660030
0.660086 0.660086 0.660086
0.660167 0.660167 0.660167
0.660285 0.660285 0.660285
0.660458 0.660458 0.660458
0.660710 0.660710 0.660710
0.661076 0.661076 0.661076
0.661610 0.661610 0.661610
0.662382 0.662382 0.662382
0.663499 0.663499 0.663499
0.665104 0.665104 0.665104
0.667395 0.667395 0.667395
0.670633 0.670633 0.670633
0.675147 0.675147 0.675147
0.681329 0.681329 0.681329
0.689604 0.689604 0.689604
0.700374 0.700374 0.700374
0.713947 0.713947 0.713947
0.730463 0.730463 0.730463
0.749860 0.749860 0.749860
0.771890 0.771890 0.771890
0.796178 0.796178 0.796178
0.822302 0.822302 0.822302
0.849851 0.849851 0.849851
0.878470 0.878470 0.878470
0.691140 0.691140 0.691140
0.691150 0.691150 0.691150
0.691160 0.691160 0.691160
0.691170 0.691170 0.691170
0.691180 0.691180 0.691180
0.691190 0.691190 0.691190
0.691202 0.691202 0.691202
0.691220 0.691220 0.691220
0.691246 0.691246 0.691246
0.691284 0.691284 0.691284
0.691340 0.691340 0.691340
0.691421 0.691421 0.691421
0.691539 0.691539 0.691539
0.691712 0.691712 0.691712
0.691963 0.691963 0.691963
0.692330 0.692330 0.692330
0.692863 0.692863 0.692863
0.693636 0.693636 0.693636
0.694752 0.694752 0.694752
0.696357 0.696357 0.696357
0.698648 0.698648 0.698648
0.701886 0.701886 0.701886
0.706400 0.706400 0.706400
0.712582 0.712582 0.712582
0.720857 0.720857 0.720857
0.731627 0.731627 0.731627
0.745199 0.745199 0.745199
0.761714 0.761714 0.761714
0.781111 0.781111 0.781111
0.803141 0.803141 0.803141
0.827429 0.827429 0.827429
0.853552 0.853552 0.853552
0.881101 0.881101 0.881101
0.722400 0.722400 0.722400
0.722407 0.722407 0.722407
0.722414 0.722414 0.722414
0.722421 0.722421 0.722421
0.722427 0.722427 0.722427
0.722434 0.722434 0.722434
0.722443 0.722443 0.722443
0.722455 0.722455 0.722455
0.722472 0.722472 0.722472
0.722498 0.722498 0.722498
0.722536 0.722536 0.722536
0.722592 0.722592 0.722592
0.722673 0.722673 0.722673
0.722791 0.722791 0.722791
0.722964 0.722964 0.722964
0.723216 0.723216 0.723216
0.723583 0.723583 0.723583
0.724116 0.724116 0.724116
0.724888 0.724888 0.724888
0.726004 0.726004 0.726004
0.727609 0.727609 0.727609
0.729900 0.729900 0.729900
0.733138 0.733138 0.733138
0.737652 0.737652 0.737652
0.743834 0.743834 0.743834
0.752108 0.752108 0.752108
0.762878 0.762878 0.762878
0.776450 0.776450 0.776450
0.792965 0.792965 0.792965
0.812362 0.812362 0.812362
0.834391 0.834391 0.834391
0.858680 0.858680 0.858680
0.884803 0.884803 0.884803
0.753657 0.753657 0.753657
0.753662 0.753662 0.753662
0.753666 0.753666 0.753666
0.753671 0.753671 0.753671
0.753675 0.753675 0.753675
0.753680 0.753680 0.753680
0.753686 0.753686 0.753686
0.753694 0.753694 0.753694
0.753706 0.753706 0.753706
0.753724 0.753724 0.753724
0.753750 0.753750 0.753750
0.753788 0.753788 0.753788
0.753844 0.753844 0.753844
0.753925 0.753925 0.753925
0.754043 0.754043 0.754043
0.754216 0.754216 0.754216
0.754468 0.754468 0.754468
0.754834 0.754834 0.754834
0.755367 0.755367 0.755367
0.756140 0.756140 0.756140
0.757256 0.757256 0.757256
0.758861 0.758861 0.758861
0.761152 0.761152 0.761152
0.764390 0.764390 0.764390
0.768903 0.768903 0.768903
0.775085 0.775085 0.775085
0.783359 0.783359 0.783359
0.794129 0.794129 0.794129
0.807701 0.807701 0.807701
0.824216 0.824216 0.824216
0.843612 0.843612 0.843612
0.865642 0.865642 0.865642
0.889930 0.889930 0.889930
0.784912 0.784912 0.784912
0.784915 0.784915 0.784915
0.784918 0.784918 0.784918
0.784921 0.784921 0.784921
0.784924 0.784924 0.784924
0.784927 0.784927 0.784927
0.784931 0.784931 0.784931
0.784937 0.784937 0.784937
0.784945 0.784945 0.784945
0.784958 0.784958 0.784958
0.784975 0.784975 0.784975
0.785001 0.785001 0.785001
0.785039 0.785039 0.785039
0.785095 0.785095 0.785095
0.785176 0.785176 0.785176
0.785294 0.785294 0.785294
0.785467 0.785467 0.785467
0.785719 0.785719 0.785719
0.786085 0.786085 0.786085
0.786618 0.786618 0.786618
0.787391 0.787391 0.787391
0.788507 0.788507 0.788507
0.790112 0.790112 0.790112
0.792403 0.792403 0.792403
0.795640 0.795640 0.795640
0.800154 0.800154 0.800154
0.806336 0.806336 0.806336
0.814610 0.814610 0.814610
0.825380 0.825380 0.825380
