StdX_ACES/shot_luts/Show_shotNum_version_ACEScct.cube
TITLE "Generated by Foundry::LUT"
LUT_3D_SIZE 5
0.000000 0.000000 0.000000
0.070791 0.070791 0.070791
0.368250 0.368250 0.368250
0.622265 0.622265 0.622265
0.872453 0.872453 0.872453
0.212691 0.212691 0.212691
0.242026 0.242026 0.242026
0.384480 0.384480 0.384480
0.623081 0.623081 0.623081
0.872492 0.872492 0.872492
0.471979 0.471979 0.471979
0.473478 0.473478 0.473478
0.493752 0.493752 0.493752
0.634788 0.634788 0.634788
0.873098 0.873098 0.873098
0.722400 0.722400 0.722400
0.722472 0.722472 0.722472
0.723583 0.723583 0.723583
0.743834 0.743834 0.743834
0.884803 0.884803 0.884803
0.972420 0.972420 0.972420
0.972424 0.972424 0.972424
0.972478 0.972478 0.972478
0.973588 0.973588 0.973588
0.993838 0.993838 0.993838
0.024019 0.024019 0.024019
0.094809 0.094809 0.094809
0.370038 0.370038 0.370038
0.622347 0.622347 0.622347
0.872457 0.872457 0.872457
0.223855 0.223855 0.223855
0.250000 0.250000 0.250000
0.385951 0.385951 0.385951
0.623163 0.623163 0.623163
0.872496 0.872496 0.872496
0.472491 0.472491 0.472491
0.473980 0.473980 0.473980
0.494145 0.494145 0.494145
0.634859 0.634859 0.634859
0.873102 0.873102 0.873102
0.722425 0.722425 0.722425
0.722497 0.722497 0.722497
0.723607 0.723607 0.723607
0.743853 0.743853 0.743853
0.884806 0.884806 0.884806
0.972422 0.972422 0.972422
0.972425 0.972425 0.972425
0.972479 0.972479 0.972479
0.973589 0.973589 0.973589
0.993839 0.993839 0.993839
0.267798 0.267798 0.267798
0.284115 0.284115 0.284115
0.393686 0.393686 0.393686
0.623617 0.623617 0.623617
0.872518 0.872518 0.872518
0.313304 0.313304 0.313304
0.323084 0.323084 0.323084
0.405904 0.405904 0.405904
0.624420 0.624420 0.624420
0.872557 0.872557 0.872557
0.480029 0.480029 0.480029
0.481389 0.481389 0.481389
0.500000 0.500000 0.500000
0.635951 0.635951 0.635951
0.873163 0.873163 0.873163
0.722803 0.722803 0.722803
0.722875 0.722875 0.722875
0.723980 0.723980 0.723980
0.744145 0.744145 0.744145
0.884859 0.884859 0.884859
0.972440 0.972440 0.972440
0.972443 0.972443 0.972443
0.972497 0.972497 0.972497
0.973607 0.973607 0.973607
0.993853 0.993853 0.993853
0.532768 0.532768 0.532768
0.533487 0.533487 0.533487
0.543893 0.543893 0.543893
0.646385 0.646385 0.646385
0.873785 0.873785 0.873785
0.535166 0.535166 0.535166
0.535865 0.535865 0.535865
0.545992 0.545992 0.545992
0.646995 0.646995 0.646995
0.873823 0.873823 0.873823
0.565440 0.565440 0.565440
0.565924 0.565924 0.565924
0.573084 0.573084 0.573084
0.655904 0.655904 0.655904
0.874420 0.874420 0.874420
0.730314 0.730314 0.730314
0.730380 0.730380 0.730380
0.731389 0.731389 0.731389
0.750000 0.750000 0.750000
0.885951 0.885951 0.885951
0.972818 0.972818 0.972818
0.972822 0.972822 0.972822
0.972875 0.972875 0.972875
0.973980 0.973980 0.973980
0.994145 0.994145 0.994145
0.783423 0.783423 0.783423
0.783457 0.783457 0.783457
0.783988 0.783988 0.783988
0.794335 0.794335 0.794335
0.896512 0.896512 0.896512
0.783539 0.783539 0.783539
0.783573 0.783573 0.783573
0.784104 0.784104 0.784104
0.794436 0.794436 0.794436
0.896542 0.896542 0.896542
0.785312 0.785312 0.785312
0.785346 0.785346 0.785346
0.785864 0.785864 0.785864
0.795992 0.795992 0.795992
0.896995 0.896995 0.896995
0.815541 0.815541 0.815541
0.815564 0.815564 0.815564
0.815924 0.815924 0.815924
0.823085 0.823085 0.823085
0.905904 0.905904 0.905904
0.980328 0.980328 0.980328
0.980331 0.980331 0.980331
0.980380 0.980380 0.980380
0.981389 0.981389 0.981389
1.000000 1.000000 1.000000
