StdX_ACES/shot_luts/Show_shotNum_version_ACEScct.cube
TITLE "Generated by Foundry::LUT"
LUT_3D_SIZE 9
0.000000 0.000000 0.000000
0.026562 0.026562 0.026562
0.070791 0.070791 0.070791
0.226203 0.226203 0.226203
0.368250 0.368250 0.368250
0.496557 0.496557 0.496557
0.622265 0.622265 0.622265
0.747419 0.747419 0.747419
0.872453 0.872453 0.872453
0.089425 0.089425 0.089425
0.115988 0.115988 0.115988
0.160072 0.160072 0.160072
0.257298 0.257298 0.257298
0.374720 0.374720 0.374720
0.497962 0.497962 0.497962
0.622572 0.622572 0.622572
0.747486 0.747486 0.747486
0.872467 0.872467 0.872467
0.212691 0.212691 0.212691
0.224953 0.224953 0.224953
0.242026 0.242026 0.242026
0.291974 0.291974 0.291974
0.384480 0.384480 0.384480
0.500250 0.500250 0.500250
0.623081 0.623081 0.623081
0.747598 0.747598 0.747598
0.872492 0.872492 0.872492
0.345385 0.345385 0.345385
0.347983 0.347983 0.347983
0.352135 0.352135 0.352135
0.368444 0.368444 0.368444
0.417751 0.417751 0.417751
0.509733 0.509733 0.509733
0.625312 0.625312 0.625312
0.748095 0.748095 0.748095
0.872601 0.872601 0.872601
0.471979 0.471979 0.471979
0.472545 0.472545 0.472545
0.473478 0.473478 0.473478
0.477510 0.477510 0.477510
0.493752 0.493752 0.493752
0.542920 0.542920 0.542920
0.634788 0.634788 0.634788
0.750326 0.750326 0.750326
0.873098 0.873098 0.873098
0.597325 0.597325 0.597325
0.597449 0.597449 0.597449
0.597654 0.597654 0.597654
0.598564 0.598564 0.598564
0.602592 0.602592 0.602592
0.618819 0.618819 0.618819
0.667957 0.667957 0.667957
0.759800 0.759800 0.759800
0.875328 0.875328 0.875328
0.722400 0.722400 0.722400
0.722427 0.722427 0.722427
0.722472 0.722472 0.722472
0.722673 0.722673 0.722673
0.723583 0.723583 0.723583
0.727609 0.727609 0.727609
0.743834 0.743834 0.743834
0.792965 0.792965 0.792965
0.884803 0.884803 0.884803
0.847417 0.847417 0.847417
0.847423 0.847423 0.847423
0.847433 0.847433 0.847433
0.847477 0.847477 0.847477
0.847677 0.847677 0.847677
0.848587 0.848587 0.848587
0.852613 0.852613 0.852613
0.868837 0.868837 0.868837
0.917967 0.917967 0.917967
0.972420 0.972420 0.972420
0.972422 0.972422 0.972422
0.972424 0.972424 0.972424
0.972433 0.972433 0.972433
0.972478 0.972478 0.972478
0.972678 0.972678 0.972678
0.973588 0.973588 0.973588
0.977614 0.977614 0.977614
0.993838 0.993838 0.993838
0.009013 0.009013 0.009013
0.035575 0.035575 0.035575
0.079803 0.079803 0.079803
0.229925 0.229925 0.229925
0.368926 0.368926 0.368926
0.496700 0.496700 0.496700
0.622296 0.622296 0.622296
0.747426 0.747426 0.747426
0.872454 0.872454 0.872454
0.098438 0.098438 0.098438
0.125000 0.125000 0.125000
0.168161 0.168161 0.168161
0.259867 0.259867 0.259867
0.375345 0.375345 0.375345
0.498103 0.498103 0.498103
0.622603 0.622603 0.622603
0.747493 0.747493 0.747493
0.872469 0.872469 0.872469
0.217059 0.217059 0.217059
0.228731 0.228731 0.228731
0.245109 0.245109 0.245109
0.293670 0.293670 0.293670
0.385035 0.385035 0.385035
0.500386 0.500386 0.500386
0.623112 0.623112 0.623112
0.747605 0.747605 0.747605
0.872493 0.872493 0.872493
0.346276 0.346276 0.346276
0.348846 0.348846 0.348846
0.352956 0.352956 0.352956
0.369118 0.369118 0.369118
0.418122 0.418122 0.418122
0.509854 0.509854 0.509854
0.625342 0.625342 0.625342
0.748102 0.748102 0.748102
0.872603 0.872603 0.872603
0.472172 0.472172 0.472172
0.472736 0.472736 0.472736
0.473666 0.473666 0.473666
0.477689 0.477689 0.477689
0.493900 0.493900 0.493900
0.543002 0.543002 0.543002
0.634815 0.634815 0.634815
0.750332 0.750332 0.750332
0.873100 0.873100 0.873100
0.597367 0.597367 0.597367
0.597491 0.597491 0.597491
0.597696 0.597696 0.597696
0.598605 0.598605 0.598605
0.602631 0.602631 0.602631
0.618852 0.618852 0.618852
0.667975 0.667975 0.667975
0.759806 0.759806 0.759806
0.875330 0.875330 0.875330
0.722410 0.722410 0.722410
0.722437 0.722437 0.722437
0.722482 0.722482 0.722482
0.722682 0.722682 0.722682
0.723592 0.723592 0.723592
0.727618 0.727618 0.727618
0.743841 0.743841 0.743841
0.792969 0.792969 0.792969
0.884804 0.884804 0.884804
0.847419 0.847419 0.847419
0.847425 0.847425 0.847425
0.847435 0.847435 0.847435
0.847479 0.847479 0.847479
0.847679 0.847679 0.847679
0.848589 0.848589 0.848589
0.852615 0.852615 0.852615
0.868839 0.868839 0.868839
0.917968 0.917968 0.917968
0.972421 0.972421 0.972421
0.972422 0.972422 0.972422
0.972424 0.972424 0.972424
0.972434 0.972434 0.972434
0.972478 0.972478 0.972478
0.972679 0.972679 0.972679
0.973588 0.973588 0.973588
0.977615 0.977615 0.977615
0.993838 0.993838 0.993838
0.024019 0.024019 0.024019
0.050581 0.050581 0.050581
0.094809 0.094809 0.094809
0.235772 0.235772 0.235772
0.370038 0.370038 0.370038
0.496937 0.496937 0.496937
0.622347 0.622347 0.622347
0.747437 0.747437 0.747437
0.872457 0.872457 0.872457
0.113444 0.113444 0.113444
0.140006 0.140006 0.140006
0.180083 0.180083 0.180083
0.263975 0.263975 0.263975
0.376375 0.376375 0.376375
0.498336 0.498336 0.498336
0.622654 0.622654 0.622654
0.747504 0.747504 0.747504
0.872471 0.872471 0.872471
0.223855 0.223855 0.223855
0.234661 0.234661 0.234661
0.250000 0.250000 0.250000
0.296418 0.296418 0.296418
0.385951 0.385951 0.385951
0.500613 0.500613 0.500613
0.623163 0.623163 0.623163
0.747616 0.747616 0.747616
0.872496 0.872496 0.872496
0.347738 0.347738 0.347738
0.350264 0.350264 0.350264
0.354305 0.354305 0.354305
0.370229 0.370229 0.370229
0.418736 0.418736 0.418736
0.510056 0.510056 0.510056
0.625392 0.625392 0.625392
0.748113 0.748113 0.748113
0.872605 0.872605 0.872605
0.472491 0.472491 0.472491
0.473053 0.473053 0.473053
0.473980 0.473980 0.473980
0.477988 0.477988 0.477988
0.494145 0.494145 0.494145
0.543137 0.543137 0.543137
0.634859 0.634859 0.634859
0.750343 0.750343 0.750343
0.873102 0.873102 0.873102
0.597437 0.597437 0.597437
0.597560 0.597560 0.597560
0.597766 0.597766 0.597766
0.598674 0.598674 0.598674
0.602697 0.602697 0.602697
0.618906 0.618906 0.618906
0.668005 0.668005 0.668005
0.759816 0.759816 0.759816
0.875332 0.875332 0.875332
0.722425 0.722425 0.722425
0.722452 0.722452 0.722452
0.722497 0.722497 0.722497
0.722697 0.722697 0.722697
0.723607 0.723607 0.723607
0.727633 0.727633 0.727633
0.743853 0.743853 0.743853
0.792976 0.792976 0.792976
0.884806 0.884806 0.884806
0.847422 0.847422 0.847422
0.847428 0.847428 0.847428
0.847438 0.847438 0.847438
0.847482 0.847482 0.847482
0.847683 0.847683 0.847683
0.848592 0.848592 0.848592
0.852618 0.852618 0.852618
0.868841 0.868841 0.868841
0.917969 0.917969 0.917969
0.972422 0.972422 0.972422
0.972423 0.972423 0.972423
0.972425 0.972425 0.972425
0.972435 0.972435 0.972435
0.972479 0.972479 0.972479
0.972679 0.972679 0.972679
0.973589 0.973589 0.973589
0.977615 0.977615 0.977615
0.993839 0.993839 0.993839
0.090870 0.090870 0.090870
0.117433 0.117433 0.117433
0.161423 0.161423 0.161423
0.257715 0.257715 0.257715
0.374821 0.374821 0.374821
0.497985 0.497985 0.497985
0.622577 0.622577 0.622577
0.747487 0.747487 0.747487
0.872468 0.872468 0.872468
0.177117 0.177117 0.177117
0.195317 0.195317 0.195317
0.218811 0.218811 0.218811
0.280133 0.280133 0.280133
0.380812 0.380812 0.380812
0.499366 0.499366 0.499366
0.622883 0.622883 0.622883
0.747555 0.747555 0.747555
0.872482 0.872482 0.872482
0.248744 0.248744 0.248744
0.256865 0.256865 0.256865
0.268828 0.268828 0.268828
0.307654 0.307654 0.307654
0.389913 0.389913 0.389913
0.501615 0.501615 0.501615
0.623390 0.623390 0.623390
0.747666 0.747666 0.747666
0.872507 0.872507 0.872507
0.353953 0.353953 0.353953
0.356298 0.356298 0.356298
0.360059 0.360059 0.360059
0.375000 0.375000 0.375000
0.421418 0.421418 0.421418
0.510951 0.510951 0.510951
0.625613 0.625613 0.625613
0.748163 0.748163 0.748163
0.872616 0.872616 0.872616
0.473898 0.473898 0.473898
0.474450 0.474450 0.474450
0.475362 0.475362 0.475362
0.479305 0.479305 0.479305
0.495229 0.495229 0.495229
0.543736 0.543736 0.543736
0.635056 0.635056 0.635056
0.750392 0.750392 0.750392
0.873113 0.873113 0.873113
0.597747 0.597747 0.597747
0.597871 0.597871 0.597871
0.598075 0.598075 0.598075
0.598980 0.598980 0.598980
0.602988 0.602988 0.602988
0.619145 0.619145 0.619145
0.668137 0.668137 0.668137
0.759859 0.759859 0.759859
0.875343 0.875343 0.875343
0.722493 0.722493 0.722493
0.722520 0.722520 0.722520
0.722565 0.722565 0.722565
0.722766 0.722766 0.722766
0.723674 0.723674 0.723674
0.727696 0.727696 0.727696
0.743905 0.743905 0.743905
0.793005 0.793005 0.793005
0.884816 0.884816 0.884816
0.847437 0.847437 0.847437
0.847443 0.847443 0.847443
0.847453 0.847453 0.847453
0.847497 0.847497 0.847497
0.847697 0.847697 0.847697
0.848607 0.848607 0.848607
0.852632 0.852632 0.852632
0.868853 0.868853 0.868853
0.917976 0.917976 0.917976
0.972425 0.972425 0.972425
0.972426 0.972426 0.972426
0.972428 0.972428 0.972428
0.972438 0.972438 0.972438
0.972482 0.972482 0.972482
0.972682 0.972682 0.972682
0.973592 0.973592 0.973592
0.977618 0.977618 0.977618
0.993841 0.993841 0.993841
0.267798 0.267798 0.267798
0.274305 0.274305 0.274305
0.284115 0.284115 0.284115
0.317522 0.317522 0.317522
0.393686 0.393686 0.393686
0.502604 0.502604 0.502604
0.623617 0.623617 0.623617
0.747716 0.747716 0.747716
0.872518 0.872518 0.872518
0.287923 0.287923 0.287923
0.293062 0.293062 0.293062
0.300967 0.300967 0.300967
0.329128 0.329128 0.329128
0.398485 0.398485 0.398485
0.503910 0.503910 0.503910
0.623919 0.623919 0.623919
0.747784 0.747784 0.747784
0.872533 0.872533 0.872533
0.313304 0.313304 0.313304
0.317111 0.317111 0.317111
0.323084 0.323084 0.323084
0.345427 0.345427 0.345427
0.405904 0.405904 0.405904
0.506040 0.506040 0.506040
0.624420 0.624420 0.624420
0.747895 0.747895 0.747895
0.872557 0.872557 0.872557
0.377542 0.377542 0.377542
0.379309 0.379309 0.379309
0.382169 0.382169 0.382169
0.393828 0.393828 0.393828
0.432654 0.432654 0.432654
0.514913 0.514913 0.514913
0.626615 0.626615 0.626615
0.748390 0.748390 0.748390
0.872666 0.872666 0.872666
0.480029 0.480029 0.480029
0.480542 0.480542 0.480542
0.481389 0.481389 0.481389
0.485060 0.485060 0.485060
0.500000 0.500000 0.500000
0.546418 0.546418 0.546418
0.635951 0.635951 0.635951
0.750613 0.750613 0.750613
0.873163 0.873163 0.873163
0.599150 0.599150 0.599150
0.599271 0.599271 0.599271
0.599472 0.599472 0.599472
0.600362 0.600362 0.600362
0.604305 0.604305 0.604305
0.620229 0.620229 0.620229
0.668736 0.668736 0.668736
0.760056 0.760056 0.760056
0.875392 0.875392 0.875392
0.722803 0.722803 0.722803
0.722830 0.722830 0.722830
0.722875 0.722875 0.722875
0.723075 0.723075 0.723075
0.723980 0.723980 0.723980
0.727988 0.727988 0.727988
0.744145 0.744145 0.744145
0.793137 0.793137 0.793137
0.884859 0.884859 0.884859
0.847505 0.847505 0.847505
0.847511 0.847511 0.847511
0.847521 0.847521 0.847521
0.847565 0.847565 0.847565
0.847766 0.847766 0.847766
0.848674 0.848674 0.848674
0.852696 0.852696 0.852696
0.868905 0.868905 0.868905
0.918005 0.918005 0.918005
0.972440 0.972440 0.972440
0.972441 0.972441 0.972441
0.972443 0.972443 0.972443
0.972453 0.972453 0.972453
0.972497 0.972497 0.972497
0.972697 0.972697 0.972697
0.973607 0.973607 0.973607
0.977632 0.977632 0.977632
0.993853 0.993853 0.993853
0.405270 0.405270 0.405270
0.406536 0.406536 0.406536
0.408601 0.408601 0.408601
0.417219 0.417219 0.417219
0.448011 0.448011 0.448011
0.520906 0.520906 0.520906
0.628201 0.628201 0.628201
0.748754 0.748754 0.748754
0.872747 0.872747 0.872747
0.409456 0.409456 0.409456
0.410659 0.410659 0.410659
0.412625 0.412625 0.412625
0.420852 0.420852 0.420852
0.450527 0.450527 0.450527
0.521954 0.521954 0.521954
0.628487 0.628487 0.628487
0.748821 0.748821 0.748821
0.872762 0.872762 0.872762
0.415985 0.415985 0.415985
0.417097 0.417097 0.417097
0.418917 0.418917 0.418917
0.426566 0.426566 0.426566
0.454554 0.454554 0.454554
0.523669 0.523669 0.523669
0.628961 0.628961 0.628961
0.748931 0.748931 0.748931
0.872786 0.872786 0.872786
0.440060 0.440060 0.440060
0.440892 0.440892 0.440892
0.442258 0.442258 0.442258
0.448085 0.448085 0.448085
0.470427 0.470427 0.470427
0.530904 0.530904 0.530904
0.631040 0.631040 0.631040
0.749420 0.749420 0.749420
0.872895 0.872895 0.872895
0.503351 0.503351 0.503351
0.503738 0.503738 0.503738
0.504378 0.504378 0.504378
0.507169 0.507169 0.507169
0.518828 0.518828 0.518828
0.557654 0.557654 0.557654
0.639913 0.639913 0.639913
0.751615 0.751615 0.751615
0.873390 0.873390 0.873390
0.605263 0.605263 0.605263
0.605375 0.605375 0.605375
0.605562 0.605562 0.605562
0.606389 0.606389 0.606389
0.610060 0.610060 0.610060
0.625000 0.625000 0.625000
0.671418 0.671418 0.671418
0.760951 0.760951 0.760951
0.875613 0.875613 0.875613
0.724205 0.724205 0.724205
0.724231 0.724231 0.724231
0.724276 0.724276 0.724276
0.724472 0.724472 0.724472
0.725362 0.725362 0.725362
0.729305 0.729305 0.729305
0.745228 0.745228 0.745228
0.793736 0.793736 0.793736
0.885056 0.885056 0.885056
0.847816 0.847816 0.847816
0.847822 0.847822 0.847822
0.847831 0.847831 0.847831
0.847875 0.847875 0.847875
0.848075 0.848075 0.848075
0.848980 0.848980 0.848980
0.852988 0.852988 0.852988
0.869145 0.869145 0.869145
0.918136 0.918136 0.918136
0.972508 0.972508 0.972508
0.972509 0.972509 0.972509
0.972511 0.972511 0.972511
0.972521 0.972521 0.972521
0.972565 0.972565 0.972565
0.972766 0.972766 0.972766
0.973674 0.973674 0.973674
0.977697 0.977697 0.977697
0.993905 0.993905 0.993905
0.532768 0.532768 0.532768
0.533039 0.533039 0.533039
0.533487 0.533487 0.533487
0.535458 0.535458 0.535458
0.543893 0.543893 0.543893
0.574166 0.574166 0.574166
0.646385 0.646385 0.646385
0.753332 0.753332 0.753332
0.873785 0.873785 0.873785
0.533676 0.533676 0.533676
0.533944 0.533944 0.533944
0.534387 0.534387 0.534387
0.536336 0.536336 0.536336
0.544687 0.544687 0.544687
0.574717 0.574717 0.574717
0.646614 0.646614 0.646614
0.753394 0.753394 0.753394
0.873799 0.873799 0.873799
0.535166 0.535166 0.535166
0.535429 0.535429 0.535429
0.535865 0.535865 0.535865
0.537779 0.537779 0.537779
0.545992 0.545992 0.545992
0.575625 0.575625 0.575625
0.646995 0.646995 0.646995
0.753498 0.753498 0.753498
0.873823 0.873823 0.873823
0.541493 0.541493 0.541493
0.541737 0.541737 0.541737
0.542141 0.542141 0.542141
0.543916 0.543916 0.543916
0.551566 0.551566 0.551566
0.579554 0.579554 0.579554
0.648669 0.648669 0.648669
0.753961 0.753961 0.753961
0.873931 0.873931 0.873931
0.565440 0.565440 0.565440
0.565622 0.565622 0.565622
0.565924 0.565924 0.565924
0.567258 0.567258 0.567258
0.573084 0.573084 0.573084
0.595427 0.595427 0.595427
0.655904 0.655904 0.655904
0.756040 0.756040 0.756040
0.874420 0.874420 0.874420
0.628528 0.628528 0.628528
0.628612 0.628612 0.628612
0.628753 0.628753 0.628753
0.629378 0.629378 0.629378
0.632169 0.632169 0.632169
0.643828 0.643828 0.643828
0.682654 0.682654 0.682654
0.764912 0.764912 0.764912
0.876615 0.876615 0.876615
0.730314 0.730314 0.730314
0.730339 0.730339 0.730339
0.730380 0.730380 0.730380
0.730562 0.730562 0.730562
0.731389 0.731389 0.731389
0.735059 0.735059 0.735059
0.750000 0.750000 0.750000
0.796418 0.796418 0.796418
0.885951 0.885951 0.885951
0.849217 0.849217 0.849217
0.849223 0.849223 0.849223
0.849232 0.849232 0.849232
0.849275 0.849275 0.849275
0.849472 0.849472 0.849472
0.850362 0.850362 0.850362
0.854305 0.854305 0.854305
0.870228 0.870228 0.870228
0.918736 0.918736 0.918736
0.972818 0.972818 0.972818
0.972820 0.972820 0.972820
0.972822 0.972822 0.972822
0.972831 0.972831 0.972831
0.972875 0.972875 0.972875
0.973075 0.973075 0.973075
0.973980 0.973980 0.973980
0.977988 0.977988 0.977988
0.994145 0.994145 0.994145
0.658306 0.658306 0.658306
0.658364 0.658364 0.658364
0.658463 0.658463 0.658463
0.658899 0.658899 0.658899
0.660859 0.660859 0.660859
0.669256 0.669256 0.669256
0.699417 0.699417 0.699417
0.771490 0.771490 0.771490
0.878360 0.878360 0.878360
0.658504 0.658504 0.658504
0.658563 0.658563 0.658563
0.658661 0.658661 0.658661
0.659096 0.659096 0.659096
0.661051 0.661051 0.661051
0.669430 0.669430 0.669430
0.699538 0.699538 0.699538
0.771540 0.771540 0.771540
0.878374 0.878374 0.878374
0.658833 0.658833 0.658833
0.658892 0.658892 0.658892
0.658990 0.658990 0.658990
0.659423 0.659423 0.659423
0.661371 0.661371 0.661371
0.669718 0.669718 0.669718
0.699738 0.699738 0.699738
0.771623 0.771623 0.771623
0.878397 0.878397 0.878397
0.660286 0.660286 0.660286
0.660343 0.660343 0.660343
0.660439 0.660439 0.660439
0.660865 0.660865 0.660865
0.662779 0.662779 0.662779
0.670992 0.670992 0.670992
0.700625 0.700625 0.700625
0.771995 0.771995 0.771995
0.878498 0.878498 0.878498
0.666604 0.666604 0.666604
0.666658 0.666658 0.666658
0.666746 0.666746 0.666746
0.667141 0.667141 0.667141
0.668916 0.668916 0.668916
0.676566 0.676566 0.676566
0.704553 0.704553 0.704553
0.773669 0.773669 0.773669
0.878961 0.878961 0.878961
0.690523 0.690523 0.690523
0.690563 0.690563 0.690563
0.690629 0.690629 0.690629
0.690924 0.690924 0.690924
0.692258 0.692258 0.692258
0.698084 0.698084 0.698084
0.720426 0.720426 0.720426
0.780904 0.780904 0.780904
0.881040 0.881040 0.881040
0.753566 0.753566 0.753566
0.753585 0.753585 0.753585
0.753616 0.753616 0.753616
0.753753 0.753753 0.753753
0.754378 0.754378 0.754378
0.757169 0.757169 0.757169
0.768828 0.768828 0.768828
0.807654 0.807654 0.807654
0.889912 0.889912 0.889912
0.855325 0.855325 0.855325
0.855331 0.855331 0.855331
0.855340 0.855340 0.855340
0.855380 0.855380 0.855380
0.855562 0.855562 0.855562
0.856389 0.856389 0.856389
0.860059 0.860059 0.860059
0.875000 0.875000 0.875000
0.921418 0.921418 0.921418
0.974219 0.974219 0.974219
0.974221 0.974221 0.974221
0.974223 0.974223 0.974223
0.974232 0.974232 0.974232
0.974275 0.974275 0.974275
0.974472 0.974472 0.974472
0.975362 0.975362 0.975362
0.979305 0.979305 0.979305
0.995228 0.995228 0.995228
0.783423 0.783423 0.783423
0.783436 0.783436 0.783436
0.783457 0.783457 0.783457
0.783553 0.783553 0.783553
0.783988 0.783988 0.783988
0.785947 0.785947 0.785947
0.794335 0.794335 0.794335
0.824472 0.824472 0.824472
0.896512 0.896512 0.896512
0.783466 0.783466 0.783466
0.783479 0.783479 0.783479
0.783501 0.783501 0.783501
0.783596 0.783596 0.783596
0.784032 0.784032 0.784032
0.785989 0.785989 0.785989
0.794373 0.794373 0.794373
0.824499 0.824499 0.824499
0.896523 0.896523 0.896523
0.783539 0.783539 0.783539
0.783552 0.783552 0.783552
0.783573 0.783573 0.783573
0.783669 0.783669 0.783669
0.784104 0.784104 0.784104
0.786059 0.786059 0.786059
0.794436 0.794436 0.794436
0.824543 0.824543 0.824543
0.896542 0.896542 0.896542
0.783860 0.783860 0.783860
0.783873 0.783873 0.783873
0.783894 0.783894 0.783894
0.783990 0.783990 0.783990
0.784423 0.784423 0.784423
0.786371 0.786371 0.786371
0.794718 0.794718 0.794718
0.824738 0.824738 0.824738
0.896623 0.896623 0.896623
0.785312 0.785312 0.785312
0.785324 0.785324 0.785324
0.785346 0.785346 0.785346
0.785439 0.785439 0.785439
0.785864 0.785864 0.785864
0.787779 0.787779 0.787779
0.795992 0.795992 0.795992
0.825625 0.825625 0.825625
0.896995 0.896995 0.896995
0.791629 0.791629 0.791629
0.791640 0.791640 0.791640
0.791660 0.791660 0.791660
0.791746 0.791746 0.791746
0.792141 0.792141 0.792141
0.793916 0.793916 0.793916
0.801566 0.801566 0.801566
0.829554 0.829554 0.829554
0.898669 0.898669 0.898669
0.815541 0.815541 0.815541
0.815550 0.815550 0.815550
0.815564 0.815564 0.815564
0.815629 0.815629 0.815629
0.815924 0.815924 0.815924
0.817258 0.817258 0.817258
0.823085 0.823085 0.823085
0.845427 0.845427 0.845427
0.905904 0.905904 0.905904
0.878575 0.878575 0.878575
0.878579 0.878579 0.878579
0.878585 0.878585 0.878585
0.878616 0.878616 0.878616
0.878753 0.878753 0.878753
0.879378 0.879378 0.879378
0.882169 0.882169 0.882169
0.893828 0.893828 0.893828
0.932654 0.932654 0.932654
0.980328 0.980328 0.980328
0.980329 0.980329 0.980329
0.980331 0.980331 0.980331
0.980340 0.980340 0.980340
0.980380 0.980380 0.980380
0.980562 0.980562 0.980562
0.981389 0.981389 0.981389
0.985059 0.985059 0.985059
1.000000 1.000000 1.000000
