stdX3.0/resolve__spi-anim_lnf_to_lm16_1D.cube
# johnbarclayvfx@gmail.com Created by manually modding a LUT generated by OCIO bakelut (lin to p3 with lm16 shaper). The shaper portion is used here

LUT_1D_SIZE 4096
LUT_1D_INPUT_RANGE 0.000122 16.000000

0.000000 0.000000 0.000000
0.088735 0.088735 0.088735
0.128517 0.128517 0.128517
0.160111 0.160111 0.160111
0.185258 0.185258 0.185258
0.205727 0.205727 0.205727
0.222784 0.222784 0.222784
0.237447 0.237447 0.237447
0.250352 0.250352 0.250352
0.261904 0.261904 0.261904
0.272378 0.272378 0.272378
0.281967 0.281967 0.281967
0.290814 0.290814 0.290814
0.299029 0.299029 0.299029
0.306696 0.306696 0.306696
0.313885 0.313885 0.313885
0.320651 0.320651 0.320651
0.327041 0.327041 0.327041
0.333094 0.333094 0.333094
0.338843 0.338843 0.338843
0.344316 0.344316 0.344316
0.349539 0.349539 0.349539
0.354533 0.354533 0.354533
0.359317 0.359317 0.359317
0.363907 0.363907 0.363907
0.368319 0.368319 0.368319
0.372565 0.372565 0.372565
0.376657 0.376657 0.376657
0.380606 0.380606 0.380606
0.384421 0.384421 0.384421
0.388111 0.388111 0.388111
0.391684 0.391684 0.391684
0.395146 0.395146 0.395146
0.398506 0.398506 0.398506
0.401767 0.401767 0.401767
0.404936 0.404936 0.404936
0.408018 0.408018 0.408018
0.411017 0.411017 0.411017
0.413938 0.413938 0.413938
0.416785 0.416785 0.416785
0.419561 0.419561 0.419561
0.422269 0.422269 0.422269
0.424914 0.424914 0.424914
0.427497 0.427497 0.427497
0.430021 0.430021 0.430021
0.432490 0.432490 0.432490
0.434905 0.434905 0.434905
0.437270 0.437270 0.437270
0.439590 0.439590 0.439590
0.441866 0.441866 0.441866
0.444099 0.444099 0.444099
0.446292 0.446292 0.446292
0.448446 0.448446 0.448446
0.450562 0.450562 0.450562
0.452641 0.452641 0.452641
0.454685 0.454685 0.454685
0.456696 0.456696 0.456696
0.458673 0.458673 0.458673
0.460619 0.460619 0.460619
0.462534 0.462534 0.462534
0.464420 0.464420 0.464420
0.466276 0.466276 0.466276
0.468105 0.468105 0.468105
0.469907 0.469907 0.469907
0.471682 0.471682 0.471682
0.473432 0.473432 0.473432
0.475157 0.475157 0.475157
0.476858 0.476858 0.476858
0.478536 0.478536 0.478536
0.480191 0.480191 0.480191
0.481824 0.481824 0.481824
0.483435 0.483435 0.483435
0.485026 0.485026 0.485026
0.486596 0.486596 0.486596
0.488146 0.488146 0.488146
0.489677 0.489677 0.489677
0.491189 0.491189 0.491189
0.492683 0.492683 0.492683
0.494159 0.494159 0.494159
0.495617 0.495617 0.495617
0.497058 0.497058 0.497058
0.498483 0.498483 0.498483
0.499891 0.499891 0.499891
0.501283 0.501283 0.501283
0.502660 0.502660 0.502660
0.504022 0.504022 0.504022
0.505369 0.505369 0.505369
0.506701 0.506701 0.506701
0.508019 0.508019 0.508019
0.509323 0.509323 0.509323
0.510614 0.510614 0.510614
0.511891 0.511891 0.511891
0.513156 0.513156 0.513156
0.514407 0.514407 0.514407
0.515646 0.515646 0.515646
0.516873 0.516873 0.516873
0.518088 0.518088 0.518088
0.519291 0.519291 0.519291
0.520482 0.520482 0.520482
0.521663 0.521663 0.521663
0.522832 0.522832 0.522832
0.523990 0.523990 0.523990
0.525137 0.525137 0.525137
0.526274 0.526274 0.526274
0.527401 0.527401 0.527401
0.528518 0.528518 0.528518
0.529625 0.529625 0.529625
0.530722 0.530722 0.530722
0.531809 0.531809 0.531809
0.532887 0.532887 0.532887
0.533956 0.533956 0.533956
0.535016 0.535016 0.535016
0.536067 0.536067 0.536067
0.537109 0.537109 0.537109
0.538143 0.538143 0.538143
0.539168 0.539168 0.539168
0.540184 0.540184 0.540184
0.541193 0.541193 0.541193
0.542194 0.542194 0.542194
0.543186 0.543186 0.543186
0.544171 0.544171 0.544171
0.545148 0.545148 0.545148
0.546118 0.546118 0.546118
0.547080 0.547080 0.547080
0.548035 0.548035 0.548035
0.548982 0.548982 0.548982
0.549923 0.549923 0.549923
0.550857 0.550857 0.550857
0.551783 0.551783 0.551783
0.552703 0.552703 0.552703
0.553616 0.553616 0.553616
0.554523 0.554523 0.554523
0.555423 0.555423 0.555423
0.556317 0.556317 0.556317
0.557205 0.557205 0.557205
0.558086 0.558086 0.558086
0.558961 0.558961 0.558961
0.559830 0.559830 0.559830
0.560694 0.560694 0.560694
0.561551 0.561551 0.561551
0.562403 0.562403 0.562403
0.563248 0.563248 0.563248
0.564089 0.564089 0.564089
0.564923 0.564923 0.564923
0.565753 0.565753 0.565753
0.566576 0.566576 0.566576
0.567395 0.567395 0.567395
0.568208 0.568208 0.568208
0.569016 0.569016 0.569016
0.569819 0.569819 0.569819
0.570617 0.570617 0.570617
0.571410 0.571410 0.571410
0.572198 0.572198 0.572198
0.572981 0.572981 0.572981
0.573759 0.573759 0.573759
0.574533 0.574533 0.574533
0.575302 0.575302 0.575302
0.576066 0.576066 0.576066
0.576825 0.576825 0.576825
0.577580 0.577580 0.577580
0.578331 0.578331 0.578331
0.579077 0.579077 0.579077
0.579819 0.579819 0.579819
0.580557 0.580557 0.580557
0.581290 0.581290 0.581290
0.582019 0.582019 0.582019
0.582744 0.582744 0.582744
0.583465 0.583465 0.583465
0.584182 0.584182 0.584182
0.584895 0.584895 0.584895
0.585604 0.585604 0.585604
0.586308 0.586308 0.586308
0.587009 0.587009 0.587009
0.587707 0.587707 0.587707
0.588400 0.588400 0.588400
0.589090 0.589090 0.589090
0.589776 0.589776 0.589776
0.590458 0.590458 0.590458
0.591137 0.591137 0.591137
0.591812 0.591812 0.591812
0.592483 0.592483 0.592483
0.593151 0.593151 0.593151
0.593816 0.593816 0.593816
0.594477 0.594477 0.594477
0.595134 0.595134 0.595134
0.595789 0.595789 0.595789
0.596440 0.596440 0.596440
0.597087 0.597087 0.597087
0.597732 0.597732 0.597732
0.598373 0.598373 0.598373
0.599011 0.599011 0.599011
0.599646 0.599646 0.599646
0.600277 0.600277 0.600277
0.600906 0.600906 0.600906
0.601532 0.601532 0.601532
0.602154 0.602154 0.602154
0.602773 0.602773 0.602773
0.603390 0.603390 0.603390
0.604003 0.604003 0.604003
0.604614 0.604614 0.604614
0.605222 0.605222 0.605222
0.605827 0.605827 0.605827
0.606429 0.606429 0.606429
0.607028 0.607028 0.607028
0.607624 0.607624 0.607624
0.608218 0.608218 0.608218
0.608809 0.608809 0.608809
0.609397 0.609397 0.609397
0.609983 0.609983 0.609983
0.610565 0.610565 0.610565
0.611146 0.611146 0.611146
0.611723 0.611723 0.611723
0.612298 0.612298 0.612298
0.612871 0.612871 0.612871
0.613441 0.613441 0.613441
0.614008 0.614008 0.614008
0.614573 0.614573 0.614573
0.615136 0.615136 0.615136
0.615696 0.615696 0.615696
0.616253 0.616253 0.616253
0.616809 0.616809 0.616809
0.617361 0.617361 0.617361
0.617912 0.617912 0.617912
0.618460 0.618460 0.618460
0.619006 0.619006 0.619006
0.619549 0.619549 0.619549
0.620090 0.620090 0.620090
0.620629 0.620629 0.620629
0.621166 0.621166 0.621166
0.621701 0.621701 0.621701
0.622233 0.622233 0.622233
0.622763 0.622763 0.622763
0.623291 0.623291 0.623291
0.623817 0.623817 0.623817
0.624340 0.624340 0.624340
0.624862 0.624862 0.624862
0.625381 0.625381 0.625381
0.625898 0.625898 0.625898
0.626414 0.626414 0.626414
0.626927 0.626927 0.626927
0.627438 0.627438 0.627438
0.627947 0.627947 0.627947
0.628455 0.628455 0.628455
0.628960 0.628960 0.628960
0.629463 0.629463 0.629463
0.629964 0.629964 0.629964
0.630464 0.630464 0.630464
0.630961 0.630961 0.630961
0.631457 0.631457 0.631457
0.631950 0.631950 0.631950
0.632442 0.632442 0.632442
0.632932 0.632932 0.632932
0.633420 0.633420 0.633420
0.633906 0.633906 0.633906
0.634390 0.634390 0.634390
0.634873 0.634873 0.634873
0.635354 0.635354 0.635354
0.635833 0.635833 0.635833
0.636310 0.636310 0.636310
0.636786 0.636786 0.636786
0.637259 0.637259 0.637259
0.637732 0.637732 0.637732
0.638202 0.638202 0.638202
0.638671 0.638671 0.638671
0.639137 0.639137 0.639137
0.639603 0.639603 0.639603
0.640066 0.640066 0.640066
0.640528 0.640528 0.640528
0.640989 0.640989 0.640989
0.641447 0.641447 0.641447
0.641904 0.641904 0.641904
0.642360 0.642360 0.642360
0.642814 0.642814 0.642814
0.643266 0.643266 0.643266
0.643717 0.643717 0.643717
0.644166 0.644166 0.644166
0.644614 0.644614 0.644614
0.645060 0.645060 0.645060
0.645504 0.645504 0.645504
0.645947 0.645947 0.645947
0.646389 0.646389 0.646389
0.646829 0.646829 0.646829
0.647268 0.647268 0.647268
0.647705 0.647705 0.647705
0.648140 0.648140 0.648140
0.648574 0.648574 0.648574
0.649007 0.649007 0.649007
0.649438 0.649438 0.649438
0.649868 0.649868 0.649868
0.650297 0.650297 0.650297
0.650724 0.650724 0.650724
0.651149 0.651149 0.651149
0.651574 0.651574 0.651574
0.651997 0.651997 0.651997
0.652418 0.652418 0.652418
0.652838 0.652838 0.652838
0.653257 0.653257 0.653257
0.653675 0.653675 0.653675
0.654091 0.654091 0.654091
0.654506 0.654506 0.654506
0.654919 0.654919 0.654919
0.655331 0.655331 0.655331
0.655742 0.655742 0.655742
0.656152 0.656152 0.656152
0.656560 0.656560 0.656560
0.656967 0.656967 0.656967
0.657373 0.657373 0.657373
0.657778 0.657778 0.657778
0.658181 0.658181 0.658181
0.658583 0.658583 0.658583
0.658984 0.658984 0.658984
0.659383 0.659383 0.659383
0.659782 0.659782 0.659782
0.660179 0.660179 0.660179
0.660575 0.660575 0.660575
0.660969 0.660969 0.660969
0.661363 0.661363 0.661363
0.661755 0.661755 0.661755
0.662147 0.662147 0.662147
0.662537 0.662537 0.662537
0.662926 0.662926 0.662926
0.663313 0.663313 0.663313
0.663700 0.663700 0.663700
0.664085 0.664085 0.664085
0.664470 0.664470 0.664470
0.664853 0.664853 0.664853
0.665235 0.665235 0.665235
0.665616 0.665616 0.665616
0.665996 0.665996 0.665996
0.666374 0.666374 0.666374
0.666752 0.666752 0.666752
0.667129 0.667129 0.667129
0.667504 0.667504 0.667504
0.667878 0.667878 0.667878
0.668252 0.668252 0.668252
0.668624 0.668624 0.668624
0.668995 0.668995 0.668995
0.669366 0.669366 0.669366
0.669735 0.669735 0.669735
0.670103 0.670103 0.670103
0.670470 0.670470 0.670470
0.670836 0.670836 0.670836
0.671201 0.671201 0.671201
0.671565 0.671565 0.671565
0.671928 0.671928 0.671928
0.672290 0.672290 0.672290
0.672651 0.672651 0.672651
0.673011 0.673011 0.673011
0.673370 0.673370 0.673370
0.673728 0.673728 0.673728
0.674085 0.674085 0.674085
0.674441 0.674441 0.674441
0.674796 0.674796 0.674796
0.675151 0.675151 0.675151
0.675504 0.675504 0.675504
0.675856 0.675856 0.675856
0.676207 0.676207 0.676207
0.676558 0.676558 0.676558
0.676907 0.676907 0.676907
0.677256 0.677256 0.677256
0.677603 0.677603 0.677603
0.677950 0.677950 0.677950
0.678296 0.678296 0.678296
0.678641 0.678641 0.678641
0.678985 0.678985 0.678985
0.679328 0.679328 0.679328
0.679670 0.679670 0.679670
0.680011 0.680011 0.680011
0.680352 0.680352 0.680352
0.680691 0.680691 0.680691
0.681030 0.681030 0.681030
0.681368 0.681368 0.681368
0.681705 0.681705 0.681705
0.682041 0.682041 0.682041
0.682376 0.682376 0.682376
0.682710 0.682710 0.682710
0.683044 0.683044 0.683044
0.683377 0.683377 0.683377
0.683708 0.683708 0.683708
0.684039 0.684039 0.684039
0.684370 0.684370 0.684370
0.684699 0.684699 0.684699
0.685027 0.685027 0.685027
0.685355 0.685355 0.685355
0.685682 0.685682 0.685682
0.686008 0.686008 0.686008
0.686333 0.686333 0.686333
0.686658 0.686658 0.686658
0.686981 0.686981 0.686981
0.687304 0.687304 0.687304
0.687626 0.687626 0.687626
0.687948 0.687948 0.687948
0.688268 0.688268 0.688268
0.688588 0.688588 0.688588
0.688907 0.688907 0.688907
0.689225 0.689225 0.689225
0.689543 0.689543 0.689543
0.689859 0.689859 0.689859
0.690175 0.690175 0.690175
0.690490 0.690490 0.690490
0.690805 0.690805 0.690805
0.691119 0.691119 0.691119
0.691432 0.691432 0.691432
0.691744 0.691744 0.691744
0.692055 0.692055 0.692055
0.692366 0.692366 0.692366
0.692676 0.692676 0.692676
0.692985 0.692985 0.692985
0.693294 0.693294 0.693294
0.693601 0.693601 0.693601
0.693909 0.693909 0.693909
0.694215 0.694215 0.694215
0.694521 0.694521 0.694521
0.694826 0.694826 0.694826
0.695130 0.695130 0.695130
0.695433 0.695433 0.695433
0.695736 0.695736 0.695736
0.696038 0.696038 0.696038
0.696340 0.696340 0.696340
0.696641 0.696641 0.696641
0.696941 0.696941 0.696941
0.697240 0.697240 0.697240
0.697539 0.697539 0.697539
0.697837 0.697837 0.697837
0.698135 0.698135 0.698135
0.698431 0.698431 0.698431
0.698727 0.698727 0.698727
0.699023 0.699023 0.699023
0.699318 0.699318 0.699318
0.699612 0.699612 0.699612
0.699905 0.699905 0.699905
0.700198 0.700198 0.700198
0.700490 0.700490 0.700490
0.700782 0.700782 0.700782
0.701073 0.701073 0.701073
0.701363 0.701363 0.701363
0.701653 0.701653 0.701653
0.701942 0.701942 0.701942
0.702230 0.702230 0.702230
0.702518 0.702518 0.702518
0.702805 0.702805 0.702805
0.703091 0.703091 0.703091
0.703377 0.703377 0.703377
0.703662 0.703662 0.703662
0.703947 0.703947 0.703947
0.704231 0.704231 0.704231
0.704514 0.704514 0.704514
0.704797 0.704797 0.704797
0.705079 0.705079 0.705079
0.705361 0.705361 0.705361
0.705642 0.705642 0.705642
0.705922 0.705922 0.705922
0.706202 0.706202 0.706202
0.706482 0.706482 0.706482
0.706760 0.706760 0.706760
0.707038 0.707038 0.707038
0.707316 0.707316 0.707316
0.707593 0.707593 0.707593
0.707869 0.707869 0.707869
0.708145 0.708145 0.708145
0.708420 0.708420 0.708420
0.708695 0.708695 0.708695
0.708969 0.708969 0.708969
0.709242 0.709242 0.709242
0.709515 0.709515 0.709515
0.709787 0.709787 0.709787
0.710059 0.710059 0.710059
0.710330 0.710330 0.710330
0.710601 0.710601 0.710601
0.710871 0.710871 0.710871
0.711141 0.711141 0.711141
0.711410 0.711410 0.711410
0.711678 0.711678 0.711678
0.711946 0.711946 0.711946
0.712214 0.712214 0.712214
0.712481 0.712481 0.712481
0.712747 0.712747 0.712747
0.713013 0.713013 0.713013
0.713278 0.713278 0.713278
0.713543 0.713543 0.713543
0.713807 0.713807 0.713807
0.714071 0.714071 0.714071
0.714334 0.714334 0.714334
0.714597 0.714597 0.714597
0.714859 0.714859 0.714859
0.715120 0.715120 0.715120
0.715382 0.715382 0.715382
0.715642 0.715642 0.715642
0.715902 0.715902 0.715902
0.716162 0.716162 0.716162
0.716421 0.716421 0.716421
0.716680 0.716680 0.716680
0.716938 0.716938 0.716938
0.717195 0.717195 0.717195
0.717452 0.717452 0.717452
0.717709 0.717709 0.717709
0.717965 0.717965 0.717965
0.718221 0.718221 0.718221
0.718476 0.718476 0.718476
0.718730 0.718730 0.718730
0.718984 0.718984 0.718984
0.719238 0.719238 0.719238
0.719491 0.719491 0.719491
0.719744 0.719744 0.719744
0.719996 0.719996 0.719996
0.720248 0.720248 0.720248
0.720499 0.720499 0.720499
0.720750 0.720750 0.720750
0.721000 0.721000 0.721000
0.721250 0.721250 0.721250
0.721499 0.721499 0.721499
0.721748 0.721748 0.721748
0.721997 0.721997 0.721997
0.722245 0.722245 0.722245
0.722492 0.722492 0.722492
0.722739 0.722739 0.722739
0.722986 0.722986 0.722986
0.723232 0.723232 0.723232
0.723478 0.723478 0.723478
0.723723 0.723723 0.723723
0.723968 0.723968 0.723968
0.724212 0.724212 0.724212
0.724456 0.724456 0.724456
0.724700 0.724700 0.724700
0.724943 0.724943 0.724943
0.725185 0.725185 0.725185
0.725427 0.725427 0.725427
0.725669 0.725669 0.725669
0.725910 0.725910 0.725910
0.726151 0.726151 0.726151
0.726391 0.726391 0.726391
0.726631 0.726631 0.726631
0.726871 0.726871 0.726871
0.727110 0.727110 0.727110
0.727349 0.727349 0.727349
0.727587 0.727587 0.727587
0.727825 0.727825 0.727825
0.728062 0.728062 0.728062
0.728299 0.728299 0.728299
0.728536 0.728536 0.728536
0.728772 0.728772 0.728772
0.729008 0.729008 0.729008
0.729243 0.729243 0.729243
0.729478 0.729478 0.729478
0.729712 0.729712 0.729712
0.729946 0.729946 0.729946
0.730180 0.730180 0.730180
0.730413 0.730413 0.730413
0.730646 0.730646 0.730646
0.730879 0.730879 0.730879
0.731111 0.731111 0.731111
0.731342 0.731342 0.731342
0.731573 0.731573 0.731573
0.731804 0.731804 0.731804
0.732035 0.732035 0.732035
0.732265 0.732265 0.732265
0.732494 0.732494 0.732494
0.732724 0.732724 0.732724
0.732952 0.732952 0.732952
0.733181 0.733181 0.733181
0.733409 0.733409 0.733409
0.733637 0.733637 0.733637
0.733864 0.733864 0.733864
0.734091 0.734091 0.734091
0.734317 0.734317 0.734317
0.734544 0.734544 0.734544
0.734769 0.734769 0.734769
0.734995 0.734995 0.734995
0.735220 0.735220 0.735220
0.735444 0.735444 0.735444
0.735669 0.735669 0.735669
0.735893 0.735893 0.735893
0.736116 0.736116 0.736116
0.736339 0.736339 0.736339
0.736562 0.736562 0.736562
0.736784 0.736784 0.736784
0.737006 0.737006 0.737006
0.737228 0.737228 0.737228
0.737449 0.737449 0.737449
0.737670 0.737670 0.737670
0.737891 0.737891 0.737891
0.738111 0.738111 0.738111
0.738331 0.738331 0.738331
0.738550 0.738550 0.738550
0.738769 0.738769 0.738769
0.738988 0.738988 0.738988
0.739207 0.739207 0.739207
0.739425 0.739425 0.739425
0.739642 0.739642 0.739642
0.739860 0.739860 0.739860
0.740077 0.740077 0.740077
0.740293 0.740293 0.740293
0.740510 0.740510 0.740510
0.740726 0.740726 0.740726
0.740941 0.740941 0.740941
0.741156 0.741156 0.741156
0.741371 0.741371 0.741371
0.741586 0.741586 0.741586
0.741800 0.741800 0.741800
0.742014 0.742014 0.742014
0.742227 0.742227 0.742227
0.742441 0.742441 0.742441
0.742653 0.742653 0.742653
0.742866 0.742866 0.742866
0.743078 0.743078 0.743078
0.743290 0.743290 0.743290
0.743502 0.743502 0.743502
0.743713 0.743713 0.743713
0.743924 0.743924 0.743924
0.744134 0.744134 0.744134
0.744344 0.744344 0.744344
0.744554 0.744554 0.744554
0.744764 0.744764 0.744764
0.744973 0.744973 0.744973
0.745182 0.745182 0.745182
0.745390 0.745390 0.745390
0.745599 0.745599 0.745599
0.745806 0.745806 0.745806
0.746014 0.746014 0.746014
0.746221 0.746221 0.746221
0.746428 0.746428 0.746428
0.746635 0.746635 0.746635
0.746841 0.746841 0.746841
0.747047 0.747047 0.747047
0.747253 0.747253 0.747253
0.747458 0.747458 0.747458
0.747663 0.747663 0.747663
0.747868 0.747868 0.747868
0.748073 0.748073 0.748073
0.748277 0.748277 0.748277
0.748480 0.748480 0.748480
0.748684 0.748684 0.748684
0.748887 0.748887 0.748887
0.749090 0.749090 0.749090
0.749293 0.749293 0.749293
0.749495 0.749495 0.749495
0.749697 0.749697 0.749697
0.749898 0.749898 0.749898
0.750100 0.750100 0.750100
0.750301 0.750301 0.750301
0.750502 0.750502 0.750502
0.750702 0.750702 0.750702
0.750902 0.750902 0.750902
0.751102 0.751102 0.751102
0.751302 0.751302 0.751302
0.751501 0.751501 0.751501
0.751700 0.751700 0.751700
0.751899 0.751899 0.751899
0.752097 0.752097 0.752097
0.752295 0.752295 0.752295
0.752493 0.752493 0.752493
0.752691 0.752691 0.752691
0.752888 0.752888 0.752888
0.753085 0.753085 0.753085
0.753281 0.753281 0.753281
0.753478 0.753478 0.753478
0.753674 0.753674 0.753674
0.753870 0.753870 0.753870
0.754065 0.754065 0.754065
0.754260 0.754260 0.754260
0.754455 0.754455 0.754455
0.754650 0.754650 0.754650
0.754844 0.754844 0.754844
0.755039 0.755039 0.755039
0.755232 0.755232 0.755232
0.755426 0.755426 0.755426
0.755619 0.755619 0.755619
0.755812 0.755812 0.755812
0.756005 0.756005 0.756005
0.756197 0.756197 0.756197
0.756390 0.756390 0.756390
0.756581 0.756581 0.756581
0.756773 0.756773 0.756773
0.756964 0.756964 0.756964
0.757155 0.757155 0.757155
0.757346 0.757346 0.757346
0.757537 0.757537 0.757537
0.757727 0.757727 0.757727
0.757917 0.757917 0.757917
0.758107 0.758107 0.758107
0.758296 0.758296 0.758296
0.758485 0.758485 0.758485
0.758674 0.758674 0.758674
0.758863 0.758863 0.758863
0.759052 0.759052 0.759052
0.759240 0.759240 0.759240
0.759428 0.759428 0.759428
0.759615 0.759615 0.759615
0.759803 0.759803 0.759803
0.759990 0.759990 0.759990
0.760176 0.760176 0.760176
0.760363 0.760363 0.760363
0.760549 0.760549 0.760549
0.760735 0.760735 0.760735
0.760921 0.760921 0.760921
0.761107 0.761107 0.761107
0.761292 0.761292 0.761292
0.761477 0.761477 0.761477
0.761662 0.761662 0.761662
0.761847 0.761847 0.761847
0.762031 0.762031 0.762031
0.762215 0.762215 0.762215
0.762399 0.762399 0.762399
0.762582 0.762582 0.762582
0.762766 0.762766 0.762766
0.762949 0.762949 0.762949
0.763131 0.763131 0.763131
0.763314 0.763314 0.763314
0.763496 0.763496 0.763496
0.763678 0.763678 0.763678
0.763860 0.763860 0.763860
0.764042 0.764042 0.764042
0.764223 0.764223 0.764223
0.764404 0.764404 0.764404
0.764585 0.764585 0.764585
0.764766 0.764766 0.764766
0.764946 0.764946 0.764946
0.765126 0.765126 0.765126
0.765306 0.765306 0.765306
0.765485 0.765485 0.765485
0.765665 0.765665 0.765665
0.765844 0.765844 0.765844
0.766023 0.766023 0.766023
0.766202 0.766202 0.766202
0.766380 0.766380 0.766380
0.766558 0.766558 0.766558
0.766736 0.766736 0.766736
0.766914 0.766914 0.766914
0.767092 0.767092 0.767092
0.767269 0.767269 0.767269
0.767446 0.767446 0.767446
0.767623 0.767623 0.767623
0.767799 0.767799 0.767799
0.767976 0.767976 0.767976
0.768152 0.768152 0.768152
0.768328 0.768328 0.768328
0.768503 0.768503 0.768503
0.768679 0.768679 0.768679
0.768854 0.768854 0.768854
0.769029 0.769029 0.769029
0.769204 0.769204 0.769204
0.769378 0.769378 0.769378
0.769553 0.769553 0.769553
0.769727 0.769727 0.769727
0.769901 0.769901 0.769901
0.770074 0.770074 0.770074
0.770248 0.770248 0.770248
0.770421 0.770421 0.770421
0.770594 0.770594 0.770594
0.770766 0.770766 0.770766
0.770939 0.770939 0.770939
0.771111 0.771111 0.771111
0.771283 0.771283 0.771283
0.771455 0.771455 0.771455
0.771627 0.771627 0.771627
0.771798 0.771798 0.771798
0.771970 0.771970 0.771970
0.772141 0.772141 0.772141
0.772311 0.772311 0.772311
0.772482 0.772482 0.772482
0.772652 0.772652 0.772652
0.772823 0.772823 0.772823
0.772992 0.772992 0.772992
0.773162 0.773162 0.773162
0.773332 0.773332 0.773332
0.773501 0.773501 0.773501
0.773670 0.773670 0.773670
0.773839 0.773839 0.773839
0.774008 0.774008 0.774008
0.774176 0.774176 0.774176
0.774344 0.774344 0.774344
0.774512 0.774512 0.774512
0.774680 0.774680 0.774680
0.774848 0.774848 0.774848
0.775015 0.775015 0.775015
0.775182 0.775182 0.775182
0.775349 0.775349 0.775349
0.775516 0.775516 0.775516
0.775683 0.775683 0.775683
0.775849 0.775849 0.775849
0.776015 0.776015 0.776015
0.776181 0.776181 0.776181
0.776347 0.776347 0.776347
0.776513 0.776513 0.776513
0.776678 0.776678 0.776678
0.776843 0.776843 0.776843
0.777008 0.777008 0.777008
0.777173 0.777173 0.777173
0.777338 0.777338 0.777338
0.777502 0.777502 0.777502
0.777666 0.777666 0.777666
0.777830 0.777830 0.777830
0.777994 0.777994 0.777994
0.778158 0.778158 0.778158
0.778321 0.778321 0.778321
0.778484 0.778484 0.778484
0.778647 0.778647 0.778647
0.778810 0.778810 0.778810
0.778973 0.778973 0.778973
0.779135 0.779135 0.779135
0.779297 0.779297 0.779297
0.779459 0.779459 0.779459
0.779621 0.779621 0.779621
0.779783 0.779783 0.779783
0.779944 0.779944 0.779944
0.780105 0.780105 0.780105
0.780266 0.780266 0.780266
0.780427 0.780427 0.780427
0.780588 0.780588 0.780588
0.780748 0.780748 0.780748
0.780909 0.780909 0.780909
0.781069 0.781069 0.781069
0.781229 0.781229 0.781229
0.781388 0.781388 0.781388
0.781548 0.781548 0.781548
0.781707 0.781707 0.781707
0.781866 0.781866 0.781866
0.782026 0.782026 0.782026
0.782184 0.782184 0.782184
0.782343 0.782343 0.782343
0.782501 0.782501 0.782501
0.782660 0.782660 0.782660
0.782818 0.782818 0.782818
0.782975 0.782975 0.782975
0.783133 0.783133 0.783133
0.783291 0.783291 0.783291
0.783448 0.783448 0.783448
0.783605 0.783605 0.783605
0.783762 0.783762 0.783762
0.783919 0.783919 0.783919
0.784076 0.784076 0.784076
0.784232 0.784232 0.784232
0.784388 0.784388 0.784388
0.784544 0.784544 0.784544
0.784700 0.784700 0.784700
0.784856 0.784856 0.784856
0.785011 0.785011 0.785011
0.785167 0.785167 0.785167
0.785322 0.785322 0.785322
0.785477 0.785477 0.785477
0.785632 0.785632 0.785632
0.785786 0.785786 0.785786
0.785941 0.785941 0.785941
0.786095 0.786095 0.786095
0.786249 0.786249 0.786249
0.786403 0.786403 0.786403
0.786557 0.786557 0.786557
0.786711 0.786711 0.786711
0.786864 0.786864 0.786864
0.787017 0.787017 0.787017
0.787170 0.787170 0.787170
0.787323 0.787323 0.787323
0.787476 0.787476 0.787476
0.787629 0.787629 0.787629
0.787781 0.787781 0.787781
0.787933 0.787933 0.787933
0.788085 0.788085 0.788085
0.788237 0.788237 0.788237
0.788389 0.788389 0.788389
0.788540 0.788540 0.788540
0.788692 0.788692 0.788692
0.788843 0.788843 0.788843
0.788994 0.788994 0.788994
0.789145 0.789145 0.789145
0.789296 0.789296 0.789296
0.789446 0.789446 0.789446
0.789597 0.789597 0.789597
0.789747 0.789747 0.789747
0.789897 0.789897 0.789897
0.790047 0.790047 0.790047
0.790196 0.790196 0.790196
0.790346 0.790346 0.790346
0.790495 0.790495 0.790495
0.790645 0.790645 0.790645
0.790794 0.790794 0.790794
0.790942 0.790942 0.790942
0.791091 0.791091 0.791091
0.791240 0.791240 0.791240
0.791388 0.791388 0.791388
0.791536 0.791536 0.791536
0.791685 0.791685 0.791685
