StdX-ACES-OCIOv2.0/CLF/RWG_Log3G10 to REC709_BT1886 with HIGH_CONTRAST and R_2_Medium size_33 v1.13.cube
# RED Digital Cinema Output Transform LUT for IPP2
# LUT Name = RWG_Log3G10 to REC709_BT1886 with HIGH_CONTRAST and R_2_Medium size_33 v1.13
# Generated by version 1.13
# Settings used in creation of this LUT are:
# Development Color Space = REC709
# Output Gamma Curve = BT1886
# Output Tonemap = HIGH_CONTRAST
# Highlight Rolloff = Rolloff 2 - medium
# Resolution = 33 x 33 x 33
TITLE "RED IPP2 LUT to map REDWideGamutRGB/Log3G10 to REC709/BT1886/HIGH_CONTRAST/Rolloff 2 - medium"
LUT_3D_SIZE 9
0.000000 0.000000 0.000000
0.077286 0.003505 0.003505
0.293889 0.014927 0.021996
0.764647 0.056896 0.080590
0.971703 0.161446 0.230175
1.000003 0.547297 0.644483
1.000003 0.842027 0.873194
1.000003 0.928134 0.941864
1.000003 0.957119 0.965361
0.003505 0.071047 0.003505
0.054375 0.064113 0.003505
0.289960 0.028941 0.017400
0.764960 0.062669 0.078490
0.972058 0.165146 0.230499
1.000003 0.551775 0.646989
1.000003 0.843705 0.874446
1.000003 0.928983 0.942536
1.000003 0.957671 0.965807
0.003505 0.278052 0.003825
0.003505 0.276386 0.003825
0.232932 0.256491 0.003761
0.760730 0.181936 0.057696
0.974155 0.211861 0.228088
1.000003 0.588316 0.664629
1.000003 0.856187 0.883511
1.000003 0.935191 0.947407
1.000003 0.961689 0.969036
0.003793 0.719411 0.011699
0.003825 0.718882 0.011671
0.006001 0.713100 0.011132
0.628297 0.679472 0.008582
0.968066 0.587854 0.162096
1.000003 0.691888 0.666890
1.000003 0.875995 0.892584
1.000003 0.943497 0.952968
1.000003 0.966862 0.972866
0.010215 0.932866 0.075905
0.010348 0.932770 0.075815
0.012652 0.931877 0.074878
0.105497 0.927384 0.069391
0.886599 0.912603 0.073174
1.000003 0.878971 0.538632
1.000003 0.907464 0.873512
1.000003 0.948201 0.947713
1.000003 0.967759 0.970382
0.075991 0.988130 0.389772
0.076024 0.988108 0.389334
0.077338 0.987919 0.385709
0.110803 0.987287 0.375020
0.682414 0.985228 0.356245
0.969763 0.980165 0.427703
1.000003 0.969694 0.809048
1.000003 0.970974 0.926539
1.000003 0.976605 0.960108
0.365717 1.000003 0.750607
0.365234 1.000003 0.750351
0.362743 0.999999 0.748276
0.390519 0.999850 0.743215
0.641802 0.999499 0.735627
0.925879 0.998449 0.730469
0.992263 0.996757 0.769095
1.000003 0.993514 0.891982
1.000003 0.992472 0.940650
0.701309 1.000003 0.866929
0.700964 1.000003 0.866782
0.698456 1.000003 0.865599
0.699734 1.000003 0.862826
0.756597 1.000003 0.859371
0.906053 1.000003 0.854888
0.982290 1.000003 0.858736
0.998489 1.000003 0.876762
1.000003 0.999898 0.917864
0.808786 1.000003 0.909969
0.808555 1.000003 0.909865
0.806788 1.000003 0.909027
0.805262 1.000003 0.907089
0.825862 1.000003 0.904846
0.908437 1.000003 0.901912
0.976170 1.000003 0.901375
0.995553 1.000003 0.907764
1.000003 1.000003 0.916625
0.003505 0.003505 0.065016
0.074999 0.003505 0.063746
0.293487 0.012856 0.041840
0.764588 0.055759 0.088479
0.971708 0.160915 0.234257
1.000003 0.547221 0.645266
1.000003 0.842078 0.873303
1.000003 0.928169 0.941904
1.000003 0.957144 0.965386
0.003505 0.056935 0.053391
0.050053 0.050054 0.050057
0.289448 0.024916 0.035325
0.764814 0.061345 0.086520
0.972043 0.164525 0.234675
1.000003 0.551540 0.647675
1.000003 0.843688 0.874503
1.000003 0.928983 0.942548
1.000003 0.957673 0.965813
0.003505 0.275207 0.004410
0.003505 0.274134 0.004326
0.233157 0.255668 0.004051
0.760573 0.179290 0.063507
0.974141 0.211121 0.231856
1.000003 0.588129 0.665215
1.000003 0.856176 0.883560
1.000003 0.935193 0.947418
1.000003 0.961692 0.969041
0.003761 0.718677 0.012747
0.003825 0.718537 0.012667
0.005962 0.712715 0.012163
0.628217 0.678977 0.009445
0.968049 0.587440 0.164351
1.000003 0.691795 0.667394
1.000003 0.875991 0.892625
1.000003 0.943501 0.952979
1.000003 0.966866 0.972872
0.010186 0.932755 0.076554
0.010343 0.932777 0.076553
0.012641 0.931882 0.075657
0.105404 0.927383 0.070234
0.886630 0.912597 0.074137
1.000003 0.878977 0.539347
1.000003 0.907469 0.873560
1.000003 0.948206 0.947725
1.000003 0.967763 0.970388
0.075862 0.988106 0.389811
0.076069 0.988116 0.390013
0.077381 0.987927 0.386422
0.110840 0.987294 0.375813
0.682449 0.985237 0.357113
0.969778 0.980174 0.428510
1.000003 0.969705 0.809131
1.000003 0.970982 0.926555
1.000003 0.976610 0.960116
0.365006 1.000003 0.750398
0.365552 1.000003 0.750528
0.363054 1.000001 0.748458
0.390793 0.999853 0.743407
0.641914 0.999502 0.735835
0.925900 0.998453 0.730684
0.992270 0.996761 0.769270
1.000003 0.993519 0.892020
1.000003 0.992477 0.940664
0.700907 1.000003 0.866790
0.701148 1.000003 0.866865
0.698640 1.000003 0.865682
0.699908 1.000003 0.862912
0.756709 1.000003 0.859461
0.906082 1.000003 0.854981
0.982298 1.000003 0.858825
0.998492 1.000003 0.876840
1.000003 0.999901 0.917904
0.808531 1.000003 0.909866
0.808673 1.000003 0.909920
0.806907 1.000003 0.909083
0.805376 1.000003 0.907145
0.825952 1.000003 0.904904
0.908471 1.000003 0.901973
0.976180 1.000003 0.901434
0.995557 1.000003 0.907820
1.000003 1.000003 0.916675
0.012232 0.004393 0.258435
0.034418 0.004307 0.258354
0.288153 0.004240 0.255777
0.762968 0.043788 0.223885
0.971515 0.153722 0.291789
1.000003 0.544229 0.653945
1.000003 0.841867 0.874041
1.000003 0.928167 0.942066
1.000003 0.957167 0.965462
0.007385 0.006442 0.257104
0.023309 0.006035 0.256572
0.283972 0.005302 0.253848
0.763161 0.048324 0.221408
0.971850 0.157205 0.292021
1.000003 0.548595 0.656219
1.000003 0.843478 0.875225
1.000003 0.928980 0.942706
1.000003 0.957695 0.965887
0.003505 0.240664 0.232411
0.003505 0.239427 0.231802
0.224716 0.224722 0.224739
0.757878 0.144804 0.189439
0.973788 0.201213 0.288001
1.000003 0.584360 0.672151
1.000003 0.855466 0.883784
1.000003 0.934924 0.947342
1.000003 0.961539 0.968966
0.003721 0.709948 0.039155
0.003761 0.709796 0.038903
0.005491 0.707116 0.036141
0.626566 0.671837 0.034804
0.967622 0.581473 0.198210
1.000003 0.689798 0.673262
1.000003 0.875474 0.892767
1.000003 0.943297 0.952910
1.000003 0.966751 0.972811
0.009853 0.931663 0.087523
0.010009 0.931684 0.087494
0.012451 0.931734 0.087020
0.104124 0.927149 0.082760
0.886783 0.912266 0.088667
1.000003 0.878853 0.547858
1.000003 0.907288 0.873720
1.000003 0.948071 0.947654
1.000003 0.967672 0.970327
0.074766 0.987902 0.393631
0.074976 0.987911 0.393811
0.077650 0.987979 0.395107
0.111028 0.987342 0.385667
0.682601 0.985282 0.368115
0.969890 0.980222 0.438658
1.000003 0.969789 0.809609
1.000003 0.971011 0.926461
1.000003 0.976605 0.960034
0.359269 0.999996 0.749138
0.359820 0.999999 0.749264
0.365458 1.000003 0.750238
0.392889 0.999874 0.745345
0.642758 0.999525 0.737975
0.926061 0.998478 0.732937
0.992046 0.996597 0.767235
1.000003 0.993564 0.892163
1.000003 0.992516 0.940608
0.697681 1.000003 0.865763
0.697923 1.000003 0.865837
0.700081 1.000003 0.866418
0.701262 1.000003 0.863682
0.757572 1.000003 0.860277
0.906309 1.000003 0.855844
0.982364 1.000003 0.859654
0.998519 1.000003 0.877548
1.000003 0.999923 0.918160
0.806483 1.000003 0.909082
0.806627 1.000003 0.909135
0.807836 1.000003 0.909552
0.806277 1.000003 0.907629
0.826650 1.000003 0.905407
0.908734 1.000003 0.902498
0.976258 1.000003 0.901959
0.995590 1.000003 0.908305
1.000003 1.000003 0.917114
0.039432 0.008180 0.679325
0.047264 0.008070 0.679619
0.238127 0.006983 0.680714
0.735838 0.007760 0.672881
0.966918 0.103179 0.624335
1.000003 0.489533 0.713688
1.000003 0.829520 0.874222
1.000003 0.922926 0.939686
1.000003 0.953995 0.963530
0.036067 0.009490 0.680218
0.043953 0.009300 0.680052
0.232554 0.007885 0.681128
0.735601 0.008613 0.673269
0.967251 0.105667 0.624806
1.000003 0.494513 0.715151
1.000003 0.831218 0.875304
1.000003 0.923773 0.940318
1.000003 0.954545 0.963960
0.012103 0.057942 0.680842
0.015022 0.056935 0.680696
0.152313 0.046620 0.678171
0.726681 0.033466 0.671217
0.969077 0.137062 0.624892
1.000003 0.535645 0.725408
1.000003 0.843873 0.883151
1.000003 0.929969 0.944900
1.000003 0.958544 0.967069
0.003505 0.646462 0.627940
0.003505 0.633484 0.615326
0.003761 0.641956 0.625751
0.609184 0.609199 0.609247
0.960497 0.520754 0.572092
1.000003 0.658498 0.723578
1.000003 0.864277 0.890418
1.000003 0.938109 0.949871
1.000003 0.963558 0.970601
0.007609 0.924798 0.367389
0.007719 0.924821 0.367112
0.009614 0.924864 0.364326
0.091820 0.922453 0.348725
0.885369 0.906276 0.382516
0.999565 0.875018 0.622330
1.000003 0.902327 0.870766
1.000003 0.944211 0.944264
1.000003 0.964921 0.967948
0.070575 0.987094 0.481926
0.070789 0.987104 0.481962
0.073545 0.987174 0.482111
0.109190 0.987128 0.479748
0.680502 0.984980 0.474921
0.969556 0.979438 0.548893
1.000003 0.969833 0.808537
1.000003 0.970374 0.921858
1.000003 0.975578 0.956868
0.344746 0.999827 0.756131
0.345299 0.999830 0.756228
0.351151 0.999856 0.756977
0.395863 0.999888 0.758256
0.643575 0.999532 0.753081
0.926255 0.998479 0.749458
0.992402 0.996793 0.783971
1.000003 0.993718 0.889436
1.000003 0.992594 0.937027
0.690037 1.000003 0.865673
0.690286 1.000003 0.865741
0.692522 1.000003 0.866264
0.703875 1.000003 0.867306
0.759160 1.000003 0.864394
0.906705 1.000003 0.860437
0.982487 1.000003 0.864143
0.998570 1.000003 0.881219
1.000003 0.999999 0.917588
0.801750 1.000003 0.908230
0.801895 1.000003 0.908281
0.803131 1.000003 0.908672
0.808119 1.000003 0.909475
0.828048 1.000003 0.907455
0.909245 1.000003 0.904756
0.976410 1.000003 0.904279
0.995655 1.000003 0.910425
1.000003 1.000003 0.918968
0.050076 0.009528 0.920436
0.053589 0.009463 0.920602
0.128445 0.008682 0.921553
0.713797 0.006820 0.920954
0.943511 0.017158 0.911796
1.000003 0.262212 0.881773
1.000003 0.773335 0.900761
1.000003 0.901924 0.938905
1.000003 0.941797 0.959665
0.048316 0.010107 0.921062
0.052017 0.010019 0.921053
0.124992 0.009151 0.921997
0.712832 0.007109 0.921382
0.943824 0.017808 0.912300
1.000003 0.265693 0.882339
1.000003 0.775542 0.901419
1.000003 0.902947 0.939446
1.000003 0.942449 0.960081
0.030135 0.021992 0.924071
0.032431 0.021810 0.924070
0.086197 0.019647 0.923641
0.691042 0.014760 0.922943
0.945196 0.026940 0.915244
1.000003 0.299711 0.886421
1.000003 0.792071 0.906287
1.000003 0.910442 0.943411
1.000003 0.947195 0.963113
0.005598 0.426631 0.918783
0.005831 0.425467 0.918785
0.013268 0.411672 0.918504
0.517130 0.349295 0.915413
0.934948 0.283470 0.910434
1.000003 0.493917 0.889288
1.000003 0.820296 0.911837
1.000003 0.920338 0.947918
1.000003 0.953079 0.966587
0.003990 0.897365 0.887524
0.004021 0.897377 0.887552
0.004288 0.897254 0.887632
0.051260 0.893236 0.885542
0.877107 0.877117 0.877148
0.995658 0.847662 0.863387
1.000003 0.880151 0.900172
1.000003 0.929590 0.942395
1.000003 0.954840 0.963297
0.054743 0.983751 0.803644
0.054937 0.983763 0.803609
0.057443 0.983846 0.803268
0.090840 0.983779 0.801329
0.662776 0.982193 0.793433
0.968988 0.976399 0.809998
1.000003 0.967799 0.857924
1.000003 0.967515 0.920473
1.000003 0.971928 0.950917
0.315538 0.999311 0.827691
0.316068 0.999315 0.827704
0.321694 0.999344 0.827782
0.369799 0.999381 0.827661
0.636448 0.999217 0.825634
0.925246 0.998068 0.828198
0.992306 0.996318 0.847307
1.000003 0.993696 0.896707
1.000003 0.992508 0.932005
0.678513 1.000003 0.884106
0.678776 1.000003 0.884141
0.681164 1.000003 0.884402
0.693777 1.000003 0.884880
0.758319 1.000003 0.884758
0.906270 1.000003 0.883650
0.982434 1.000003 0.887105
0.998569 1.000003 0.899871
1.000003 1.000003 0.921977
0.795640 1.000003 0.915529
0.795788 1.000003 0.915563
0.797075 1.000003 0.915825
0.802479 1.000003 0.916348
0.828392 1.000003 0.916584
0.909215 1.000003 0.915247
0.976412 1.000003 0.915310
0.995669 1.000003 0.920483
1.000003 1.000003 0.927590
0.033292 0.005904 0.990054
0.034524 0.005881 0.990108
0.055608 0.005659 0.990466
0.712955 0.004786 0.990374
0.950960 0.004940 0.988624
0.993839 0.036914 0.981892
1.000003 0.582170 0.967672
1.000003 0.848352 0.965970
1.000003 0.914710 0.970261
0.032365 0.005975 0.990266
0.033719 0.005952 0.990270
0.054382 0.005726 0.990625
0.712178 0.004819 0.990528
0.951151 0.004985 0.988777
0.993953 0.037475 0.982092
1.000003 0.586384 0.967910
1.000003 0.849889 0.966227
1.000003 0.915618 0.970516
0.023184 0.007458 0.991553
0.024129 0.007425 0.991559
0.041408 0.007056 0.991529
0.692314 0.005543 0.991393
0.950685 0.005952 0.989592
0.994694 0.044044 0.983479
1.000003 0.618064 0.969734
1.000003 0.861111 0.968179
1.000003 0.922214 0.972427
0.004326 0.125281 0.989797
0.004368 0.124689 0.989804
0.005351 0.117920 0.989792
0.310270 0.081556 0.988767
0.924877 0.064630 0.987597
0.994418 0.115072 0.984314
1.000003 0.676305 0.973194
1.000003 0.875624 0.971519
1.000003 0.930097 0.975304
0.004717 0.836218 0.983247
0.004752 0.836075 0.983258
0.005426 0.834313 0.983296
0.043582 0.822034 0.982809
0.844653 0.789632 0.980891
0.987258 0.768427 0.978797
1.000003 0.816546 0.972429
1.000003 0.895090 0.971755
1.000003 0.933947 0.975156
0.020429 0.974558 0.970488
0.020525 0.974570 0.970503
0.021827 0.974649 0.970607
0.041451 0.974420 0.970579
0.618616 0.971890 0.969139
0.966023 0.966028 0.966043
1.000003 0.957888 0.961497
1.000003 0.958263 0.963930
1.000003 0.963428 0.969235
0.239185 0.997515 0.948669
0.239605 0.997520 0.948670
0.244107 0.997556 0.948675
0.284649 0.997599 0.948561
0.600326 0.997370 0.947590
0.920424 0.996323 0.944706
0.991674 0.994254 0.948826
1.000003 0.992091 0.951394
1.000003 0.991100 0.957955
0.647876 1.000003 0.944691
0.648180 1.000003 0.944692
0.650976 1.000003 0.944700
0.666115 1.000003 0.944658
0.742977 1.000003 0.944209
0.902528 1.000003 0.942504
0.981719 1.000003 0.945014
0.998374 1.000003 0.949380
1.000003 0.999554 0.953583
0.782600 1.000003 0.949387
0.782764 1.000003 0.949392
0.784187 1.000003 0.949435
0.790324 1.000003 0.949491
0.820108 1.000003 0.949322
0.906843 1.000003 0.948358
0.975785 1.000003 0.949619
0.995474 1.000003 0.952256
1.000003 1.000003 0.955541
0.009994 0.003825 1.000003
0.010236 0.003825 1.000003
0.014278 0.003761 1.000003
0.330140 0.003663 1.000003
0.975779 0.003505 1.000003
0.999017 0.004220 1.000003
1.000003 0.071485 0.998389
1.000003 0.723265 0.992393
1.000003 0.860614 0.990424
0.009626 0.003825 1.000003
0.009915 0.003825 1.000003
0.013843 0.003761 1.000003
0.322288 0.003663 1.000003
0.976090 0.003505 1.000003
0.999090 0.004230 1.000003
1.000003 0.072196 0.998461
1.000003 0.726154 0.992490
1.000003 0.862056 0.990529
0.006965 0.003825 1.000003
0.007104 0.003825 1.000003
0.009940 0.003825 1.000003
0.251435 0.003663 1.000003
0.977551 0.003505 1.000003
0.999411 0.004442 1.000003
1.000003 0.079429 0.998980
1.000003 0.747096 0.993239
1.000003 0.872466 0.991343
0.003505 0.012328 1.000003
0.003505 0.012223 1.000003
0.003663 0.011257 1.000003
0.044286 0.007186 1.000003
0.953188 0.005663 1.000003
0.995542 0.026098 1.000003
1.000003 0.130184 0.999614
1.000003 0.773233 0.994889
1.000003 0.883967 0.993073
0.003505 0.790323 1.000003
0.003505 0.789988 1.000003
0.003505 0.785734 1.000003
0.003990 0.734002 1.000003
0.797814 0.616060 1.000003
0.984601 0.568018 0.999633
1.000003 0.643370 0.998630
1.000003 0.822647 0.995833
1.000003 0.892486 0.994296
0.010786 0.961475 0.997284
0.010832 0.961473 0.997290
0.011512 0.961409 0.997330
0.022834 0.960451 0.997322
0.423849 0.955570 0.996862
0.957888 0.946302 0.995842
0.998139 0.941870 0.995111
1.000003 0.941807 0.993608
1.000003 0.948280 0.992857
0.127026 0.994491 0.992688
0.127247 0.994496 0.992695
0.129725 0.994536 0.992742
0.147527 0.993525 0.991651
0.480333 0.994181 0.992603
0.915024 0.992652 0.991707
0.990647 0.990650 0.990658
1.000003 0.988515 0.989320
1.000003 0.987564 0.988919
0.570647 1.000003 0.987026
0.571045 1.000003 0.987030
0.574759 1.000003 0.987058
0.595817 1.000003 0.987095
0.701067 1.000003 0.986959
0.896268 1.000003 0.986224
0.980231 0.999745 0.985154
0.997967 0.998939 0.986054
1.000003 0.998275 0.985618
0.753330 1.000003 0.984357
0.753524 1.000003 0.984359
0.755215 1.000003 0.984377
0.762740 1.000003 0.984399
0.799661 1.000003 0.984302
0.901478 1.000003 0.983747
0.974238 1.000003 0.982807
0.994992 1.000003 0.983658
1.000003 1.000003 0.984472
0.004298 0.003505 1.000003
0.004326 0.003505 1.000003
0.004605 0.003505 1.000003
0.037324 0.003505 1.000003
0.994286 0.003505 1.000003
1.000003 0.003505 1.000003
1.000003 0.013501 1.000003
1.000003 0.113808 1.000003
1.000003 0.685411 0.999880
0.004250 0.003505 1.000003
0.004279 0.003505 1.000003
0.004551 0.003505 1.000003
0.036123 0.003505 1.000003
0.994537 0.003505 1.000003
1.000003 0.003505 1.000003
1.000003 0.013647 1.000003
1.000003 0.114830 1.000003
1.000003 0.689081 0.999923
0.003917 0.003505 1.000003
0.003917 0.003505 1.000003
0.004130 0.003505 1.000003
0.026226 0.003505 1.000003
0.996071 0.003505 1.000003
1.000003 0.003505 1.000003
1.000003 0.015595 1.000003
1.000003 0.124465 1.000003
1.000003 0.715741 1.000003
0.003505 0.003663 1.000003
0.003505 0.003663 1.000003
0.003505 0.003663 1.000003
0.004975 0.003505 1.000003
0.991406 0.003505 1.000003
1.000003 0.003505 1.000003
1.000003 0.036957 1.000003
1.000003 0.176329 1.000003
1.000003 0.752241 1.000003
0.003505 0.767120 1.000003
0.003505 0.766654 1.000003
0.003505 0.761149 1.000003
0.003505 0.701396 1.000003
0.713352 0.283318 1.000003
0.984329 0.238919 1.000003
1.000003 0.351141 1.000003
1.000003 0.593633 1.000003
1.000003 0.807245 1.000003
0.003505 0.959257 1.000003
0.003505 0.959235 1.000003
0.003505 0.958800 1.000003
0.004188 0.952172 1.000003
0.186806 0.941058 1.000003
0.951109 0.927131 1.000003
0.997304 0.921111 1.000003
1.000003 0.923370 1.000003
1.000003 0.930390 1.000003
0.068758 0.991635 1.000003
0.068838 0.991638 1.000003
0.069893 0.991659 1.000003
0.082718 0.991620 1.000003
0.264794 0.990975 1.000003
0.899378 0.988834 0.999983
0.988700 0.986234 0.999437
1.000003 0.985186 0.999188
1.000003 0.984113 0.998750
0.423012 0.999776 0.998763
0.423514 0.999778 0.998766
0.428361 0.999800 0.998792
0.459698 0.999831 0.998837
0.626108 0.999744 0.998801
0.885815 0.999218 0.998486
0.979536 0.998301 0.997957
0.997589 0.997590 0.997596
1.000003 0.996919 0.997153
0.707909 1.000003 0.996968
0.708143 1.000003 0.996970
0.710216 1.000003 0.996991
0.719917 1.000003 0.997029
0.768291 1.000003 0.997007
0.892860 1.000003 0.996744
0.973340 1.000003 0.996229
0.994495 1.000003 0.995851
1.000003 1.000003 0.996093
0.003663 0.003505 1.000003
0.003663 0.003505 1.000003
0.003721 0.003505 1.000003
0.007296 0.003505 1.000003
1.000003 0.003505 1.000003
1.000003 0.003505 1.000003
1.000003 0.003505 1.000003
1.000003 0.055243 1.000003
1.000003 0.153687 1.000003
0.003663 0.003505 1.000003
0.003663 0.003505 1.000003
0.003721 0.003505 1.000003
0.007061 0.003505 1.000003
1.000003 0.003505 1.000003
1.000003 0.003505 1.000003
1.000003 0.003505 1.000003
1.000003 0.055685 1.000003
1.000003 0.155071 1.000003
0.003505 0.003505 1.000003
0.003505 0.003505 1.000003
0.003663 0.003505 1.000003
0.005518 0.003505 1.000003
1.000003 0.003505 1.000003
1.000003 0.003505 1.000003
1.000003 0.003505 1.000003
1.000003 0.060122 1.000003
1.000003 0.167719 1.000003
0.003505 0.003505 1.000003
0.003505 0.003505 1.000003
0.003505 0.003505 1.000003
0.003663 0.003505 1.000003
1.000003 0.003505 1.000003
1.000003 0.003505 1.000003
1.000003 0.003917 1.000003
1.000003 0.089031 1.000003
1.000003 0.226762 1.000003
0.003505 0.725512 1.000003
0.003505 0.724640 1.000003
0.003505 0.715371 1.000003
0.003505 0.633878 1.000003
0.525087 0.127083 1.000003
0.986185 0.110870 1.000003
1.000003 0.177169 1.000003
1.000003 0.370289 1.000003
1.000003 0.600825 1.000003
0.003505 0.971527 1.000003
0.003505 0.971518 1.000003
0.003505 0.971263 1.000003
0.003505 0.966050 1.000003
0.083125 0.930579 1.000003
0.945570 0.910784 1.000003
0.996874 0.903192 1.000003
1.000003 0.906420 1.000003
1.000003 0.913245 1.000003
0.035963 0.989889 1.000003
0.035989 0.989891 1.000003
0.036476 0.989898 1.000003
0.044425 0.989790 1.000003
0.157169 0.988851 1.000003
0.885008 0.986126 1.000003
0.987416 0.983031 1.000003
1.000003 0.981824 1.000003
1.000003 0.981533 1.000003
0.267979 0.998953 1.000003
0.268254 0.998955 1.000003
0.271175 0.998972 1.000003
0.295872 0.998991 1.000003
0.514022 0.998861 1.000003
0.870068 0.998203 1.000003
0.977422 0.997111 1.000003
0.996995 0.996290 1.000003
1.000003 0.995969 1.000003
0.650918 1.000003 1.000003
0.651200 1.000003 1.000003
0.653731 1.000003 1.000003
0.666363 1.000003 1.000003
0.730534 1.000003 1.000003
0.883494 1.000003 1.000003
0.972376 1.000003 1.000003
0.994359 1.000003 1.000003
1.000001 1.000003 1.000003
