StdX-ACES-OCIOv2.0/CLF/RWG_Log3G10 to REC709_BT1886 with HIGH_CONTRAST and R_2_Medium size_33 v1.13.cube
# RED Digital Cinema Output Transform LUT for IPP2
# LUT Name = RWG_Log3G10 to REC709_BT1886 with HIGH_CONTRAST and R_2_Medium size_33 v1.13
# Generated by version 1.13
# Settings used in creation of this LUT are:
# Development Color Space = REC709
# Output Gamma Curve = BT1886
# Output Tonemap = HIGH_CONTRAST
# Highlight Rolloff = Rolloff 2 - medium
# Resolution = 33 x 33 x 33
TITLE "RED IPP2 LUT to map REDWideGamutRGB/Log3G10 to REC709/BT1886/HIGH_CONTRAST/Rolloff 2 - medium"
LUT_3D_SIZE 33
0.000000 0.000000 0.000000
0.000003 0.000000 0.000000
0.001077 0.000000 0.000000
0.054028 0.003505 0.003505
0.077286 0.003505 0.003505
0.111152 0.003663 0.003721
0.155022 0.004668 0.005558
0.214894 0.008028 0.011893
0.293889 0.014927 0.021996
0.395501 0.023124 0.033517
0.522847 0.032220 0.046232
0.651924 0.043099 0.061392
0.764647 0.056896 0.080590
0.847529 0.073506 0.103743
0.906671 0.094810 0.133660
0.946437 0.122995 0.173873
0.971703 0.161446 0.230175
0.986993 0.216280 0.312791
0.995714 0.298083 0.418319
1.000003 0.414739 0.537853
1.000003 0.547297 0.644483
1.000003 0.656833 0.728837
1.000003 0.738196 0.791867
1.000003 0.798687 0.839094
1.000003 0.842027 0.873194
1.000003 0.874212 0.898698
1.000003 0.897520 0.917282
1.000003 0.915069 0.931347
1.000003 0.928134 0.941864
1.000003 0.937805 0.949677
1.000003 0.945331 0.955775
1.000003 0.951480 0.960770
1.000003 0.957119 0.965361
0.000000 0.000002 0.000000
0.000001 0.000001 0.000000
0.000090 0.000001 0.000000
0.049387 0.003505 0.003505
0.074552 0.003505 0.003505
0.109487 0.003825 0.003663
0.153923 0.005371 0.005196
0.214130 0.009470 0.011122
0.293331 0.016475 0.021274
0.395084 0.024483 0.032894
0.522586 0.033391 0.045711
0.651895 0.044093 0.060978
0.764705 0.057730 0.080272
0.847624 0.074219 0.103512
0.906766 0.095433 0.133515
0.946515 0.123562 0.173819
0.971759 0.162000 0.230232
0.987029 0.216876 0.312998
0.995736 0.298809 0.418669
1.000003 0.415523 0.538279
1.000003 0.547990 0.644874
1.000003 0.657361 0.729175
1.000003 0.738607 0.792151
1.000003 0.799011 0.839329
1.000003 0.842288 0.873389
1.000003 0.874427 0.898862
1.000003 0.897700 0.917421
1.000003 0.915222 0.931466
1.000003 0.928266 0.941969
1.000003 0.937922 0.949770
1.000003 0.945436 0.955859
1.000003 0.951575 0.960846
1.000003 0.957205 0.965431
0.000000 0.000132 0.000000
0.000000 0.000077 0.000000
0.000013 0.000040 0.000000
0.041668 0.003505 0.003505
0.070488 0.003663 0.003505
0.107104 0.004803 0.003505
0.152371 0.007296 0.004791
0.213056 0.012266 0.010109
0.292544 0.018873 0.020300
0.394494 0.026490 0.032046
0.522220 0.035063 0.045004
0.651846 0.045490 0.060416
0.764778 0.058892 0.079837
0.847749 0.075206 0.103196
0.906892 0.096293 0.133314
0.946619 0.124343 0.173742
0.971834 0.162759 0.230305
0.987079 0.217692 0.313275
0.995766 0.299800 0.419140
1.000003 0.416589 0.538852
1.000003 0.548928 0.645402
1.000003 0.658075 0.729631
1.000003 0.739161 0.792533
1.000003 0.799449 0.839645
1.000003 0.842641 0.873653
1.000003 0.874716 0.899083
1.000003 0.897942 0.917609
1.000003 0.915428 0.931629
1.000003 0.928445 0.942110
1.000003 0.938080 0.949896
1.000003 0.945579 0.955973
1.000003 0.951704 0.960950
1.000003 0.957322 0.965524
0.003505 0.047383 0.003505
0.003505 0.045679 0.003505
0.003505 0.043173 0.003505
0.025284 0.039373 0.003505
0.064235 0.032395 0.003505
0.103667 0.016358 0.003505
0.150177 0.014554 0.004368
0.211547 0.017478 0.008879
0.291440 0.022724 0.019008
0.393671 0.029484 0.030913
0.521706 0.037464 0.044057
0.651765 0.047454 0.059659
0.764866 0.060506 0.079250
0.847909 0.076568 0.102766
0.907057 0.097472 0.133038
0.946755 0.125411 0.173632
0.971933 0.163794 0.230396
0.987144 0.218799 0.313639
0.995806 0.301140 0.419763
1.000003 0.418022 0.539612
1.000003 0.550181 0.646103
1.000003 0.659027 0.730236
1.000003 0.739900 0.793041
1.000003 0.800032 0.840066
1.000003 0.843111 0.874004
1.000003 0.875100 0.899376
1.000003 0.898264 0.917858
1.000003 0.915702 0.931843
1.000003 0.928683 0.942298
1.000003 0.938291 0.950064
1.000003 0.945767 0.956124
1.000003 0.951875 0.961088
1.000003 0.957476 0.965649
0.003505 0.071047 0.003505
0.003505 0.070075 0.003505
0.003505 0.068705 0.003505
0.003663 0.066765 0.003505
0.054375 0.064113 0.003505
0.098856 0.056300 0.003505
0.147190 0.038194 0.003990
0.209512 0.027718 0.007597
0.289960 0.028941 0.017400
0.392572 0.033879 0.029481
0.521010 0.040827 0.042848
0.651637 0.050129 0.058686
0.764960 0.062669 0.078490
0.848102 0.078375 0.102205
0.907260 0.099027 0.132675
0.946925 0.126811 0.173479
0.972058 0.165146 0.230499
0.987227 0.220239 0.314091
0.995856 0.302875 0.420549
1.000003 0.419858 0.540570
1.000003 0.551775 0.646989
1.000003 0.660235 0.731001
1.000003 0.740837 0.793682
1.000003 0.800769 0.840598
1.000003 0.843705 0.874446
1.000003 0.875587 0.899747
1.000003 0.898671 0.918174
1.000003 0.916048 0.932115
1.000003 0.928983 0.942536
1.000003 0.938556 0.950276
1.000003 0.946006 0.956315
1.000003 0.952091 0.961261
1.000003 0.957671 0.965807
0.003505 0.104089 0.003505
0.003505 0.103493 0.003505
0.003505 0.102665 0.003505
0.003505 0.101517 0.003505
0.005089 0.099991 0.003505
0.086071 0.096344 0.003505
0.139821 0.087796 0.003663
0.204598 0.072066 0.005659
0.286401 0.050639 0.014019
0.389913 0.046739 0.026332
0.519279 0.049830 0.040132
0.651238 0.056923 0.056472
0.765100 0.067991 0.076741
0.848491 0.082741 0.100897
0.907689 0.102740 0.131806
0.947290 0.130123 0.173083
0.972327 0.168317 0.230680
0.987405 0.223587 0.315056
0.995965 0.306879 0.422268
1.000003 0.424019 0.542678
1.000003 0.555339 0.648940
1.000003 0.662924 0.732688
1.000003 0.742916 0.795098
1.000003 0.802403 0.841771
1.000003 0.845020 0.875424
1.000003 0.876663 0.900567
1.000003 0.899571 0.918870
1.000003 0.916814 0.932715
1.000003 0.929647 0.943060
1.000003 0.939144 0.950743
1.000003 0.946533 0.956737
1.000003 0.952568 0.961644
1.000003 0.958103 0.966154
0.003505 0.146181 0.003505
0.003505 0.145774 0.003505
0.003505 0.145211 0.003505
0.003505 0.144436 0.003505
0.003505 0.143416 0.003505
0.017625 0.141024 0.003505
0.123467 0.136272 0.003505
0.194318 0.125833 0.004037
0.279041 0.110547 0.008835
0.384353 0.087597 0.020886
0.515500 0.073441 0.035207
0.650102 0.072866 0.052347
0.765086 0.079697 0.073401
0.849031 0.091985 0.098335
0.908368 0.110410 0.130034
0.947896 0.136841 0.172168
0.972783 0.174643 0.230812
0.987712 0.230159 0.316621
0.996153 0.314606 0.425235
1.000003 0.431757 0.546353
1.000003 0.561793 0.652364
1.000003 0.667752 0.735658
1.000003 0.746625 0.797595
1.000003 0.805309 0.843842
1.000003 0.847354 0.877149
1.000003 0.878569 0.902012
1.000003 0.901163 0.920099
1.000003 0.918167 0.933772
1.000003 0.930819 0.943986
1.000003 0.940181 0.951567
1.000003 0.947464 0.957480
1.000003 0.953411 0.962321
1.000003 0.958864 0.966768
0.003505 0.203178 0.003663
0.003505 0.202875 0.003663
0.003505 0.202457 0.003505
0.003505 0.201882 0.003505
0.003505 0.201132 0.003505
0.003917 0.199384 0.003505
0.044168 0.195962 0.003505
0.172039 0.189400 0.003505
0.263683 0.176786 0.004763
0.372654 0.161264 0.012787
0.507059 0.141910 0.027079
0.646854 0.117094 0.045141
0.764202 0.108140 0.067302
0.849413 0.112802 0.093447
0.909199 0.126870 0.126430
0.948735 0.150766 0.169990
0.973451 0.187370 0.230388
0.988174 0.242993 0.318638
0.996441 0.329263 0.429726
1.000003 0.445458 0.552081
1.000003 0.572676 0.657783
1.000003 0.675756 0.740387
1.000003 0.752709 0.801583
1.000003 0.810038 0.847155
1.000003 0.851134 0.879911
1.000003 0.881647 0.904326
1.000003 0.903730 0.922068
1.000003 0.920345 0.935467
1.000003 0.932705 0.945468
1.000003 0.941848 0.952887
1.000003 0.948958 0.958671
1.000003 0.954764 0.963404
1.000003 0.960085 0.967750
0.003505 0.278052 0.003825
0.003505 0.277803 0.003825
0.003505 0.277459 0.003825
0.003505 0.276993 0.003825
0.003505 0.276386 0.003825
0.003663 0.274976 0.003793
0.004965 0.272228 0.003761
0.093675 0.267008 0.003721
0.232932 0.256491 0.003761
0.350166 0.242781 0.005684
0.489645 0.225834 0.016486
0.638770 0.205506 0.034612
0.760730 0.181936 0.057696
0.848609 0.162063 0.085234
0.909589 0.162323 0.119842
0.949481 0.178934 0.165300
0.974155 0.211861 0.228088
0.988699 0.266556 0.319827
0.996782 0.353675 0.434724
1.000003 0.466789 0.559057
1.000003 0.588316 0.664629
1.000003 0.686921 0.746462
1.000003 0.761023 0.806746
1.000003 0.816415 0.851462
1.000003 0.856187 0.883511
1.000003 0.885738 0.907347
1.000003 0.907129 0.924640
1.000003 0.923222 0.937682
1.000003 0.935191 0.947407
1.000003 0.944042 0.954615
1.000003 0.950925 0.960230
1.000003 0.956542 0.964821
1.000003 0.961689 0.969036
0.003505 0.374056 0.004260
0.003505 0.373838 0.004260
0.003505 0.373539 0.004260
0.003505 0.373133 0.004260
0.003505 0.372606 0.004250
0.003663 0.371382 0.004240
0.003897 0.368999 0.004220
0.009848 0.364476 0.004165
0.150424 0.356797 0.004064
0.309596 0.342867 0.004118
0.457580 0.326031 0.007001
0.621541 0.305096 0.022071
0.751848 0.282114 0.044804
0.844840 0.259523 0.073217
0.908447 0.241970 0.109234
0.949488 0.238453 0.156542
0.974528 0.259560 0.221817
0.989090 0.309303 0.317591
0.997072 0.389782 0.437743
1.000003 0.496796 0.565180
1.000003 0.608099 0.671306
1.000003 0.700403 0.752652
1.000003 0.770716 0.812122
1.000003 0.823670 0.856000
1.000003 0.861845 0.887331
1.000003 0.890271 0.910567
1.000003 0.910869 0.927389
1.000003 0.926373 0.940055
1.000003 0.937905 0.949486
1.000003 0.946434 0.956469
1.000003 0.953063 0.961904
1.000003 0.958474 0.966345
1.000003 0.963430 0.970418
0.003505 0.495848 0.005188
0.003505 0.495655 0.005188
0.003505 0.495392 0.005183
0.003505 0.495033 0.005183
0.003505 0.494567 0.005175
0.003663 0.493483 0.005161
0.003761 0.491365 0.005130
0.004835 0.487304 0.005057
0.027151 0.480286 0.004925
0.217194 0.469437 0.004717
0.406313 0.454078 0.004487
0.588254 0.429153 0.010234
0.733361 0.403029 0.030015
0.835507 0.376734 0.057774
0.904212 0.353188 0.094136
0.947846 0.339000 0.142357
0.974064 0.343574 0.209173
0.989076 0.376062 0.308109
0.997176 0.441519 0.435043
1.000003 0.534891 0.567456
1.000003 0.631573 0.675635
1.000003 0.715381 0.757342
1.000003 0.780886 0.816479
1.000003 0.830954 0.859815
1.000003 0.867356 0.890609
1.000003 0.894594 0.913369
1.000003 0.914388 0.929803
1.000003 0.929311 0.942152
1.000003 0.940421 0.951332
1.000003 0.948641 0.958121
1.000003 0.955032 0.963400
1.000003 0.960249 0.967709
1.000003 0.965027 0.971658
0.003721 0.591639 0.008487
0.003663 0.617730 0.007146
0.003663 0.617558 0.007141
0.003663 0.617325 0.007136
0.003663 0.617022 0.007129
0.003721 0.616319 0.007109
0.003825 0.614946 0.007064
0.004326 0.612317 0.006965
0.008448 0.607758 0.006765
0.067000 0.600520 0.006442
0.299624 0.589775 0.006044
0.520255 0.574997 0.005684
0.696547 0.549001 0.015646
0.816821 0.520606 0.040575
0.894672 0.491281 0.075375
0.943293 0.466189 0.122591
0.972066 0.455123 0.188632
0.988295 0.468209 0.287217
0.996917 0.512904 0.421784
1.000003 0.580809 0.561835
1.000003 0.658574 0.674776
1.000003 0.731290 0.758507
1.000003 0.790768 0.818330
1.000003 0.837472 0.861782
1.000003 0.871981 0.892470
1.000003 0.898052 0.915053
1.000003 0.917111 0.931308
1.000003 0.931533 0.943493
1.000003 0.942295 0.952535
1.000003 0.950269 0.959211
1.000003 0.956475 0.964397
1.000003 0.961543 0.968627
1.000003 0.966187 0.972499
0.003793 0.719411 0.011699
0.003793 0.719331 0.011696
0.003825 0.719222 0.011690
0.003825 0.719074 0.011682
0.003825 0.718882 0.011671
0.003897 0.718438 0.011642
0.003990 0.717576 0.011579
0.004360 0.715935 0.011433
0.006001 0.713100 0.011132
0.020782 0.708581 0.010604
0.150672 0.701788 0.009850
0.397002 0.692267 0.009068
0.628297 0.679472 0.008582
0.781233 0.656749 0.023580
0.877867 0.631842 0.055426
0.934975 0.607256 0.099669
0.968066 0.587854 0.162096
0.986484 0.581997 0.255990
0.996159 0.598134 0.395213
1.000003 0.637018 0.545315
1.000003 0.691888 0.666890
1.000003 0.750066 0.755032
1.000003 0.801475 0.816970
1.000003 0.843800 0.861434
1.000003 0.875995 0.892584
1.000003 0.900760 0.915377
1.000003 0.919072 0.931715
1.000003 0.933030 0.943927
1.000003 0.943497 0.952968
1.000003 0.951277 0.959633
1.000003 0.957345 0.964802
1.000003 0.962308 0.969013
1.000003 0.966862 0.972866
0.004130 0.798481 0.019534
0.004130 0.798430 0.019529
0.004141 0.798360 0.019522
0.004165 0.798266 0.019513
0.004176 0.798144 0.019500
0.004240 0.797864 0.019468
0.004360 0.797324 0.019399
0.004699 0.796310 0.019244
0.005808 0.794578 0.018925
0.011890 0.791833 0.018352
0.047381 0.787678 0.017476
0.253812 0.781760 0.016407
0.516155 0.773630 0.015464
0.717824 0.763146 0.015300
0.845876 0.744004 0.035697
0.920818 0.723130 0.076551
0.961272 0.703528 0.133516
0.983315 0.689293 0.219243
0.994761 0.687134 0.355757
1.000003 0.701960 0.516179
1.000003 0.733455 0.651045
1.000003 0.774327 0.746524
1.000003 0.815154 0.812300
1.000003 0.851462 0.858819
1.000003 0.880455 0.891056
1.000003 0.903457 0.914465
1.000003 0.920808 0.931152
1.000003 0.934208 0.943574
1.000003 0.944346 0.952744
1.000003 0.951926 0.959488
1.000003 0.957864 0.964711
1.000003 0.962735 0.968960
1.000003 0.967216 0.972842
0.004846 0.858081 0.031531
0.004852 0.858048 0.031524
0.004868 0.858003 0.031515
0.004889 0.857942 0.031503
0.004915 0.857864 0.031487
0.004980 0.857684 0.031447
0.005121 0.857343 0.031365
0.005487 0.856712 0.031193
0.006493 0.855658 0.030853
0.010312 0.854013 0.030245
0.026204 0.851533 0.029279
0.098712 0.847960 0.027991
0.366932 0.842954 0.026622
0.627183 0.836342 0.025794
0.789383 0.827985 0.026615
0.892944 0.812441 0.053573
0.949841 0.795539 0.106262
0.978035 0.780350 0.182028
0.992379 0.770197 0.304634
0.999258 0.769783 0.471481
1.000003 0.782011 0.624941
1.000003 0.805298 0.731539
1.000003 0.833573 0.803477
1.000003 0.861950 0.853454
1.000003 0.886446 0.887607
1.000003 0.906889 0.912152
1.000003 0.922836 0.929515
1.000003 0.935430 0.942370
1.000003 0.945106 0.951820
1.000003 0.952418 0.958749
1.000003 0.958188 0.964103
1.000003 0.962949 0.968451
1.000003 0.967347 0.972417
0.006414 0.901678 0.049483
0.006428 0.901656 0.049474
0.006445 0.901626 0.049461
0.006473 0.901587 0.049444
0.006507 0.901535 0.049422
0.006593 0.901418 0.049369
0.006778 0.901198 0.049265
0.007227 0.900798 0.049058
0.008363 0.900148 0.048680
0.011719 0.899160 0.048032
0.021420 0.897695 0.046998
0.053600 0.895581 0.045542
0.202676 0.892571 0.043791
0.497649 0.888505 0.042269
0.718957 0.883235 0.041986
0.844755 0.876740 0.044782
0.926268 0.864478 0.079660
0.969200 0.851011 0.149326
0.988463 0.839537 0.254222
0.997536 0.832439 0.416350
1.000003 0.832609 0.587192
1.000003 0.841621 0.708787
1.000003 0.857395 0.789597
1.000003 0.876551 0.844781
1.000003 0.895199 0.881908
1.000003 0.912045 0.908251
1.000003 0.925909 0.926702
1.000003 0.937265 0.940259
1.000003 0.946215 0.950169
1.000003 0.953098 0.957405
1.000003 0.958598 0.962977
1.000003 0.963180 0.967492
1.000003 0.967447 0.971601
0.010215 0.932866 0.075905
0.010234 0.932851 0.075892
0.010262 0.932831 0.075873
0.010299 0.932804 0.075848
0.010348 0.932770 0.075815
0.010472 0.932692 0.075740
0.010736 0.932547 0.075597
0.011330 0.932287 0.075330
0.012652 0.931877 0.074878
0.015632 0.931274 0.074155
0.022818 0.930404 0.073044
0.042068 0.929163 0.071455
0.105497 0.927384 0.069391
0.345140 0.924933 0.067228
0.622659 0.921677 0.065836
0.791572 0.917559 0.066854
0.886599 0.912603 0.073174
0.949868 0.903057 0.118490
0.981846 0.892515 0.213818
0.994686 0.884107 0.359939
1.000003 0.878971 0.538632
1.000003 0.879170 0.677645
1.000003 0.885061 0.769853
1.000003 0.895356 0.832157
1.000003 0.907464 0.873512
1.000003 0.919802 0.902470
1.000003 0.930819 0.922523
1.000003 0.940369 0.937121
1.000003 0.948201 0.947713
1.000003 0.954397 0.955404
1.000003 0.959451 0.961301
1.000003 0.963726 0.966061
1.000003 0.967759 0.970382
0.017804 0.954953 0.114968
0.017822 0.954943 0.114946
0.017847 0.954929 0.114918
0.017882 0.954911 0.114879
0.017928 0.954888 0.114830
0.018043 0.954835 0.114718
0.018290 0.954737 0.114509
0.018850 0.954566 0.114136
0.020082 0.954300 0.113544
0.022756 0.953924 0.112670
0.028700 0.953401 0.111411
0.042584 0.952672 0.109653
0.079766 0.951632 0.107300
0.205240 0.950181 0.104556
0.498166 0.948208 0.102097
0.721377 0.945650 0.101383
0.846888 0.942491 0.104963
0.917895 0.938740 0.117449
0.966100 0.931465 0.177147
0.989711 0.923421 0.312106
0.998515 0.917135 0.484062
1.000003 0.913435 0.639053
1.000003 0.913332 0.743909
1.000003 0.916854 0.814971
1.000003 0.922956 0.861863
1.000003 0.930506 0.894381
1.000003 0.938139 0.916664
1.000003 0.945341 0.932728
1.000003 0.951617 0.944287
1.000003 0.956802 0.952622
1.000003 0.961165 0.958979
1.000003 0.964948 0.964087
1.000003 0.968588 0.968705
0.029948 0.970360 0.173786
0.029964 0.970353 0.173753
0.029984 0.970344 0.173706
0.030014 0.970331 0.173645
0.030054 0.970315 0.173566
0.030153 0.970279 0.173389
0.030372 0.970212 0.173063
0.030879 0.970096 0.172497
0.032010 0.969921 0.171642
0.034447 0.969680 0.170464
0.039660 0.969357 0.168887
0.050897 0.968923 0.166803
0.077257 0.968315 0.164045
0.148108 0.967464 0.160664
0.372659 0.966287 0.157114
0.636017 0.964722 0.154662
0.796598 0.962740 0.155679
0.888741 0.960327 0.164256
0.940962 0.957524 0.187976
0.976554 0.952205 0.267318
0.994844 0.945906 0.437109
1.000003 0.941320 0.597409
1.000003 0.938621 0.713132
1.000003 0.938199 0.793371
1.000003 0.939966 0.846711
1.000003 0.943421 0.883651
1.000003 0.947733 0.908818
1.000003 0.952367 0.926828
1.000003 0.956785 0.939689
1.000003 0.960676 0.948900
1.000003 0.964108 0.955883
1.000003 0.967192 0.961465
1.000003 0.970253 0.966488
0.048312 0.980841 0.264321
0.048322 0.980836 0.264264
0.048337 0.980830 0.264186
0.048359 0.980820 0.264082
0.048388 0.980809 0.263949
0.048464 0.980784 0.263651
0.048639 0.980737 0.263108
0.049068 0.980657 0.262183
0.050073 0.980538 0.260826
0.052288 0.980379 0.259050
0.056992 0.980172 0.256821
0.066744 0.979905 0.254063
0.087914 0.979541 0.250560
0.137758 0.979037 0.246244
0.285566 0.978335 0.241358
0.547794 0.977380 0.236954
0.739621 0.976141 0.235318
0.853863 0.974595 0.240466
0.920197 0.972757 0.259377
0.957552 0.970701 0.300448
0.984392 0.966699 0.389422
0.998084 0.961887 0.561150
1.000003 0.958604 0.681697
1.000003 0.956550 0.769216
1.000003 0.955952 0.828814
1.000003 0.956689 0.870528
1.000003 0.958425 0.899022
1.000003 0.960802 0.919373
1.000003 0.963413 0.933845
1.000003 0.965939 0.944160
1.000003 0.968321 0.951942
1.000003 0.970575 0.958134
1.000003 0.972912 0.963679
0.075991 0.988130 0.389772
0.075995 0.988127 0.389704
0.076001 0.988122 0.389613
0.076010 0.988116 0.389489
0.076024 0.988108 0.389334
0.076065 0.988090 0.388982
0.076177 0.988057 0.388345
0.076497 0.988001 0.387269
0.077338 0.987919 0.385709
0.079312 0.987811 0.383718
0.083603 0.987677 0.381318
0.092418 0.987508 0.378482
0.110803 0.987287 0.375020
0.150822 0.986986 0.370783
0.252089 0.986568 0.365725
0.475127 0.985993 0.360362
0.682414 0.985228 0.356245
0.814938 0.984251 0.356341
0.895514 0.983060 0.365110
0.942321 0.981699 0.387206
0.969763 0.980165 0.427703
0.989293 0.977299 0.511692
0.999935 0.973669 0.654081
1.000003 0.971251 0.744649
1.000003 0.969694 0.809048
1.000003 0.968995 0.855244
1.000003 0.969102 0.887215
1.000003 0.969837 0.910183
1.000003 0.970974 0.926539
1.000003 0.972279 0.938184
1.000003 0.973651 0.946948
1.000003 0.975054 0.953902
1.000003 0.976605 0.960108
0.116056 0.993064 0.516691
0.116050 0.993062 0.516621
0.116043 0.993059 0.516526
0.116035 0.993054 0.516399
0.116027 0.993048 0.516238
0.116018 0.993035 0.515878
0.116041 0.993012 0.515226
0.116214 0.992972 0.514122
0.116845 0.992915 0.512538
0.118560 0.992840 0.510544
0.122518 0.992749 0.508197
0.130790 0.992639 0.505523
0.147835 0.992499 0.502385
0.183431 0.992315 0.498641
0.265677 0.992063 0.494121
0.443349 0.991713 0.488929
0.638387 0.991240 0.483809
0.778160 0.990621 0.480569
0.869480 0.989849 0.482383
0.925161 0.988947 0.493030
0.958938 0.987911 0.516166
0.977975 0.986375 0.545248
0.992204 0.984842 0.610624
1.000003 0.982025 0.723487
1.000003 0.980276 0.789967
1.000003 0.979048 0.839330
1.000003 0.978374 0.874311
1.000003 0.978176 0.899795
1.000003 0.978360 0.918089
1.000003 0.978792 0.931164
1.000003 0.979380 0.941020
1.000003 0.980076 0.948840
1.000003 0.980930 0.955812
0.172107 0.996337 0.618597
0.172087 0.996335 0.618540
0.172061 0.996333 0.618463
0.172027 0.996329 0.618360
0.171986 0.996325 0.618227
0.171905 0.996316 0.617931
0.171800 0.996299 0.617396
0.171765 0.996269 0.616496
0.172126 0.996228 0.615209
0.173551 0.996174 0.613604
0.177261 0.996110 0.611752
0.185354 0.996035 0.609702
0.202161 0.995943 0.607380
0.236634 0.995825 0.604710
0.312248 0.995666 0.601547
0.453532 0.995447 0.597840
0.617905 0.995148 0.593821
0.750793 0.994750 0.590247
0.846038 0.994241 0.588745
0.908038 0.993634 0.591641
0.947412 0.992923 0.601619
0.971028 0.992141 0.620346
0.984229 0.991003 0.640470
0.994457 0.989978 0.686473
1.000003 0.987864 0.772218
1.000003 0.986512 0.824695
1.000003 0.985576 0.861670
1.000003 0.984970 0.889174
1.000003 0.984665 0.909185
1.000003 0.984595 0.923609
1.000003 0.984689 0.934539
1.000003 0.984906 0.943239
1.000003 0.985255 0.951009
0.252701 0.998568 0.694957
0.252659 0.998567 0.694910
0.252600 0.998565 0.694846
0.252525 0.998563 0.694760
0.252431 0.998560 0.694651
0.252234 0.998553 0.694408
0.251924 0.998540 0.693966
0.251566 0.998518 0.693226
0.251517 0.998487 0.692170
0.252555 0.998448 0.690864
0.256048 0.998402 0.689374
0.264296 0.998349 0.687754
0.281858 0.998285 0.685972
0.317752 0.998207 0.683983
0.387768 0.998103 0.681689
0.495321 0.997963 0.679016
0.621361 0.997770 0.675996
0.736381 0.997509 0.672928
0.827959 0.997170 0.670612
0.892511 0.996757 0.670407
0.935943 0.996264 0.674038
0.963114 0.995712 0.683078
0.979326 0.995134 0.697767
0.989123 0.994541 0.717578
0.995786 0.993648 0.742485
1.000003 0.992054 0.807186
1.000003 0.990984 0.850015
1.000003 0.990248 0.878863
1.000003 0.989739 0.900232
1.000003 0.989424 0.915821
1.000003 0.989251 0.927731
1.000003 0.989186 0.937265
1.000003 0.989217 0.945819
0.365717 1.000003 0.750607
0.365642 1.000003 0.750568
0.365539 1.000003 0.750515
0.365405 1.000003 0.750442
0.365234 1.000003 0.750351
0.364871 1.000003 0.750147
0.364261 1.000003 0.749777
0.363419 1.000003 0.749157
0.362743 0.999999 0.748276
0.363134 0.999969 0.747190
0.366123 0.999934 0.745961
0.374005 0.999895 0.744642
0.390519 0.999850 0.743215
0.420926 0.999794 0.741665
0.473015 0.999723 0.739920
0.550403 0.999629 0.737915
0.641802 0.999499 0.735627
0.735134 0.999323 0.733156
0.817463 0.999090 0.730897
0.880584 0.998801 0.729642
0.925879 0.998449 0.730469
0.955610 0.998050 0.734591
0.973988 0.997627 0.742574
0.985402 0.997187 0.754487
0.992263 0.996757 0.769095
0.997032 0.996132 0.785955
1.000003 0.994993 0.831834
1.000003 0.994083 0.869546
1.000003 0.993514 0.891982
1.000003 0.993107 0.908451
1.000003 0.992815 0.921157
1.000003 0.992612 0.931404
1.000003 0.992472 0.940650
0.487923 1.000003 0.792865
0.487839 1.000003 0.792831
0.487724 1.000003 0.792786
0.487573 1.000003 0.792725
0.487382 1.000003 0.792648
0.486966 1.000003 0.792474
0.486250 1.000003 0.792161
0.485182 1.000003 0.791636
0.484049 1.000003 0.790890
0.483566 1.000003 0.789973
0.484928 1.000003 0.788940
0.489874 1.000003 0.787843
0.501073 1.000003 0.786671
0.521892 1.000003 0.785422
0.556235 1.000003 0.784047
0.606522 1.000003 0.782495
0.671129 1.000003 0.780728
0.743660 1.000003 0.778766
0.813970 1.000003 0.776797
0.872584 1.000003 0.775289
0.917621 0.999953 0.774899
0.948788 0.999659 0.776507
0.968827 0.999344 0.780691
0.981648 0.999012 0.787726
0.989541 0.998685 0.797038
0.994585 0.998363 0.808206
0.997863 0.997942 0.818992
1.000003 0.997143 0.850451
1.000003 0.996385 0.882677
1.000003 0.995921 0.901522
1.000003 0.995587 0.914855
1.000003 0.995325 0.925696
1.000003 0.995102 0.935545
0.582988 1.000003 0.824232
0.582917 1.000003 0.824202
0.582822 1.000003 0.824163
0.582691 1.000003 0.824111
0.582528 1.000003 0.824044
0.582171 1.000003 0.823894
0.581546 1.000003 0.823623
0.580581 1.000003 0.823169
0.579444 1.000003 0.822526
0.578610 1.000003 0.821737
0.578850 1.000003 0.820850
0.581285 1.000003 0.819913
