StdX_ACES-Global/Looks/AgX__AP0-Egamut2-tloge_to_p3-display.cube
TITLE "Generated by Foundry::LUT"
LUT_3D_SIZE 8
DOMAIN_MIN 0.000000 0.000000 0.000000
DOMAIN_MAX 0.903226 0.903226 0.903226
0.000000 0.000000 0.000001
0.044139 0.004950 0.000000
0.203790 0.034501 0.000000
0.506480 0.087208 0.000000
0.860620 0.317203 0.242971
0.998448 0.673667 0.632739
1.000012 0.880115 0.858995
1.000012 0.991077 0.980214
0.000000 0.059961 0.021679
0.059634 0.061379 0.000000
0.209300 0.073173 0.000000
0.508380 0.100632 0.000000
0.860790 0.317493 0.243274
0.998454 0.673708 0.632785
1.000012 0.880118 0.858999
1.000012 0.991077 0.980214
0.000000 0.213685 0.069500
0.084612 0.215989 0.000000
0.226772 0.219721 0.000000
0.518779 0.238821 0.000000
0.858451 0.358824 0.248404
0.998479 0.673880 0.632974
1.000012 0.880136 0.859018
1.000012 0.991079 0.980216
0.092177 0.517823 0.004049
0.152959 0.517904 0.000000
0.272345 0.518044 0.000000
0.536922 0.518084 0.000000
0.845281 0.515073 0.279568
0.997627 0.696972 0.638541
1.000012 0.880220 0.859109
1.000012 0.991086 0.980227
0.409862 0.817284 0.251569
0.417846 0.816934 0.253216
0.446784 0.815604 0.259483
0.557926 0.809720 0.291403
0.812460 0.791432 0.415851
0.986756 0.780766 0.664756
1.000012 0.892238 0.862147
1.000012 0.991122 0.980279
0.729542 0.964074 0.650874
0.730335 0.964007 0.651109
0.733541 0.963740 0.652063
0.747367 0.962541 0.656292
0.806321 0.957389 0.676645
0.956392 0.943069 0.745744
1.000012 0.936312 0.876048
1.000012 0.996478 0.981985
0.909567 1.000012 0.868919
0.909651 1.000012 0.868945
0.909997 1.000012 0.869051
0.911551 1.000012 0.869525
0.918834 1.000012 0.871789
0.950486 1.000012 0.882594
1.000012 1.000012 0.919170
1.000012 1.000012 0.989682
1.000012 1.000012 0.985936
1.000012 1.000012 0.985938
1.000012 1.000012 0.985949
1.000012 1.000012 0.986003
1.000012 1.000012 0.986265
1.000012 1.000012 0.987560
1.000012 1.000012 0.993593
1.000012 1.000012 1.000012
0.000000 0.016952 0.052822
0.060886 0.000000 0.063105
0.207296 0.000000 0.053682
0.508927 0.087709 0.000000
0.860899 0.317677 0.243468
0.998458 0.673734 0.632814
1.000012 0.880122 0.859002
1.000012 0.991078 0.980215
0.000000 0.068616 0.070110
0.068408 0.064033 0.062248
0.218146 0.055867 0.000000
0.511011 0.107202 0.000000
0.861068 0.317967 0.243771
0.998464 0.673776 0.632859
1.000012 0.880126 0.859007
1.000012 0.991078 0.980215
0.000000 0.212070 0.091622
0.057218 0.214024 0.000000
0.227465 0.217725 0.000000
0.521111 0.241564 0.000000
0.858636 0.360204 0.249020
0.998489 0.673948 0.633049
1.000012 0.880142 0.859025
1.000012 0.991079 0.980217
0.069643 0.516909 0.000000
0.139281 0.517054 0.000000
0.270207 0.517683 0.000000
0.538875 0.518986 0.000000
0.845486 0.515800 0.280176
0.997643 0.697147 0.638640
1.000012 0.880226 0.859116
1.000012 0.991087 0.980228
0.407193 0.817283 0.250838
0.415588 0.816937 0.252573
0.446101 0.815602 0.259305
0.559021 0.809766 0.292003
0.812719 0.791515 0.416168
0.986769 0.780859 0.664840
1.000012 0.892255 0.862157
1.000012 0.991123 0.980280
0.729353 0.964081 0.650802
0.730181 0.964014 0.651051
0.733523 0.963743 0.652058
0.747560 0.962536 0.656376
0.806450 0.957390 0.676716
0.956422 0.943078 0.745779
1.000012 0.936322 0.876056
1.000012 0.996480 0.981986
0.909581 1.000012 0.868925
0.909667 1.000012 0.868952
0.910019 1.000012 0.869060
0.911570 1.000012 0.869534
0.918855 1.000012 0.871799
0.950501 1.000012 0.882602
1.000012 1.000012 0.919173
1.000012 1.000012 0.989683
1.000012 1.000012 0.985936
1.000012 1.000012 0.985939
1.000012 1.000012 0.985950
1.000012 1.000012 0.986003
1.000012 1.000012 0.986266
1.000012 1.000012 0.987561
1.000012 1.000012 0.993593
1.000012 1.000012 1.000012
0.048905 0.047744 0.190621
0.102213 0.047503 0.201011
0.222824 0.024999 0.215854
0.510742 0.000000 0.201271
0.862118 0.319125 0.245525
0.998499 0.674016 0.633123
1.000012 0.880149 0.859032
1.000012 0.991080 0.980218
0.000000 0.094244 0.215015
0.081349 0.071389 0.230089
0.231333 0.043757 0.220989
0.517670 0.000000 0.184631
0.862287 0.319416 0.245826
0.998505 0.674057 0.633169
1.000012 0.880153 0.859037
1.000012 0.991081 0.980219
0.000000 0.220281 0.222753
0.046053 0.219027 0.220526
0.228018 0.214783 0.209412
0.542213 0.183619 0.118959
0.859460 0.366310 0.251540
0.998530 0.674228 0.633358
1.000012 0.880170 0.859055
1.000012 0.991081 0.980220
0.000000 0.510076 0.215232
0.000000 0.512378 0.185730
0.194032 0.514491 0.083617
0.527763 0.504097 0.000000
0.846358 0.518614 0.282644
0.997711 0.697861 0.639046
1.000012 0.880253 0.859146
1.000012 0.991089 0.980231
0.371560 0.817309 0.241647
0.381458 0.816937 0.243330
0.417217 0.815424 0.250426
0.545736 0.809102 0.285240
0.813778 0.791845 0.417445
0.986822 0.781246 0.665187
1.000012 0.892329 0.862198
1.000012 0.991125 0.980283
0.726283 0.964185 0.649608
0.727122 0.964117 0.649858
0.730523 0.963842 0.650872
0.745286 0.962595 0.655424
0.806985 0.957394 0.677012
0.956548 0.943115 0.745921
1.000012 0.936360 0.876090
1.000012 0.996486 0.981991
0.909267 1.000012 0.868801
0.909355 1.000012 0.868828
0.909715 1.000012 0.868939
0.911333 1.000012 0.869439
0.918941 1.000012 0.871837
0.950561 1.000012 0.882634
1.000012 1.000012 0.919188
1.000012 1.000012 0.989687
1.000012 1.000012 0.985929
1.000012 1.000012 0.985932
1.000012 1.000012 0.985943
1.000012 1.000012 0.986000
1.000012 1.000012 0.986270
1.000012 1.000012 0.987566
1.000012 1.000012 0.993597
1.000012 1.000012 1.000012
0.151758 0.139481 0.509369
0.183716 0.138844 0.511062
0.277681 0.134800 0.516203
0.540611 0.102254 0.519293
0.865629 0.295417 0.462572
0.998843 0.672688 0.634533
1.000012 0.880287 0.859182
1.000012 0.991091 0.980235
0.116532 0.146582 0.526297
0.162240 0.145682 0.526899
0.270695 0.140170 0.528036
0.544299 0.103494 0.521486
0.867133 0.295851 0.457143
0.998849 0.672731 0.634579
1.000012 0.880290 0.859186
1.000012 0.991092 0.980235
0.005158 0.241282 0.542084
0.068901 0.235114 0.547036
0.251936 0.228749 0.543407
0.549084 0.200260 0.521988
0.870833 0.313412 0.438906
0.998811 0.674760 0.635117
1.000012 0.880307 0.859204
1.000012 0.991094 0.980237
0.004260 0.519824 0.523467
0.051030 0.519658 0.522858
0.223928 0.518078 0.519259
0.532094 0.507889 0.498204
0.848637 0.504398 0.447074
0.998157 0.699055 0.640831
1.000012 0.880390 0.859295
1.000012 0.991101 0.980248
0.382558 0.811497 0.465742
0.391142 0.811121 0.465152
0.423708 0.809700 0.462785
0.537367 0.803515 0.452392
0.806864 0.781655 0.422032
0.987373 0.781877 0.666510
1.000012 0.892696 0.862401
1.000012 0.991137 0.980300
0.709393 0.964836 0.643370
0.710330 0.964760 0.643624
0.713881 0.964463 0.644594
0.730695 0.963036 0.649545
0.798531 0.957261 0.672381
0.957036 0.943157 0.746333
1.000012 0.936555 0.876257
1.000012 0.996520 0.982014
0.907662 1.000012 0.868166
0.907752 1.000012 0.868192
0.908108 1.000012 0.868301
0.909705 1.000012 0.868789
0.917584 1.000012 0.871266
0.950755 1.000012 0.882736
1.000012 1.000012 0.919267
1.000012 1.000012 0.989706
1.000012 1.000012 0.985859
1.000012 1.000012 0.985862
1.000012 1.000012 0.985873
1.000012 1.000012 0.985930
1.000012 1.000012 0.986208
1.000012 1.000012 0.987586
1.000012 1.000012 0.993615
1.000012 1.000012 1.000012
0.414455 0.377113 0.825362
0.421960 0.377858 0.825217
0.452370 0.380582 0.824517
0.571620 0.394387 0.820867
0.833911 0.468244 0.804010
0.999488 0.679157 0.755180
1.000012 0.879353 0.859832
1.000012 0.991151 0.980320
0.410760 0.379612 0.827440
0.418215 0.380355 0.827299
0.448635 0.383056 0.826597
0.570748 0.396102 0.822243
0.834391 0.468853 0.804264
0.999516 0.679237 0.754624
1.000012 0.879357 0.859837
1.000012 0.991151 0.980320
0.387684 0.391140 0.836640
0.396194 0.391693 0.836367
0.432542 0.393438 0.834908
0.564644 0.403986 0.828377
0.836193 0.471253 0.805116
0.999577 0.679545 0.752403
1.000012 0.879375 0.859855
1.000012 0.991153 0.980323
0.367391 0.521088 0.838391
0.380427 0.522854 0.837666
0.428994 0.529333 0.834865
0.573714 0.545013 0.825010
0.828043 0.563299 0.799545
0.999756 0.690974 0.745915
1.000012 0.880712 0.860199
1.000012 0.991160 0.980333
0.492223 0.800184 0.801915
0.498653 0.799895 0.801557
0.524168 0.798750 0.800134
0.614108 0.794148 0.794336
0.799610 0.784566 0.778688
0.983251 0.785690 0.756720
1.000012 0.893113 0.863254
1.000012 0.991196 0.980385
0.736035 0.958010 0.766136
0.736758 0.957951 0.766082
0.739704 0.957712 0.765857
0.752407 0.956659 0.764776
0.804966 0.952254 0.760296
0.953331 0.937580 0.750310
1.000012 0.936778 0.876858
1.000012 0.996683 0.982130
0.898791 1.000012 0.864826
0.898878 1.000012 0.864851
0.899235 1.000012 0.864952
0.900987 1.000012 0.865452
0.910014 1.000012 0.868180
0.946112 1.000012 0.880284
1.000012 1.000012 0.919463
1.000012 1.000012 0.989800
1.000012 1.000012 0.985502
1.000012 1.000012 0.985505
1.000012 1.000012 0.985516
1.000012 1.000012 0.985573
1.000012 1.000012 0.985852
1.000012 1.000012 0.987264
1.000012 1.000012 0.993667
1.000012 1.000012 1.000012
0.726941 0.701339 0.972941
0.727787 0.701475 0.972895
0.731242 0.702025 0.972706
0.748868 0.704839 0.971633
0.816590 0.718833 0.966852
0.972167 0.769835 0.952286
1.000012 0.883799 0.923150
1.000012 0.990719 0.980690
0.726625 0.701651 0.973150
0.727470 0.701786 0.973104
0.730921 0.702336 0.972915
0.748560 0.705153 0.971840
0.816507 0.719025 0.966985
0.972219 0.769905 0.952313
1.000012 0.883806 0.923091
1.000012 0.990719 0.980692
0.725229 0.702940 0.974009
0.726196 0.703041 0.973945
0.729656 0.703584 0.973753
0.747344 0.706415 0.972669
0.815996 0.719888 0.967579
0.972429 0.770175 0.952413
1.000012 0.883839 0.922861
1.000012 0.990720 0.980694
0.713770 0.710707 0.979211
0.714716 0.710808 0.979148
0.718578 0.711219 0.978892
0.739485 0.713302 0.977278
0.812813 0.724600 0.970900
0.973397 0.771546 0.952822
1.000012 0.883999 0.921695
1.000012 0.990728 0.980704
0.713762 0.788916 0.976101
0.715168 0.789210 0.975960
0.720920 0.790411 0.975381
0.746983 0.795885 0.972712
0.823355 0.807529 0.964881
0.966076 0.820862 0.948431
1.000012 0.890241 0.918593
1.000012 0.991328 0.980903
0.790105 0.949042 0.949887
0.790738 0.949000 0.949838
0.793336 0.948828 0.949636
0.804801 0.948056 0.948713
0.849258 0.945044 0.945064
0.947900 0.939389 0.936097
1.000012 0.940181 0.924927
1.000012 0.996870 0.982615
0.914709 1.000012 0.929813
0.914784 1.000012 0.929808
0.915096 1.000012 0.929783
0.916629 1.000012 0.929664
0.922918 1.000012 0.929090
0.950696 1.000012 0.926723
1.000012 1.000012 0.921912
1.000012 1.000012 0.990179
0.998674 1.000012 0.983654
0.998674 1.000012 0.983656
0.998674 1.000012 0.983668
0.998673 1.000012 0.983726
0.998672 1.000012 0.984011
1.000012 1.000012 0.985543
1.000012 1.000012 0.992301
1.000012 1.000012 1.000012
0.908023 0.894185 1.000012
0.908115 0.894200 1.000012
0.908496 0.894265 1.000012
0.910379 0.894581 1.000012
0.920019 0.896218 1.000012
0.956334 0.903965 1.000012
1.000012 0.931939 1.000012
1.000012 0.992876 1.000012
0.907989 0.894219 1.000012
0.908081 0.894235 1.000012
0.908462 0.894299 1.000012
0.910344 0.894616 1.000012
0.919985 0.896252 1.000012
0.956325 0.903987 1.000012
1.000012 0.931947 1.000012
1.000012 0.992878 1.000012
0.907850 0.894360 1.000012
0.907942 0.894376 1.000012
0.908323 0.894440 1.000012
0.910204 0.894756 1.000012
0.919843 0.896393 1.000012
0.956285 0.904073 1.000012
1.000012 0.931976 1.000012
1.000012 0.992880 1.000012
0.907080 0.895075 1.000012
0.907184 0.895087 1.000012
0.907617 0.895136 1.000012
0.909529 0.895440 1.000012
0.919163 0.897080 1.000012
0.955988 0.904554 1.000012
1.000012 0.932115 1.000012
1.000012 0.992898 1.000012
0.901298 0.899216 1.000012
0.901400 0.899227 1.000012
0.901824 0.899275 1.000012
0.903919 0.899512 1.000012
0.915030 0.900712 1.000012
0.954325 0.907049 1.000012
1.000012 0.932858 1.000012
1.000012 0.992962 1.000012
0.902219 0.941530 1.000012
0.902371 0.941564 1.000012
0.903001 0.941708 1.000012
0.906122 0.942415 1.000012
0.919239 0.945397 1.000012
0.960671 0.952057 1.000012
1.000012 0.959539 1.000012
1.000012 0.995418 1.000012
0.943268 1.000012 1.000012
0.943329 1.000012 1.000012
0.943582 1.000012 1.000012
0.944839 1.000012 1.000012
0.950868 1.000012 1.000012
0.974994 1.000012 1.000012
1.000012 1.000012 1.000012
1.000012 1.000012 1.000012
1.000012 1.000012 1.000012
1.000012 1.000012 1.000012
1.000012 1.000012 1.000012
1.000012 1.000012 1.000012
1.000012 1.000012 1.000012
1.000012 1.000012 1.000012
1.000012 1.000012 1.000012
1.000012 1.000012 1.000012
0.999841 0.998872 1.000012
0.999841 0.998874 1.000012
0.999843 0.998882 1.000012
0.999854 0.998921 1.000012
0.999905 0.999114 1.000012
1.000012 0.999482 1.000012
1.000012 1.000012 1.000012
1.000012 1.000012 1.000012
0.999840 0.998875 1.000012
0.999840 0.998877 1.000012
0.999843 0.998884 1.000012
0.999854 0.998924 1.000012
0.999906 0.999117 1.000012
1.000012 0.999485 1.000012
1.000012 1.000012 1.000012
1.000012 1.000012 1.000012
0.999841 0.998885 1.000012
0.999841 0.998887 1.000012
0.999843 0.998895 1.000012
0.999854 0.998934 1.000012
0.999906 0.999127 1.000012
1.000012 0.999493 1.000012
1.000012 1.000012 1.000012
1.000012 1.000012 1.000012
0.999842 0.998936 1.000012
0.999842 0.998937 1.000012
0.999845 0.998945 1.000012
0.999855 0.998984 1.000012
0.999908 0.999177 1.000012
1.000012 0.999538 1.000012
1.000012 1.000012 1.000012
1.000012 1.000012 1.000012
0.999683 0.999226 1.000012
0.999687 0.999227 1.000012
0.999706 0.999230 1.000012
0.999797 0.999246 1.000012
0.999916 0.999420 1.000012
1.000012 0.999752 1.000012
1.000012 1.000012 1.000012
1.000012 1.000012 1.000012
0.999009 0.999818 1.000012
0.999013 0.999819 1.000012
0.999031 0.999822 1.000012
0.999119 0.999839 1.000012
0.999557 0.999922 1.000012
1.000012 1.000012 1.000012
1.000012 1.000012 1.000012
1.000012 1.000012 1.000012
1.000012 1.000012 1.000012
1.000012 1.000012 1.000012
1.000012 1.000012 1.000012
1.000012 1.000012 1.000012
1.000012 1.000012 1.000012
1.000012 1.000012 1.000012
1.000012 1.000012 1.000012
1.000012 1.000012 1.000012
1.000012 1.000012 1.000012
1.000012 1.000012 1.000012
1.000012 1.000012 1.000012
1.000012 1.000012 1.000012
1.000012 1.000012 1.000012
1.000012 1.000012 1.000012
1.000012 1.000012 1.000012
1.000012 1.000012 1.000012
