StdX_ACES-Global/Looks/AgX__AP0-Egamut2-tloge_to_srgb-display.cube
TITLE "Generated by Foundry::LUT"
LUT_3D_SIZE 32
0.000000 0.000000 0.000001
0.000000 0.000000 0.000001
0.000000 0.000000 0.000001
0.000000 0.000000 0.000001
0.047433 0.000000 0.005989
0.086268 0.000000 0.005835
0.125237 0.000000 0.004342
0.168304 0.000274 0.000872
0.219079 0.003041 0.000000
0.279341 0.000000 0.002772
0.352767 0.000000 0.006854
0.439778 0.000000 0.005711
0.542871 0.019713 0.000000
0.653478 0.046997 0.000000
0.762649 0.085805 0.000000
0.863527 0.146747 0.033019
0.934829 0.261902 0.195931
0.985187 0.378934 0.320403
1.000012 0.484183 0.434233
1.000012 0.575697 0.533247
1.000012 0.655086 0.619174
1.000012 0.722801 0.692442
1.000012 0.779902 0.754163
1.000012 0.828987 0.807151
1.000012 0.871129 0.852565
1.000012 0.906550 0.890640
1.000012 0.937270 0.923586
1.000012 0.964006 0.952189
1.000012 0.986943 0.976660
1.000012 0.999660 0.995248
1.000012 1.000012 1.000012
1.000012 1.000012 1.000012
0.000000 0.000000 0.000001
0.000000 0.000000 0.000001
0.000000 0.000000 0.000001
0.000000 0.000000 0.000001
0.050688 0.000000 0.006035
0.088263 0.000000 0.005782
0.126655 0.000000 0.004263
0.169433 0.000375 0.000831
0.219904 0.003044 0.000000
0.280059 0.000000 0.002822
0.353314 0.000000 0.006873
0.440195 0.000000 0.005698
0.543210 0.019782 0.000000
0.653706 0.047064 0.000000
0.762799 0.085863 0.000000
0.863601 0.146847 0.033182
0.934865 0.261977 0.196011
0.985206 0.378981 0.320454
1.000012 0.484209 0.434261
1.000012 0.575712 0.533264
1.000012 0.655095 0.619184
1.000012 0.722806 0.692447
1.000012 0.779905 0.754166
1.000012 0.828988 0.807153
1.000012 0.871130 0.852566
1.000012 0.906551 0.890640
1.000012 0.937271 0.923586
1.000012 0.964006 0.952190
1.000012 0.986944 0.976660
1.000012 0.999660 0.995248
1.000012 1.000012 1.000012
1.000012 1.000012 1.000012
0.000000 0.000000 0.000001
0.000000 0.000000 0.000001
0.000000 0.000000 0.000001
0.001976 0.000000 0.000334
0.053664 0.000000 0.006076
0.090188 0.000000 0.005731
0.128046 0.000000 0.004187
0.170550 0.000478 0.000791
0.220723 0.003047 0.000000
0.280773 0.000000 0.002872
0.353858 0.000000 0.006892
0.440610 0.000000 0.005685
0.543549 0.019850 0.000000
0.653934 0.047131 0.000000
0.762948 0.085920 0.000000
0.863676 0.146947 0.033345
0.934902 0.262052 0.196091
0.985225 0.379029 0.320504
1.000012 0.484235 0.434289
1.000012 0.575728 0.533281
1.000012 0.655105 0.619194
1.000012 0.722810 0.692452
1.000012 0.779908 0.754169
1.000012 0.828990 0.807155
1.000012 0.871131 0.852567
1.000012 0.906551 0.890641
1.000012 0.937271 0.923586
1.000012 0.964007 0.952190
1.000012 0.986944 0.976660
1.000012 0.999660 0.995248
1.000012 1.000012 1.000012
1.000012 1.000012 1.000012
0.000000 0.023857 0.012080
0.000000 0.023521 0.011912
0.000000 0.023180 0.011742
0.010855 0.022638 0.000000
0.057518 0.026575 0.000000
0.092956 0.028197 0.000000
0.129978 0.028733 0.000000
0.171993 0.028147 0.000000
0.221745 0.025759 0.000000
0.281624 0.019474 0.000000
0.354456 0.000000 0.006913
0.441067 0.000000 0.005670
0.543922 0.019926 0.000000
0.654185 0.047205 0.000000
0.763112 0.085983 0.000000
0.863757 0.147057 0.033524
0.934941 0.262134 0.196179
0.985246 0.379081 0.320559
1.000012 0.484264 0.434320
1.000012 0.575745 0.533300
1.000012 0.655115 0.619206
1.000012 0.722816 0.692458
1.000012 0.779911 0.754172
1.000012 0.828992 0.807157
1.000012 0.871132 0.852568
1.000012 0.906552 0.890642
1.000012 0.937272 0.923587
1.000012 0.964007 0.952190
1.000012 0.986944 0.976661
1.000012 0.999660 0.995248
1.000012 1.000012 1.000012
1.000012 1.000012 1.000012
0.000000 0.061865 0.030297
0.000000 0.061718 0.030229
0.000000 0.061571 0.030160
0.001634 0.061095 0.010940
0.060013 0.062090 0.000000
0.095391 0.064053 0.000000
0.132320 0.065648 0.000000
0.174171 0.066853 0.000000
0.223546 0.067576 0.000000
0.283273 0.067519 0.000000
0.355835 0.066096 0.000000
0.442045 0.063111 0.000000
0.544537 0.058928 0.000000
0.654497 0.059868 0.000000
0.763354 0.086075 0.000000
0.863877 0.147219 0.033787
0.935000 0.262256 0.196308
0.985276 0.379157 0.320641
1.000012 0.484306 0.434366
1.000012 0.575770 0.533327
1.000012 0.655130 0.619222
1.000012 0.722824 0.692466
1.000012 0.779916 0.754177
1.000012 0.828995 0.807160
1.000012 0.871133 0.852570
1.000012 0.906552 0.890642
1.000012 0.937272 0.923588
1.000012 0.964007 0.952190
1.000012 0.986944 0.976660
1.000012 0.999660 0.995248
1.000012 1.000012 1.000012
1.000012 1.000012 1.000012
0.000000 0.094852 0.045828
0.000000 0.094748 0.045779
0.000000 0.094644 0.045729
0.001774 0.094346 0.018202
0.060204 0.094822 0.000000
0.096219 0.095543 0.000000
0.133694 0.097199 0.000000
0.176024 0.098848 0.000000
0.225310 0.100297 0.000000
0.285157 0.101423 0.000000
0.357464 0.102034 0.000000
0.443348 0.101839 0.000000
0.545417 0.101031 0.000000
0.654685 0.102556 0.000000
0.763015 0.113988 0.000000
0.863694 0.154356 0.034143
0.935088 0.262436 0.196500
0.985322 0.379272 0.320763
1.000012 0.484369 0.434434
1.000012 0.575808 0.533368
1.000012 0.655153 0.619246
1.000012 0.722835 0.692479
1.000012 0.779923 0.754185
1.000012 0.828999 0.807164
1.000012 0.871136 0.852572
1.000012 0.906554 0.890644
1.000012 0.937273 0.923588
1.000012 0.964008 0.952191
1.000012 0.986944 0.976661
1.000012 0.999660 0.995248
1.000012 1.000012 1.000012
1.000012 1.000012 1.000012
0.000000 0.129667 0.062370
0.000000 0.129588 0.062333
0.000000 0.129482 0.058805
0.000000 0.129497 0.035156
0.057444 0.129895 0.000000
0.096891 0.130368 0.000000
0.134155 0.131061 0.000000
0.177317 0.132895 0.000000
0.226839 0.134819 0.000000
0.287137 0.136689 0.000000
0.359321 0.138285 0.000000
0.445016 0.139484 0.000000
0.546527 0.140239 0.000000
0.654809 0.142015 0.000000
0.762274 0.149752 0.000000
0.862313 0.181055 0.034524
0.934247 0.271943 0.196699
0.985391 0.379443 0.320945
1.000012 0.484463 0.434535
1.000012 0.575864 0.533429
1.000012 0.655186 0.619283
1.000012 0.722853 0.692498
1.000012 0.779933 0.754196
1.000012 0.829005 0.807171
1.000012 0.871139 0.852576
1.000012 0.906556 0.890646
1.000012 0.937274 0.923590
1.000012 0.964008 0.952191
1.000012 0.986945 0.976661
1.000012 0.999660 0.995249
1.000012 1.000012 1.000012
1.000012 1.000012 1.000012
0.000000 0.169508 0.081428
0.000000 0.169460 0.080567
0.000000 0.169555 0.068620
0.000000 0.169845 0.047239
0.047459 0.170335 0.000000
0.095153 0.170719 0.000000
0.134806 0.171258 0.000000
0.177903 0.172091 0.000000
0.228027 0.174313 0.000000
0.288961 0.176806 0.000000
0.361252 0.179198 0.000000
0.446966 0.181179 0.000000
0.547714 0.182626 0.000000
0.654790 0.184275 0.000000
0.761035 0.189707 0.000000
0.860215 0.214259 0.035172
0.932411 0.290876 0.196874
0.983924 0.389004 0.321773
1.000012 0.485713 0.434792
1.000012 0.575949 0.533520
1.000012 0.655236 0.619337
1.000012 0.722879 0.692526
1.000012 0.779949 0.754213
1.000012 0.829014 0.807181
1.000012 0.871143 0.852580
1.000012 0.906559 0.890649
1.000012 0.937276 0.923591
1.000012 0.964009 0.952193
1.000012 0.986945 0.976662
1.000012 0.999660 0.995249
1.000012 1.000012 1.000012
1.000012 1.000012 1.000012
0.000000 0.216968 0.101676
0.000000 0.217177 0.092612
0.000000 0.217474 0.080833
0.000000 0.217885 0.062517
0.033821 0.218543 0.008955
0.089638 0.218942 0.000000
0.133123 0.219385 0.000000
0.177868 0.219976 0.000000
0.229088 0.220956 0.000000
0.290366 0.223652 0.000000
0.362828 0.226454 0.000000
0.448948 0.228936 0.000000
0.548851 0.230651 0.000000
0.654447 0.231807 0.000000
0.759078 0.235125 0.000000
0.857089 0.253422 0.036073
0.929681 0.315359 0.197383
0.981697 0.402933 0.323071
1.000012 0.493546 0.435755
1.000012 0.577713 0.533844
1.000012 0.655312 0.619419
1.000012 0.722919 0.692569
1.000012 0.779972 0.754238
1.000012 0.829028 0.807196
1.000012 0.871150 0.852588
1.000012 0.906563 0.890653
1.000012 0.937278 0.923595
1.000012 0.964011 0.952194
1.000012 0.986946 0.976663
1.000012 0.999660 0.995249
1.000012 1.000012 1.000012
1.000012 1.000012 1.000012
0.000000 0.274243 0.116089
0.000000 0.274594 0.107322
0.000000 0.274997 0.096344
0.000000 0.275497 0.080029
0.017854 0.276196 0.041614
0.072544 0.276884 0.000000
0.127090 0.277258 0.000000
0.176545 0.277782 0.000000
0.229917 0.278494 0.000000
0.290951 0.279667 0.000000
0.363802 0.282703 0.000000
0.450463 0.285514 0.000000
0.549344 0.287230 0.000000
0.652966 0.287510 0.000000
0.755688 0.288744 0.000000
0.852521 0.299604 0.037369
0.925664 0.348022 0.198138
0.978470 0.422083 0.325081
1.000012 0.504505 0.437194
1.000012 0.584064 0.534772
1.000012 0.657165 0.619764
1.000012 0.722977 0.692632
1.000012 0.780007 0.754276
1.000012 0.829049 0.807218
1.000012 0.871161 0.852600
1.000012 0.906569 0.890661
1.000012 0.937281 0.923598
1.000012 0.964013 0.952197
1.000012 0.986947 0.976664
1.000012 0.999660 0.995250
1.000012 1.000012 1.000012
1.000012 1.000012 1.000012
0.000000 0.343424 0.133814
0.000000 0.343863 0.124608
0.000000 0.344280 0.115999
0.000000 0.344837 0.100778
0.003461 0.345589 0.077532
0.052604 0.346470 0.017116
0.112629 0.346997 0.000000
0.170724 0.347377 0.000000
0.227856 0.347898 0.000000
0.290943 0.348600 0.000000
0.364019 0.349753 0.000000
0.451197 0.352238 0.000000
0.548787 0.353288 0.000000
0.650240 0.351964 0.000000
0.750662 0.350084 0.000000
0.845832 0.355704 0.039867
0.919886 0.388134 0.200146
0.973725 0.448350 0.328260
1.000012 0.519925 0.439379
1.000012 0.593130 0.536167
1.000012 0.662315 0.620605
1.000012 0.724713 0.692954
1.000012 0.780058 0.754332
1.000012 0.829079 0.807251
1.000012 0.871178 0.852617
1.000012 0.906579 0.890671
1.000012 0.937288 0.923605
1.000012 0.964016 0.952201
1.000012 0.986949 0.976666
1.000012 0.999660 0.995250
1.000012 1.000012 1.000012
1.000012 1.000012 1.000012
0.000000 0.425940 0.153627
0.000000 0.426398 0.145987
0.000000 0.426848 0.136740
0.000000 0.427337 0.124917
0.000000 0.428147 0.106715
0.027880 0.429032 0.062681
0.094490 0.430109 0.000000
0.157876 0.430321 0.000000
0.221381 0.430597 0.000000
0.288369 0.430946 0.000000
0.363702 0.431380 0.000000
0.450076 0.431968 0.000000
0.545736 0.431364 0.000000
0.644502 0.427497 0.000000
0.742532 0.421439 0.000000
0.836648 0.418193 0.044170
0.911592 0.437923 0.204268
0.967121 0.482115 0.333189
1.000012 0.541555 0.442744
1.000012 0.605772 0.538256
1.000012 0.669888 0.621890
1.000012 0.728962 0.693679
1.000012 0.781646 0.754632
1.000012 0.829125 0.807301
1.000012 0.871202 0.852643
1.000012 0.906593 0.890687
1.000012 0.937296 0.923613
1.000012 0.964022 0.952206
1.000012 0.986952 0.976669
1.000012 0.999660 0.995251
1.000012 1.000012 1.000012
1.000012 1.000012 1.000012
0.000000 0.517550 0.172312
0.000000 0.517912 0.165910
0.000000 0.518355 0.155837
0.000000 0.518871 0.143928
0.000000 0.519574 0.127797
0.005220 0.520471 0.102519
0.063982 0.521225 0.046654
0.140856 0.521934 0.000000
0.212024 0.521702 0.000000
0.282328 0.521418 0.000000
0.359200 0.520944 0.000000
0.445267 0.520217 0.000000
0.540407 0.518725 0.000000
0.636337 0.511080 0.000000
0.731883 0.499762 0.000000
0.824278 0.489969 0.051967
0.900431 0.495133 0.213118
0.957905 0.524373 0.341087
0.996447 0.569326 0.447804
1.000012 0.623363 0.541427
1.000012 0.680427 0.623798
1.000012 0.735231 0.694789
1.000012 0.785235 0.755268
1.000012 0.830548 0.807573
1.000012 0.871238 0.852682
1.000012 0.906615 0.890709
1.000012 0.937309 0.923628
1.000012 0.964030 0.952214
1.000012 0.986956 0.976673
1.000012 0.999661 0.995254
1.000012 1.000012 1.000012
1.000012 1.000012 1.000012
0.000000 0.607722 0.177199
0.000000 0.608130 0.166029
0.000000 0.608522 0.155347
0.000000 0.608937 0.144110
0.000000 0.609516 0.128510
0.001033 0.610331 0.104570
0.040772 0.610927 0.057342
0.121714 0.611123 0.013579
0.205176 0.610691 0.000000
0.276937 0.609823 0.000000
0.351403 0.608605 0.000000
0.434275 0.606799 0.000000
0.525532 0.604484 0.000000
0.624564 0.600030 0.000000
0.717995 0.583841 0.000000
0.808434 0.567795 0.067382
0.885134 0.562719 0.229356
0.945835 0.574820 0.353003
0.988150 0.605353 0.455445
1.000012 0.646891 0.546205
1.000012 0.694796 0.626640
1.000012 0.743932 0.696428
1.000012 0.790540 0.756243
1.000012 0.833587 0.808126
1.000012 0.872472 0.852915
1.000012 0.906647 0.890744
1.000012 0.937328 0.923647
1.000012 0.964041 0.952226
1.000012 0.986962 0.976680
1.000012 0.999660 0.995256
1.000012 1.000012 1.000012
1.000012 1.000012 1.000012
0.007853 0.690523 0.132635
0.012617 0.690811 0.117163
0.017414 0.691092 0.102241
0.022688 0.691393 0.086433
0.031925 0.691782 0.064863
0.059047 0.692019 0.039075
0.098879 0.692348 0.005683
0.153464 0.692013 0.000000
0.216906 0.691249 0.000000
0.279204 0.690148 0.000000
0.346927 0.688516 0.000000
0.421317 0.686341 0.000000
0.504837 0.683381 0.000000
0.597968 0.679380 0.000000
0.699057 0.671875 0.000000
0.788119 0.650329 0.101151
0.865858 0.635395 0.257486
0.929501 0.634016 0.370984
0.979221 0.647801 0.466459
1.000012 0.676789 0.553228
1.000012 0.714499 0.630946
1.000012 0.756084 0.698889
1.000012 0.797874 0.757674
1.000012 0.838053 0.808968
1.000012 0.875040 0.853381
1.000012 0.907735 0.890950
1.000012 0.937357 0.923679
1.000012 0.964058 0.952245
1.000012 0.986971 0.976690
1.000012 0.999661 0.995260
1.000012 1.000012 1.000012
1.000012 1.000012 1.000012
0.033903 0.765456 0.035199
0.045208 0.765364 0.032504
0.056564 0.765273 0.029871
0.069070 0.765174 0.027044
0.087380 0.765032 0.023023
0.114503 0.764826 0.017296
0.154244 0.764531 0.009388
0.209981 0.764111 0.000000
0.247017 0.763384 0.000000
0.292529 0.762301 0.000000
0.347519 0.760814 0.000000
0.411013 0.758669 0.000000
0.483910 0.755637 0.000000
0.567458 0.751478 0.000000
0.662614 0.745416 0.081968
0.763284 0.735404 0.165766
0.843065 0.712535 0.298081
0.909537 0.699310 0.395881
0.963139 0.699525 0.482925
0.997423 0.713092 0.563267
1.000012 0.739501 0.637182
1.000012 0.772397 0.702554
1.000012 0.808052 0.759807
1.000012 0.844312 0.810217
1.000012 0.878789 0.854087
1.000012 0.909942 0.891354
1.000012 0.938308 0.923860
1.000012 0.964084 0.952272
1.000012 0.986985 0.976704
1.000012 0.999661 0.995266
1.000012 1.000012 1.000012
1.000012 1.000012 1.000012
0.198386 0.828656 0.021251
0.202777 0.828575 0.021241
0.207128 0.828494 0.021232
0.211873 0.828407 0.021222
0.218762 0.828280 0.021206
0.228882 0.828094 0.021184
0.243636 0.827825 0.021150
0.264888 0.827438 0.021098
0.288338 0.826720 0.027049
0.320947 0.825566 0.054821
0.364779 0.824025 0.093676
0.415769 0.821589 0.122322
0.478551 0.818315 0.155866
0.552266 0.813792 0.195445
0.634365 0.807950 0.239468
0.724536 0.800871 0.290810
0.817053 0.790526 0.350792
0.886527 0.768450 0.429025
0.943921 0.756847 0.505348
0.988806 0.757893 0.578086
1.000012 0.770626 0.646120
1.000012 0.793710 0.707916
1.000012 0.822030 0.763024
1.000012 0.852849 0.812047
1.000012 0.884056 0.855133
1.000012 0.913182 0.891969
1.000012 0.940220 0.924212
1.000012 0.964912 0.952430
1.000012 0.987006 0.976726
1.000012 0.999662 0.995275
1.000012 1.000012 1.000012
1.000012 1.000012 1.000012
0.362052 0.875703 0.278703
0.364028 0.875627 0.279106
0.365990 0.875552 0.279505
0.368134 0.875470 0.279941
0.371255 0.875350 0.280575
0.375865 0.875174 0.281511
0.382629 0.874914 0.282884
0.390086 0.874538 0.284414
0.400308 0.873998 0.286513
0.416244 0.873177 0.290185
0.442195 0.871892 0.297111
0.472829 0.870183 0.304974
0.514504 0.867666 0.317770
0.564284 0.864346 0.333497
0.626829 0.859806 0.356820
0.699102 0.854036 0.387315
0.779033 0.847173 0.424853
0.861416 0.837323 0.471092
0.922464 0.816825 0.534073
0.972494 0.806685 0.597537
0.999430 0.808175 0.658879
1.000012 0.819762 0.715429
1.000012 0.840042 0.767658
1.000012 0.864804 0.814842
1.000012 0.891379 0.856686
1.000012 0.917710 0.892874
1.000012 0.943018 0.924744
1.000012 0.966567 0.952736
1.000012 0.987733 0.976863
1.000012 0.999662 0.995288
1.000012 1.000012 1.000012
1.000012 1.000012 1.000012
0.484971 0.914090 0.417809
0.485737 0.914041 0.417977
0.486499 0.913992 0.418144
0.487334 0.913939 0.418328
0.488552 0.913861 0.418595
0.490359 0.913744 0.418992
0.493026 0.913573 0.419577
0.496938 0.913323 0.420434
0.502624 0.912959 0.421679
0.510778 0.912437 0.423462
0.523868 0.911621 0.426554
0.543191 0.910369 0.431475
0.566385 0.908727 0.437381
0.600716 0.906277 0.447333
0.641718 0.903093 0.459777
0.694037 0.898778 0.477787
0.756339 0.893329 0.501997
0.826435 0.886917 0.532448
0.899305 0.877825 0.570452
0.952765 0.859266 0.622546
0.994103 0.850504 0.675688
1.000012 0.852081 0.726266
1.000012 0.862305 0.774165
1.000012 0.880014 0.818808
1.000012 0.901408 0.859012
1.000012 0.924009 0.894218
1.000012 0.946946 0.925532
1.000012 0.968973 0.953195
1.000012 0.988919 0.977123
1.000012 0.999994 0.995356
1.000012 1.000012 1.000012
1.000012 1.000012 1.000012
0.581846 0.946125 0.527203
0.582269 0.946094 0.527301
0.582691 0.946063 0.527398
0.583154 0.946029 0.527505
0.583831 0.945980 0.527662
0.584838 0.945905 0.527894
0.586331 0.945795 0.528238
0.588535 0.945634 0.528747
0.591767 0.945396 0.529492
0.596465 0.945051 0.530575
0.603199 0.944557 0.532125
0.613035 0.943797 0.534562
0.627744 0.942635 0.538419
0.647398 0.941086 0.543560
0.674424 0.938827 0.551385
0.709208 0.935857 0.561911
0.753717 0.931864 0.576919
0.807003 0.926879 0.596885
0.867898 0.921056 0.622186
0.931821 0.912871 0.653901
0.977314 0.896469 0.696758
1.000012 0.888895 0.740621
1.000012 0.890310 0.783595
1.000012 0.899251 0.824458
1.000012 0.914524 0.862376
1.000012 0.932708 0.896241
1.000012 0.952347 0.926688
1.000012 0.972375 0.953877
1.000012 0.990657 0.977517
1.000012 1.000012 0.995480
1.000012 1.000012 1.000012
1.000012 1.000012 1.000012
0.662652 0.972474 0.616073
0.662891 0.972454 0.616130
0.663128 0.972435 0.616187
0.663390 0.972414 0.616250
0.663773 0.972382 0.616341
0.664343 0.972336 0.616477
0.665191 0.972266 0.616680
0.666449 0.972164 0.616981
0.668306 0.972013 0.617425
0.671029 0.971790 0.618075
0.674665 0.971480 0.618953
0.679482 0.971051 0.620129
0.687488 0.970351 0.622192
0.700094 0.969268 0.625559
0.715828 0.967871 0.629770
0.738709 0.965793 0.636474
0.767276 0.963121 0.645145
0.805170 0.959500 0.657774
0.851236 0.954982 0.674694
0.903916 0.949764 0.695946
0.959343 0.942502 0.722406
0.995052 0.928073 0.758479
1.000012 0.921587 0.795774
1.000012 0.923027 0.832470
1.000012 0.930915 0.867101
1.000012 0.944067 0.899159
1.000012 0.959970 0.928459
1.000012 0.977087 0.954884
1.000012 0.992936 0.978100
1.000012 1.000012 0.995689
1.000012 1.000012 1.000012
1.000012 1.000012 1.000012
0.730795 0.993932 0.691223
0.730911 0.993929 0.691252
0.731028 0.993927 0.691281
0.731156 0.993924 0.691313
0.731344 0.993920 0.691360
0.731625 0.993914 0.691429
0.732042 0.993904 0.691534
0.732664 0.993890 0.691688
0.733586 0.993870 0.691918
0.734947 0.993839 0.692256
0.736943 0.993794 0.692752
0.739842 0.993729 0.693472
0.743999 0.993635 0.694504
0.750964 0.993182 0.696329
0.761475 0.992202 0.699178
0.774080 0.990971 0.702601
0.793838 0.989069 0.708409
0.817659 0.986688 0.715641
0.849555 0.983470 0.726147
0.888974 0.979451 0.740325
0.934606 0.974817 0.758217
0.983100 0.968389 0.780573
1.000012 0.955708 0.811145
1.000012 0.950100 0.842930
1.000012 0.951395 0.873832
1.000012 0.958206 0.903229
1.000012 0.969697 0.930956
1.000012 0.983623 0.956401
1.000012 0.996205 0.978966
1.000012 1.000012 0.995952
1.000012 1.000012 1.000012
1.000012 1.000012 1.000012
0.787569 0.999978 0.754738
0.787637 0.999978 0.754755
0.787705 0.999978 0.754772
0.787779 0.999978 0.754791
0.787888 0.999978 0.754818
0.788052 0.999978 0.754859
0.788296 0.999978 0.754921
0.788660 0.999978 0.755012
0.789201 0.999978 0.755148
0.790003 0.999978 0.755350
0.791186 0.999978 0.755648
0.792922 0.999978 0.756084
0.795444 0.999978 0.756718
0.799058 0.999978 0.757626
0.804864 0.999821 0.759162
0.813125 0.999819 0.761420
0.824160 0.999816 0.764432
0.840235 0.999619 0.769143
0.861107 0.999380 0.775458
0.888161 0.999349 0.784261
0.921917 0.999028 0.796161
0.961455 0.996545 0.811255
0.997872 0.991064 0.830191
1.000012 0.979958 0.856102
1.000012 0.975098 0.882706
1.000012 0.976176 0.909098
1.000012 0.982101 0.934508
1.000012 0.992163 0.958581
1.000012 0.999428 0.980265
1.000012 1.000012 0.996302
1.000012 1.000012 1.000012
1.000012 1.000012 1.000012
0.835602 1.000012 0.807663
0.835642 1.000012 0.807673
0.835681 1.000012 0.807683
0.835725 1.000012 0.807694
0.835789 1.000012 0.807710
0.835885 1.000012 0.807734
0.836028 1.000012 0.807771
0.836242 1.000012 0.807825
0.836560 1.000012 0.807906
0.837033 1.000012 0.808026
0.837735 1.000012 0.808204
0.838771 1.000012 0.808466
0.840290 1.000012 0.808851
0.842497 1.000012 0.809410
0.845308 1.000012 0.810121
0.849992 1.000012 0.811370
0.857261 1.000012 0.813363
0.866645 1.000012 0.815928
0.880295 1.000012 0.819925
0.897799 1.000012 0.825182
0.921401 1.000012 0.832792
0.950781 1.000012 0.842999
0.984975 1.000012 0.855846
1.000012 1.000012 0.871881
1.000012 0.998276 0.893797
1.000012 0.995053 0.916726
1.000012 0.996405 0.939573
1.000012 1.000012 0.961612
1.000012 1.000012 0.982148
1.000012 1.000012 0.996968
1.000012 1.000012 1.000012
1.000012 1.000012 1.000012
0.876682 1.000012 0.852738
0.876705 1.000012 0.852745
0.876729 1.000012 0.852750
0.876754 1.000012 0.852757
0.876792 1.000012 0.852767
0.876849 1.000012 0.852781
0.876933 1.000012 0.852802
0.877059 1.000012 0.852834
0.877247 1.000012 0.852882
0.877526 1.000012 0.852953
0.877928 1.000012 0.853055
0.878473 1.000012 0.853193
0.879277 1.000012 0.853397
0.880456 1.000012 0.853697
0.882169 1.000012 0.854131
0.884626 1.000012 0.854753
0.888777 1.000012 0.855859
0.895201 1.000012 0.857618
0.902796 1.000012 0.859684
0.914924 1.000012 0.863217
0.929706 1.000012 0.867615
0.949907 1.000012 0.874036
0.975337 1.000012 0.882706
0.998164 1.000012 0.893671
1.000012 1.000012 0.907418
1.000012 1.000012 0.926298
1.000012 1.000012 0.946151
1.000012 1.000012 0.965891
1.000012 1.000012 0.984771
1.000012 1.000012 0.997652
1.000012 1.000012 1.000012
1.000012 1.000012 1.000012
0.911618 1.000012 0.891339
0.911630 1.000012 0.891342
0.911642 1.000012 0.891345
0.911656 1.000012 0.891348
0.911675 1.000012 0.891353
0.911705 1.000012 0.891361
0.911749 1.000012 0.891372
0.911815 1.000012 0.891389
0.911914 1.000012 0.891414
0.912062 1.000012 0.891451
0.912281 1.000012 0.891507
0.912608 1.000012 0.891590
0.913092 1.000012 0.891712
0.913808 1.000012 0.891894
0.914856 1.000012 0.892158
0.916379 1.000012 0.892544
0.918563 1.000012 0.893096
0.922256 1.000012 0.894078
0.927354 1.000012 0.895461
0.934128 1.000012 0.897296
0.944333 1.000012 0.900234
0.957486 1.000012 0.904116
0.974848 1.000012 0.909550
0.994524 1.000012 0.916939
1.000012 1.000012 0.926334
1.000012 1.000012 0.938167
1.000012 1.000012 0.954503
1.000012 1.000012 0.971541
1.000012 1.000012 0.988548
1.000012 1.000012 0.998544
1.000012 1.000012 1.000012
1.000012 1.000012 1.000012
0.941580 1.000012 0.924202
0.941588 1.000012 0.924204
0.941595 1.000012 0.924205
0.941603 1.000012 0.924208
0.941615 1.000012 0.924211
0.941633 1.000012 0.924215
0.941659 1.000012 0.924221
0.941699 1.000012 0.924232
0.941758 1.000012 0.924247
0.941847 1.000012 0.924269
0.941978 1.000012 0.924302
0.942174 1.000012 0.924352
0.942466 1.000012 0.924425
0.942900 1.000012 0.924535
0.943538 1.000012 0.924696
0.944475 1.000012 0.924933
0.945835 1.000012 0.925276
0.947710 1.000012 0.925748
0.950658 1.000012 0.926525
0.955202 1.000012 0.927751
0.961224 1.000012 0.929374
0.969903 1.000012 0.931848
0.981255 1.000012 0.935158
0.996139 1.000012 0.939934
0.999887 1.000012 0.946330
1.000012 1.000012 0.954458
1.000012 1.000012 0.964653
1.000012 1.000012 0.978676
1.000012 1.000012 0.993164
1.000012 1.000012 1.000012
1.000012 1.000012 1.000012
1.000012 1.000012 1.000012
0.967519 1.000012 0.952401
0.967523 1.000012 0.952402
0.967527 1.000012 0.952403
0.967533 1.000012 0.952404
0.967539 1.000012 0.952406
0.967550 1.000012 0.952409
0.967566 1.000012 0.952413
0.967589 1.000012 0.952419
0.967625 1.000012 0.952428
0.967678 1.000012 0.952441
0.967757 1.000012 0.952461
0.967875 1.000012 0.952491
0.968051 1.000012 0.952534
0.968313 1.000012 0.952600
0.968701 1.000012 0.952698
0.969264 1.000012 0.952839
0.970019 1.000012 0.953028
0.971116 1.000012 0.953302
0.972688 1.000012 0.953694
0.975343 1.000012 0.954389
0.979428 1.000012 0.955484
0.984454 1.000012 0.956823
0.992281 1.000012 0.959036
