StdX_ACES-Global/Looks/AgX__AP0-Egamut2-tloge_to_srgb-display.cube
TITLE "Generated by Foundry::LUT"
LUT_3D_SIZE 8
DOMAIN_MIN 0.000000 0.000000 0.000000
DOMAIN_MAX 0.903226 0.903226 0.903226
0.000000 0.000000 0.000001
0.047433 0.000000 0.005989
0.219079 0.003041 0.000000
0.542871 0.019713 0.000000
0.934829 0.261902 0.195931
1.000012 0.655086 0.619174
1.000012 0.871129 0.852565
1.000012 0.986943 0.976660
0.000000 0.061865 0.030297
0.060013 0.062090 0.000000
0.223546 0.067576 0.000000
0.544537 0.058928 0.000000
0.935000 0.262256 0.196308
1.000012 0.655130 0.619222
1.000012 0.871133 0.852570
1.000012 0.986944 0.976660
0.000000 0.216968 0.101676
0.033821 0.218543 0.008955
0.229088 0.220956 0.000000
0.548851 0.230651 0.000000
0.929681 0.315359 0.197383
1.000012 0.655312 0.619419
1.000012 0.871150 0.852588
1.000012 0.986946 0.976663
0.000000 0.517550 0.172312
0.000000 0.519574 0.127797
0.212024 0.521702 0.000000
0.540407 0.518725 0.000000
0.900431 0.495133 0.213118
1.000012 0.680427 0.623798
1.000012 0.871238 0.852682
1.000012 0.986956 0.976673
0.198386 0.828656 0.021251
0.218762 0.828280 0.021206
0.288338 0.826720 0.027049
0.478551 0.818315 0.155866
0.817053 0.790526 0.350792
1.000012 0.770626 0.646120
1.000012 0.884056 0.855133
1.000012 0.987006 0.976726
0.662652 0.972474 0.616073
0.663773 0.972382 0.616341
0.668306 0.972013 0.617425
0.687488 0.970351 0.622192
0.767276 0.963121 0.645145
0.959343 0.942502 0.722406
1.000012 0.930915 0.867101
1.000012 0.992936 0.978100
0.876682 1.000012 0.852738
0.876792 1.000012 0.852767
0.877247 1.000012 0.852882
0.879277 1.000012 0.853397
0.888777 1.000012 0.855859
0.929706 1.000012 0.867615
1.000012 1.000012 0.907418
1.000012 1.000012 0.984771
0.990066 1.000012 0.976964
0.990078 1.000012 0.976967
0.990124 1.000012 0.976978
0.990356 1.000012 0.977036
0.991492 1.000012 0.977319
0.996987 1.000012 0.978710
1.000012 1.000012 0.985198
1.000012 1.000012 0.999216
0.000000 0.018486 0.054249
0.065886 0.000000 0.064553
0.220023 0.000000 0.062274
0.545481 0.020243 0.000000
0.935109 0.262481 0.196547
1.000012 0.655158 0.619252
1.000012 0.871136 0.852573
1.000012 0.986944 0.976661
0.000000 0.071729 0.072525
0.069238 0.063814 0.061936
0.233840 0.045252 0.000000
0.547158 0.070451 0.000000
0.935280 0.262833 0.196923
1.000012 0.655202 0.619300
1.000012 0.871140 0.852577
1.000012 0.986945 0.976661
0.000000 0.216197 0.115642
0.010961 0.216223 0.042838
0.230184 0.218915 0.000000
0.551194 0.233488 0.000000
0.929783 0.316985 0.198049
1.000012 0.655384 0.619496
1.000012 0.871157 0.852595
1.000012 0.986947 0.976663
0.000000 0.515955 0.183772
0.000000 0.518102 0.145046
0.209902 0.521356 0.000000
0.542508 0.519607 0.000000
0.900581 0.495910 0.213880
1.000012 0.680615 0.623894
1.000012 0.871245 0.852689
1.000012 0.986957 0.976674
0.189486 0.828646 0.021588
0.212192 0.828275 0.021544
0.286958 0.826690 0.029790
0.480090 0.818331 0.156994
0.817353 0.790601 0.351171
1.000012 0.770724 0.646205
1.000012 0.884075 0.855142
1.000012 0.987007 0.976727
0.662390 0.972487 0.615992
0.663561 0.972393 0.616275
0.668283 0.972016 0.617419
0.687750 0.970341 0.622287
0.767442 0.963118 0.645225
0.959379 0.942510 0.722443
1.000012 0.930924 0.867109
1.000012 0.992938 0.978101
0.876699 1.000012 0.852745
0.876814 1.000012 0.852774
0.877275 1.000012 0.852892
0.879302 1.000012 0.853406
0.888803 1.000012 0.855869
0.929724 1.000012 0.867624
1.000012 1.000012 0.907422
1.000012 1.000012 0.984771
0.990069 1.000012 0.976965
0.990080 1.000012 0.976968
0.990127 1.000012 0.976979
0.990359 1.000012 0.977037
0.991496 1.000012 0.977319
0.996989 1.000012 0.978711
1.000012 1.000012 0.985199
1.000012 1.000012 0.999216
0.049002 0.047666 0.198528
0.110310 0.043194 0.209085
0.240356 0.000000 0.220352
0.539686 0.000000 0.213196
0.936374 0.264181 0.199165
1.000012 0.655455 0.619574
1.000012 0.871165 0.852603
1.000012 0.986948 0.976664
0.000000 0.100935 0.217979
0.083161 0.070851 0.239299
0.251557 0.000000 0.227232
0.546646 0.000000 0.198476
0.936544 0.264536 0.199537
1.000012 0.655499 0.619621
1.000012 0.871169 0.852607
1.000012 0.986948 0.976665
0.000000 0.226628 0.227031
0.000000 0.223816 0.223447
0.230558 0.214129 0.208484
0.589052 0.145657 0.047777
0.930279 0.324418 0.200560
1.000012 0.655680 0.619818
1.000012 0.871186 0.852626
1.000012 0.986950 0.976667
0.000000 0.511246 0.270101
0.000000 0.512354 0.251726
0.039765 0.517715 0.096473
0.531980 0.504711 0.000000
0.901249 0.498918 0.217006
1.000012 0.681380 0.624290
1.000012 0.871273 0.852720
1.000012 0.986960 0.976678
0.092501 0.827166 0.085466
0.122004 0.827434 0.058086
0.223161 0.826495 0.023730
0.460237 0.817988 0.139775
0.818580 0.790901 0.352703
1.000012 0.771132 0.646560
1.000012 0.884153 0.855181
1.000012 0.987010 0.976731
0.658132 0.972686 0.614650
0.659322 0.972591 0.614935
0.664145 0.972208 0.616087
0.684638 0.970471 0.621218
0.768133 0.963105 0.645555
0.959524 0.942542 0.722598
1.000012 0.930965 0.867142
1.000012 0.992946 0.978105
0.876294 1.000012 0.852611
0.876409 1.000012 0.852640
0.876882 1.000012 0.852761
0.878995 1.000012 0.853304
0.888914 1.000012 0.855910
0.929800 1.000012 0.867658
1.000012 1.000012 0.907439
1.000012 1.000012 0.984776
0.990045 1.000012 0.976958
0.990057 1.000012 0.976961
0.990105 1.000012 0.976972
0.990348 1.000012 0.977033
0.991507 1.000012 0.977323
0.997002 1.000012 0.978716
1.000012 1.000012 0.985203
1.000012 1.000012 0.999216
0.153620 0.138762 0.530229
0.192027 0.136521 0.531866
0.299150 0.123858 0.536624
0.586477 0.002278 0.532705
0.941631 0.229535 0.460523
1.000012 0.653944 0.621240
1.000012 0.871307 0.852757
1.000012 0.986964 0.976682
0.100974 0.147354 0.547948
0.164937 0.144856 0.548441
0.290754 0.130622 0.549002
0.590619 0.001844 0.535026
0.943272 0.229825 0.454428
1.000012 0.653989 0.621287
1.000012 0.871311 0.852761
1.000012 0.986964 0.976682
0.000000 0.255364 0.545779
0.043573 0.243565 0.559029
0.256554 0.227671 0.563394
0.596469 0.161986 0.537474
0.946391 0.254937 0.433137
1.000012 0.656198 0.621728
1.000012 0.871328 0.852780
1.000012 0.986966 0.976684
0.000000 0.527661 0.526659
0.000000 0.527326 0.526047
0.076717 0.525422 0.522397
0.536929 0.506748 0.496605
0.905452 0.483183 0.429107
1.000012 0.682617 0.626179
1.000012 0.871415 0.852873
1.000012 0.986976 0.976695
0.078924 0.822454 0.433265
0.110103 0.822191 0.430909
0.233789 0.821197 0.421838
0.449169 0.812441 0.406552
0.812383 0.780569 0.360312
1.000012 0.771767 0.647987
1.000012 0.884540 0.855376
1.000012 0.987027 0.976748
0.634447 0.973851 0.607632
0.635811 0.973747 0.607921
0.640900 0.973339 0.609017
0.664509 0.971365 0.614611
0.757140 0.963251 0.640397
0.960115 0.942566 0.723049
1.000012 0.931168 0.867310
1.000012 0.992986 0.978127
0.874220 1.000012 0.851924
0.874337 1.000012 0.851953
0.874804 1.000012 0.852071
0.876889 1.000012 0.852600
0.887170 1.000012 0.855293
0.930042 1.000012 0.867769
1.000012 1.000012 0.907522
1.000012 1.000012 0.984794
0.989813 1.000012 0.976882
0.989825 1.000012 0.976885
0.989874 1.000012 0.976897
0.990118 1.000012 0.976959
0.991306 1.000012 0.977257
0.997063 1.000012 0.978738
1.000012 1.000012 0.985222
1.000012 1.000012 0.999218
0.422050 0.375381 0.854706
0.430895 0.375806 0.854462
0.466612 0.377156 0.853366
0.602951 0.384555 0.847832
0.892633 0.444463 0.823102
1.000012 0.661177 0.754920
1.000012 0.870281 0.853533
1.000012 0.987046 0.976769
0.417245 0.378204 0.856853
0.426030 0.378629 0.856614
0.461727 0.379945 0.855516
0.601748 0.386482 0.849246
0.893114 0.445099 0.823341
1.000012 0.661250 0.754299
1.000012 0.870285 0.853537
1.000012 0.987046 0.976769
0.386481 0.391216 0.866366
0.396767 0.391429 0.865990
0.440405 0.391606 0.864096
0.593576 0.395311 0.855548
0.894899 0.447602 0.824117
1.000012 0.661533 0.751816
1.000012 0.870303 0.853557
1.000012 0.987048 0.976772
0.318225 0.526339 0.863601
0.335962 0.527767 0.862657
0.399955 0.532943 0.859006
0.579803 0.543744 0.846329
0.874786 0.548663 0.814145
1.000012 0.673801 0.743858
1.000012 0.871730 0.853837
1.000012 0.987058 0.976782
0.377379 0.810110 0.806718
0.388109 0.809660 0.806278
0.430791 0.807878 0.804531
0.563221 0.800643 0.797385
0.802822 0.783903 0.777775
1.000012 0.776007 0.749045
1.000012 0.884960 0.856279
1.000012 0.987108 0.976835
0.673608 0.966021 0.749065
0.674619 0.965939 0.748996
0.678730 0.965603 0.748711
0.696296 0.964126 0.747356
0.766996 0.957853 0.741661
0.956824 0.936909 0.728277
1.000012 0.931386 0.867951
1.000012 0.993182 0.978238
0.862688 1.000012 0.848310
0.862802 1.000012 0.848336
0.863270 1.000012 0.848446
0.865571 1.000012 0.848988
0.877409 1.000012 0.851957
0.924208 1.000012 0.865126
1.000012 1.000012 0.907734
1.000012 1.000012 0.984891
0.988627 1.000012 0.976501
0.988640 1.000012 0.976504
0.988689 1.000012 0.976516
0.988936 1.000012 0.976577
0.990143 1.000012 0.976877
0.996064 1.000012 0.978394
1.000012 1.000012 0.985277
1.000012 1.000012 0.999225
0.732514 0.700231 0.994215
0.733511 0.700335 0.994157
0.737587 0.700757 0.993918
0.758313 0.702906 0.992509
0.836662 0.714352 0.985858
0.999739 0.759871 0.964509
1.000012 0.875135 0.923101
1.000012 0.986450 0.977210
0.732067 0.700571 0.994333
0.733063 0.700674 0.994275
0.737135 0.701097 0.994036
0.757873 0.703248 0.992623
0.836527 0.714558 0.985992
0.999756 0.759942 0.964533
1.000012 0.875143 0.923035
1.000012 0.986451 0.977211
0.730101 0.701978 0.994738
0.731260 0.702043 0.994735
0.735345 0.702458 0.994508
0.756134 0.704619 0.993078
0.835753 0.715488 0.986591
0.999833 0.760217 0.964621
1.000012 0.875173 0.922779
1.000012 0.986453 0.977213
0.714399 0.710568 0.997554
0.715532 0.710633 0.997552
0.720162 0.710897 0.997547
0.745142 0.712160 0.996184
0.831075 0.720591 0.989951
1.000012 0.761613 0.964962
1.000012 0.875318 0.921476
1.000012 0.986463 0.977223
0.695406 0.791881 0.992631
0.697094 0.792132 0.992442
0.704004 0.793159 0.991670
0.735275 0.797843 0.988107
0.826837 0.806851 0.978463
0.992494 0.814054 0.957252
1.000012 0.881907 0.917600
1.000012 0.987292 0.977384
0.748578 0.955032 0.952767
0.749416 0.954967 0.952707
0.752863 0.954703 0.952458
0.767960 0.953510 0.951325
0.825760 0.948811 0.946823
0.949765 0.939024 0.935595
1.000012 0.935107 0.920991
1.000012 0.993491 0.978750
0.884327 1.000012 0.921024
0.884425 1.000012 0.921017
0.884831 1.000012 0.920988
0.886832 1.000012 0.920839
0.894995 1.000012 0.920134
0.930786 1.000012 0.917183
1.000012 1.000012 0.910810
1.000012 1.000012 0.985254
0.982223 1.000012 0.974526
0.982235 1.000012 0.974529
0.982289 1.000012 0.974542
0.982557 1.000012 0.974604
0.983871 1.000012 0.974910
0.990421 1.000012 0.976556
1.000012 1.000012 0.983821
1.000012 1.000012 0.999223
0.911092 0.893596 1.000012
0.911201 0.893608 1.000012
0.911652 0.893658 1.000012
0.913879 0.893908 1.000012
0.925260 0.895198 1.000012
0.967638 0.901680 1.000012
1.000012 0.926789 1.000012
1.000012 0.989245 1.000012
0.911044 0.893633 1.000012
0.911152 0.893646 1.000012
0.911603 0.893696 1.000012
0.913829 0.893945 1.000012
0.925211 0.895235 1.000012
0.967623 0.901703 1.000012
1.000012 0.926796 1.000012
1.000012 0.989246 1.000012
0.910843 0.893786 1.000012
0.910952 0.893798 1.000012
0.911402 0.893849 1.000012
0.913627 0.894098 1.000012
0.925007 0.895389 1.000012
0.967558 0.901795 1.000012
1.000012 0.926825 1.000012
1.000012 0.989249 1.000012
0.909747 0.894565 1.000012
0.909872 0.894573 1.000012
0.910391 0.894605 1.000012
0.912657 0.894841 1.000012
0.924029 0.896134 1.000012
0.967098 0.902312 1.000012
1.000012 0.926966 1.000012
1.000012 0.989265 1.000012
0.901752 0.899126 1.000012
0.901875 0.899133 1.000012
0.902383 0.899166 1.000012
0.904893 0.899324 1.000012
0.918194 0.900101 1.000012
0.964568 0.904993 1.000012
1.000012 0.927717 1.000012
1.000012 0.989346 1.000012
0.893072 0.943138 1.000012
0.893251 0.943168 1.000012
0.893997 0.943291 1.000012
0.897689 0.943901 1.000012
0.913191 0.946473 1.000012
0.962589 0.951691 1.000012
1.000012 0.955889 1.000012
1.000012 0.992371 1.000012
0.921929 1.000012 1.000012
0.922007 1.000012 1.000012
0.922330 1.000012 1.000012
0.923931 1.000012 1.000012
0.931610 1.000012 1.000012
0.962210 1.000012 1.000012
1.000012 1.000012 1.000012
1.000012 1.000012 1.000012
0.994057 1.000012 1.000012
0.994062 1.000012 1.000012
0.994085 1.000012 1.000012
0.994194 1.000012 1.000012
0.994736 1.000012 1.000012
0.997218 1.000012 1.000012
1.000012 1.000012 1.000012
1.000012 1.000012 1.000012
1.000012 0.998733 1.000012
1.000012 0.998734 1.000012
1.000012 0.998741 1.000012
1.000012 0.998772 1.000012
1.000012 0.998926 1.000012
1.000012 0.999214 1.000012
1.000012 1.000012 1.000012
1.000012 1.000012 1.000012
1.000012 0.998737 1.000012
1.000012 0.998738 1.000012
1.000012 0.998744 1.000012
1.000012 0.998775 1.000012
1.000012 0.998929 1.000012
1.000012 0.999217 1.000012
1.000012 1.000012 1.000012
1.000012 1.000012 1.000012
1.000012 0.998750 1.000012
1.000012 0.998752 1.000012
1.000012 0.998758 1.000012
1.000012 0.998790 1.000012
1.000012 0.998943 1.000012
1.000012 0.999230 1.000012
1.000012 1.000012 1.000012
1.000012 1.000012 1.000012
1.000012 0.998822 1.000012
1.000012 0.998824 1.000012
1.000012 0.998830 1.000012
1.000012 0.998861 1.000012
1.000012 0.999015 1.000012
1.000012 0.999297 1.000012
1.000012 1.000012 1.000012
1.000012 1.000012 1.000012
0.999782 0.999207 1.000012
0.999788 0.999207 1.000012
0.999809 0.999210 1.000012
0.999918 0.999223 1.000012
1.000012 0.999362 1.000012
1.000012 0.999622 1.000012
1.000012 1.000012 1.000012
1.000012 1.000012 1.000012
0.998826 0.999852 1.000012
0.998831 0.999853 1.000012
0.998852 0.999855 1.000012
0.998957 0.999870 1.000012
0.999475 0.999938 1.000012
1.000012 1.000012 1.000012
1.000012 1.000012 1.000012
1.000012 1.000012 1.000012
0.997391 1.000012 1.000012
0.997393 1.000012 1.000012
0.997402 1.000012 1.000012
0.997448 1.000012 1.000012
0.997676 1.000012 1.000012
0.998748 1.000012 1.000012
1.000012 1.000012 1.000012
1.000012 1.000012 1.000012
1.000012 1.000012 1.000012
1.000012 1.000012 1.000012
1.000012 1.000012 1.000012
1.000012 1.000012 1.000012
1.000012 1.000012 1.000012
1.000012 1.000012 1.000012
1.000012 1.000012 1.000012
1.000012 1.000012 1.000012
