StdX_ACES-Global/Looks/AgX__AP0-Egamut2-tloge_to_p3-display.cube
TITLE "Generated by Foundry::LUT"
LUT_3D_SIZE 32
0.000000 0.000000 0.000001
0.000000 0.000000 0.000001
0.000000 0.000000 0.000001
0.000000 0.000000 0.000001
0.044139 0.004950 0.000000
0.080137 0.012569 0.000000
0.116343 0.019329 0.000000
0.156432 0.026430 0.000000
0.203790 0.034501 0.000000
0.260042 0.043881 0.000000
0.328668 0.055286 0.000000
0.409985 0.069138 0.000000
0.506480 0.087208 0.000000
0.610348 0.111042 0.000000
0.713311 0.142870 0.000000
0.795492 0.220955 0.137900
0.860620 0.317203 0.242971
0.912229 0.417824 0.350628
0.951269 0.513572 0.456249
0.981646 0.598834 0.550301
0.998448 0.673667 0.632739
1.000012 0.738004 0.703468
1.000012 0.792555 0.763296
1.000012 0.839607 0.814783
1.000012 0.880115 0.858995
1.000012 0.914251 0.896129
1.000012 0.943912 0.928302
1.000012 0.969767 0.956264
1.000012 0.991077 0.980214
1.000012 1.000012 0.996776
1.000012 1.000012 1.000012
1.000012 1.000012 1.000012
0.000000 0.000000 0.000001
0.000000 0.000000 0.000001
0.000000 0.000000 0.000001
0.000000 0.000000 0.000001
0.047152 0.005655 0.000000
0.081990 0.012924 0.000000
0.117662 0.019567 0.000000
0.157485 0.026611 0.000000
0.204558 0.034630 0.000000
0.260713 0.043992 0.000000
0.329179 0.055371 0.000000
0.410374 0.069205 0.000000
0.506798 0.087273 0.000000
0.610563 0.111098 0.000000
0.713452 0.142916 0.000000
0.795557 0.221040 0.137996
0.860656 0.317264 0.243035
0.912249 0.417865 0.350673
0.951278 0.513597 0.456276
0.981650 0.598848 0.550318
0.998449 0.673675 0.632749
1.000012 0.738008 0.703473
1.000012 0.792558 0.763299
1.000012 0.839608 0.814785
1.000012 0.880115 0.858996
1.000012 0.914251 0.896129
1.000012 0.943912 0.928302
1.000012 0.969767 0.956264
1.000012 0.991077 0.980214
1.000012 1.000012 0.996776
1.000012 1.000012 1.000012
1.000012 1.000012 1.000012
0.000000 0.000000 0.000001
0.000000 0.000000 0.000001
0.000000 0.000000 0.000001
0.001835 0.000000 0.000124
0.049907 0.006302 0.000000
0.083777 0.013268 0.000000
0.118956 0.019801 0.000000
0.158526 0.026790 0.000000
0.205322 0.034759 0.000000
0.261381 0.044103 0.000000
0.329688 0.055456 0.000000
0.410762 0.069272 0.000000
0.507116 0.087338 0.000000
0.610778 0.111153 0.000000
0.713593 0.142963 0.000000
0.795621 0.221125 0.138092
0.860692 0.317326 0.243099
0.912269 0.417907 0.350718
0.951287 0.513621 0.456302
0.981656 0.598863 0.550334
0.998451 0.673684 0.632758
1.000012 0.738013 0.703478
1.000012 0.792560 0.763302
1.000012 0.839610 0.814787
1.000012 0.880117 0.858997
1.000012 0.914252 0.896130
1.000012 0.943911 0.928302
1.000012 0.969767 0.956264
1.000012 0.991077 0.980214
1.000012 1.000012 0.996776
1.000012 1.000012 1.000012
1.000012 1.000012 1.000012
0.000000 0.022943 0.008914
0.000000 0.022618 0.008791
0.000000 0.022288 0.008666
0.012849 0.022211 0.000000
0.054051 0.027050 0.000000
0.086770 0.030419 0.000000
0.121103 0.033693 0.000000
0.160149 0.037364 0.000000
0.206445 0.041759 0.000000
0.262235 0.047352 0.000000
0.330247 0.055549 0.000000
0.411189 0.069345 0.000000
0.507465 0.087409 0.000000
0.611014 0.111214 0.000000
0.713748 0.143014 0.000000
0.795692 0.221219 0.138197
0.860732 0.317394 0.243170
0.912291 0.417953 0.350767
0.951297 0.513647 0.456332
0.981661 0.598879 0.550352
0.998452 0.673694 0.632769
1.000012 0.738018 0.703484
1.000012 0.792563 0.763305
1.000012 0.839611 0.814789
1.000012 0.880117 0.858998
1.000012 0.914253 0.896131
1.000012 0.943912 0.928302
1.000012 0.969768 0.956264
1.000012 0.991077 0.980214
1.000012 1.000012 0.996776
1.000012 1.000012 1.000012
1.000012 1.000012 1.000012
0.000000 0.059961 0.021679
0.000000 0.059818 0.021632
0.000000 0.059674 0.021585
0.020700 0.059982 0.000000
0.059634 0.061379 0.000000
0.091272 0.063970 0.000000
0.125035 0.066659 0.000000
0.163605 0.069651 0.000000
0.209300 0.073173 0.000000
0.264745 0.077503 0.000000
0.332258 0.083007 0.000000
0.412630 0.090302 0.000000
0.508380 0.100632 0.000000
0.611430 0.115995 0.000000
0.713976 0.143089 0.000000
0.795797 0.221357 0.138352
0.860790 0.317493 0.243274
0.912323 0.418020 0.350840
0.951311 0.513686 0.456375
0.981669 0.598903 0.550377
0.998454 0.673708 0.632785
1.000012 0.738025 0.703492
1.000012 0.792568 0.763310
1.000012 0.839614 0.814791
1.000012 0.880118 0.858999
1.000012 0.914254 0.896132
1.000012 0.943913 0.928303
1.000012 0.969768 0.956265
1.000012 0.991077 0.980214
1.000012 1.000012 0.996776
1.000012 1.000012 1.000012
1.000012 1.000012 1.000012
0.000000 0.092408 0.032391
0.000000 0.092305 0.032357
0.000000 0.092202 0.032322
0.027914 0.092802 0.000000
0.064941 0.093558 0.000000
0.095276 0.094663 0.000000
0.128764 0.096977 0.000000
0.167297 0.099717 0.000000
0.212589 0.102941 0.000000
0.267881 0.106913 0.000000
0.334945 0.111970 0.000000
0.414837 0.118418 0.000000
0.510038 0.127155 0.000000
0.612310 0.139715 0.000000
0.714154 0.159361 0.000000
0.795811 0.225414 0.138775
0.860877 0.317641 0.243430
0.912370 0.418120 0.350949
0.951333 0.513745 0.456439
0.981681 0.598938 0.550417
0.998457 0.673729 0.632808
1.000012 0.738036 0.703504
1.000012 0.792574 0.763317
1.000012 0.839618 0.814796
1.000012 0.880121 0.859002
1.000012 0.914255 0.896133
1.000012 0.943913 0.928303
1.000012 0.969768 0.956265
1.000012 0.991077 0.980214
1.000012 1.000012 0.996776
1.000012 1.000012 1.000012
1.000012 1.000012 1.000012
0.000000 0.126796 0.043982
0.000000 0.126718 0.043955
0.000000 0.126876 0.037858
0.036007 0.127645 0.000000
0.070545 0.128169 0.000000
0.100768 0.128910 0.000000
0.132734 0.130040 0.000000
0.171322 0.132622 0.000000
0.216339 0.135740 0.000000
0.271695 0.139617 0.000000
0.338351 0.144362 0.000000
0.417821 0.150312 0.000000
0.512301 0.158113 0.000000
0.613466 0.168495 0.000000
0.714330 0.184316 0.000000
0.795381 0.241984 0.139991
0.860518 0.324784 0.244282
0.912442 0.418271 0.351112
0.951365 0.513832 0.456536
0.981699 0.598992 0.550475
0.998462 0.673761 0.632843
1.000012 0.738053 0.703522
1.000012 0.792584 0.763328
1.000012 0.839624 0.814802
1.000012 0.880124 0.859005
1.000012 0.914256 0.896135
1.000012 0.943914 0.928305
1.000012 0.969769 0.956266
1.000012 0.991077 0.980215
1.000012 1.000012 0.996776
1.000012 1.000012 1.000012
1.000012 1.000012 1.000012
0.000000 0.166285 0.057502
0.000000 0.166302 0.056088
0.000000 0.167206 0.030179
0.044691 0.167754 0.000000
0.076798 0.168160 0.000000
0.106677 0.168736 0.000000
0.138840 0.169601 0.000000
0.175991 0.170952 0.000000
0.220840 0.174029 0.000000
0.276239 0.177955 0.000000
0.342555 0.182594 0.000000
0.421731 0.188171 0.000000
0.515181 0.194883 0.000000
0.614962 0.203331 0.000000
0.714460 0.215885 0.000000
0.794719 0.264947 0.141792
0.859691 0.339261 0.245923
0.911717 0.426362 0.352468
0.951280 0.514943 0.456845
0.981726 0.599071 0.550563
0.998469 0.673809 0.632895
1.000012 0.738078 0.703550
1.000012 0.792599 0.763344
1.000012 0.839633 0.814811
1.000012 0.880129 0.859010
1.000012 0.914259 0.896138
1.000012 0.943916 0.928306
1.000012 0.969770 0.956267
1.000012 0.991078 0.980216
1.000012 1.000012 0.996776
1.000012 1.000012 1.000012
1.000012 1.000012 1.000012
0.000000 0.213685 0.069500
0.000000 0.214516 0.051545
0.013727 0.215324 0.017164
0.054798 0.215672 0.000000
0.084612 0.215989 0.000000
0.113967 0.216455 0.000000
0.145843 0.217141 0.000000
0.182481 0.218116 0.000000
0.226772 0.219721 0.000000
0.281637 0.223459 0.000000
0.347522 0.227946 0.000000
0.426524 0.233062 0.000000
0.518779 0.238821 0.000000
0.616812 0.245307 0.000000
0.714467 0.254577 0.000000
0.793654 0.294784 0.144483
0.858451 0.358824 0.248404
0.910616 0.438249 0.354548
0.950427 0.521883 0.458214
0.981524 0.600669 0.550966
0.998479 0.673880 0.632974
1.000012 0.738116 0.703591
1.000012 0.792621 0.763368
1.000012 0.839646 0.814826
1.000012 0.880136 0.859018
1.000012 0.914264 0.896142
1.000012 0.943919 0.928309
1.000012 0.969772 0.956269
1.000012 0.991079 0.980216
1.000012 1.000012 0.996776
1.000012 1.000012 1.000012
1.000012 1.000012 1.000012
0.000000 0.271736 0.063322
0.000000 0.272595 0.037004
0.039204 0.273026 0.006644
0.068084 0.273267 0.000000
0.094563 0.273524 0.000000
0.122458 0.273903 0.000000
0.154125 0.274464 0.000000
0.191202 0.275283 0.000000
0.235246 0.276469 0.000000
0.288180 0.278396 0.000000
0.353434 0.282671 0.000000
0.432230 0.287494 0.000000
0.522898 0.292231 0.000000
0.618554 0.296614 0.000000
0.713844 0.302961 0.001413
0.791975 0.332471 0.148560
0.856632 0.385703 0.252117
0.909024 0.454780 0.357645
0.949202 0.531635 0.460221
0.980667 0.606420 0.552208
0.998426 0.675581 0.633403
1.000012 0.738172 0.703653
1.000012 0.792655 0.763405
1.000012 0.839666 0.814848
1.000012 0.880146 0.859029
1.000012 0.914269 0.896149
1.000012 0.943923 0.928313
1.000012 0.969773 0.956272
1.000012 0.991079 0.980217
1.000012 1.000012 0.996776
1.000012 1.000012 1.000012
1.000012 1.000012 1.000012
0.000000 0.341977 0.044619
0.030971 0.342368 0.019398
0.066149 0.342658 0.000000
0.084725 0.342801 0.000000
0.108850 0.342982 0.000000
0.134122 0.343270 0.000000
0.164977 0.343691 0.000000
0.201482 0.344301 0.000000
0.245083 0.345185 0.000000
0.297427 0.346461 0.000000
0.360907 0.348529 0.000000
0.438952 0.352522 0.000000
0.527546 0.355878 0.000000
0.620404 0.357700 0.000000
0.712532 0.360134 0.004737
0.789434 0.380895 0.154711
0.854008 0.419942 0.257776
0.906691 0.477755 0.362340
0.947432 0.545423 0.463208
0.979425 0.614647 0.554050
0.998286 0.680310 0.634491
1.000012 0.739779 0.704054
1.000012 0.792704 0.763459
1.000012 0.839695 0.814880
1.000012 0.880162 0.859046
1.000012 0.914279 0.896160
1.000012 0.943928 0.928320
1.000012 0.969777 0.956275
1.000012 0.991081 0.980219
1.000012 1.000012 0.996777
1.000012 1.000012 1.000012
1.000012 1.000012 1.000012
0.036803 0.425423 0.021481
0.069331 0.425613 0.006267
0.091949 0.425749 0.000000
0.105982 0.425844 0.000000
0.126737 0.425949 0.000000
0.149943 0.426141 0.000000
0.179927 0.426369 0.000000
0.214491 0.426763 0.000000
0.256982 0.427323 0.000000
0.308806 0.428118 0.000000
0.371576 0.429258 0.000000
0.446673 0.430953 0.000000
0.532013 0.432063 0.000000
0.621262 0.430618 0.000000
0.709836 0.428213 0.010935
0.785685 0.436876 0.164809
0.850264 0.463631 0.266484
0.903471 0.507691 0.369209
0.944878 0.564860 0.467706
0.977654 0.626157 0.556758
0.997990 0.687268 0.636136
1.000012 0.743713 0.704980
1.000012 0.794182 0.763832
1.000012 0.839740 0.814928
1.000012 0.880184 0.859071
1.000012 0.914293 0.896174
1.000012 0.943936 0.928328
1.000012 0.969781 0.956280
1.000012 0.991083 0.980222
1.000012 1.000012 0.996778
1.000012 1.000012 1.000012
1.000012 1.000012 1.000012
0.092177 0.517823 0.004049
0.115282 0.517856 0.000000
0.125725 0.517890 0.000000
0.137184 0.517897 0.000000
0.152959 0.517904 0.000000
0.173836 0.517932 0.000000
0.199211 0.517973 0.000000
0.231403 0.518048 0.000000
0.272345 0.518044 0.000000
0.321973 0.518116 0.000000
0.382290 0.518190 0.000000
0.454276 0.518310 0.000000
0.536922 0.518084 0.000000
0.621797 0.512274 0.000000
0.706014 0.504278 0.047639
0.780516 0.503469 0.181239
0.845281 0.515073 0.279568
0.899017 0.545768 0.379393
0.941372 0.590052 0.474183
0.975137 0.642227 0.560783
0.997627 0.696972 0.638541
1.000012 0.749523 0.706386
1.000012 0.797522 0.764636
1.000012 0.841069 0.815266
1.000012 0.880220 0.859109
1.000012 0.914313 0.896197
1.000012 0.943949 0.928342
1.000012 0.969789 0.956288
1.000012 0.991086 0.980227
1.000012 1.000012 0.996779
1.000012 1.000012 1.000012
1.000012 1.000012 1.000012
0.158713 0.608131 0.000000
0.166523 0.608085 0.000000
0.174062 0.608042 0.000000
0.182071 0.607995 0.000000
0.193324 0.607929 0.000000
0.209147 0.607825 0.000000
0.230142 0.607601 0.000000
0.257373 0.607371 0.000000
0.293062 0.606924 0.000000
0.337503 0.606321 0.000000
0.392516 0.605529 0.000000
0.458653 0.604369 0.000000
0.535355 0.603005 0.000000
0.621213 0.599936 0.008548
0.700944 0.586596 0.103024
0.774060 0.576872 0.206738
0.838655 0.577044 0.299477
0.893296 0.591794 0.393793
0.936637 0.622959 0.483622
0.971664 0.663822 0.566681
0.997448 0.710243 0.642048
1.000012 0.757595 0.708428
1.000012 0.802462 0.765857
1.000012 0.843908 0.815959
1.000012 0.881376 0.859399
1.000012 0.914344 0.896231
1.000012 0.943967 0.928361
1.000012 0.969800 0.956300
1.000012 0.991090 0.980233
1.000012 1.000012 0.996781
1.000012 1.000012 1.000012
1.000012 1.000012 1.000012
0.225026 0.689508 0.000000
0.230197 0.689439 0.000000
0.235250 0.689373 0.000000
0.240681 0.689301 0.000000
0.248392 0.689190 0.000000
0.259181 0.688959 0.000000
0.274372 0.688632 0.000000
0.295403 0.688248 0.000000
0.323405 0.687625 0.000000
0.359985 0.686740 0.000000
0.406657 0.685252 0.027974
0.463776 0.683424 0.038785
0.531523 0.681024 0.052862
0.609701 0.678016 0.070597
0.695058 0.672503 0.160816
0.766584 0.655188 0.244087
0.830598 0.644724 0.328300
0.885668 0.646547 0.414350
0.930633 0.662116 0.496585
0.967064 0.691423 0.575070
0.996427 0.728483 0.647244
1.000012 0.768885 0.711444
1.000012 0.809298 0.767623
1.000012 0.848082 0.817007
1.000012 0.883783 0.859984
1.000012 0.915366 0.896487
1.000012 0.943995 0.928392
1.000012 0.969817 0.956318
1.000012 0.991097 0.980243
1.000012 1.000012 0.996783
1.000012 1.000012 1.000012
1.000012 1.000012 1.000012
0.312315 0.759738 0.113005
0.315308 0.759636 0.113533
0.318255 0.759536 0.114052
0.321446 0.759427 0.114615
0.326038 0.759271 0.115422
0.332708 0.759043 0.116594
0.342269 0.758717 0.118270
0.355819 0.758262 0.120498
0.376066 0.757613 0.122374
0.402034 0.756577 0.128111
0.437495 0.755169 0.147594
0.481469 0.753177 0.160568
0.536780 0.750488 0.181849
0.602579 0.747093 0.209903
0.677951 0.743055 0.246646
0.758534 0.736348 0.295821
0.821775 0.717359 0.366985
0.876687 0.707554 0.441499
0.922922 0.710228 0.515199
0.961261 0.725137 0.586656
0.992201 0.751724 0.654558
1.000012 0.784077 0.715830
1.000012 0.818797 0.770212
1.000012 0.853937 0.818539
1.000012 0.887297 0.860863
1.000012 0.917438 0.896994
1.000012 0.944889 0.928617
1.000012 0.969841 0.956345
1.000012 0.991107 0.980257
1.000012 1.000012 0.996788
1.000012 1.000012 1.000012
1.000012 1.000012 1.000012
0.409862 0.817284 0.251569
0.411587 0.817208 0.251925
0.413294 0.817133 0.252278
0.415153 0.817052 0.252661
0.417846 0.816934 0.253216
0.421793 0.816762 0.254029
0.427526 0.816512 0.255209
0.435742 0.816153 0.256897
0.446784 0.815604 0.259483
0.464180 0.814752 0.263873
0.487406 0.813615 0.269716
0.518228 0.811941 0.278853
0.557926 0.809720 0.291403
0.608908 0.806718 0.310350
0.669402 0.802925 0.336723
0.738938 0.798501 0.371481
0.812460 0.791432 0.415851
0.867007 0.772734 0.476054
0.914078 0.763966 0.539551
0.953868 0.766989 0.603205
0.986756 0.780766 0.664756
1.000012 0.803970 0.722100
1.000012 0.831861 0.774037
1.000012 0.861931 0.820746
1.000012 0.892238 0.862147
1.000012 0.920482 0.897757
1.000012 0.946688 0.929057
1.000012 0.970622 0.956541
1.000012 0.991122 0.980279
1.000012 1.000012 0.996793
1.000012 1.000012 1.000012
1.000012 1.000012 1.000012
0.504075 0.864329 0.369564
0.505078 0.864275 0.369813
0.506072 0.864222 0.370060
0.507159 0.864164 0.370329
0.508741 0.864080 0.370722
0.511076 0.863955 0.371301
0.514499 0.863772 0.372149
0.518854 0.863504 0.373295
0.524974 0.863118 0.374919
0.534499 0.862536 0.377545
0.549974 0.861638 0.382047
0.569092 0.860434 0.387708
0.596546 0.858685 0.396736
0.630611 0.856380 0.408529
0.675470 0.853287 0.425999
0.729644 0.849447 0.449682
0.791752 0.845034 0.479988
0.857230 0.838144 0.518124
0.904827 0.820609 0.569664
0.945633 0.812867 0.624210
0.980010 0.815975 0.678882
1.000012 0.828368 0.730652
1.000012 0.848730 0.779420
1.000012 0.873136 0.824054
1.000012 0.899111 0.864025
1.000012 0.924738 0.898867
1.000012 0.949321 0.929718
1.000012 0.972181 0.956923
1.000012 0.991682 0.980448
1.000012 1.000012 0.996803
1.000012 1.000012 1.000012
1.000012 1.000012 1.000012
0.589955 0.903654 0.477587
0.590454 0.903619 0.477727
0.590949 0.903583 0.477866
0.591493 0.903544 0.478018
0.592285 0.903488 0.478239
0.593461 0.903406 0.478568
0.595195 0.903283 0.479053
0.597738 0.903102 0.479764
0.601432 0.902840 0.480796
0.606727 0.902465 0.482275
0.615211 0.901884 0.484750
0.628003 0.900995 0.488688
0.643832 0.899826 0.493617
0.667646 0.898103 0.501684
0.696967 0.895867 0.512081
0.735543 0.892885 0.527159
0.782890 0.889200 0.547634
0.837644 0.885004 0.573768
0.895562 0.878553 0.606524
0.937015 0.862577 0.650484
0.972392 0.855845 0.697030
0.997796 0.858737 0.742669
1.000012 0.869632 0.786797
1.000012 0.887419 0.828644
1.000012 0.908532 0.866782
1.000012 0.930660 0.900489
1.000012 0.953018 0.930683
1.000012 0.974449 0.957492
1.000012 0.992739 0.980776
1.000012 1.000012 0.996881
1.000012 1.000012 1.000012
1.000012 1.000012 1.000012
0.664729 0.936703 0.571464
0.665018 0.936681 0.571548
0.665307 0.936658 0.571632
0.665623 0.936634 0.571724
0.666086 0.936598 0.571859
0.666774 0.936545 0.572058
0.667794 0.936466 0.572355
0.669300 0.936349 0.572792
0.671509 0.936178 0.573433
0.674718 0.935929 0.574364
0.679317 0.935572 0.575698
0.686188 0.935026 0.577804
0.696589 0.934196 0.581133
0.710474 0.933087 0.585570
0.730070 0.931486 0.592355
0.755550 0.929390 0.601494
0.788963 0.926610 0.614580
0.829901 0.923210 0.632105
0.877687 0.919362 0.654472
0.928510 0.913512 0.682461
0.964236 0.899328 0.719328
0.991570 0.893458 0.758209
1.000012 0.895995 0.797232
1.000012 0.905514 0.835036
1.000012 0.920870 0.870687
1.000012 0.938846 0.902885
1.000012 0.958105 0.932078
1.000012 0.977654 0.958329
1.000012 0.994358 0.981267
1.000012 1.000012 0.997026
1.000012 1.000012 1.000012
1.000012 1.000012 1.000012
0.729542 0.964074 0.650874
0.729711 0.964060 0.650924
0.729879 0.964045 0.650974
0.730064 0.964030 0.651029
0.730335 0.964007 0.651109
0.730738 0.963974 0.651230
0.731338 0.963924 0.651408
0.732228 0.963849 0.651673
0.733541 0.963740 0.652063
0.735466 0.963579 0.652635
0.738071 0.963355 0.653414
0.741564 0.963044 0.654464
0.747367 0.962541 0.656292
0.756499 0.961764 0.659259
0.767987 0.960760 0.662994
0.784942 0.959282 0.668931
0.806321 0.957389 0.676645
0.835122 0.954856 0.687880
0.870781 0.951760 0.702992
0.912294 0.948291 0.722076
0.956392 0.943069 0.745744
0.987077 0.930562 0.777104
1.000012 0.925538 0.810400
1.000012 0.927936 0.843889
1.000012 0.936312 0.876048
1.000012 0.949547 0.906268
1.000012 0.965288 0.934175
1.000012 0.982098 0.959544
1.000012 0.996478 0.981985
1.000012 1.000012 0.997272
1.000012 1.000012 1.000012
1.000012 1.000012 1.000012
0.785654 0.987646 0.719235
0.785740 0.987638 0.719261
0.785826 0.987630 0.719288
0.785921 0.987621 0.719317
0.786059 0.987608 0.719358
0.786267 0.987589 0.719421
0.786575 0.987561 0.719515
0.787033 0.987518 0.719655
0.787714 0.987455 0.719862
0.788719 0.987361 0.720167
0.790191 0.987224 0.720615
0.792331 0.987024 0.721265
0.795398 0.986737 0.722196
0.800536 0.986270 0.723833
0.808313 0.985565 0.726384
0.817740 0.984680 0.729474
0.832579 0.983324 0.734685
0.850672 0.981633 0.741212
0.875166 0.979376 0.750690
0.905865 0.976613 0.763506
0.941926 0.973520 0.779737
0.980517 0.968884 0.799908
0.998954 0.957877 0.826679
1.000012 0.953534 0.855202
1.000012 0.955647 0.883515
1.000012 0.962887 0.910886
1.000012 0.974464 0.937069
1.000012 0.988264 0.961340
1.000012 0.999519 0.983035
1.000012 1.000012 0.997568
1.000012 1.000012 1.000012
1.000012 1.000012 1.000012
0.833423 0.999616 0.777701
0.833474 0.999616 0.777717
0.833525 0.999615 0.777732
0.833581 0.999615 0.777749
0.833663 0.999616 0.777774
0.833785 0.999615 0.777812
0.833967 0.999616 0.777867
0.834240 0.999615 0.777951
0.834643 0.999615 0.778074
0.835244 0.999615 0.778258
0.836128 0.999614 0.778528
0.837425 0.999613 0.778925
0.839310 0.999612 0.779501
0.842012 0.999610 0.780325
0.846367 0.999495 0.781718
0.852611 0.999490 0.783771
0.860948 0.999482 0.786508
0.873197 0.999334 0.790788
0.889174 0.999154 0.796528
0.910113 0.999112 0.804543
0.936533 0.998057 0.815390
0.967853 0.995587 0.829182
0.997874 0.991495 0.846375
1.000012 0.981847 0.869185
1.000012 0.978074 0.893156
1.000012 0.979868 0.917399
1.000012 0.986179 0.941101
1.000012 0.996329 0.963870
1.000012 1.000012 0.984581
1.000012 1.000012 0.997954
1.000012 1.000012 1.000012
1.000012 1.000012 1.000012
0.874284 1.000012 0.826837
0.874314 1.000012 0.826847
0.874344 1.000012 0.826856
0.874377 1.000012 0.826866
0.874425 1.000012 0.826881
0.874497 1.000012 0.826903
0.874606 1.000012 0.826936
0.874767 1.000012 0.826986
0.875007 1.000012 0.827060
0.875365 1.000012 0.827169
0.875895 1.000012 0.827332
0.876678 1.000012 0.827572
0.877824 1.000012 0.827923
0.879490 1.000012 0.828433
0.881629 1.000012 0.829086
0.885198 1.000012 0.830229
0.890737 1.000012 0.832049
0.897898 1.000012 0.834396
0.908396 1.000012 0.838050
0.921908 1.000012 0.842862
0.940271 1.000012 0.849826
0.963357 1.000012 0.859180
0.990157 1.000012 0.870978
1.000012 1.000012 0.885604
1.000012 0.999569 0.904974
1.000012 0.997249 0.925694
1.000012 0.999220 0.946727
1.000012 1.000012 0.967323
1.000012 1.000012 0.986778
1.000012 1.000012 0.998693
1.000012 1.000012 1.000012
1.000012 1.000012 1.000012
0.909567 1.000012 0.868919
0.909585 1.000012 0.868925
0.909603 1.000012 0.868930
0.909622 1.000012 0.868936
0.909651 1.000012 0.868945
0.909694 1.000012 0.868958
0.909758 1.000012 0.868978
0.909855 1.000012 0.869007
0.909997 1.000012 0.869051
0.910211 1.000012 0.869117
0.910516 1.000012 0.869210
0.910934 1.000012 0.869337
0.911551 1.000012 0.869525
0.912455 1.000012 0.869800
0.913768 1.000012 0.870200
0.915651 1.000012 0.870773
0.918834 1.000012 0.871789
0.923762 1.000012 0.873403
0.929621 1.000012 0.875304
0.938997 1.000012 0.878548
0.950486 1.000012 0.882594
0.966280 1.000012 0.888498
0.986326 1.000012 0.896478
0.999628 1.000012 0.906587
1.000012 1.000012 0.919170
1.000012 1.000012 0.935907
1.000012 1.000012 0.953889
1.000012 1.000012 0.972098
1.000012 1.000012 0.989682
1.000012 1.000012 0.999400
1.000012 1.000012 1.000012
1.000012 1.000012 1.000012
0.939881 1.000012 0.905115
0.939891 1.000012 0.905118
0.939900 1.000012 0.905121
0.939910 1.000012 0.905124
0.939926 1.000012 0.905129
0.939948 1.000012 0.905136
0.939982 1.000012 0.905146
0.940034 1.000012 0.905161
0.940109 1.000012 0.905185
0.940223 1.000012 0.905219
0.940393 1.000012 0.905271
0.940644 1.000012 0.905347
0.941018 1.000012 0.905460
0.941570 1.000012 0.905627
0.942377 1.000012 0.905872
0.943551 1.000012 0.906229
0.945234 1.000012 0.906739
0.948082 1.000012 0.907643
0.952033 1.000012 0.908920
0.957282 1.000012 0.910612
0.965222 1.000012 0.913323
0.975484 1.000012 0.916905
0.989114 1.000012 0.921921
0.998439 1.000012 0.928746
1.000012 1.000012 0.937434
1.000012 1.000012 0.948297
1.000012 1.000012 0.962816
1.000012 1.000012 0.978278
1.000012 1.000012 0.993031
1.000012 1.000012 1.000012
1.000012 1.000012 1.000012
1.000012 1.000012 1.000012
0.966058 1.000012 0.936050
0.966063 1.000012 0.936052
0.966069 1.000012 0.936053
0.966075 1.000012 0.936055
0.966084 1.000012 0.936058
0.966098 1.000012 0.936062
0.966119 1.000012 0.936068
0.966149 1.000012 0.936078
0.966195 1.000012 0.936091
0.966263 1.000012 0.936112
0.966365 1.000012 0.936143
0.966517 1.000012 0.936189
0.966744 1.000012 0.936257
0.967079 1.000012 0.936358
0.967573 1.000012 0.936507
0.968298 1.000012 0.936726
0.969352 1.000012 0.937044
0.970805 1.000012 0.937481
0.973099 1.000012 0.938201
0.976635 1.000012 0.939335
0.981321 1.000012 0.940837
0.988108 1.000012 0.943127
0.994923 1.000012 0.946191
1.000012 1.000012 0.950611
1.000012 1.000012 0.956535
1.000012 1.000012 0.964071
1.000012 1.000012 0.973453
1.000012 1.000012 0.985941
1.000012 1.000012 0.996675
1.000012 1.000012 1.000012
1.000012 1.000012 1.000012
1.000012 1.000012 1.000012
0.988845 1.000012 0.962679
0.988848 1.000012 0.962680
0.988852 1.000012 0.962681
0.988855 1.000012 0.962682
0.988861 1.000012 0.962684
0.988869 1.000012 0.962686
0.988881 1.000012 0.962690
0.988900 1.000012 0.962696
0.988927 1.000012 0.962704
0.988969 1.000012 0.962716
0.989030 1.000012 0.962734
0.989122 1.000012 0.962762
0.989259 1.000012 0.962803
0.989463 1.000012 0.962864
0.989764 1.000012 0.962955
0.990183 1.000012 0.963086
0.990609 1.000012 0.963261
0.991227 1.000012 0.963516
0.992114 1.000012 0.963880
0.993986 1.000012 0.964525
0.997176 1.000012 0.965541
0.998068 1.000012 0.966783
0.999567 1.000012 0.968836
