StdX_ACES-Global/Looks/AgX__AP0-Egamut2-tloge_to_srgb-display.cube
TITLE "Generated by Foundry::LUT"
LUT_3D_SIZE 5
DOMAIN_MIN 0.000000 0.000000 0.000000
DOMAIN_MAX 0.903226 0.903226 0.903226
0.000000 0.000000 0.000001
0.168304 0.000274 0.000872
0.762649 0.085805 0.000000
1.000012 0.722801 0.692442
1.000012 0.986943 0.976660
0.000000 0.169508 0.081428
0.177903 0.172091 0.000000
0.761035 0.189707 0.000000
1.000012 0.722879 0.692526
1.000012 0.986945 0.976662
0.007853 0.690523 0.132635
0.153464 0.692013 0.000000
0.699057 0.671875 0.000000
1.000012 0.756084 0.698889
1.000012 0.986971 0.976690
0.730795 0.993932 0.691223
0.732664 0.993890 0.691688
0.761475 0.992202 0.699178
0.983100 0.968389 0.780573
1.000012 0.996205 0.978966
0.990066 1.000012 0.976964
0.990105 1.000012 0.976973
0.990712 1.000012 0.977124
0.998343 1.000012 0.979623
1.000012 1.000012 0.999216
0.000000 0.042110 0.147065
0.186406 0.000000 0.171698
0.764223 0.000000 0.080305
1.000012 0.722929 0.692580
1.000012 0.986946 0.976663
0.000000 0.178523 0.178984
0.180931 0.167097 0.162343
0.767843 0.173257 0.000000
1.000012 0.723007 0.692665
1.000012 0.986948 0.976665
0.000000 0.683970 0.226583
0.040190 0.688795 0.069854
0.700433 0.671267 0.000000
1.000012 0.756380 0.699057
1.000012 0.986974 0.976692
0.729275 0.993984 0.690735
0.731243 0.993945 0.691230
0.761450 0.992206 0.699177
0.983172 0.968406 0.780648
1.000012 0.996205 0.978969
0.990064 1.000012 0.976964
0.990104 1.000012 0.976974
0.990722 1.000012 0.977128
0.998344 1.000012 0.979627
1.000012 1.000012 0.999217
0.260082 0.230254 0.719294
0.327415 0.227683 0.719530
0.774628 0.214025 0.703482
1.000012 0.707398 0.695496
1.000012 0.986989 0.976709
0.186252 0.250490 0.740680
0.283451 0.245933 0.740266
0.779608 0.218941 0.705863
1.000012 0.707789 0.695605
1.000012 0.986991 0.976711
0.010240 0.690600 0.687488
0.119368 0.688977 0.685658
0.688980 0.663486 0.654909
1.000012 0.748357 0.701280
1.000012 0.987017 0.976738
0.692795 0.995187 0.680009
0.695185 0.995179 0.680527
0.733116 0.993099 0.689465
0.983506 0.967812 0.779937
1.000012 0.996220 0.979024
0.989453 1.000012 0.976767
0.989494 1.000012 0.976777
0.990131 1.000012 0.976936
0.998164 1.000012 0.979589
1.000012 1.000012 0.999220
0.787965 0.760378 1.000012
0.789978 0.760594 1.000012
0.820726 0.763935 0.999876
0.999897 0.812214 0.987881
1.000012 0.981766 0.977676
0.787075 0.761061 1.000012
0.789083 0.761277 1.000012
0.819791 0.764618 0.999876
0.999914 0.812343 0.987923
1.000012 0.981768 0.977678
0.761059 0.771238 1.000012
0.765190 0.772053 1.000012
0.804273 0.775191 1.000012
1.000012 0.814408 0.988370
1.000012 0.982053 0.977730
0.803153 0.979609 0.977592
0.804604 0.979488 0.977477
0.826253 0.977684 0.975756
0.974492 0.965608 0.962544
1.000012 0.993754 0.979767
0.977647 1.000012 0.973194
0.977693 1.000012 0.973205
0.978430 1.000012 0.973372
0.990749 1.000012 0.976347
1.000012 1.000012 0.999058
1.000012 0.998733 1.000012
1.000012 0.998738 1.000012
1.000012 0.998820 1.000012
1.000012 0.999205 1.000012
1.000012 1.000012 1.000012
1.000012 0.998745 1.000012
1.000012 0.998750 1.000012
1.000012 0.998832 1.000012
1.000012 0.999215 1.000012
1.000012 1.000012 1.000012
1.000012 0.998932 1.000012
1.000012 0.998937 1.000012
1.000012 0.999018 1.000012
1.000012 0.999390 1.000012
1.000012 1.000012 1.000012
0.996310 0.999588 1.000012
0.996385 0.999597 1.000012
0.997573 0.999730 1.000012
1.000012 1.000012 1.000012
1.000012 1.000012 1.000012
1.000012 1.000012 1.000012
1.000012 1.000012 1.000012
1.000012 1.000012 1.000012
1.000012 1.000012 1.000012
1.000012 1.000012 1.000012
