StdX_ACES-Global/Looks/AgX__AP0-Egamut2-tloge_to_p3-display.cube
TITLE "Generated by Foundry::LUT"
LUT_3D_SIZE 5
DOMAIN_MIN 0.000000 0.000000 0.000000
DOMAIN_MAX 0.903226 0.903226 0.903226
0.000000 0.000000 0.000001
0.156432 0.026430 0.000000
0.713311 0.142870 0.000000
1.000012 0.738004 0.703468
1.000012 0.991077 0.980214
0.000000 0.166285 0.057502
0.175991 0.170952 0.000000
0.714460 0.215885 0.000000
1.000012 0.738078 0.703550
1.000012 0.991078 0.980216
0.225026 0.689508 0.000000
0.295403 0.688248 0.000000
0.695058 0.672503 0.160816
1.000012 0.768885 0.711444
1.000012 0.991097 0.980243
0.785654 0.987646 0.719235
0.787033 0.987518 0.719655
0.808313 0.985565 0.726384
0.980517 0.968884 0.799908
1.000012 0.999519 0.983035
1.000012 1.000012 0.985936
1.000012 1.000012 0.985944
1.000012 1.000012 0.986085
1.000012 1.000012 0.988409
1.000012 1.000012 1.000012
0.000000 0.038565 0.143237
0.172918 0.014686 0.168274
0.720338 0.095242 0.000000
1.000012 0.738126 0.703602
1.000012 0.991079 0.980217
0.000000 0.172784 0.174885
0.178792 0.167647 0.163124
0.719951 0.203701 0.002398
1.000012 0.738201 0.703684
1.000012 0.991081 0.980218
0.128830 0.687664 0.002328
0.247588 0.686328 0.000000
0.696118 0.671941 0.160555
1.000012 0.769163 0.711615
1.000012 0.991099 0.980246
0.784531 0.987691 0.718795
0.785982 0.987560 0.719241
0.808297 0.985569 0.726384
0.980579 0.968903 0.799978
1.000012 0.999519 0.983039
1.000012 1.000012 0.985935
1.000012 1.000012 0.985945
1.000012 1.000012 0.986088
1.000012 1.000012 0.988412
1.000012 1.000012 1.000012
0.255560 0.231464 0.691964
0.312637 0.231956 0.692540
0.713007 0.260710 0.683013
1.000012 0.723944 0.705303
1.000012 0.991110 0.980261
0.196838 0.247781 0.713978
0.278166 0.247585 0.712415
0.717732 0.265011 0.685445
1.000012 0.724306 0.705425
1.000012 0.991111 0.980263
0.240957 0.681733 0.684301
0.312256 0.679806 0.681681
0.684765 0.664411 0.656210
1.000012 0.761828 0.713122
1.000012 0.991130 0.980290
0.757905 0.988929 0.709120
0.759627 0.988773 0.709587
0.787124 0.986307 0.717605
0.980748 0.968339 0.799303
1.000012 0.999521 0.983094
1.000012 1.000012 0.985751
1.000012 1.000012 0.985760
1.000012 1.000012 0.985909
1.000012 1.000012 0.988377
1.000012 1.000012 1.000012
0.783175 0.761319 0.995831
0.784880 0.761597 0.995731
0.811014 0.765907 0.993905
0.994644 0.820538 0.977151
1.000012 0.987161 0.980836
0.782549 0.761946 0.996257
0.784251 0.762224 0.996157
0.810353 0.766534 0.994329
0.994745 0.820665 0.977199
1.000012 0.987162 0.980838
0.762960 0.770919 0.999477
0.766470 0.771838 0.999472
0.799278 0.776196 0.998958
0.996014 0.822697 0.977756
1.000012 0.987390 0.980903
0.837841 0.974368 0.975074
0.838959 0.974289 0.974981
0.855613 0.973119 0.973579
0.972941 0.965909 0.962978
1.000012 0.997025 0.983612
0.996326 1.000012 0.982408
0.996339 1.000012 0.982418
0.996534 1.000012 0.982574
0.999900 1.000012 0.985343
1.000012 1.000012 1.000012
0.999841 0.998872 1.000012
0.999842 0.998879 1.000012
0.999870 0.998981 1.000012
1.000012 0.999476 1.000012
1.000012 1.000012 1.000012
0.999840 0.998881 1.000012
0.999842 0.998888 1.000012
0.999870 0.998990 1.000012
1.000012 0.999483 1.000012
1.000012 1.000012 1.000012
0.999844 0.999012 1.000012
0.999847 0.999018 1.000012
0.999874 0.999120 1.000012
1.000012 0.999599 1.000012
1.000012 1.000012 1.000012
0.996899 0.999481 1.000012
0.996963 0.999491 1.000012
0.997961 0.999660 1.000012
1.000012 1.000012 1.000012
1.000012 1.000012 1.000012
1.000012 1.000012 1.000012
1.000012 1.000012 1.000012
1.000012 1.000012 1.000012
1.000012 1.000012 1.000012
1.000012 1.000012 1.000012
