StdX_ACES-Global/Looks/OpenDRT__FLlinWS-filmlight-egamut2-tloge_to_srgb-display.cube
TITLE "Generated by Foundry::LUT"
LUT_3D_SIZE 8
DOMAIN_MIN 0.000000 0.000000 0.000000
DOMAIN_MAX 0.903226 0.903226 0.903226
0.000569 0.000569 0.000569
0.025650 0.000763 0.000000
0.131146 0.002342 0.000000
0.462797 0.015171 0.000000
0.868358 0.147095 0.000000
1.000000 0.650640 0.424237
1.000000 0.903499 0.841142
1.000000 0.977449 0.960707
0.000000 0.017163 0.000000
0.024563 0.021331 0.000000
0.130857 0.030184 0.000000
0.465253 0.024495 0.000000
0.869264 0.155054 0.000000
1.000000 0.651546 0.423843
1.000000 0.903553 0.841132
1.000000 0.977452 0.960707
0.000000 0.092257 0.000000
0.000000 0.091692 0.000000
0.123542 0.107111 0.000000
0.468877 0.108613 0.000000
0.871172 0.191551 0.000000
1.000000 0.655316 0.422224
1.000000 0.903780 0.841091
1.000000 0.977465 0.960706
0.000000 0.344724 0.000000
0.000000 0.344073 0.000000
0.000000 0.346559 0.000000
0.440538 0.397233 0.000000
0.874299 0.371560 0.000000
1.000000 0.674071 0.415330
1.000000 0.904919 0.840894
1.000000 0.977529 0.960702
0.000000 0.708980 0.000000
0.000000 0.709631 0.000000
0.000000 0.713012 0.000000
0.011068 0.751655 0.000000
0.815012 0.816577 0.000000
1.000000 0.767480 0.395266
1.000000 0.910574 0.840181
1.000000 0.977853 0.960685
0.437847 1.000000 0.491389
0.439360 1.000000 0.491261
0.445575 1.000000 0.490727
0.479777 1.000000 0.492184
0.617357 1.000000 0.499903
0.975183 0.997379 0.675655
1.000000 0.940402 0.841094
1.000000 0.979457 0.960671
0.857517 1.000000 0.861342
0.857570 1.000000 0.861337
0.857791 1.000000 0.861318
0.858897 1.000000 0.861224
0.866294 1.000000 0.862673
0.900413 1.000000 0.870228
1.000000 1.000000 0.924680
1.000000 0.987848 0.961852
0.965123 1.000000 0.965748
0.965125 1.000000 0.965748
0.965137 1.000000 0.965747
0.965194 1.000000 0.965742
0.965479 1.000000 0.965718
0.967620 1.000000 0.966335
0.977476 1.000000 0.969564
1.000000 1.000000 0.985002
0.000000 0.000186 0.019271
0.029718 0.000000 0.025938
0.134327 0.000000 0.037340
0.466530 0.014025 0.000000
0.870089 0.145847 0.000000
1.000000 0.650562 0.426171
1.000000 0.903502 0.841226
1.000000 0.977450 0.960712
0.000000 0.020912 0.024137
0.026253 0.026253 0.026253
0.140414 0.020688 0.025199
0.470564 0.022412 0.000000
0.870981 0.153805 0.000000
1.000000 0.651468 0.425780
1.000000 0.903556 0.841216
1.000000 0.977453 0.960712
0.000000 0.096441 0.030419
0.000000 0.098080 0.016000
0.126578 0.112777 0.000000
0.474671 0.099223 0.000000
0.872787 0.189834 0.000000
1.000000 0.655237 0.424177
1.000000 0.903782 0.841176
1.000000 0.977466 0.960711
0.000000 0.349415 0.000000
0.000000 0.348614 0.000000
0.000000 0.350135 0.000000
0.441233 0.400255 0.000000
0.875712 0.370924 0.000000
1.000000 0.673985 0.417315
1.000000 0.904921 0.840980
1.000000 0.977530 0.960707
0.000000 0.711307 0.000000
0.000000 0.711928 0.000000
0.000000 0.715185 0.000000
0.010541 0.753052 0.000000
0.815743 0.817316 0.000000
1.000000 0.767367 0.397445
1.000000 0.910575 0.840266
1.000000 0.977854 0.960689
0.437262 1.000000 0.492369
0.438779 1.000000 0.492242
0.445013 1.000000 0.491712
0.479452 1.000000 0.493309
0.617238 1.000000 0.501068
0.975038 0.997096 0.677207
1.000000 0.940398 0.841182
1.000000 0.979458 0.960676
0.857496 1.000000 0.861381
0.857549 1.000000 0.861376
0.857770 1.000000 0.861357
0.858877 1.000000 0.861263
0.866288 1.000000 0.862726
0.900415 1.000000 0.870283
1.000000 1.000000 0.924762
1.000000 0.987847 0.961856
0.965122 1.000000 0.965750
0.965125 1.000000 0.965750
0.965136 1.000000 0.965749
0.965193 1.000000 0.965744
0.965478 1.000000 0.965720
0.967620 1.000000 0.966338
0.977477 1.000000 0.969567
1.000000 1.000000 0.985007
0.000000 0.000000 0.102232
0.034744 0.000000 0.109485
0.144892 0.000000 0.125709
0.476186 0.009573 0.118637
0.877748 0.140841 0.000000
1.000000 0.650255 0.434101
1.000000 0.903513 0.841579
1.000000 0.977452 0.960732
0.000000 0.023577 0.106989
0.011881 0.017838 0.118019
0.147885 0.004502 0.127383
0.481033 0.016982 0.107301
0.878603 0.148768 0.000000
1.000000 0.651160 0.433725
1.000000 0.903567 0.841569
1.000000 0.977455 0.960732
0.000000 0.104504 0.121106
0.000000 0.107871 0.119372
0.126004 0.126004 0.126004
0.495828 0.070766 0.041258
0.881365 0.183578 0.000000
1.000000 0.654924 0.432185
1.000000 0.903793 0.841528
1.000000 0.977468 0.960731
0.000000 0.368525 0.102997
0.000000 0.369148 0.093504
0.000000 0.375413 0.035558
0.448685 0.415398 0.000000
0.881873 0.368786 0.000000
1.000000 0.673639 0.425456
1.000000 0.904931 0.841333
1.000000 0.977532 0.960727
0.000000 0.721582 0.000000
0.000000 0.722100 0.000000
0.000000 0.724830 0.000000
0.008510 0.759481 0.000000
0.819207 0.820824 0.000000
1.000000 0.766906 0.406367
1.000000 0.910582 0.840622
1.000000 0.977856 0.960710
0.434814 1.000000 0.496431
0.436350 1.000000 0.496307
0.442656 1.000000 0.495787
0.478084 1.000000 0.497950
0.616738 1.000000 0.505870
0.974434 0.995926 0.683559
1.000000 0.940380 0.841546
1.000000 0.979459 0.960696
0.857410 1.000000 0.861544
0.857463 1.000000 0.861540
0.857684 1.000000 0.861521
0.858792 1.000000 0.861427
0.866266 1.000000 0.862944
0.900421 1.000000 0.870510
1.000000 1.000000 0.925099
1.000000 0.987847 0.961878
0.965117 1.000000 0.965759
0.965120 1.000000 0.965758
0.965132 1.000000 0.965757
0.965189 1.000000 0.965753
0.965474 1.000000 0.965729
0.967620 1.000000 0.966351
0.977478 1.000000 0.969580
1.000000 1.000000 0.985024
0.000000 0.003131 0.390038
0.000000 0.000000 0.394075
0.106185 0.000000 0.418606
0.492802 0.000000 0.435696
0.905736 0.120909 0.236024
1.000000 0.649064 0.471820
1.000000 0.903572 0.843345
1.000000 0.977461 0.960833
0.000000 0.012847 0.394471
0.000000 0.010428 0.399861
0.081584 0.005147 0.424820
0.494420 0.000000 0.437580
0.906958 0.128892 0.234564
1.000000 0.649963 0.471506
1.000000 0.903627 0.843336
1.000000 0.977464 0.960833
0.000000 0.110492 0.407293
0.000000 0.099011 0.412570
0.011518 0.063213 0.438234
0.499888 0.024120 0.445480
0.911155 0.165798 0.228526
1.000000 0.653701 0.470219
1.000000 0.903852 0.843297
1.000000 0.977477 0.960832
0.000000 0.390472 0.426717
0.000000 0.391529 0.425251
0.000000 0.398681 0.422437
0.431099 0.431099 0.431099
0.905622 0.371660 0.201618
1.000000 0.672543 0.464199
1.000000 0.904986 0.843107
1.000000 0.977541 0.960828
0.000000 0.778839 0.145411
0.000000 0.779287 0.142505
0.000000 0.781495 0.129906
0.003039 0.808088 0.103992
0.813263 0.815246 0.338576
1.000000 0.765179 0.450368
1.000000 0.910621 0.842408
1.000000 0.977865 0.960811
0.422816 1.000000 0.517287
0.424807 1.000000 0.517426
0.432927 1.000000 0.517995
0.470730 1.000000 0.520650
0.614004 1.000000 0.529155
0.971447 0.990264 0.713107
1.000000 0.940296 0.843373
1.000000 0.979468 0.960798
0.856976 1.000000 0.862367
0.857029 1.000000 0.862362
0.857251 1.000000 0.862344
0.858367 1.000000 0.862251
0.866150 1.000000 0.864034
0.900448 1.000000 0.871645
0.999804 1.000000 0.926771
1.000000 0.987847 0.961981
0.965095 1.000000 0.965801
0.965098 1.000000 0.965801
0.965109 1.000000 0.965800
0.965167 1.000000 0.965795
0.965452 1.000000 0.965771
0.967620 1.000000 0.966414
0.977487 1.000000 0.969646
1.000000 1.000000 0.985112
0.000000 0.265374 0.838862
0.000000 0.262744 0.839846
0.000000 0.251358 0.844962
0.167983 0.224852 0.895368
0.884391 0.337457 0.812013
1.000000 0.655789 0.630737
1.000000 0.903993 0.852183
1.000000 0.977512 0.961340
0.000000 0.275113 0.838657
0.000000 0.272055 0.839597
0.000000 0.261116 0.844579
0.161862 0.237402 0.894472
0.883457 0.345918 0.811642
1.000000 0.656763 0.630747
1.000000 0.904046 0.852175
1.000000 0.977515 0.961339
0.000000 0.313396 0.837565
0.000000 0.310786 0.838416
0.000000 0.299644 0.842764
0.137467 0.287564 0.890647
0.879403 0.379405 0.809958
1.000000 0.660813 0.630826
1.000000 0.904267 0.852141
1.000000 0.977527 0.961339
0.000000 0.458499 0.831278
0.000000 0.457439 0.831637
0.000000 0.454103 0.833126
0.056426 0.468857 0.864439
0.857434 0.510950 0.800335
1.000000 0.681301 0.632118
1.000000 0.905380 0.851976
1.000000 0.977591 0.961335
0.000000 0.793793 0.765265
0.000000 0.793396 0.765075
0.000000 0.791810 0.764415
0.011838 0.798975 0.776569
0.774081 0.774081 0.774081
1.000000 0.779492 0.657986
1.000000 0.911046 0.851317
1.000000 0.977913 0.961319
0.370440 1.000000 0.626931
0.372997 1.000000 0.627034
0.383394 1.000000 0.627460
0.430934 1.000000 0.629490
0.622848 1.000000 0.656872
0.957444 0.966024 0.821404
1.000000 0.940111 0.853010
1.000000 0.979510 0.961310
0.855051 1.000000 0.866869
0.855134 1.000000 0.866890
0.855477 1.000000 0.866976
0.857186 1.000000 0.867402
0.865451 1.000000 0.869441
0.900506 1.000000 0.877223
0.998681 1.000000 0.934684
1.000000 0.987843 0.962499
0.964982 1.000000 0.966014
0.964985 1.000000 0.966013
0.964996 1.000000 0.966013
0.965054 1.000000 0.966008
0.965341 1.000000 0.965984
0.967622 1.000000 0.966729
0.977527 1.000000 0.969974
1.000000 1.000000 0.985549
0.298881 0.770889 1.000000
0.302639 0.770685 1.000000
0.317939 0.769838 1.000000
0.387494 0.765522 1.000000
0.663763 0.763423 1.000000
0.984440 0.837886 0.954638
1.000000 0.910190 0.896115
1.000000 0.977796 0.963869
0.298121 0.771537 1.000000
0.301861 0.771330 1.000000
0.317182 0.770484 1.000000
0.386846 0.766179 1.000000
0.663771 0.764207 1.000000
0.984301 0.838322 0.954587
1.000000 0.910246 0.896123
1.000000 0.977799 0.963869
0.294996 0.774215 1.000000
0.298752 0.774010 1.000000
0.314064 0.773159 1.000000
0.384176 0.768891 1.000000
0.663827 0.767439 1.000000
0.983725 0.840113 0.954377
1.000000 0.910479 0.896157
1.000000 0.977811 0.963868
0.280005 0.787378 1.000000
0.283838 0.787185 1.000000
0.299490 0.786379 1.000000
0.371242 0.782266 1.000000
0.664667 0.783113 1.000000
0.980899 0.848711 0.953352
1.000000 0.911655 0.896337
1.000000 0.977874 0.963866
0.229130 0.847069 1.000000
0.233391 0.846941 1.000000
0.251632 0.846436 1.000000
0.347862 0.844513 1.000000
0.679254 0.847344 1.000000
0.968703 0.882624 0.949075
1.000000 0.917666 0.897558
1.000000 0.978188 0.963856
0.460807 1.000000 0.958873
0.463745 1.000000 0.958828
0.475834 1.000000 0.958635
0.533547 0.997679 0.957503
0.740416 0.973071 0.950098
0.944400 0.944400 0.944400
1.000000 0.947350 0.910111
1.000000 0.979787 0.963855
0.850194 1.000000 0.895262
0.850288 1.000000 0.895281
0.850674 1.000000 0.895356
0.852596 1.000000 0.895732
0.861872 1.000000 0.897547
0.906981 1.000000 0.910947
0.993940 0.996442 0.963416
1.000000 0.987896 0.965216
0.964521 1.000000 0.967220
0.964526 1.000000 0.967221
0.964546 1.000000 0.967228
0.964648 1.000000 0.967263
0.965154 1.000000 0.967439
0.967596 1.000000 0.968282
0.977701 1.000000 0.971578
1.000000 1.000000 0.987603
0.837555 0.944672 1.000000
0.837665 0.944663 1.000000
0.838121 0.944625 1.000000
0.840399 0.944431 1.000000
0.851646 0.943460 1.000000
0.914178 0.944838 1.000000
1.000000 0.967443 0.993051
1.000000 0.980266 0.976260
0.837543 0.944710 1.000000
0.837652 0.944701 1.000000
0.838108 0.944662 1.000000
0.840386 0.944469 1.000000
0.851633 0.943497 1.000000
0.914186 0.944882 1.000000
1.000000 0.967465 0.993049
1.000000 0.980269 0.976261
0.837491 0.944867 1.000000
0.837601 0.944858 1.000000
0.838057 0.944819 1.000000
0.840334 0.944626 1.000000
0.851580 0.943655 1.000000
0.914223 0.945062 1.000000
1.000000 0.967556 0.993037
1.000000 0.980282 0.976264
0.837241 0.945651 1.000000
0.837350 0.945642 1.000000
0.837806 0.945603 1.000000
0.840082 0.945411 1.000000
0.851323 0.944441 1.000000
0.914411 0.945959 1.000000
1.000000 0.968008 0.992981
1.000000 0.980346 0.976278
0.836127 0.949528 1.000000
0.836237 0.949519 1.000000
0.836691 0.949481 1.000000
0.838961 0.949291 1.000000
0.850171 0.948332 1.000000
0.915499 0.950313 1.000000
0.999432 0.970163 0.992710
1.000000 0.980670 0.976356
0.834358 0.967335 1.000000
0.834476 0.967327 1.000000
0.834967 0.967296 1.000000
0.837504 0.967149 1.000000
0.851644 0.966614 1.000000
0.923254 0.967953 1.000000
0.996044 0.978270 0.991658
1.000000 0.982320 0.976829
0.880382 1.000000 0.995409
0.880491 1.000000 0.995406
0.880944 1.000000 0.995391
0.883225 1.000000 0.995319
0.894757 1.000000 0.994905
0.943371 0.999415 0.992422
0.990899 0.990899 0.990899
1.000000 0.990304 0.980816
0.963999 1.000000 0.975235
0.964004 1.000000 0.975237
0.964027 1.000000 0.975243
0.964140 1.000000 0.975274
0.964704 1.000000 0.975432
0.967416 1.000000 0.976191
0.980102 1.000000 0.980868
1.000000 1.000000 0.994820
0.961222 0.989129 1.000000
0.961228 0.989129 1.000000
0.961253 0.989127 1.000000
0.961378 0.989120 1.000000
0.962006 0.989085 1.000000
0.965099 0.988912 1.000000
0.981830 0.989719 1.000000
1.000000 0.995632 1.000000
0.961222 0.989131 1.000000
0.961228 0.989131 1.000000
0.961253 0.989129 1.000000
0.961378 0.989122 1.000000
0.962006 0.989087 1.000000
0.965098 0.988914 1.000000
0.981830 0.989721 1.000000
1.000000 0.995633 1.000000
0.961221 0.989140 1.000000
0.961226 0.989140 1.000000
0.961251 0.989138 1.000000
0.961377 0.989131 1.000000
0.962004 0.989096 1.000000
0.965097 0.988923 1.000000
0.981833 0.989730 1.000000
1.000000 0.995638 1.000000
0.961214 0.989183 1.000000
0.961220 0.989183 1.000000
0.961245 0.989181 1.000000
0.961370 0.989174 1.000000
0.961998 0.989139 1.000000
0.965090 0.988966 1.000000
0.981847 0.989778 1.000000
1.000000 0.995660 1.000000
0.961180 0.989399 1.000000
0.961186 0.989399 1.000000
0.961211 0.989398 1.000000
0.961337 0.989390 1.000000
0.961964 0.989355 1.000000
0.965054 0.989181 1.000000
0.981919 0.990013 1.000000
1.000000 0.995771 1.000000
0.961049 0.990466 1.000000
0.961056 0.990466 1.000000
0.961080 0.990464 1.000000
0.961205 0.990457 1.000000
0.961831 0.990421 1.000000
0.964914 0.990242 1.000000
0.982309 0.991152 1.000000
1.000000 0.996296 1.000000
0.961311 0.995300 1.000000
0.961317 0.995299 1.000000
0.961345 0.995298 1.000000
0.961479 0.995291 1.000000
0.962169 0.995258 1.000000
0.965972 0.995148 1.000000
0.984729 0.995659 1.000000
1.000000 0.998215 1.000000
0.973380 1.000000 1.000000
0.973386 1.000000 1.000000
0.973410 1.000000 1.000000
0.973531 1.000000 1.000000
0.974143 1.000000 1.000000
0.977215 1.000000 1.000000
0.989831 1.000000 1.000000
1.000000 1.000000 1.000000
