StdX_ACES-Global/Looks/OpenDRT-toon__FLlinWS-filmlight-egamut2-tloge_to_p3-display.cube
TITLE "Generated by Foundry::LUT"
LUT_3D_SIZE 32
0.002078 0.002078 0.002078
0.013467 0.003174 0.003310
0.025603 0.003417 0.001438
0.038108 0.003722 0.000000
0.055045 0.004300 0.000000
0.077466 0.005207 0.000000
0.105918 0.006492 0.000000
0.140826 0.008233 0.000000
0.182699 0.010555 0.000000
0.232183 0.013652 0.000000
0.289919 0.017837 0.000000
0.356225 0.023647 0.000000
0.430723 0.032063 0.000000
0.512005 0.044937 0.000000
0.597481 0.065749 0.000000
0.683544 0.100873 0.000000
0.765990 0.160677 0.000000
0.842090 0.271415 0.000000
0.925537 0.457800 0.029724
0.970432 0.650373 0.443623
0.993150 0.800693 0.683727
1.000000 0.895221 0.831565
1.000000 0.947736 0.914150
1.000000 0.975202 0.957703
1.000000 0.987749 0.977626
1.000000 0.993723 0.987255
1.000000 0.997112 0.992774
1.000000 0.999221 0.996231
1.000000 1.000000 0.998509
1.000000 1.000000 1.000000
1.000000 1.000000 1.000000
1.000000 1.000000 1.000000
0.000050 0.010294 0.003038
0.013696 0.012426 0.000000
0.024725 0.015476 0.000000
0.037188 0.018231 0.000000
0.054611 0.020460 0.000000
0.077883 0.020925 0.000000
0.107113 0.019528 0.000000
0.142384 0.018183 0.000000
0.184290 0.018123 0.000000
0.233634 0.019517 0.000000
0.291141 0.022463 0.000000
0.357171 0.027353 0.000000
0.431725 0.035034 0.000000
0.512822 0.047420 0.000000
0.598126 0.067919 0.000000
0.684015 0.102841 0.000000
0.766277 0.162403 0.000000
0.842201 0.272645 0.000000
0.925599 0.458422 0.029509
0.970472 0.650633 0.443533
0.993170 0.800795 0.683700
1.000000 0.895259 0.831557
1.000000 0.947749 0.914147
1.000000 0.975207 0.957703
1.000000 0.987751 0.977626
1.000000 0.993724 0.987255
1.000000 0.997113 0.992774
1.000000 0.999222 0.996231
1.000000 1.000000 0.998509
1.000000 1.000000 1.000000
1.000000 1.000000 1.000000
1.000000 1.000000 1.000000
0.000000 0.019372 0.001180
0.014588 0.020715 0.000000
0.025624 0.023016 0.000000
0.037081 0.026246 0.000000
0.053754 0.030179 0.000000
0.076788 0.033600 0.000000
0.106513 0.034628 0.000000
0.142787 0.032224 0.000000
0.185393 0.028706 0.000000
0.234951 0.027039 0.000000
0.292417 0.027916 0.000000
0.358307 0.031448 0.000000
0.432328 0.038284 0.000000
0.513104 0.050100 0.000000
0.598761 0.070145 0.000000
0.684480 0.104834 0.000000
0.766559 0.164136 0.000000
0.842312 0.273873 0.000000
0.925660 0.459044 0.029296
0.970512 0.650893 0.443444
0.993190 0.800896 0.683672
1.000000 0.895296 0.831549
1.000000 0.947763 0.914145
1.000000 0.975212 0.957702
1.000000 0.987753 0.977626
1.000000 0.993725 0.987255
1.000000 0.997113 0.992774
1.000000 0.999222 0.996231
1.000000 1.000000 0.998509
1.000000 1.000000 1.000000
1.000000 1.000000 1.000000
1.000000 1.000000 1.000000
0.000000 0.029033 0.000000
0.013899 0.030493 0.000000
0.026809 0.031664 0.000000
0.038197 0.034186 0.000000
0.053832 0.038308 0.000000
0.076067 0.042998 0.000000
0.105507 0.046479 0.000000
0.142149 0.046517 0.000000
0.185714 0.042270 0.000000
0.235979 0.037167 0.000000
0.293648 0.034970 0.000000
0.359483 0.036484 0.000000
0.433355 0.042056 0.000000
0.513959 0.053086 0.000000
0.598732 0.072767 0.000000
0.684984 0.107058 0.000000
0.766867 0.166051 0.000000
0.842432 0.275224 0.000000
0.925728 0.459728 0.029064
0.970556 0.651180 0.443345
0.993212 0.801007 0.683642
1.000000 0.895338 0.831541
1.000000 0.947778 0.914143
1.000000 0.975217 0.957702
1.000000 0.987755 0.977626
1.000000 0.993725 0.987255
1.000000 0.997114 0.992774
1.000000 0.999222 0.996231
1.000000 1.000000 0.998509
1.000000 1.000000 1.000000
1.000000 1.000000 1.000000
1.000000 1.000000 1.000000
0.000000 0.042521 0.000000
0.007090 0.044719 0.000000
0.026676 0.044960 0.000000
0.039571 0.046192 0.000000
0.055176 0.049277 0.000000
0.076091 0.054156 0.000000
0.104582 0.059160 0.000000
0.140958 0.062081 0.000000
0.185065 0.060448 0.000000
0.236535 0.053850 0.000000
0.295012 0.047155 0.000000
0.361028 0.044907 0.000000
0.434786 0.048108 0.000000
0.515176 0.057724 0.000000
0.599706 0.076583 0.000000
0.684760 0.110476 0.000000
0.767310 0.168876 0.000000
0.842608 0.277206 0.000000
0.925827 0.460732 0.028726
0.970621 0.651601 0.443201
0.993245 0.801171 0.683598
1.000000 0.895399 0.831528
1.000000 0.947800 0.914140
1.000000 0.975225 0.957701
1.000000 0.987758 0.977626
1.000000 0.993727 0.987255
1.000000 0.997114 0.992774
1.000000 0.999222 0.996231
1.000000 1.000000 0.998509
1.000000 1.000000 1.000000
1.000000 1.000000 1.000000
1.000000 1.000000 1.000000
0.000000 0.060896 0.000000
0.000757 0.062556 0.000000
0.021717 0.064124 0.000000
0.038690 0.064368 0.000000
0.056436 0.065701 0.000000
0.077534 0.069168 0.000000
0.104480 0.074387 0.000000
0.139801 0.079115 0.000000
0.183696 0.080834 0.000000
0.235946 0.076890 0.000000
0.295917 0.067575 0.000000
0.362825 0.059576 0.000000
0.436712 0.058303 0.000000
0.516897 0.065230 0.000000
0.601110 0.082567 0.000000
0.685794 0.115552 0.000000
0.766767 0.173139 0.000000
0.842867 0.280165 0.000000
0.925976 0.462234 0.028230
0.970718 0.652232 0.442988
0.993294 0.801417 0.683533
1.000000 0.895490 0.831509
1.000000 0.947833 0.914135
1.000000 0.975237 0.957700
1.000000 0.987763 0.977626
1.000000 0.993729 0.987255
1.000000 0.997115 0.992774
1.000000 0.999222 0.996231
1.000000 1.000000 0.998508
1.000000 1.000000 1.000000
1.000000 1.000000 1.000000
1.000000 1.000000 1.000000
0.000000 0.084802 0.000000
0.000000 0.085916 0.000000
0.004436 0.088525 0.000000
0.030935 0.089424 0.000000
0.053946 0.089578 0.000000
0.078162 0.090866 0.000000
0.105832 0.094388 0.000000
0.139543 0.099409 0.000000
0.182337 0.103212 0.000000
0.234465 0.103050 0.000000
0.295507 0.096161 0.000000
0.364189 0.084085 0.000000
0.438994 0.075816 0.000000
0.519208 0.077689 0.000000
0.603076 0.092113 0.000000
0.687265 0.123393 0.000000
0.767672 0.179537 0.000000
0.841872 0.284397 0.000000
0.926200 0.464479 0.027507
0.970863 0.653178 0.442672
0.993367 0.801786 0.683437
1.000000 0.895627 0.831481
1.000000 0.947883 0.914128
1.000000 0.975255 0.957698
1.000000 0.987770 0.977626
1.000000 0.993732 0.987255
1.000000 0.997117 0.992775
1.000000 0.999223 0.996231
1.000000 1.000000 0.998508
1.000000 1.000000 1.000000
1.000000 1.000000 1.000000
1.000000 1.000000 1.000000
0.000000 0.114655 0.000000
0.000000 0.115466 0.000000
0.000288 0.117119 0.000000
0.006547 0.119993 0.000000
0.041935 0.121122 0.000000
0.073009 0.121131 0.000000
0.105178 0.122236 0.000000
0.140622 0.125489 0.000000
0.181954 0.129762 0.000000
0.232992 0.131943 0.000000
0.294037 0.129149 0.000000
0.364120 0.118833 0.000000
0.440905 0.104782 0.000000
0.521960 0.098632 0.000000
0.605678 0.107596 0.000000
0.689284 0.135612 0.000000
0.768941 0.189202 0.000000
0.842402 0.290935 0.000000
0.925087 0.467504 0.026720
0.971081 0.654598 0.442208
0.993477 0.802339 0.683296
1.000000 0.895832 0.831439
1.000000 0.947957 0.914117
1.000000 0.975282 0.957696
1.000000 0.987781 0.977626
1.000000 0.993737 0.987255
1.000000 0.997119 0.992775
1.000000 0.999224 0.996231
1.000000 1.000000 0.998508
1.000000 1.000000 1.000000
1.000000 1.000000 1.000000
1.000000 1.000000 1.000000
0.000000 0.150819 0.000000
0.000000 0.151469 0.000000
0.000000 0.152550 0.000000
0.000613 0.154370 0.000000
0.008895 0.158181 0.000000
0.055307 0.159705 0.000000
0.096177 0.159586 0.000000
0.137974 0.160477 0.000000
0.182619 0.163232 0.000000
0.232590 0.166200 0.000000
0.292615 0.165952 0.000000
0.362867 0.159738 0.000000
0.441361 0.146139 0.000000
0.524413 0.132490 0.000000
0.608737 0.132732 0.000000
0.691888 0.154723 0.000000
0.770656 0.203781 0.000000
0.843162 0.300632 0.000000
0.925566 0.472489 0.025248
0.970143 0.656398 0.441712
0.993642 0.803169 0.683089
1.000000 0.896140 0.831379
1.000000 0.948068 0.914101
1.000000 0.975322 0.957693
1.000000 0.987798 0.977626
1.000000 0.993744 0.987256
1.000000 0.997122 0.992775
1.000000 0.999226 0.996231
1.000000 1.000000 0.998508
1.000000 1.000000 1.000000
1.000000 1.000000 1.000000
1.000000 1.000000 1.000000
0.000000 0.193779 0.000000
0.000000 0.194341 0.000000
0.000000 0.195126 0.000000
0.000000 0.196307 0.000000
0.000999 0.198734 0.000000
0.011930 0.203767 0.000000
0.071296 0.205836 0.000000
0.123853 0.205704 0.000000
0.177199 0.206516 0.000000
0.232722 0.208653 0.000000
0.292381 0.209689 0.000000
0.361770 0.206046 0.000000
0.440630 0.195889 0.000000
0.525545 0.180572 0.000000
0.611572 0.171745 0.000000
0.694898 0.184211 0.000000
0.772855 0.225593 0.000000
0.844239 0.314923 0.000000
0.926286 0.479921 0.023228
0.970612 0.659582 0.440753
0.992992 0.804179 0.682885
1.000000 0.896603 0.831292
1.000000 0.948236 0.914079
1.000000 0.975382 0.957688
1.000000 0.987822 0.977626
1.000000 0.993755 0.987256
1.000000 0.997127 0.992775
1.000000 0.999228 0.996231
1.000000 1.000000 0.998509
1.000000 1.000000 1.000000
1.000000 1.000000 1.000000
1.000000 1.000000 1.000000
0.000000 0.244137 0.000000
0.000000 0.244651 0.000000
0.000000 0.245284 0.000000
0.000000 0.246139 0.000000
0.000000 0.247741 0.000000
0.001595 0.250994 0.000000
0.015953 0.257542 0.000000
0.090294 0.260341 0.000000
0.156550 0.260444 0.000000
0.223588 0.261498 0.000000
0.291816 0.262983 0.000000
0.361970 0.261338 0.000000
0.440263 0.253334 0.000000
0.525735 0.239579 0.000000
0.613467 0.226011 0.000000
0.697874 0.227563 0.000000
0.775500 0.257536 0.000000
0.845750 0.335778 0.000000
0.927370 0.490984 0.020567
0.971316 0.664379 0.439420
0.993347 0.806054 0.682474
1.000000 0.897155 0.831219
1.000000 0.948487 0.914046
1.000000 0.975472 0.957681
1.000000 0.987859 0.977626
1.000000 0.993771 0.987257
1.000000 0.997135 0.992776
1.000000 0.999232 0.996232
1.000000 1.000000 0.998509
1.000000 1.000000 1.000000
1.000000 1.000000 1.000000
1.000000 1.000000 1.000000
0.000000 0.302434 0.000000
0.000000 0.302919 0.000000
0.000000 0.303470 0.000000
0.000000 0.304159 0.000000
0.000000 0.305344 0.000000
0.000000 0.307542 0.000000
0.002546 0.311873 0.000000
0.021549 0.320288 0.000000
0.112904 0.324008 0.000000
0.194817 0.324752 0.000000
0.277754 0.326567 0.000000
0.360421 0.327444 0.000000
0.441237 0.322340 0.000000
0.526657 0.309412 0.000000
0.615049 0.293729 0.000000
0.700650 0.286323 0.000000
0.778581 0.302531 0.000000
0.847880 0.365759 0.000000
0.929003 0.507397 0.017263
0.972373 0.671626 0.437659
0.993880 0.808892 0.681926
1.000000 0.898201 0.831054
1.000000 0.948785 0.914028
1.000000 0.975608 0.957672
1.000000 0.987914 0.977627
1.000000 0.993795 0.987258
1.000000 0.997145 0.992777
1.000000 0.999237 0.996233
1.000000 1.000000 0.998509
1.000000 1.000000 1.000000
1.000000 1.000000 1.000000
1.000000 1.000000 1.000000
0.000000 0.368852 0.000000
0.000000 0.369318 0.000000
0.000000 0.369821 0.000000
0.000000 0.370419 0.000000
0.000000 0.371387 0.000000
0.000000 0.373050 0.000000
0.000000 0.376057 0.000000
0.004140 0.381792 0.000000
0.029876 0.392467 0.000000
0.140047 0.397226 0.000000
0.239134 0.399195 0.000000
0.339901 0.402492 0.000000
0.438232 0.402912 0.000000
0.528797 0.393794 0.000000
0.617944 0.376168 0.000000
0.704146 0.360996 0.000000
0.782477 0.362974 0.000000
0.850981 0.408022 0.000000
0.931463 0.531626 0.013501
0.973959 0.682599 0.435563
0.994678 0.813213 0.681256
1.000000 0.899790 0.830846
1.000000 0.949354 0.913973
1.000000 0.975769 0.957674
1.000000 0.987996 0.977628
1.000000 0.993831 0.987261
1.000000 0.997162 0.992778
1.000000 0.999245 0.996234
1.000000 1.000000 0.998510
1.000000 1.000000 1.000000
1.000000 1.000000 1.000000
1.000000 1.000000 1.000000
0.000000 0.442932 0.000000
0.000000 0.443384 0.000000
0.000000 0.443855 0.000000
0.000000 0.444398 0.000000
0.000000 0.445244 0.000000
0.000000 0.446620 0.000000
0.000000 0.448940 0.000000
0.000000 0.453031 0.000000
0.007014 0.460577 0.000000
0.043322 0.473838 0.000000
0.173151 0.479532 0.000000
0.289894 0.483479 0.000000
0.409557 0.489095 0.000000
0.523647 0.489333 0.000000
0.621618 0.476126 0.000000
0.709692 0.454663 0.000000
0.788225 0.441914 0.000000
0.855744 0.466388 0.000000
0.935150 0.567091 0.009862
0.976325 0.699233 0.433675
0.995872 0.819822 0.680597
1.000000 0.902213 0.830623
1.000000 0.950217 0.913910
1.000000 0.976075 0.957662
1.000000 0.988095 0.977638
1.000000 0.993885 0.987264
1.000000 0.997187 0.992781
1.000000 0.999256 0.996235
1.000000 1.000000 0.998510
1.000000 1.000000 1.000000
1.000000 1.000000 1.000000
1.000000 1.000000 1.000000
0.000000 0.523513 0.000000
0.000000 0.523948 0.000000
0.000000 0.524394 0.000000
0.000000 0.524898 0.000000
0.000000 0.525664 0.000000
0.000000 0.526869 0.000000
0.000000 0.528805 0.000000
0.000000 0.532012 0.000000
0.003024 0.537525 0.000000
0.012831 0.547329 0.000000
0.067095 0.563055 0.000000
0.214479 0.569175 0.000000
0.347521 0.575874 0.000000
0.485438 0.584511 0.000000
0.613505 0.584841 0.000000
0.715064 0.567939 0.000000
0.796512 0.544226 0.000000
0.863330 0.546092 0.000000
0.940574 0.618212 0.008523
0.979805 0.724360 0.433734
0.997642 0.829974 0.680391
1.000000 0.905933 0.830489
1.000000 0.951534 0.913866
1.000000 0.976539 0.957655
1.000000 0.988280 0.977645
1.000000 0.993951 0.987274
1.000000 0.997224 0.992784
1.000000 0.999273 0.996236
1.000000 1.000000 0.998512
1.000000 1.000000 1.000000
1.000000 1.000000 1.000000
1.000000 1.000000 1.000000
0.000000 0.609280 0.000000
0.000000 0.609695 0.000000
0.000000 0.610115 0.000000
0.000000 0.610584 0.000000
0.000000 0.611287 0.000000
0.000000 0.612372 0.000000
0.000000 0.614066 0.000000
0.000000 0.616753 0.000000
0.003104 0.621118 0.000000
0.008917 0.628409 0.000000
0.027089 0.640769 0.000000
0.112289 0.657079 0.000000
0.267651 0.662854 0.000000
0.412847 0.672776 0.000000
0.565624 0.684597 0.000000
0.703180 0.685290 0.000000
0.802587 0.667407 0.000000
0.874333 0.652901 0.000000
0.947642 0.690075 0.020661
0.984707 0.761703 0.440273
1.000000 0.845544 0.681843
1.000000 0.911672 0.830741
1.000000 0.953557 0.913908
1.000000 0.977246 0.957670
1.000000 0.988560 0.977660
1.000000 0.994072 0.987284
1.000000 0.997269 0.992793
1.000000 0.999299 0.996239
1.000000 1.000000 0.998513
1.000000 1.000000 1.000000
1.000000 1.000000 1.000000
1.000000 1.000000 1.000000
0.003225 0.700874 0.000000
0.003541 0.701273 0.000000
0.003848 0.701676 0.000000
0.004179 0.702121 0.000000
0.004659 0.702782 0.000000
0.005380 0.703783 0.000000
0.006502 0.705326 0.000000
0.008347 0.707723 0.000000
0.011638 0.711447 0.000000
0.018373 0.717302 0.000000
0.035126 0.726520 0.000000
0.086399 0.739609 0.000000
0.208607 0.748424 0.000000
0.345141 0.754162 0.000000
0.491283 0.767649 0.000000
0.649407 0.783248 0.000000
0.787402 0.786897 0.000000
0.883701 0.778608 0.000000
0.951966 0.783054 0.180312
0.990353 0.815063 0.466764
1.000000 0.868986 0.687816
1.000000 0.920513 0.832123
1.000000 0.956675 0.914216
1.000000 0.978328 0.957748
1.000000 0.988983 0.977693
1.000000 0.994256 0.987301
1.000000 0.997352 0.992801
1.000000 0.999331 0.996247
1.000000 1.000000 0.998515
1.000000 1.000000 1.000000
1.000000 1.000000 1.000000
1.000000 1.000000 1.000000
0.072607 0.818558 0.000000
0.073887 0.818834 0.000000
0.075185 0.819107 0.000000
0.076636 0.819407 0.000000
0.078805 0.819842 0.000000
0.082141 0.820483 0.000000
0.087329 0.821418 0.000000
0.095759 0.822807 0.000000
0.109739 0.824791 0.000000
0.132519 0.827281 0.000000
0.168716 0.828694 0.000000
0.222169 0.830093 0.000000
0.291414 0.832488 0.000000
0.372004 0.834616 0.000000
0.468916 0.841409 0.000000
0.596395 0.854796 0.017089
0.733418 0.862907 0.206795
0.854669 0.868975 0.320347
0.942435 0.874362 0.408438
0.991284 0.882007 0.543245
1.000000 0.902563 0.706067
1.000000 0.933854 0.836318
1.000000 0.961475 0.915216
1.000000 0.979994 0.957989
1.000000 0.989627 0.977769
1.000000 0.994532 0.987333
1.000000 0.997477 0.992817
1.000000 0.999389 0.996254
1.000000 1.000000 0.998520
1.000000 1.000000 1.000000
1.000000 1.000000 1.000000
1.000000 1.000000 1.000000
0.400817 0.881458 0.356365
0.401438 0.881488 0.356312
0.402059 0.881518 0.356259
0.402741 0.881551 0.356200
0.403741 0.881600 0.356114
0.405231 0.881674 0.355985
0.407451 0.881785 0.355792
0.410749 0.881953 0.355503
0.415926 0.882156 0.355463
0.424021 0.882379 0.356071
0.435751 0.882740 0.356938
0.452532 0.883340 0.358141
0.476152 0.884385 0.359735
0.508791 0.886304 0.361668
0.553134 0.890046 0.363560
0.615715 0.897771 0.371976
0.708572 0.907133 0.429218
0.815794 0.917705 0.518185
0.912710 0.930490 0.595934
0.978765 0.939964 0.664592
1.000000 0.943388 0.753058
1.000000 0.952872 0.847610
1.000000 0.968697 0.917834
1.000000 0.982544 0.958620
1.000000 0.990606 0.977938
1.000000 0.994951 0.987395
1.000000 0.997665 0.992843
1.000000 0.999476 0.996266
1.000000 1.000000 0.998527
1.000000 1.000000 1.000000
1.000000 1.000000 1.000000
1.000000 1.000000 1.000000
0.637389 0.934031 0.604740
0.637580 0.934046 0.604729
0.637771 0.934061 0.604718
0.637982 0.934078 0.604707
0.638291 0.934103 0.604689
0.638753 0.934140 0.604663
0.639444 0.934196 0.604624
0.640476 0.934281 0.604565
0.642017 0.934409 0.604476
0.644563 0.934537 0.604647
0.648763 0.934618 0.605432
0.654933 0.934762 0.606572
0.663920 0.935035 0.608199
0.676866 0.935576 0.610459
0.695255 0.936703 0.613458
0.721010 0.939159 0.617107
0.759365 0.944692 0.625765
0.820352 0.951106 0.664363
0.891972 0.958857 0.725417
0.955668 0.969160 0.780133
0.995957 0.975410 0.824609
1.000000 0.975418 0.874531
1.000000 0.978909 0.924325
1.000000 0.986356 0.960113
1.000000 0.992089 0.978311
1.000000 0.995585 0.987518
1.000000 0.997950 0.992892
1.000000 0.999608 0.996288
1.000000 1.000000 0.998536
1.000000 1.000000 1.000000
1.000000 1.000000 1.000000
1.000000 1.000000 1.000000
0.797548 0.971179 0.777160
0.797615 0.971185 0.777157
0.797681 0.971192 0.777155
0.797754 0.971199 0.777152
0.797862 0.971210 0.777147
0.798024 0.971226 0.777141
0.798265 0.971250 0.777131
0.798626 0.971287 0.777116
0.799166 0.971342 0.777094
0.799974 0.971425 0.777061
0.801369 0.971488 0.777240
0.803773 0.971475 0.777913
0.807308 0.971472 0.778892
0.812462 0.971510 0.780297
0.819894 0.971665 0.782266
0.830455 0.972128 0.784917
0.845224 0.973373 0.788235
0.867455 0.976470 0.795000
0.903417 0.979672 0.819595
0.945140 0.983552 0.857112
0.981037 0.989167 0.889536
1.000000 0.991934 0.913673
1.000000 0.990770 0.938954
1.000000 0.991692 0.963540
1.000000 0.994283 0.979117
1.000000 0.996539 0.987771
1.000000 0.998379 0.992983
1.000000 0.999806 0.996325
1.000000 1.000000 0.998553
1.000000 1.000000 1.000000
1.000000 1.000000 1.000000
1.000000 1.000000 1.000000
0.894593 0.991222 0.883004
0.894616 0.991225 0.883004
0.894640 0.991228 0.883003
0.894666 0.991230 0.883002
0.894704 0.991235 0.883001
0.894760 0.991241 0.882999
0.894845 0.991250 0.882996
0.894973 0.991264 0.882992
0.895163 0.991285 0.882986
0.895448 0.991317 0.882976
0.895874 0.991365 0.882962
0.896639 0.991390 0.883096
0.898008 0.991343 0.883575
0.900017 0.991284 0.884275
0.902940 0.991223 0.885280
0.907142 0.991194 0.886692
0.913078 0.991298 0.888603
0.921304 0.991801 0.891016
0.933579 0.993243 0.895516
0.953217 0.994419 0.909781
0.975387 0.995788 0.930558
0.993796 0.998184 0.947647
1.000000 0.999050 0.959463
1.000000 0.997842 0.970842
1.000000 0.997350 0.980911
1.000000 0.997941 0.988285
1.000000 0.999023 0.993162
1.000000 1.000000 0.996393
1.000000 1.000000 0.998582
1.000000 1.000000 1.000000
1.000000 1.000000 1.000000
1.000000 1.000000 1.000000
0.947717 1.000000 0.941408
0.947725 1.000000 0.941408
0.947733 1.000000 0.941408
0.947742 1.000000 0.941407
0.947756 1.000000 0.941407
0.947776 1.000000 0.941407
0.947805 1.000000 0.941405
0.947850 1.000000 0.941404
0.947917 1.000000 0.941401
0.948017 1.000000 0.941398
0.948167 1.000000 0.941393
0.948391 1.000000 0.941386
0.948807 1.000000 0.941472
0.949573 1.000000 0.941781
0.950696 1.000000 0.942231
0.952327 0.999950 0.942878
0.954661 0.999873 0.943788
0.957939 0.999844 0.945021
0.962432 1.000000 0.946582
0.969028 1.000000 0.949308
0.979335 1.000000 0.957096
0.990612 1.000000 0.967867
0.999768 1.000000 0.976043
1.000000 1.000000 0.980677
1.000000 1.000000 0.984827
1.000000 0.999894 0.989395
1.000000 0.999965 0.993514
1.000000 1.000000 0.996524
1.000000 1.000000 0.998633
1.000000 1.000000 1.000000
1.000000 1.000000 1.000000
1.000000 1.000000 1.000000
0.972938 1.000000 0.969164
0.972941 1.000000 0.969164
0.972944 1.000000 0.969164
0.972948 1.000000 0.969164
0.972953 1.000000 0.969164
0.972961 1.000000 0.969163
0.972973 1.000000 0.969163
0.972990 1.000000 0.969162
0.973016 1.000000 0.969161
0.973055 1.000000 0.969159
0.973114 1.000000 0.969157
0.973201 1.000000 0.969152
0.973332 1.000000 0.969147
0.973582 1.000000 0.969203
0.974052 1.000000 0.969406
0.974739 1.000000 0.969702
0.975736 1.000000 0.970128
0.977158 1.000000 0.970728
0.979146 1.000000 0.971540
0.981850 1.000000 0.972568
0.985740 1.000000 0.974264
0.991631 1.000000 0.978763
0.997818 1.000000 0.984649
1.000000 1.000000 0.988642
1.000000 1.000000 0.990271
1.000000 1.000000 0.991814
1.000000 1.000000 0.994254
1.000000 1.000000 0.996772
1.000000 1.000000 0.998729
1.000000 1.000000 1.000000
1.000000 1.000000 1.000000
1.000000 1.000000 1.000000
0.985422 1.000000 0.982966
0.985423 1.000000 0.982966
0.985424 1.000000 0.982966
0.985426 1.000000 0.982966
0.985428 1.000000 0.982966
0.985431 1.000000 0.982966
0.985437 1.000000 0.982966
0.985444 1.000000 0.982965
0.985455 1.000000 0.982965
0.985472 1.000000 0.982964
0.985497 1.000000 0.982962
0.985534 1.000000 0.982960
0.985591 1.000000 0.982957
0.985675 1.000000 0.982953
0.985838 1.000000 0.982992
0.986150 1.000000 0.983133
0.986607 1.000000 0.983340
0.987267 1.000000 0.983637
0.988207 1.000000 0.984054
0.989517 1.000000 0.984620
0.991287 1.000000 0.985336
0.993787 1.000000 0.986468
0.997445 1.000000 0.989290
1.000000 1.000000 0.992741
1.000000 1.000000 0.994711
1.000000 1.000000 0.995195
1.000000 1.000000 0.995853
1.000000 1.000000 0.997286
1.000000 1.000000 0.998908
1.000000 1.000000 1.000000
1.000000 1.000000 1.000000
1.000000 1.000000 1.000000
0.992011 1.000000 0.990346
0.992012 1.000000 0.990346
0.992013 1.000000 0.990346
0.992013 1.000000 0.990346
0.992014 1.000000 0.990346
0.992016 1.000000 0.990346
0.992018 1.000000 0.990346
0.992022 1.000000 0.990346
0.992027 1.000000 0.990345
0.992034 1.000000 0.990345
0.992045 1.000000 0.990344
0.992062 1.000000 0.990343
0.992088 1.000000 0.990342
0.992125 1.000000 0.990339
0.992182 1.000000 0.990336
0.992293 1.000000 0.990363
0.992509 1.000000 0.990465
0.992824 1.000000 0.990612
0.993279 1.000000 0.990825
0.993926 1.000000 0.991123
0.994823 1.000000 0.991528
0.996031 1.000000 0.992040
0.997706 1.000000 0.992821
1.000000 1.000000 0.994668
1.000000 1.000000 0.996829
1.000000 1.000000 0.997945
1.000000 1.000000 0.998084
1.000000 1.000000 0.998383
1.000000 1.000000 0.999272
1.000000 1.000000 1.000000
1.000000 1.000000 1.000000
1.000000 1.000000 1.000000
0.995830 1.000000 0.994673
0.995830 1.000000 0.994673
0.995831 1.000000 0.994673
0.995831 1.000000 0.994673
0.995832 1.000000 0.994673
0.995832 1.000000 0.994673
0.995833 1.000000 0.994673
0.995835 1.000000 0.994673
0.995837 1.000000 0.994673
0.995840 1.000000 0.994672
0.995846 1.000000 0.994672
0.995853 1.000000 0.994671
0.995865 1.000000 0.994671
0.995883 1.000000 0.994670
0.995909 1.000000 0.994668
0.995948 1.000000 0.994665
0.996026 1.000000 0.994686
0.996179 1.000000 0.994760
0.996401 1.000000 0.994867
0.996722 1.000000 0.995022
0.997178 1.000000 0.995239
0.997809 1.000000 0.995534
0.998653 1.000000 0.995907
0.999814 1.000000 0.996467
1.000000 1.000000 0.997741
1.000000 1.000000 0.999189
1.000000 1.000000 0.999886
1.000000 1.000000 0.999906
1.000000 1.000000 1.000000
1.000000 1.000000 1.000000
1.000000 1.000000 1.000000
1.000000 1.000000 1.000000
0.998270 1.000000 0.997454
0.998270 1.000000 0.997454
0.998270 1.000000 0.997454
0.998270 1.000000 0.997454
0.998270 1.000000 0.997454
0.998271 1.000000 0.997454
0.998271 1.000000 0.997454
0.998272 1.000000 0.997454
0.998273 1.000000 0.997454
0.998274 1.000000 0.997453
0.998277 1.000000 0.997453
0.998280 1.000000 0.997453
0.998286 1.000000 0.997452
0.998294 1.000000 0.997452
0.998306 1.000000 0.997451
0.998325 1.000000 0.997450
0.998353 1.000000 0.997449
0.998408 1.000000 0.997463
0.998517 1.000000 0.997517
0.998676 1.000000 0.997596
0.998906 1.000000 0.997710
0.999232 1.000000 0.997870
0.999681 1.000000 0.998087
