StdX_ACES-Global/Looks/OpenDRT-toon__FLlinWS-filmlight-egamut2-tloge_to_srgb-display.cube
TITLE "Generated by Foundry::LUT"
LUT_3D_SIZE 8
DOMAIN_MIN 0.000000 0.000000 0.000000
DOMAIN_MAX 0.903226 0.903226 0.903226
0.002078 0.002078 0.002078
0.059658 0.001873 0.000000
0.198927 0.004155 0.000000
0.469135 0.015770 0.000000
0.829966 0.110582 0.000000
1.000000 0.791349 0.665512
1.000000 0.987011 0.976275
1.000000 1.000000 0.998231
0.000000 0.042251 0.000000
0.055785 0.048474 0.000000
0.200152 0.047385 0.000000
0.471828 0.026128 0.000000
0.831228 0.117828 0.000000
1.000000 0.791848 0.665316
1.000000 0.987020 0.976274
1.000000 1.000000 0.998231
0.000000 0.150423 0.000000
0.000000 0.150021 0.000000
0.184813 0.160756 0.000000
0.477158 0.116320 0.000000
0.834273 0.151100 0.000000
1.000000 0.793938 0.664529
1.000000 0.987061 0.976271
1.000000 1.000000 0.998231
0.000000 0.365752 0.000000
0.000000 0.365641 0.000000
0.000000 0.369497 0.000000
0.441139 0.397222 0.000000
0.838896 0.328757 0.000000
1.000000 0.804488 0.661411
1.000000 0.987266 0.976256
1.000000 1.000000 0.998231
0.000000 0.671501 0.000000
0.000000 0.672028 0.000000
0.000000 0.674776 0.000000
0.006441 0.708402 0.000000
0.775022 0.774393 0.000000
1.000000 0.862761 0.662774
1.000000 0.988291 0.976247
1.000000 1.000000 0.998234
0.751746 0.977681 0.758918
0.752150 0.977703 0.758894
0.753824 0.977796 0.758793
0.764456 0.977661 0.760640
0.813016 0.978325 0.770179
0.979197 0.989507 0.879191
1.000000 0.993776 0.977369
1.000000 1.000000 0.998258
0.980768 1.000000 0.981096
0.980776 1.000000 0.981095
0.980808 1.000000 0.981093
0.980972 1.000000 0.981081
0.982237 1.000000 0.981486
0.988038 1.000000 0.983605
1.000000 1.000000 0.993757
1.000000 1.000000 0.998555
0.998811 1.000000 0.998883
0.998812 1.000000 0.998883
0.998813 1.000000 0.998883
0.998821 1.000000 0.998882
0.998858 1.000000 0.998879
0.999174 1.000000 0.998994
1.000000 1.000000 0.999599
1.000000 1.000000 1.000000
0.000000 0.000515 0.046346
0.064191 0.000000 0.056090
0.201843 0.000871 0.057546
0.472713 0.014528 0.000000
0.831552 0.109482 0.000000
1.000000 0.791373 0.666457
1.000000 0.987013 0.976291
1.000000 1.000000 0.998232
0.000000 0.047193 0.054427
0.056046 0.056046 0.056046
0.205762 0.035893 0.044388
0.475703 0.024360 0.000000
0.832813 0.116704 0.000000
1.000000 0.791872 0.666262
1.000000 0.987022 0.976290
1.000000 1.000000 0.998232
0.000000 0.156998 0.049094
0.000000 0.159285 0.026358
0.185447 0.166221 0.000000
0.480640 0.112907 0.000000
0.835895 0.149934 0.000000
1.000000 0.793960 0.665479
1.000000 0.987063 0.976287
1.000000 1.000000 0.998231
0.000000 0.370744 0.000000
0.000000 0.370467 0.000000
0.000000 0.373226 0.000000
0.441016 0.399480 0.000000
0.840301 0.328385 0.000000
1.000000 0.804504 0.662373
1.000000 0.987268 0.976273
1.000000 1.000000 0.998232
0.000000 0.673683 0.000000
0.000000 0.674183 0.000000
0.000000 0.676818 0.000000
0.006049 0.709705 0.000000
0.775650 0.775077 0.000000
1.000000 0.862726 0.663748
1.000000 0.988293 0.976264
1.000000 1.000000 0.998235
0.751616 0.977783 0.759230
0.752021 0.977805 0.759206
0.753698 0.977897 0.759106
0.764424 0.977731 0.761032
0.813030 0.978349 0.770584
0.979131 0.989365 0.879736
1.000000 0.993776 0.977386
1.000000 1.000000 0.998259
0.980765 1.000000 0.981102
0.980773 1.000000 0.981101
0.980805 1.000000 0.981098
0.980968 1.000000 0.981086
0.982237 1.000000 0.981495
0.988039 1.000000 0.983615
1.000000 1.000000 0.993769
1.000000 1.000000 0.998556
0.998811 1.000000 0.998883
0.998812 1.000000 0.998883
0.998813 1.000000 0.998883
0.998821 1.000000 0.998883
0.998858 1.000000 0.998879
0.999174 1.000000 0.998994
1.000000 1.000000 0.999599
1.000000 1.000000 1.000000
0.000000 0.000000 0.160655
0.057588 0.000000 0.170387
0.202546 0.000000 0.177564
0.479643 0.009758 0.128234
0.838515 0.105143 0.000000
1.000000 0.791492 0.670383
1.000000 0.987022 0.976360
1.000000 1.000000 0.998235
0.000000 0.039187 0.169420
0.027471 0.035707 0.179704
0.205602 0.009447 0.180266
0.483133 0.018250 0.124022
0.839769 0.112265 0.000000
1.000000 0.791989 0.670192
1.000000 0.987032 0.976360
1.000000 1.000000 0.998235
0.000000 0.155613 0.179444
0.000000 0.159301 0.175645
0.176209 0.176209 0.176209
0.492814 0.098240 0.100916
0.844193 0.145223 0.000000
1.000000 0.794069 0.669425
1.000000 0.987072 0.976356
1.000000 1.000000 0.998235
0.000000 0.389982 0.107743
0.000000 0.391152 0.097727
0.000000 0.397207 0.043226
0.444171 0.412768 0.000000
0.846498 0.327297 0.000000
1.000000 0.804584 0.666366
1.000000 0.987277 0.976342
1.000000 1.000000 0.998235
0.000000 0.683330 0.000000
0.000000 0.683733 0.000000
0.000000 0.685895 0.000000
0.004457 0.715730 0.000000
0.778711 0.778373 0.000000
1.000000 0.862591 0.667787
1.000000 0.988301 0.976334
1.000000 1.000000 0.998237
0.751074 0.978206 0.760527
0.751481 0.978226 0.760503
0.753168 0.978313 0.760405
0.764283 0.978023 0.762655
0.813085 0.978446 0.772260
0.978862 0.988778 0.881972
1.000000 0.993777 0.977456
1.000000 1.000000 0.998261
0.980753 1.000000 0.981126
0.980761 1.000000 0.981125
0.980794 1.000000 0.981123
0.980957 1.000000 0.981111
0.982240 1.000000 0.981533
0.988046 1.000000 0.983654
1.000000 1.000000 0.993817
1.000000 1.000000 0.998559
0.998810 1.000000 0.998884
0.998811 1.000000 0.998884
0.998812 1.000000 0.998884
0.998820 1.000000 0.998884
0.998858 1.000000 0.998881
0.999174 1.000000 0.998996
1.000000 1.000000 0.999601
1.000000 1.000000 1.000000
0.000000 0.005637 0.402786
0.000000 0.003823 0.407281
0.131649 0.000000 0.428644
0.479682 0.000000 0.425023
0.864211 0.088208 0.216094
1.000000 0.792546 0.690127
1.000000 0.987068 0.976706
1.000000 1.000000 0.998250
0.000000 0.016194 0.408358
0.000000 0.014737 0.412185
0.119809 0.009200 0.434283
0.481493 0.000000 0.427281
0.865705 0.095146 0.215131
1.000000 0.793033 0.689956
1.000000 0.987078 0.976706
1.000000 1.000000 0.998250
0.000000 0.120578 0.422252
0.000000 0.118597 0.424203
0.045908 0.110517 0.448303
0.488282 0.042791 0.436630
0.871128 0.128592 0.211175
1.000000 0.795070 0.689270
1.000000 0.987118 0.976702
1.000000 1.000000 0.998250
0.000000 0.388059 0.425388
0.000000 0.389231 0.423980
0.000000 0.394685 0.419040
0.418364 0.418364 0.418364
0.868792 0.332675 0.191953
1.000000 0.805618 0.686412
1.000000 0.987321 0.976689
1.000000 1.000000 0.998250
0.000000 0.738735 0.126717
0.000000 0.739132 0.123416
0.000000 0.741035 0.108985
0.000000 0.763446 0.073704
0.773350 0.774387 0.323280
1.000000 0.862485 0.689084
1.000000 0.988341 0.976683
1.000000 1.000000 0.998253
0.748663 0.980234 0.767486
0.749253 0.980203 0.767616
0.751683 0.980077 0.768149
0.763427 0.979525 0.770700
0.813262 0.978994 0.780500
0.977541 0.985965 0.892570
1.000000 0.993783 0.977805
1.000000 1.000000 0.998277
0.980693 1.000000 0.981251
0.980701 1.000000 0.981250
0.980734 1.000000 0.981248
0.980898 1.000000 0.981236
0.982251 1.000000 0.981722
0.988078 1.000000 0.983850
1.000000 1.000000 0.994057
1.000000 1.000000 0.998574
0.998808 1.000000 0.998890
0.998808 1.000000 0.998890
0.998810 1.000000 0.998890
0.998817 1.000000 0.998889
0.998855 1.000000 0.998886
0.999176 1.000000 0.999006
1.000000 1.000000 0.999611
1.000000 1.000000 1.000000
0.000000 0.237979 0.795268
0.000000 0.235422 0.796224
0.000000 0.224612 0.801124
0.162649 0.202922 0.848955
0.842454 0.341704 0.774468
1.000000 0.810602 0.787880
1.000000 0.987329 0.978444
1.000000 1.000000 0.998325
0.000000 0.247744 0.795119
0.000000 0.245287 0.796056
0.000000 0.234900 0.800862
0.157596 0.216001 0.847982
0.841469 0.349663 0.774038
1.000000 0.811098 0.787892
1.000000 0.987338 0.978443
1.000000 1.000000 0.998325
0.000000 0.285570 0.794178
0.000000 0.283512 0.795019
0.000000 0.274852 0.799349
0.137422 0.267435 0.843906
0.837286 0.380702 0.772176
1.000000 0.813176 0.787974
1.000000 0.987378 0.978441
1.000000 1.000000 0.998325
0.000000 0.427144 0.788248
0.000000 0.426365 0.788536
0.000000 0.424198 0.789778
0.066240 0.444485 0.820078
0.815613 0.500192 0.762482
1.000000 0.823958 0.789115
1.000000 0.987576 0.978432
1.000000 1.000000 0.998326
0.000000 0.753798 0.723478
0.000000 0.753437 0.723368
0.000000 0.752088 0.723132
0.027648 0.762962 0.740004
0.741918 0.741918 0.741918
1.000000 0.879722 0.810583
1.000000 0.988593 0.978434
1.000000 1.000000 0.998328
0.745264 0.988761 0.811261
0.745923 0.988698 0.811374
0.748637 0.988437 0.811840
0.761715 0.987189 0.814091
0.825152 0.978778 0.831654
0.972336 0.975566 0.931987
1.000000 0.993864 0.979637
1.000000 1.000000 0.998353
0.980460 1.000000 0.981960
0.980475 1.000000 0.981966
0.980535 1.000000 0.981988
0.980837 1.000000 0.982102
0.982287 1.000000 0.982649
0.988226 1.000000 0.984804
1.000000 1.000000 0.995178
1.000000 1.000000 0.998651
0.998792 1.000000 0.998918
0.998793 1.000000 0.998918
0.998794 1.000000 0.998918
0.998802 1.000000 0.998917
0.998840 1.000000 0.998914
0.999180 1.000000 0.999052
1.000000 1.000000 0.999660
1.000000 1.000000 1.000000
0.749121 0.889637 1.000000
0.749874 0.889589 1.000000
0.752988 0.889394 1.000000
0.768395 0.888477 1.000000
0.854094 0.893398 0.993227
0.987518 0.948694 0.978819
1.000000 0.989448 0.986968
1.000000 1.000000 0.998700
0.749023 0.889877 1.000000
0.749776 0.889830 1.000000
0.752890 0.889635 1.000000
0.768295 0.888718 1.000000
0.854135 0.893671 0.993111
0.987464 0.948815 0.978797
1.000000 0.989458 0.986970
1.000000 1.000000 0.998700
0.748631 0.890876 1.000000
0.749383 0.890828 1.000000
0.752496 0.890633 1.000000
0.767892 0.889715 1.000000
0.854314 0.894795 0.992627
0.987241 0.949312 0.978709
1.000000 0.989497 0.986979
1.000000 1.000000 0.998700
0.746963 0.895869 1.000000
0.747713 0.895821 1.000000
0.750813 0.895626 1.000000
0.766162 0.894709 1.000000
0.855471 0.900304 0.990202
0.986157 0.951691 0.978282
1.000000 0.989695 0.987027
1.000000 1.000000 0.998701
0.746611 0.920031 0.996211
0.747408 0.919990 0.996160
0.750814 0.919837 0.995925
0.769790 0.919391 0.994142
0.865995 0.923704 0.979180
0.981805 0.960849 0.976654
1.000000 0.990711 0.987327
1.000000 1.000000 0.998705
0.851764 0.989613 0.972680
0.852346 0.989518 0.972665
0.854770 0.989118 0.972601
0.867015 0.987034 0.972225
0.918557 0.977259 0.969969
0.978402 0.978402 0.978402
1.000000 0.995677 0.989955
1.000000 1.000000 0.998730
0.980517 1.000000 0.986784
0.980533 1.000000 0.986789
0.980601 1.000000 0.986809
0.980934 1.000000 0.986911
0.982534 1.000000 0.987402
0.989883 1.000000 0.990287
1.000000 1.000000 0.999078
1.000000 1.000000 0.999047
0.998738 1.000000 0.999083
0.998738 1.000000 0.999084
0.998741 1.000000 0.999085
0.998756 1.000000 0.999091
0.998833 1.000000 0.999123
0.999199 1.000000 0.999278
1.000000 1.000000 0.999893
1.000000 1.000000 1.000000
0.979872 0.995168 1.000000
0.979888 0.995168 1.000000
0.979960 0.995165 1.000000
0.980321 0.995152 1.000000
0.982095 0.995094 1.000000
0.991542 0.995774 1.000000
1.000000 0.999720 1.000000
1.000000 1.000000 1.000000
0.979871 0.995174 1.000000
0.979888 0.995173 1.000000
0.979960 0.995171 1.000000
0.980320 0.995158 1.000000
0.982095 0.995100 1.000000
0.991544 0.995781 1.000000
1.000000 0.999723 1.000000
1.000000 1.000000 1.000000
0.979868 0.995198 1.000000
0.979885 0.995197 1.000000
0.979957 0.995195 1.000000
0.980318 0.995182 1.000000
0.982091 0.995124 1.000000
0.991552 0.995806 1.000000
1.000000 0.999734 1.000000
1.000000 1.000000 1.000000
0.979855 0.995318 1.000000
0.979872 0.995317 1.000000
0.979944 0.995315 1.000000
0.980304 0.995302 1.000000
0.982077 0.995243 1.000000
0.991594 0.995933 1.000000
1.000000 0.999791 1.000000
1.000000 1.000000 1.000000
0.979814 0.995912 1.000000
0.979831 0.995911 1.000000
0.979903 0.995908 1.000000
0.980262 0.995894 1.000000
0.982030 0.995830 1.000000
0.991822 0.996549 1.000000
1.000000 1.000000 1.000000
1.000000 1.000000 1.000000
0.980186 0.998632 1.000000
0.980204 0.998631 1.000000
0.980280 0.998628 1.000000
0.980673 0.998613 1.000000
0.982820 0.998571 1.000000
0.993237 0.998994 1.000000
1.000000 1.000000 1.000000
1.000000 1.000000 1.000000
0.987989 1.000000 1.000000
0.988004 1.000000 1.000000
0.988070 1.000000 1.000000
0.988398 1.000000 1.000000
0.990038 1.000000 1.000000
0.996662 1.000000 1.000000
1.000000 1.000000 1.000000
1.000000 1.000000 1.000000
0.998774 1.000000 1.000000
0.998775 1.000000 1.000000
0.998779 1.000000 1.000000
0.998795 1.000000 1.000000
0.998880 1.000000 1.000000
0.999284 1.000000 1.000000
1.000000 1.000000 1.000000
1.000000 1.000000 1.000000
0.998524 1.000000 1.000000
0.998525 1.000000 1.000000
0.998529 1.000000 1.000000
0.998547 1.000000 1.000000
0.998636 1.000000 1.000000
0.999075 1.000000 1.000000
1.000000 1.000000 1.000000
1.000000 1.000000 1.000000
0.998524 1.000000 1.000000
0.998525 1.000000 1.000000
0.998529 1.000000 1.000000
0.998547 1.000000 1.000000
0.998636 1.000000 1.000000
0.999075 1.000000 1.000000
1.000000 1.000000 1.000000
1.000000 1.000000 1.000000
0.998524 1.000000 1.000000
0.998525 1.000000 1.000000
0.998529 1.000000 1.000000
0.998547 1.000000 1.000000
0.998636 1.000000 1.000000
0.999075 1.000000 1.000000
1.000000 1.000000 1.000000
1.000000 1.000000 1.000000
0.998524 1.000000 1.000000
0.998525 1.000000 1.000000
0.998528 1.000000 1.000000
0.998547 1.000000 1.000000
0.998636 1.000000 1.000000
0.999075 1.000000 1.000000
1.000000 1.000000 1.000000
1.000000 1.000000 1.000000
0.998524 1.000000 1.000000
0.998525 1.000000 1.000000
0.998528 1.000000 1.000000
0.998547 1.000000 1.000000
0.998636 1.000000 1.000000
0.999075 1.000000 1.000000
1.000000 1.000000 1.000000
1.000000 1.000000 1.000000
0.998528 1.000000 1.000000
0.998529 1.000000 1.000000
0.998532 1.000000 1.000000
0.998550 1.000000 1.000000
0.998639 1.000000 1.000000
0.999077 1.000000 1.000000
1.000000 1.000000 1.000000
1.000000 1.000000 1.000000
0.998654 1.000000 1.000000
0.998655 1.000000 1.000000
0.998659 1.000000 1.000000
0.998677 1.000000 1.000000
0.998776 1.000000 1.000000
0.999302 1.000000 1.000000
1.000000 1.000000 1.000000
1.000000 1.000000 1.000000
1.000000 1.000000 1.000000
1.000000 1.000000 1.000000
1.000000 1.000000 1.000000
1.000000 1.000000 1.000000
1.000000 1.000000 1.000000
1.000000 1.000000 1.000000
1.000000 1.000000 1.000000
1.000000 1.000000 1.000000
