StdX_ACES-Global/Looks/OpenDRT__FLlinWS-filmlight-egamut2-tloge_to_srgb-display.cube
TITLE "Generated by Foundry::LUT"
LUT_3D_SIZE 5
DOMAIN_MIN 0.000000 0.000000 0.000000
DOMAIN_MAX 0.903226 0.903226 0.903226
0.000569 0.000569 0.000569
0.090503 0.001654 0.000000
0.680054 0.044164 0.000000
1.000000 0.741158 0.578470
1.000000 0.977449 0.960707
0.000000 0.062995 0.000000
0.085504 0.074062 0.000000
0.686491 0.076230 0.000000
1.000000 0.742717 0.577966
1.000000 0.977460 0.960706
0.000000 0.533561 0.000000
0.000000 0.534716 0.000000
0.643793 0.613018 0.000000
1.000000 0.767648 0.571535
1.000000 0.977629 0.960697
0.605093 1.000000 0.629256
0.607066 1.000000 0.629082
0.643396 1.000000 0.632297
0.986326 1.000000 0.772242
1.000000 0.980489 0.960696
0.965123 1.000000 0.965748
0.965133 1.000000 0.965748
0.965282 1.000000 0.965735
0.969011 1.000000 0.966824
1.000000 1.000000 0.985002
0.000000 0.000000 0.069603
0.100420 0.000000 0.087340
0.689050 0.040394 0.000000
1.000000 0.741082 0.581226
1.000000 0.977451 0.960724
0.000000 0.072268 0.083865
0.087583 0.087583 0.087583
0.695420 0.068144 0.000000
1.000000 0.742639 0.580731
1.000000 0.977461 0.960723
0.000000 0.546915 0.000000
0.000000 0.547190 0.000000
0.645309 0.618037 0.000000
1.000000 0.767544 0.574364
1.000000 0.977631 0.960713
0.604326 1.000000 0.630654
0.606309 1.000000 0.630482
0.643054 1.000000 0.633966
0.986050 1.000000 0.774769
1.000000 0.980490 0.960713
0.965119 1.000000 0.965755
0.965129 1.000000 0.965754
0.965278 1.000000 0.965742
0.969011 1.000000 0.966834
1.000000 1.000000 0.985017
0.000000 0.044048 0.620323
0.000000 0.036679 0.626642
0.711932 0.031059 0.639435
1.000000 0.740632 0.623792
1.000000 0.977477 0.960989
0.000000 0.095791 0.630196
0.000000 0.077074 0.635161
0.714734 0.056783 0.644438
1.000000 0.742156 0.623399
1.000000 0.977487 0.960989
0.000000 0.603755 0.616150
0.000000 0.603692 0.613675
0.616937 0.616937 0.616937
1.000000 0.766813 0.618090
1.000000 0.977656 0.960979
0.593446 1.000000 0.654864
0.596186 1.000000 0.655195
0.636842 1.000000 0.660034
0.981706 0.995797 0.811478
1.000000 0.980509 0.960983
0.965060 1.000000 0.965866
0.965070 1.000000 0.965866
0.965220 1.000000 0.965853
0.969016 1.000000 0.967000
1.000000 1.000000 0.985248
0.530736 0.836754 1.000000
0.534947 0.836421 1.000000
0.597768 0.831053 1.000000
0.991367 0.889927 0.969866
1.000000 0.977997 0.965422
0.529994 0.837856 1.000000
0.534196 0.837521 1.000000
0.597167 0.832194 1.000000
0.991121 0.890639 0.969780
1.000000 0.978008 0.965422
0.519332 0.854997 1.000000
0.523588 0.854686 1.000000
0.590248 0.850253 1.000000
0.987353 0.901214 0.968475
1.000000 0.978170 0.965418
0.638365 1.000000 0.973906
0.642222 1.000000 0.973823
0.702661 1.000000 0.972165
0.962979 0.962979 0.962979
1.000000 0.980945 0.965474
0.964425 1.000000 0.968164
0.964442 1.000000 0.968170
0.964714 1.000000 0.968262
0.969005 1.000000 0.969715
1.000000 1.000000 0.988775
0.961222 0.989129 1.000000
0.961243 0.989128 1.000000
0.961573 0.989110 1.000000
0.966985 0.988813 1.000000
1.000000 0.995632 1.000000
0.961221 0.989136 1.000000
0.961242 0.989135 1.000000
0.961571 0.989117 1.000000
0.966985 0.988820 1.000000
1.000000 0.995636 1.000000
0.961203 0.989250 1.000000
0.961224 0.989249 1.000000
0.961553 0.989230 1.000000
0.966972 0.988935 1.000000
1.000000 0.995694 1.000000
0.960999 0.991112 1.000000
0.961019 0.991110 1.000000
0.961347 0.991091 1.000000
0.966990 0.990844 1.000000
1.000000 0.996596 1.000000
0.973380 1.000000 1.000000
0.973400 1.000000 1.000000
0.973720 1.000000 1.000000
0.979078 1.000000 1.000000
1.000000 1.000000 1.000000
