StdX_ACES-Global/Looks/OpenDRT__FLlinWS-filmlight-egamut2-tloge_to_srgb-display.cube
TITLE "Generated by Foundry::LUT"
LUT_3D_SIZE 32
0.000569 0.000569 0.000569
0.004814 0.000672 0.000863
0.010016 0.000614 0.000018
0.016181 0.000656 0.000000
0.025650 0.000763 0.000000
0.040008 0.000944 0.000000
0.060974 0.001224 0.000000
0.090503 0.001654 0.000000
0.131146 0.002342 0.000000
0.186630 0.003497 0.000000
0.261143 0.005519 0.000000
0.355395 0.009068 0.000000
0.462797 0.015171 0.000000
0.573335 0.025633 0.000000
0.680054 0.044164 0.000000
0.779359 0.079049 0.000000
0.868358 0.147095 0.000000
0.942378 0.262324 0.000000
1.000000 0.404480 0.000000
1.000000 0.538864 0.182086
1.000000 0.650640 0.424237
1.000000 0.741158 0.578470
1.000000 0.811470 0.692979
1.000000 0.864439 0.778304
1.000000 0.903499 0.841142
1.000000 0.931893 0.886902
1.000000 0.952345 0.919954
1.000000 0.966992 0.943700
1.000000 0.977449 0.960707
1.000000 0.984901 0.972867
1.000000 0.990209 0.981555
1.000000 0.993989 0.987764
0.000000 0.003244 0.000206
0.004590 0.004065 0.000000
0.009418 0.005346 0.000000
0.015525 0.006523 0.000000
0.025171 0.007307 0.000000
0.039885 0.006809 0.000000
0.061119 0.005703 0.000000
0.090835 0.005187 0.000000
0.131701 0.005318 0.000000
0.187482 0.006096 0.000000
0.262245 0.007807 0.000000
0.356469 0.011073 0.000000
0.463770 0.016888 0.000000
0.574003 0.027191 0.000000
0.680557 0.045695 0.000000
0.779730 0.080677 0.000000
0.868557 0.148771 0.000000
0.942414 0.263610 0.000000
1.000000 0.405197 0.000000
1.000000 0.539243 0.181717
1.000000 0.650832 0.424153
1.000000 0.741255 0.578438
1.000000 0.811518 0.692966
1.000000 0.864463 0.778299
1.000000 0.903510 0.841139
1.000000 0.931899 0.886901
1.000000 0.952347 0.919953
1.000000 0.966994 0.943700
1.000000 0.977450 0.960707
1.000000 0.984902 0.972867
1.000000 0.990209 0.981555
1.000000 0.993989 0.987764
0.000000 0.006626 0.000000
0.004392 0.007232 0.000000
0.009552 0.008356 0.000000
0.015204 0.009991 0.000000
0.024395 0.012136 0.000000
0.038924 0.014068 0.000000
0.060563 0.014068 0.000000
0.090809 0.011620 0.000000
0.131880 0.009688 0.000000
0.187718 0.009307 0.000000
0.262537 0.010382 0.000000
0.356854 0.013232 0.000000
0.463986 0.018783 0.000000
0.574043 0.028899 0.000000
0.681051 0.047255 0.000000
0.780095 0.082324 0.000000
0.868752 0.150453 0.000000
0.942448 0.264894 0.000000
1.000000 0.405914 0.000000
1.000000 0.539622 0.181347
1.000000 0.651024 0.424069
1.000000 0.741351 0.578407
1.000000 0.811566 0.692954
1.000000 0.864486 0.778294
1.000000 0.903522 0.841137
1.000000 0.931904 0.886900
1.000000 0.952350 0.919953
1.000000 0.966995 0.943700
1.000000 0.977451 0.960707
1.000000 0.984902 0.972867
1.000000 0.990209 0.981555
1.000000 0.993989 0.987764
0.000000 0.010743 0.000000
0.001330 0.011342 0.000000
0.009680 0.012059 0.000000
0.015490 0.013490 0.000000
0.024154 0.015970 0.000000
0.038125 0.019114 0.000000
0.059455 0.021649 0.000000
0.090090 0.021036 0.000000
0.131822 0.016933 0.000000
0.187917 0.014044 0.000000
0.262843 0.013760 0.000000
0.357273 0.015875 0.000000
0.464503 0.020965 0.000000
0.574594 0.030806 0.000000
0.680725 0.049174 0.000000
0.780490 0.084159 0.000000
0.868963 0.152311 0.000000
0.942485 0.266306 0.000000
1.000000 0.406702 0.000000
1.000000 0.540040 0.180941
1.000000 0.651236 0.423978
1.000000 0.741457 0.578372
1.000000 0.811618 0.692940
1.000000 0.864512 0.778288
1.000000 0.903535 0.841135
1.000000 0.931911 0.886899
1.000000 0.952353 0.919953
1.000000 0.966997 0.943700
1.000000 0.977451 0.960707
1.000000 0.984903 0.972867
1.000000 0.990209 0.981555
1.000000 0.993989 0.987764
0.000000 0.017163 0.000000
0.000000 0.017145 0.000000
0.007946 0.018318 0.000000
0.015675 0.019208 0.000000
0.024563 0.021331 0.000000
0.037725 0.024939 0.000000
0.058244 0.029201 0.000000
0.088490 0.032113 0.000000
0.130857 0.030184 0.000000
0.187896 0.023855 0.000000
0.263216 0.020114 0.000000
0.357867 0.020397 0.000000
0.465253 0.024495 0.000000
0.575399 0.033794 0.000000
0.681478 0.051965 0.000000
0.779931 0.087112 0.000000
0.869264 0.155054 0.000000
0.942537 0.268377 0.000000
1.000000 0.407860 0.000000
1.000000 0.540654 0.180343
1.000000 0.651546 0.423843
1.000000 0.741612 0.578322
1.000000 0.811695 0.692919
1.000000 0.864550 0.778280
1.000000 0.903553 0.841132
1.000000 0.931920 0.886898
1.000000 0.952358 0.919952
1.000000 0.966999 0.943700
1.000000 0.977452 0.960707
1.000000 0.984903 0.972867
1.000000 0.990210 0.981555
1.000000 0.993989 0.987764
0.000000 0.027076 0.000000
0.000000 0.026908 0.000000
0.000220 0.027600 0.000000
0.012910 0.028858 0.000000
0.024676 0.030111 0.000000
0.038199 0.033117 0.000000
0.057526 0.038026 0.000000
0.086643 0.043392 0.000000
0.128562 0.046359 0.000000
0.186662 0.042355 0.000000
0.263372 0.033349 0.000000
0.358652 0.028965 0.000000
0.466343 0.030633 0.000000
0.576585 0.038723 0.000000
0.682590 0.056414 0.000000
0.780812 0.091536 0.000000
0.868316 0.159365 0.000000
0.942611 0.271472 0.000000
1.000000 0.409591 0.000000
1.000000 0.541572 0.179446
1.000000 0.652012 0.423641
1.000000 0.741846 0.578247
1.000000 0.811811 0.692889
1.000000 0.864607 0.778267
1.000000 0.903581 0.841126
1.000000 0.931934 0.886896
1.000000 0.952364 0.919951
1.000000 0.967002 0.943700
1.000000 0.977454 0.960707
1.000000 0.984904 0.972867
1.000000 0.990210 0.981555
1.000000 0.993990 0.987764
0.000000 0.041848 0.000000
0.000000 0.041649 0.000000
0.000000 0.041598 0.000000
0.000426 0.042719 0.000000
0.020013 0.044512 0.000000
0.037943 0.046188 0.000000
0.057914 0.050167 0.000000
0.085392 0.056449 0.000000
0.125820 0.062877 0.000000
0.183503 0.065589 0.000000
0.262010 0.058619 0.000000
0.359301 0.046543 0.000000
0.467820 0.042135 0.000000
0.578296 0.047261 0.000000
0.684210 0.063722 0.000000
0.782087 0.098519 0.000000
0.869000 0.165919 0.000000
0.941166 0.276089 0.000000
1.000000 0.412177 0.000000
1.000000 0.542947 0.178102
1.000000 0.652709 0.423340
1.000000 0.742194 0.578134
1.000000 0.811984 0.692843
1.000000 0.864693 0.778249
1.000000 0.903623 0.841119
1.000000 0.931954 0.886893
1.000000 0.952374 0.919950
1.000000 0.967007 0.943699
1.000000 0.977456 0.960706
1.000000 0.984905 0.972867
1.000000 0.990210 0.981555
1.000000 0.993990 0.987764
0.000000 0.062995 0.000000
0.000000 0.062777 0.000000
0.000000 0.062600 0.000000
0.000000 0.062618 0.000000
0.000677 0.064319 0.000000
0.030159 0.066889 0.000000
0.056764 0.069019 0.000000
0.085504 0.074062 0.000000
0.123799 0.081879 0.000000
0.179624 0.089532 0.000000
0.257998 0.091493 0.000000
0.358196 0.080183 0.000000
0.469311 0.065225 0.000000
0.580600 0.063021 0.000000
0.686491 0.076230 0.000000
0.783880 0.109787 0.000000
0.869944 0.175992 0.000000
0.941355 0.283240 0.000000
0.998985 0.415889 0.000000
1.000000 0.545006 0.176084
1.000000 0.653752 0.422891
1.000000 0.742717 0.577966
1.000000 0.812243 0.692776
1.000000 0.864820 0.778221
1.000000 0.903686 0.841108
1.000000 0.931984 0.886888
1.000000 0.952389 0.919949
1.000000 0.967014 0.943698
1.000000 0.977460 0.960706
1.000000 0.984907 0.972867
1.000000 0.990211 0.981556
1.000000 0.993990 0.987764
0.000000 0.092257 0.000000
0.000000 0.092013 0.000000
0.000000 0.091796 0.000000
0.000000 0.091620 0.000000
0.000000 0.091692 0.000000
0.001054 0.094253 0.000000
0.044185 0.097915 0.000000
0.082774 0.100652 0.000000
0.123542 0.107111 0.000000
0.176675 0.117036 0.000000
0.252941 0.125962 0.000000
0.353701 0.125423 0.000000
0.468877 0.108613 0.000000
0.582983 0.093533 0.000000
0.689411 0.098610 0.000000
0.786246 0.128392 0.000000
0.871172 0.191551 0.000000
0.941596 0.293925 0.000000
0.998884 0.421804 0.000000
1.000000 0.547839 0.174017
1.000000 0.655316 0.422224
1.000000 0.743500 0.577717
1.000000 0.812632 0.692675
1.000000 0.865012 0.778180
1.000000 0.903780 0.841091
1.000000 0.932030 0.886882
1.000000 0.952412 0.919946
1.000000 0.967025 0.943697
1.000000 0.977465 0.960706
1.000000 0.984909 0.972867
1.000000 0.990213 0.981556
1.000000 0.993991 0.987764
0.000000 0.132105 0.000000
0.000000 0.131830 0.000000
0.000000 0.131580 0.000000
0.000000 0.131341 0.000000
0.000000 0.131104 0.000000
0.000000 0.131303 0.000000
0.001622 0.135165 0.000000
0.063319 0.140492 0.000000
0.118512 0.144353 0.000000
0.176096 0.153079 0.000000
0.249050 0.165619 0.000000
0.347764 0.174020 0.000000
0.464473 0.167868 0.000000
0.583181 0.147763 0.000000
0.692126 0.138955 0.000000
0.788907 0.159393 0.000000
0.872594 0.215505 0.000000
0.941875 0.309787 0.000000
0.998738 0.430595 0.000000
1.000000 0.552504 0.169851
1.000000 0.657398 0.421581
1.000000 0.744674 0.577348
1.000000 0.813214 0.692526
1.000000 0.865298 0.778119
1.000000 0.903920 0.841066
1.000000 0.932099 0.886872
1.000000 0.952445 0.919942
1.000000 0.967042 0.943696
1.000000 0.977473 0.960706
1.000000 0.984913 0.972867
1.000000 0.990215 0.981555
1.000000 0.993992 0.987764
0.000000 0.186190 0.000000
0.000000 0.185900 0.000000
0.000000 0.185631 0.000000
0.000000 0.185362 0.000000
0.000000 0.185034 0.000000
0.000000 0.184754 0.000000
0.000000 0.185252 0.000000
0.002510 0.191140 0.000000
0.089382 0.199080 0.000000
0.167527 0.204936 0.000000
0.247647 0.216563 0.000000
0.342842 0.229970 0.000000
0.458166 0.233210 0.000000
0.579250 0.220406 0.000000
0.692352 0.203476 0.000000
0.790823 0.208898 0.000000
0.873891 0.251541 0.000000
0.942143 0.333019 0.000000
0.998533 0.443581 0.000000
1.000000 0.559461 0.163612
1.000000 0.660921 0.420204
1.000000 0.746198 0.577021
1.000000 0.814086 0.692305
1.000000 0.865728 0.778028
1.000000 0.904131 0.841029
1.000000 0.932202 0.886857
1.000000 0.952495 0.919936
1.000000 0.967066 0.943694
1.000000 0.977485 0.960705
1.000000 0.984919 0.972866
1.000000 0.990217 0.981556
1.000000 0.993993 0.987764
0.000000 0.257693 0.000000
0.000000 0.257439 0.000000
0.000000 0.257200 0.000000
0.000000 0.256957 0.000000
0.000000 0.256641 0.000000
0.000000 0.256282 0.000000
0.000000 0.256104 0.000000
0.000000 0.257289 0.000000
0.003968 0.266290 0.000000
0.123990 0.277940 0.000000
0.232037 0.286234 0.000000
0.338291 0.299297 0.000000
0.451895 0.308433 0.000000
0.573133 0.302537 0.000000
0.689091 0.286134 0.000000
0.790630 0.278922 0.000000
0.874547 0.302984 0.000000
0.942324 0.366300 0.000000
0.998261 0.462582 0.000000
1.000000 0.569802 0.154306
1.000000 0.666191 0.418200
1.000000 0.748833 0.576254
1.000000 0.815199 0.692130
1.000000 0.866372 0.777894
1.000000 0.904446 0.840974
1.000000 0.932356 0.886835
1.000000 0.952570 0.919928
1.000000 0.967102 0.943691
1.000000 0.977503 0.960704
1.000000 0.984927 0.972866
1.000000 0.990221 0.981555
1.000000 0.993995 0.987764
0.000000 0.344724 0.000000
0.000000 0.344567 0.000000
0.000000 0.344420 0.000000
0.000000 0.344270 0.000000
0.000000 0.344073 0.000000
0.000000 0.343842 0.000000
0.000000 0.343670 0.000000
0.000000 0.343967 0.000000
0.000000 0.346559 0.000000
0.006509 0.360057 0.000000
0.166774 0.376024 0.000000
0.309007 0.386119 0.000000
0.440538 0.397233 0.000000
0.565195 0.397497 0.000000
0.683733 0.382398 0.000000
0.788377 0.366483 0.000000
0.874299 0.371560 0.000000
0.942379 0.412639 0.000000
0.997943 0.490059 0.000000
1.000000 0.585113 0.140592
1.000000 0.674071 0.415330
1.000000 0.752785 0.575153
1.000000 0.817155 0.691673
1.000000 0.867183 0.777804
1.000000 0.904919 0.840894
1.000000 0.932587 0.886803
1.000000 0.952683 0.919916
1.000000 0.967157 0.943686
1.000000 0.977529 0.960702
1.000000 0.984941 0.972866
1.000000 0.990228 0.981555
1.000000 0.993998 0.987764
0.000000 0.439312 0.000000
0.000000 0.439265 0.000000
0.000000 0.439225 0.000000
0.000000 0.439187 0.000000
0.000000 0.439147 0.000000
0.000000 0.439122 0.000000
0.000000 0.439177 0.000000
0.000000 0.439521 0.000000
0.000000 0.440861 0.000000
0.000000 0.445898 0.000000
0.011316 0.465443 0.000000
0.215947 0.485414 0.000000
0.391517 0.496643 0.000000
0.544609 0.503773 0.000000
0.674170 0.494516 0.000000
0.784236 0.472544 0.000000
0.873339 0.459162 0.000000
0.942411 0.475373 0.000000
0.997679 0.529247 0.000000
1.000000 0.607663 0.121092
1.000000 0.685848 0.411340
1.000000 0.758723 0.573609
1.000000 0.820096 0.691023
1.000000 0.868627 0.777530
1.000000 0.905511 0.840853
1.000000 0.932933 0.886756
1.000000 0.952852 0.919897
1.000000 0.967239 0.943679
1.000000 0.977569 0.960700
1.000000 0.984960 0.972865
1.000000 0.990237 0.981555
1.000000 0.994003 0.987764
0.000000 0.533561 0.000000
0.000000 0.533596 0.000000
0.000000 0.533634 0.000000
0.000000 0.533682 0.000000
0.000000 0.533761 0.000000
0.000000 0.533901 0.000000
0.000000 0.534169 0.000000
0.000000 0.534716 0.000000
0.000000 0.535940 0.000000
0.000000 0.539010 0.000000
0.000000 0.547774 0.000000
0.021904 0.574940 0.000000
0.271885 0.597161 0.000000
0.474593 0.609603 0.000000
0.643793 0.613018 0.000000
0.773134 0.596248 0.000000
0.870505 0.569652 0.000000
0.942505 0.558963 0.000000
0.997697 0.584225 0.000000
1.000000 0.640588 0.096085
1.000000 0.703411 0.406098
1.000000 0.767648 0.571535
1.000000 0.824524 0.690131
1.000000 0.870799 0.777146
1.000000 0.906571 0.840691
1.000000 0.933365 0.886742
1.000000 0.953104 0.919871
1.000000 0.967362 0.943670
1.000000 0.977629 0.960697
1.000000 0.984989 0.972864
1.000000 0.990251 0.981555
1.000000 0.994010 0.987764
0.000000 0.623451 0.000000
0.000000 0.623538 0.000000
0.000000 0.623628 0.000000
0.000000 0.623731 0.000000
0.000000 0.623889 0.000000
0.000000 0.624142 0.000000
0.000000 0.624560 0.000000
0.000000 0.625280 0.000000
0.000000 0.626599 0.000000
0.000000 0.629219 0.000000
0.000000 0.634982 0.000000
0.000000 0.649086 0.000000
0.051419 0.684638 0.000000
0.338454 0.704749 0.000000
0.556879 0.718366 0.000000
0.734218 0.719017 0.000000
0.858209 0.697260 0.000000
0.940868 0.667963 0.000000
0.998245 0.660388 0.000000
1.000000 0.687895 0.071280
1.000000 0.729452 0.400024
1.000000 0.781062 0.568988
1.000000 0.831202 0.688977
1.000000 0.874073 0.776630
1.000000 0.908167 0.840469
1.000000 0.934141 0.886650
1.000000 0.953419 0.919872
1.000000 0.967547 0.943655
1.000000 0.977719 0.960692
1.000000 0.985033 0.972862
1.000000 0.990273 0.981555
1.000000 0.994020 0.987764
0.000000 0.708980 0.000000
0.000000 0.709114 0.000000
0.000000 0.709250 0.000000
0.000000 0.709402 0.000000
0.000000 0.709631 0.000000
0.000000 0.709986 0.000000
0.000000 0.710551 0.000000
0.000000 0.711474 0.000000
0.000000 0.713012 0.000000
0.000000 0.715697 0.000000
0.000000 0.720680 0.000000
0.000000 0.730617 0.000000
0.011068 0.751655 0.000000
0.139940 0.789541 0.000000
0.420042 0.803532 0.000000
0.639384 0.817844 0.000000
0.815012 0.816577 0.000000
0.929111 0.792213 0.000000
0.998010 0.762723 0.000000
1.000000 0.754168 0.070415
1.000000 0.767480 0.395266
1.000000 0.801136 0.566476
1.000000 0.841282 0.687672
1.000000 0.879021 0.775997
1.000000 0.910574 0.840181
1.000000 0.935309 0.886526
1.000000 0.953986 0.919821
1.000000 0.967777 0.943663
1.000000 0.977853 0.960685
1.000000 0.985098 0.972860
1.000000 0.990304 0.981554
1.000000 0.994036 0.987765
0.000000 0.797626 0.000000
0.000000 0.797813 0.000000
0.000000 0.798000 0.000000
0.000000 0.798209 0.000000
0.000000 0.798518 0.000000
0.000000 0.798988 0.000000
0.000000 0.799709 0.000000
0.000000 0.800865 0.000000
0.000000 0.802751 0.000000
0.000000 0.805778 0.000000
0.000000 0.810779 0.000000
0.003466 0.819331 0.000000
0.015854 0.834455 0.000000
0.072516 0.860407 0.000000
0.291182 0.879067 0.000000
0.517705 0.892024 0.000000
0.724432 0.906550 0.000000
0.888740 0.903880 0.000000
0.986138 0.875814 0.029524
1.000000 0.839780 0.200231
1.000000 0.821451 0.403119
1.000000 0.830728 0.565730
1.000000 0.856445 0.686689
1.000000 0.886506 0.775364
1.000000 0.914214 0.839851
1.000000 0.937071 0.886373
1.000000 0.954839 0.919756
1.000000 0.968190 0.943638
1.000000 0.978021 0.960695
1.000000 0.985196 0.972857
1.000000 0.990352 0.981554
1.000000 0.994058 0.987764
0.010975 0.905148 0.000000
0.011158 0.905352 0.000000
0.011343 0.905556 0.000000
0.011548 0.905781 0.000000
0.011854 0.906113 0.000000
0.012322 0.906613 0.000000
0.013043 0.907366 0.000000
0.014177 0.908505 0.000000
0.016095 0.910355 0.000000
0.019515 0.913382 0.000000
0.025763 0.918023 0.000000
0.038466 0.925150 0.000000
0.068298 0.935802 0.000000
0.145568 0.948742 0.000000
0.289543 0.954697 0.000000
0.447208 0.958372 0.000000
0.625915 0.968455 0.016858
0.797173 0.966518 0.242590
0.930343 0.952887 0.346496
1.000000 0.924875 0.387888
1.000000 0.890909 0.460280
1.000000 0.873035 0.574310
1.000000 0.878913 0.687410
1.000000 0.897793 0.775135
1.000000 0.919725 0.839591
1.000000 0.939736 0.886220
1.000000 0.956126 0.919684
1.000000 0.968811 0.943608
1.000000 0.978322 0.960684
1.000000 0.985318 0.972868
1.000000 0.990423 0.981553
1.000000 0.994093 0.987765
0.158577 0.986365 0.291215
0.159429 0.986379 0.291124
0.160283 0.986393 0.291032
0.161225 0.986408 0.290931
0.162612 0.986431 0.290782
0.164696 0.986466 0.290560
0.167833 0.986518 0.290227
0.172562 0.986597 0.289726
0.179709 0.986717 0.288974
0.191263 0.986838 0.288531
0.209980 0.986916 0.289067
0.237701 0.987064 0.289787
0.277295 0.987357 0.290682
0.330578 0.987968 0.291613
0.397681 0.989292 0.292095
0.478621 0.992278 0.290733
0.579314 0.998173 0.296257
0.713573 1.000000 0.374356
0.851112 0.995924 0.478946
0.957556 0.981778 0.541410
1.000000 0.956934 0.568362
1.000000 0.927175 0.616091
1.000000 0.911143 0.695334
1.000000 0.914556 0.776392
1.000000 0.928044 0.839728
1.000000 0.943772 0.886162
1.000000 0.958071 0.919630
1.000000 0.969750 0.943581
1.000000 0.978775 0.960674
1.000000 0.985537 0.972866
1.000000 0.990512 0.981563
1.000000 0.994145 0.987765
0.437847 1.000000 0.491389
0.438168 1.000000 0.491362
0.438489 1.000000 0.491335
0.438842 1.000000 0.491305
0.439360 1.000000 0.491261
0.440133 1.000000 0.491195
0.441289 1.000000 0.491097
0.443012 1.000000 0.490949
0.445575 1.000000 0.490727
0.449383 1.000000 0.490396
0.455541 1.000000 0.490356
0.465473 1.000000 0.491110
0.479777 1.000000 0.492184
0.500055 1.000000 0.493664
0.528240 1.000000 0.495601
0.566523 1.000000 0.497879
0.617357 1.000000 0.499903
0.686957 1.000000 0.506773
0.787831 1.000000 0.557069
0.893727 1.000000 0.630174
0.975183 0.997379 0.675655
1.000000 0.976700 0.694230
1.000000 0.952121 0.727147
1.000000 0.938617 0.783160
1.000000 0.940402 0.841094
1.000000 0.949862 0.886458
1.000000 0.961016 0.919674
1.000000 0.971167 0.943580
1.000000 0.979457 0.960671
1.000000 0.985867 0.972866
1.000000 0.990672 0.981565
1.000000 0.994210 0.987774
0.605093 1.000000 0.629256
0.605215 1.000000 0.629245
0.605337 1.000000 0.629235
0.605471 1.000000 0.629223
0.605669 1.000000 0.629206
0.605964 1.000000 0.629179
0.606406 1.000000 0.629141
0.607066 1.000000 0.629082
0.608052 1.000000 0.628995
0.609525 1.000000 0.628864
0.611722 1.000000 0.628668
0.615390 1.000000 0.628748
0.621524 1.000000 0.629543
0.630477 1.000000 0.630688
0.643396 1.000000 0.632297
0.661765 1.000000 0.634476
0.687390 1.000000 0.637226
0.722412 1.000000 0.640205
0.772043 1.000000 0.647101
0.846809 1.000000 0.684665
0.925930 1.000000 0.738866
0.986326 1.000000 0.772242
1.000000 0.988427 0.784771
1.000000 0.969000 0.807258
1.000000 0.958120 0.846622
1.000000 0.958902 0.887737
1.000000 0.965456 0.920017
1.000000 0.973311 0.943669
1.000000 0.980489 0.960696
1.000000 0.986363 0.972875
1.000000 0.990911 0.981570
1.000000 0.994326 0.987778
0.718801 1.000000 0.731084
0.718854 1.000000 0.731079
0.718907 1.000000 0.731074
0.718965 1.000000 0.731069
0.719051 1.000000 0.731062
0.719180 1.000000 0.731051
0.719372 1.000000 0.731034
0.719659 1.000000 0.731009
0.720089 1.000000 0.730971
0.720732 1.000000 0.730915
0.721693 1.000000 0.730830
0.723128 1.000000 0.730703
0.725592 1.000000 0.730826
0.729828 1.000000 0.731577
0.736031 1.000000 0.732663
0.745030 1.000000 0.734203
0.757907 1.000000 0.736315
0.776010 1.000000 0.739052
0.800953 1.000000 0.742204
0.836735 1.000000 0.748500
0.891535 1.000000 0.776971
0.949443 1.000000 0.817166
0.993256 1.000000 0.841361
1.000000 0.995217 0.849574
1.000000 0.980333 0.864689
1.000000 0.971830 0.892128
1.000000 0.972035 0.921131
1.000000 0.976538 0.944003
1.000000 0.982047 0.960800
1.000000 0.987113 0.972911
1.000000 0.991273 0.981585
1.000000 0.994500 0.987785
0.799616 1.000000 0.806291
0.799640 1.000000 0.806289
0.799665 1.000000 0.806287
0.799691 1.000000 0.806284
0.799730 1.000000 0.806281
0.799789 1.000000 0.806276
0.799877 1.000000 0.806269
0.800008 1.000000 0.806257
0.800204 1.000000 0.806240
0.800497 1.000000 0.806215
0.800936 1.000000 0.806177
0.801593 1.000000 0.806120
0.802574 1.000000 0.806035
0.804302 1.000000 0.806165
0.807343 1.000000 0.806831
0.811803 1.000000 0.807796
0.818279 1.000000 0.809170
0.827562 1.000000 0.811070
0.840629 1.000000 0.813563
0.858644 1.000000 0.816519
0.884546 1.000000 0.821956
0.924384 1.000000 0.843429
0.966189 1.000000 0.872988
0.997510 1.000000 0.890310
1.000000 0.999083 0.895548
1.000000 0.987922 0.905553
1.000000 0.981414 0.924554
1.000000 0.981312 0.944932
1.000000 0.984390 0.961098
1.000000 0.988245 0.973011
1.000000 0.991818 0.981621
1.000000 0.994763 0.987800
0.857517 1.000000 0.861342
0.857528 1.000000 0.861341
0.857540 1.000000 0.861340
0.857552 1.000000 0.861339
0.857570 1.000000 0.861337
0.857597 1.000000 0.861334
0.857638 1.000000 0.861331
0.857699 1.000000 0.861326
0.857791 1.000000 0.861318
0.857928 1.000000 0.861306
0.858132 1.000000 0.861289
0.858439 1.000000 0.861263
0.858897 1.000000 0.861224
0.859583 1.000000 0.861165
0.860819 1.000000 0.861286
0.863038 1.000000 0.861852
0.866294 1.000000 0.862673
0.871022 1.000000 0.863846
0.877794 1.000000 0.865474
0.887318 1.000000 0.867629
0.900413 1.000000 0.870228
0.919193 1.000000 0.874752
0.947993 1.000000 0.890828
0.977910 1.000000 0.912394
1.000000 1.000000 0.924680
1.000000 1.000000 0.927932
1.000000 0.993004 0.934468
1.000000 0.988092 0.947566
1.000000 0.987848 0.961852
1.000000 0.989945 0.973265
1.000000 0.992639 0.981711
1.000000 0.995159 0.987835
0.899007 1.000000 0.901305
0.899013 1.000000 0.901305
0.899018 1.000000 0.901304
0.899024 1.000000 0.901304
0.899032 1.000000 0.901303
0.899045 1.000000 0.901302
0.899065 1.000000 0.901300
0.899094 1.000000 0.901298
0.899137 1.000000 0.901294
0.899201 1.000000 0.901289
0.899298 1.000000 0.901280
0.899443 1.000000 0.901268
0.899659 1.000000 0.901250
0.899983 1.000000 0.901222
0.900467 1.000000 0.901181
0.901359 1.000000 0.901286
0.902992 1.000000 0.901753
0.905385 1.000000 0.902432
0.908858 1.000000 0.903402
0.913828 1.000000 0.904753
0.920801 1.000000 0.906550
0.930350 1.000000 0.908741
0.943973 1.000000 0.912410
0.964722 1.000000 0.924370
0.986016 1.000000 0.940013
1.000000 1.000000 0.948674
1.000000 1.000000 0.950635
1.000000 0.996409 0.954854
1.000000 0.992737 0.963859
1.000000 0.992445 0.973864
1.000000 0.993871 0.981920
1.000000 0.995755 0.987911
0.928705 1.000000 0.930144
0.928707 1.000000 0.930144
0.928710 1.000000 0.930143
0.928712 1.000000 0.930143
0.928716 1.000000 0.930143
0.928723 1.000000 0.930143
0.928732 1.000000 0.930142
0.928746 1.000000 0.930141
0.928766 1.000000 0.930139
0.928797 1.000000 0.930137
0.928843 1.000000 0.930133
0.928911 1.000000 0.930126
0.929015 1.000000 0.930118
0.929169 1.000000 0.930105
0.929399 1.000000 0.930085
0.929744 1.000000 0.930056
0.930391 1.000000 0.930145
0.931596 1.000000 0.930522
0.933361 1.000000 0.931069
0.935920 1.000000 0.931853
0.939575 1.000000 0.932948
0.944691 1.000000 0.934409
0.951664 1.000000 0.936206
0.961550 1.000000 0.939124
0.976468 1.000000 0.947979
0.991578 1.000000 0.959284
1.000000 1.000000 0.965366
1.000000 1.000000 0.966509
1.000000 0.998695 0.969202
1.000000 0.995968 0.975384
1.000000 0.995679 0.982390
1.000000 0.996647 0.988080
0.949942 1.000000 0.950876
0.949943 1.000000 0.950876
0.949944 1.000000 0.950876
0.949945 1.000000 0.950876
0.949947 1.000000 0.950876
0.949950 1.000000 0.950875
0.949955 1.000000 0.950876
0.949961 1.000000 0.950875
0.949971 1.000000 0.950874
0.949986 1.000000 0.950873
0.950007 1.000000 0.950871
0.950041 1.000000 0.950868
0.950090 1.000000 0.950864
0.950163 1.000000 0.950857
0.950273 1.000000 0.950849
0.950438 1.000000 0.950835
0.950684 1.000000 0.950813
0.951156 1.000000 0.950886
0.952047 1.000000 0.951185
0.953349 1.000000 0.951619
0.955236 1.000000 0.952243
0.957928 1.000000 0.953114
0.961683 1.000000 0.954280
