StdX_ACES-Global/Looks/OpenDRT-toon__FLlinWS-filmlight-egamut2-tloge_to_srgb-display.cube
TITLE "Generated by Foundry::LUT"
LUT_3D_SIZE 32
0.002078 0.002078 0.002078
0.014682 0.002064 0.002632
0.027647 0.001733 0.000086
0.041211 0.001731 0.000000
0.059658 0.001873 0.000000
0.084107 0.002145 0.000000
0.115148 0.002570 0.000000
0.153240 0.003207 0.000000
0.198927 0.004155 0.000000
0.252908 0.005564 0.000000
0.315864 0.007661 0.000000
0.388106 0.010832 0.000000
0.469135 0.015770 0.000000
0.557271 0.023801 0.000000
0.649508 0.037553 0.000000
0.741856 0.062545 0.000000
0.829966 0.110582 0.000000
0.909453 0.218418 0.000000
0.991599 0.422198 0.000000
1.000000 0.632532 0.402183
1.000000 0.791349 0.665512
1.000000 0.890388 0.822504
1.000000 0.945249 0.909552
1.000000 0.973921 0.955350
1.000000 0.987011 0.976275
1.000000 0.993252 0.986395
1.000000 0.996797 0.992199
1.000000 0.999004 0.995835
1.000000 1.000000 0.998231
1.000000 1.000000 0.999859
1.000000 1.000000 1.000000
1.000000 1.000000 1.000000
0.000000 0.010234 0.000654
0.013753 0.012183 0.000000
0.026015 0.014774 0.000000
0.039728 0.016705 0.000000
0.058881 0.017130 0.000000
0.084273 0.014551 0.000000
0.115844 0.011182 0.000000
0.154104 0.009362 0.000000
0.199800 0.008841 0.000000
0.253704 0.009263 0.000000
0.316529 0.010622 0.000000
0.388596 0.013223 0.000000
0.469810 0.017679 0.000000
0.557858 0.025416 0.000000
0.650010 0.039021 0.000000
0.742261 0.064002 0.000000
0.830239 0.112091 0.000000
0.909531 0.219754 0.000000
0.991573 0.422873 0.000000
1.000000 0.632809 0.402032
1.000000 0.791455 0.665470
1.000000 0.890428 0.822492
1.000000 0.945263 0.909548
1.000000 0.973926 0.955349
1.000000 0.987013 0.976274
1.000000 0.993253 0.986395
1.000000 0.996797 0.992199
1.000000 0.999004 0.995835
1.000000 1.000000 0.998231
1.000000 1.000000 0.999859
1.000000 1.000000 1.000000
1.000000 1.000000 1.000000
0.000000 0.019073 0.000000
0.012459 0.020515 0.000000
0.025830 0.022603 0.000000
0.038636 0.025403 0.000000
0.057065 0.028416 0.000000
0.082482 0.029877 0.000000
0.115179 0.027004 0.000000
0.154529 0.020470 0.000000
0.200601 0.015800 0.000000
0.254565 0.013936 0.000000
0.317348 0.014011 0.000000
0.389341 0.015804 0.000000
0.470076 0.019783 0.000000
0.557879 0.027202 0.000000
0.650509 0.040537 0.000000
0.742664 0.065489 0.000000
0.830509 0.113614 0.000000
0.909608 0.221090 0.000000
0.991548 0.423548 0.000000
1.000000 0.633086 0.401883
1.000000 0.791560 0.665428
1.000000 0.890466 0.822479
1.000000 0.945277 0.909545
1.000000 0.973931 0.955348
1.000000 0.987015 0.976275
1.000000 0.993254 0.986395
1.000000 0.996798 0.992199
1.000000 0.999004 0.995835
1.000000 1.000000 0.998231
1.000000 1.000000 0.999859
1.000000 1.000000 1.000000
1.000000 1.000000 1.000000
0.000000 0.028740 0.000000
0.003573 0.030230 0.000000
0.025165 0.031355 0.000000
0.038573 0.033605 0.000000
0.056101 0.037123 0.000000
0.080757 0.040550 0.000000
0.113336 0.041429 0.000000
0.153726 0.036452 0.000000
0.201009 0.027139 0.000000
0.255376 0.020826 0.000000
0.318205 0.018496 0.000000
0.390143 0.018989 0.000000
0.470793 0.022201 0.000000
0.558507 0.029161 0.000000
0.650280 0.042395 0.000000
0.743104 0.067160 0.000000
0.830803 0.115309 0.000000
0.909690 0.222563 0.000000
0.991519 0.424290 0.000000
1.000000 0.633392 0.401718
1.000000 0.791677 0.665383
1.000000 0.890510 0.822466
1.000000 0.945292 0.909541
1.000000 0.973937 0.955347
1.000000 0.987017 0.976274
1.000000 0.993255 0.986395
1.000000 0.996798 0.992199
1.000000 0.999004 0.995834
1.000000 1.000000 0.998231
1.000000 1.000000 0.999859
1.000000 1.000000 1.000000
1.000000 1.000000 1.000000
0.000000 0.042251 0.000000
0.000000 0.042211 0.000000
0.019369 0.044683 0.000000
0.037345 0.045780 0.000000
0.055785 0.048474 0.000000
0.079336 0.052508 0.000000
0.111058 0.055815 0.000000
0.151445 0.055344 0.000000
0.200152 0.047385 0.000000
0.256026 0.034834 0.000000
0.319311 0.026928 0.000000
0.391270 0.024471 0.000000
0.471828 0.026128 0.000000
0.559420 0.032235 0.000000
0.651061 0.045041 0.000000
0.742719 0.069853 0.000000
0.831228 0.117828 0.000000
0.909809 0.224727 0.000000
0.991478 0.425379 0.000000
1.000000 0.633841 0.401478
1.000000 0.791848 0.665316
1.000000 0.890573 0.822446
1.000000 0.945315 0.909535
1.000000 0.973945 0.955346
1.000000 0.987020 0.976274
1.000000 0.993256 0.986395
1.000000 0.996799 0.992198
1.000000 0.999004 0.995834
1.000000 1.000000 0.998231
1.000000 1.000000 0.999859
1.000000 1.000000 1.000000
1.000000 1.000000 1.000000
0.000000 0.060647 0.000000
0.000000 0.060284 0.000000
0.000533 0.061779 0.000000
0.028604 0.064011 0.000000
0.053350 0.065158 0.000000
0.078446 0.068073 0.000000
0.108968 0.072147 0.000000
0.148479 0.074659 0.000000
0.197383 0.072053 0.000000
0.255184 0.060301 0.000000
0.320305 0.044155 0.000000
0.392767 0.034854 0.000000
0.473310 0.032981 0.000000
0.560755 0.037312 0.000000
0.652210 0.049262 0.000000
0.743640 0.073770 0.000000
0.830563 0.121831 0.000000
0.909979 0.227970 0.000000
0.991417 0.427007 0.000000
1.000000 0.634514 0.401119
1.000000 0.792106 0.665216
1.000000 0.890668 0.822416
1.000000 0.945350 0.909527
1.000000 0.973957 0.955344
1.000000 0.987025 0.976273
1.000000 0.993258 0.986394
1.000000 0.996800 0.992198
1.000000 0.999005 0.995834
1.000000 1.000000 0.998230
1.000000 1.000000 0.999859
1.000000 1.000000 1.000000
1.000000 1.000000 1.000000
0.000000 0.084556 0.000000
0.000000 0.084184 0.000000
0.000000 0.084134 0.000000
0.000928 0.086314 0.000000
0.039998 0.089117 0.000000
0.073956 0.090150 0.000000
0.107117 0.092923 0.000000
0.145554 0.096439 0.000000
0.193666 0.097410 0.000000
0.251946 0.091830 0.000000
0.319586 0.075508 0.000000
0.394209 0.055760 0.000000
0.475285 0.045812 0.000000
0.562658 0.046120 0.000000
0.653875 0.056204 0.000000
0.744976 0.079973 0.000000
0.831433 0.127713 0.000000
0.908714 0.232822 0.000000
0.991325 0.429440 0.000000
1.000000 0.635523 0.400587
1.000000 0.792491 0.665069
1.000000 0.890810 0.822372
1.000000 0.945401 0.909514
1.000000 0.973975 0.955340
1.000000 0.987033 0.976273
1.000000 0.993262 0.986394
1.000000 0.996801 0.992199
1.000000 0.999006 0.995834
1.000000 1.000000 0.998231
1.000000 1.000000 0.999859
1.000000 1.000000 1.000000
1.000000 1.000000 1.000000
0.000000 0.114372 0.000000
0.000000 0.114047 0.000000
0.000000 0.113793 0.000000
0.000000 0.113912 0.000000
0.001335 0.116923 0.000000
0.054200 0.120532 0.000000
0.099551 0.121300 0.000000
0.142341 0.123567 0.000000
0.189786 0.125905 0.000000
0.247462 0.124535 0.000000
0.315955 0.115075 0.000000
0.393745 0.093671 0.000000
0.477264 0.071123 0.000000
0.565169 0.062345 0.000000
0.656206 0.068098 0.000000
0.746864 0.090028 0.000000
0.832650 0.136829 0.000000
0.909016 0.240063 0.000000
0.989651 0.432870 0.000000
1.000000 0.637035 0.399799
1.000000 0.793069 0.664850
1.000000 0.891023 0.822308
1.000000 0.945478 0.909496
1.000000 0.974003 0.955336
1.000000 0.987044 0.976272
1.000000 0.993266 0.986394
1.000000 0.996804 0.992199
1.000000 0.999007 0.995834
1.000000 1.000000 0.998231
1.000000 1.000000 0.999859
1.000000 1.000000 1.000000
1.000000 1.000000 1.000000
0.000000 0.150423 0.000000
0.000000 0.150158 0.000000
0.000000 0.149918 0.000000
0.000000 0.149744 0.000000
0.000000 0.150021 0.000000
0.001876 0.154147 0.000000
0.071393 0.158802 0.000000
0.130567 0.159264 0.000000
0.184813 0.160756 0.000000
0.242554 0.161289 0.000000
0.310748 0.156664 0.000000
0.389867 0.142442 0.000000
0.477158 0.116320 0.000000
0.567674 0.093335 0.000000
0.659168 0.089408 0.000000
0.749384 0.106778 0.000000
0.834273 0.151100 0.000000
0.909400 0.250882 0.000000
0.989430 0.438259 0.000000
1.000000 0.639038 0.398979
1.000000 0.793938 0.664529
1.000000 0.891342 0.822212
1.000000 0.945593 0.909469
1.000000 0.974045 0.955329
1.000000 0.987061 0.976271
1.000000 0.993274 0.986394
1.000000 0.996807 0.992198
1.000000 0.999008 0.995835
1.000000 1.000000 0.998231
1.000000 1.000000 0.999859
1.000000 1.000000 1.000000
1.000000 1.000000 1.000000
0.000000 0.193141 0.000000
0.000000 0.192939 0.000000
0.000000 0.192751 0.000000
0.000000 0.192574 0.000000
0.000000 0.192446 0.000000
0.000000 0.193002 0.000000
0.002598 0.198612 0.000000
0.091817 0.204678 0.000000
0.167564 0.204961 0.000000
0.235392 0.205519 0.000000
0.304780 0.203548 0.000000
0.384064 0.194633 0.000000
0.473235 0.175218 0.000000
0.567884 0.146600 0.000000
0.661910 0.127882 0.000000
0.752306 0.135183 0.000000
0.836232 0.173545 0.000000
0.909837 0.266969 0.000000
0.989109 0.446280 0.000000
1.000000 0.642430 0.397304
1.000000 0.795041 0.664218
1.000000 0.891823 0.822072
1.000000 0.945767 0.909429
1.000000 0.974107 0.955318
1.000000 0.987086 0.976269
1.000000 0.993285 0.986394
1.000000 0.996812 0.992198
1.000000 0.999011 0.995834
1.000000 1.000000 0.998231
1.000000 1.000000 0.999859
1.000000 1.000000 1.000000
1.000000 1.000000 1.000000
0.000000 0.243054 0.000000
0.000000 0.242914 0.000000
0.000000 0.242783 0.000000
0.000000 0.242654 0.000000
0.000000 0.242513 0.000000
0.000000 0.242502 0.000000
0.000000 0.243529 0.000000
0.003582 0.251125 0.000000
0.115792 0.259110 0.000000
0.211148 0.259526 0.000000
0.294883 0.259084 0.000000
0.377032 0.253811 0.000000
0.467070 0.239667 0.000000
0.564128 0.215855 0.000000
0.662143 0.189436 0.000000
0.754563 0.181885 0.000000
0.838151 0.208357 0.000000
0.910235 0.290623 0.000000
0.988650 0.458184 0.000000
1.000000 0.647539 0.394903
1.000000 0.797001 0.663555
1.000000 0.892420 0.821952
1.000000 0.946027 0.909371
1.000000 0.974200 0.955303
1.000000 0.987124 0.976266
1.000000 0.993301 0.986393
1.000000 0.996820 0.992199
1.000000 0.999014 0.995835
1.000000 1.000000 0.998231
1.000000 1.000000 0.999859
1.000000 1.000000 1.000000
1.000000 1.000000 1.000000
0.000000 0.300590 0.000000
0.000000 0.300506 0.000000
0.000000 0.300429 0.000000
0.000000 0.300353 0.000000
0.000000 0.300268 0.000000
0.000000 0.300219 0.000000
0.000000 0.300453 0.000000
0.000000 0.302249 0.000000
0.004991 0.312512 0.000000
0.143699 0.323037 0.000000
0.261769 0.324101 0.000000
0.363653 0.322685 0.000000
0.458993 0.313340 0.000000
0.557957 0.293612 0.000000
0.658770 0.267938 0.000000
0.754458 0.249696 0.000000
0.839245 0.259605 0.000000
0.910421 0.324705 0.000000
0.988016 0.475776 0.000000
1.000000 0.655250 0.391560
1.000000 0.799970 0.662632
1.000000 0.893507 0.821671
1.000000 0.946348 0.909332
1.000000 0.974340 0.955281
1.000000 0.987181 0.976262
1.000000 0.993327 0.986393
1.000000 0.996831 0.992198
1.000000 0.999020 0.995835
1.000000 1.000000 0.998231
1.000000 1.000000 0.999859
1.000000 1.000000 1.000000
1.000000 1.000000 1.000000
0.000000 0.365752 0.000000
0.000000 0.365717 0.000000
0.000000 0.365688 0.000000
0.000000 0.365663 0.000000
0.000000 0.365641 0.000000
0.000000 0.365651 0.000000
0.000000 0.365797 0.000000
0.000000 0.366480 0.000000
0.000000 0.369497 0.000000
0.007161 0.383336 0.000000
0.176034 0.397030 0.000000
0.319456 0.399452 0.000000
0.441139 0.397222 0.000000
0.548874 0.383354 0.000000
0.653062 0.358695 0.000000
0.751782 0.334599 0.000000
0.838896 0.328757 0.000000
0.910202 0.372343 0.000000
0.987187 0.501611 0.000000
1.000000 0.666910 0.387149
1.000000 0.804488 0.661411
1.000000 0.895157 0.821292
1.000000 0.946937 0.909220
1.000000 0.974513 0.955273
1.000000 0.987266 0.976256
1.000000 0.993364 0.986392
1.000000 0.996848 0.992199
1.000000 0.999028 0.995836
1.000000 1.000000 0.998231
1.000000 1.000000 0.999859
1.000000 1.000000 1.000000
1.000000 1.000000 1.000000
0.000000 0.437781 0.000000
0.000000 0.437789 0.000000
0.000000 0.437800 0.000000
0.000000 0.437818 0.000000
0.000000 0.437854 0.000000
0.000000 0.437935 0.000000
0.000000 0.438127 0.000000
0.000000 0.438625 0.000000
0.000000 0.440073 0.000000
0.000000 0.444973 0.000000
0.010866 0.463572 0.000000
0.213633 0.480789 0.000000
0.383617 0.485378 0.000000
0.525365 0.482647 0.000000
0.643007 0.464399 0.000000
0.747033 0.436209 0.000000
0.837238 0.416226 0.000000
0.909509 0.436769 0.000000
0.986205 0.539205 0.000000
1.000000 0.684557 0.381965
1.000000 0.811399 0.659951
1.000000 0.897673 0.820818
1.000000 0.947831 0.909076
1.000000 0.974830 0.955234
1.000000 0.987372 0.976261
1.000000 0.993420 0.986391
1.000000 0.996874 0.992199
1.000000 0.999040 0.995836
1.000000 1.000000 0.998232
1.000000 1.000000 0.999860
1.000000 1.000000 1.000000
1.000000 1.000000 1.000000
0.000000 0.514904 0.000000
0.000000 0.514945 0.000000
0.000000 0.514989 0.000000
0.000000 0.515042 0.000000
0.000000 0.515126 0.000000
0.000000 0.515270 0.000000
0.000000 0.515531 0.000000
0.000000 0.516038 0.000000
0.000000 0.517130 0.000000
0.000000 0.519817 0.000000
0.000000 0.527549 0.000000
0.018176 0.552333 0.000000
0.258173 0.572518 0.000000
0.453043 0.579900 0.000000
0.612720 0.576993 0.000000
0.735952 0.555062 0.000000
0.833316 0.525393 0.000000
0.908270 0.522348 0.000000
0.985239 0.593157 0.000000
1.000000 0.711151 0.377628
1.000000 0.822011 0.658615
1.000000 0.901538 0.820322
1.000000 0.949195 0.908911
1.000000 0.975309 0.955187
1.000000 0.987563 0.976253
1.000000 0.993490 0.986398
1.000000 0.996912 0.992200
1.000000 0.999057 0.995836
1.000000 1.000000 0.998232
1.000000 1.000000 0.999859
1.000000 1.000000 1.000000
1.000000 1.000000 1.000000
0.000000 0.594406 0.000000
0.000000 0.594474 0.000000
0.000000 0.594544 0.000000
0.000000 0.594625 0.000000
0.000000 0.594749 0.000000
0.000000 0.594946 0.000000
0.000000 0.595272 0.000000
0.000000 0.595835 0.000000
0.000000 0.596871 0.000000
0.000000 0.598947 0.000000
0.000000 0.603613 0.000000
0.000000 0.615515 0.000000
0.035931 0.647818 0.000000
0.312820 0.668364 0.000000
0.526250 0.678547 0.000000
0.698079 0.675765 0.000000
0.819666 0.653213 0.000000
0.904684 0.633928 0.000000
0.984607 0.669607 0.000000
1.000000 0.750548 0.379262
1.000000 0.838280 0.658558
1.000000 0.907500 0.820065
1.000000 0.951289 0.908780
1.000000 0.976041 0.955143
1.000000 0.987853 0.976246
1.000000 0.993616 0.986398
1.000000 0.996960 0.992207
1.000000 0.999084 0.995837
1.000000 1.000000 0.998233
1.000000 1.000000 0.999860
1.000000 1.000000 1.000000
1.000000 1.000000 1.000000
0.000000 0.671501 0.000000
0.000000 0.671609 0.000000
0.000000 0.671719 0.000000
0.000000 0.671842 0.000000
0.000000 0.672028 0.000000
0.000000 0.672316 0.000000
0.000000 0.672775 0.000000
0.000000 0.673522 0.000000
0.000000 0.674776 0.000000
0.000000 0.676988 0.000000
0.000000 0.681156 0.000000
0.000000 0.689674 0.000000
0.006441 0.708402 0.000000
0.106309 0.746308 0.000000
0.388578 0.760999 0.000000
0.603521 0.774329 0.000000
0.775022 0.774393 0.000000
0.891768 0.762202 0.000000
0.984094 0.774048 0.000000
1.000000 0.806675 0.403909
1.000000 0.862761 0.662774
1.000000 0.916686 0.820774
1.000000 0.954521 0.908847
1.000000 0.977161 0.955136
1.000000 0.988291 0.976247
1.000000 0.993805 0.986402
1.000000 0.997046 0.992209
1.000000 0.999118 0.995843
1.000000 1.000000 0.998234
1.000000 1.000000 0.999861
1.000000 1.000000 1.000000
1.000000 1.000000 1.000000
0.000000 0.761582 0.000000
0.000000 0.761785 0.000000
0.000000 0.761989 0.000000
0.000000 0.762215 0.000000
0.000000 0.762551 0.000000
0.000000 0.763060 0.000000
0.000000 0.763838 0.000000
0.000000 0.765088 0.000000
0.000000 0.767126 0.000000
0.000000 0.770366 0.000000
0.001637 0.775637 0.000000
0.008746 0.784458 0.000000
0.025769 0.799525 0.000000
0.104090 0.822492 0.000000
0.306535 0.834278 0.000000
0.506879 0.847799 0.000000
0.698796 0.866018 0.000000
0.851411 0.869570 0.162424
0.956953 0.871358 0.312548
1.000000 0.877050 0.489769
1.000000 0.897835 0.679942
1.000000 0.930556 0.824197
1.000000 0.959497 0.909531
1.000000 0.978885 0.955260
1.000000 0.988956 0.976276
1.000000 0.994091 0.986414
1.000000 0.997175 0.992215
1.000000 0.999178 0.995846
1.000000 1.000000 0.998238
1.000000 1.000000 0.999862
1.000000 1.000000 1.000000
1.000000 1.000000 1.000000
0.137829 0.895205 0.259162
0.138984 0.895226 0.259045
0.140144 0.895247 0.258928
0.141426 0.895269 0.258800
0.143317 0.895303 0.258611
0.146166 0.895355 0.258327
0.150468 0.895432 0.257902
0.156985 0.895550 0.257264
0.167550 0.895671 0.256948
0.184708 0.895762 0.257570
0.210265 0.895926 0.258424
0.246956 0.896237 0.259534
0.296437 0.896857 0.260824
0.358629 0.898155 0.261925
0.433328 0.901005 0.261688
0.526695 0.907386 0.269572
0.653731 0.914369 0.348204
0.790675 0.921697 0.459725
0.908653 0.931229 0.550090
0.987242 0.938289 0.628259
1.000000 0.940625 0.729336
1.000000 0.950358 0.835028
1.000000 0.966990 0.911795
1.000000 0.981526 0.955740
1.000000 0.989969 0.976380
1.000000 0.994524 0.986447
1.000000 0.997370 0.992229
1.000000 0.999268 0.995853
1.000000 1.000000 0.998242
1.000000 1.000000 0.999865
1.000000 1.000000 1.000000
1.000000 1.000000 1.000000
0.543242 0.944118 0.568120
0.543518 0.944128 0.568101
0.543795 0.944139 0.568081
0.544100 0.944151 0.568060
0.544547 0.944168 0.568029
0.545216 0.944194 0.567982
0.546214 0.944234 0.567912
0.547705 0.944294 0.567807
0.549926 0.944385 0.567649
0.553619 0.944450 0.567775
0.559744 0.944420 0.568597
0.568671 0.944403 0.569783
0.581534 0.944438 0.571460
0.599782 0.944634 0.573751
0.625172 0.945268 0.576694
0.659758 0.947036 0.580020
0.709525 0.951552 0.588487
0.787302 0.956140 0.631337
0.876077 0.961549 0.699147
0.952601 0.969722 0.758806
1.000000 0.974534 0.807429
1.000000 0.973962 0.863060
1.000000 0.977609 0.918095
1.000000 0.985478 0.957062
1.000000 0.991504 0.976667
1.000000 0.995180 0.986530
1.000000 0.997664 0.992259
1.000000 0.999404 0.995865
1.000000 1.000000 0.998247
1.000000 1.000000 0.999868
1.000000 1.000000 1.000000
1.000000 1.000000 1.000000
0.751746 0.977681 0.758918
0.751832 0.977686 0.758913
0.751918 0.977691 0.758908
0.752012 0.977696 0.758902
0.752150 0.977703 0.758894
0.752358 0.977715 0.758882
0.752667 0.977732 0.758863
0.753131 0.977757 0.758835
0.753824 0.977796 0.758793
0.754860 0.977856 0.758730
0.756672 0.977875 0.758896
0.759828 0.977781 0.759607
0.764456 0.977661 0.760640
0.771176 0.977527 0.762115
0.780803 0.977436 0.764165
0.794350 0.977552 0.766883
0.813016 0.978325 0.770179
0.840570 0.980739 0.777002
0.885170 0.982724 0.803578
0.936238 0.985128 0.844330
0.979197 0.989507 0.879191
1.000000 0.991490 0.905310
1.000000 0.990023 0.933301
1.000000 0.991022 0.960395
1.000000 0.993776 0.977369
1.000000 0.996167 0.986728
1.000000 0.998108 0.992324
1.000000 0.999609 0.995890
1.000000 1.000000 0.998258
1.000000 1.000000 0.999873
1.000000 1.000000 1.000000
1.000000 1.000000 1.000000
0.871068 0.995041 0.873574
0.871097 0.995043 0.873572
0.871126 0.995045 0.873571
0.871158 0.995047 0.873569
0.871205 0.995050 0.873567
0.871275 0.995054 0.873563
0.871380 0.995061 0.873557
0.871537 0.995071 0.873549
0.871772 0.995085 0.873536
0.872124 0.995108 0.873517
0.872651 0.995142 0.873488
0.873611 0.995140 0.873619
0.875352 0.995040 0.874129
0.877904 0.994904 0.874872
0.881607 0.994731 0.875936
0.886907 0.994543 0.877424
0.894344 0.994427 0.879417
0.904531 0.994635 0.881885
0.919514 0.995658 0.886503
0.943651 0.996107 0.901833
0.970727 0.996635 0.924281
0.992806 0.998368 0.942597
1.000000 0.998828 0.955356
1.000000 0.997453 0.967951
1.000000 0.996958 0.979090
1.000000 0.997618 0.987177
1.000000 0.998774 0.992467
1.000000 0.999918 0.995940
1.000000 1.000000 0.998278
1.000000 1.000000 0.999881
1.000000 1.000000 1.000000
1.000000 1.000000 1.000000
0.935459 1.000000 0.936484
0.935469 1.000000 0.936484
0.935479 1.000000 0.936483
0.935490 1.000000 0.936482
0.935507 1.000000 0.936482
0.935531 1.000000 0.936481
0.935567 1.000000 0.936478
0.935621 1.000000 0.936476
0.935702 1.000000 0.936471
0.935824 1.000000 0.936464
0.936006 1.000000 0.936454
0.936278 1.000000 0.936439
0.936794 1.000000 0.936526
0.937758 1.000000 0.936856
0.939170 1.000000 0.937336
0.941215 1.000000 0.938025
0.944132 1.000000 0.938990
0.948205 1.000000 0.940289
0.953735 1.000000 0.941911
0.961754 1.000000 0.944738
0.974410 1.000000 0.953105
0.988216 1.000000 0.964735
0.999244 1.000000 0.973485
1.000000 1.000000 0.978469
1.000000 1.000000 0.983117
1.000000 0.999644 0.988238
1.000000 0.999749 0.992776
1.000000 1.000000 0.996047
1.000000 1.000000 0.998317
1.000000 1.000000 0.999897
1.000000 1.000000 1.000000
1.000000 1.000000 1.000000
0.965730 1.000000 0.966267
0.965733 1.000000 0.966266
0.965737 1.000000 0.966266
0.965742 1.000000 0.966266
0.965748 1.000000 0.966266
0.965757 1.000000 0.966265
0.965771 1.000000 0.966264
0.965792 1.000000 0.966262
0.965824 1.000000 0.966261
0.965871 1.000000 0.966258
0.965942 1.000000 0.966253
0.966047 1.000000 0.966246
0.966206 1.000000 0.966236
0.966514 1.000000 0.966293
0.967103 1.000000 0.966510
0.967964 1.000000 0.966827
0.969210 1.000000 0.967282
0.970984 1.000000 0.967921
0.973450 1.000000 0.968781
0.976774 1.000000 0.969857
0.981509 1.000000 0.971627
0.988774 1.000000 0.976472
0.996424 1.000000 0.982847
1.000000 1.000000 0.987140
1.000000 1.000000 0.988920
1.000000 1.000000 0.990717
1.000000 1.000000 0.993483
1.000000 1.000000 0.996266
1.000000 1.000000 0.998396
1.000000 1.000000 0.999927
1.000000 1.000000 1.000000
1.000000 1.000000 1.000000
0.980768 1.000000 0.981096
0.980770 1.000000 0.981095
0.980771 1.000000 0.981095
0.980773 1.000000 0.981095
0.980776 1.000000 0.981095
0.980780 1.000000 0.981094
0.980786 1.000000 0.981094
0.980795 1.000000 0.981093
0.980808 1.000000 0.981093
0.980828 1.000000 0.981091
0.980859 1.000000 0.981089
0.980904 1.000000 0.981086
0.980972 1.000000 0.981081
0.981072 1.000000 0.981073
0.981274 1.000000 0.981113
0.981665 1.000000 0.981265
0.982237 1.000000 0.981486
0.983062 1.000000 0.981804
0.984235 1.000000 0.982250
0.985860 1.000000 0.982852
0.988038 1.000000 0.983605
0.991089 1.000000 0.984794
0.995632 1.000000 0.987844
1.000000 1.000000 0.991607
1.000000 1.000000 0.993757
1.000000 1.000000 0.994317
1.000000 1.000000 0.995120
1.000000 1.000000 0.996757
1.000000 1.000000 0.998555
1.000000 1.000000 0.999986
1.000000 1.000000 1.000000
1.000000 1.000000 1.000000
0.988868 1.000000 0.989082
0.988869 1.000000 0.989082
0.988869 1.000000 0.989082
0.988870 1.000000 0.989082
0.988871 1.000000 0.989082
0.988873 1.000000 0.989082
0.988876 1.000000 0.989082
0.988880 1.000000 0.989082
0.988886 1.000000 0.989081
0.988895 1.000000 0.989080
0.988909 1.000000 0.989079
0.988928 1.000000 0.989077
0.988960 1.000000 0.989075
0.989004 1.000000 0.989071
0.989073 1.000000 0.989066
0.989210 1.000000 0.989094
0.989480 1.000000 0.989203
0.989875 1.000000 0.989362
0.990444 1.000000 0.989590
0.991251 1.000000 0.989910
0.992366 1.000000 0.990341
0.993853 1.000000 0.990882
0.995905 1.000000 0.991706
0.998874 1.000000 0.993711
1.000000 1.000000 0.996081
1.000000 1.000000 0.997313
1.000000 1.000000 0.997494
1.000000 1.000000 0.997881
1.000000 1.000000 0.998904
1.000000 1.000000 1.000000
1.000000 1.000000 1.000000
1.000000 1.000000 1.000000
0.993651 1.000000 0.993797
0.993652 1.000000 0.993797
0.993652 1.000000 0.993797
0.993653 1.000000 0.993797
0.993653 1.000000 0.993797
0.993654 1.000000 0.993797
0.993655 1.000000 0.993797
0.993657 1.000000 0.993797
0.993660 1.000000 0.993796
0.993664 1.000000 0.993796
0.993670 1.000000 0.993795
0.993679 1.000000 0.993794
0.993693 1.000000 0.993793
0.993715 1.000000 0.993792
0.993746 1.000000 0.993790
0.993793 1.000000 0.993785
0.993889 1.000000 0.993806
0.994080 1.000000 0.993886
0.994359 1.000000 0.994002
0.994761 1.000000 0.994168
0.995329 1.000000 0.994401
0.996114 1.000000 0.994717
0.997156 1.000000 0.995112
0.998580 1.000000 0.995705
1.000000 1.000000 0.997090
1.000000 1.000000 0.998683
1.000000 1.000000 0.999458
1.000000 1.000000 0.999501
1.000000 1.000000 0.999692
1.000000 1.000000 1.000000
1.000000 1.000000 1.000000
1.000000 1.000000 1.000000
0.996736 1.000000 0.996837
0.996736 1.000000 0.996837
0.996736 1.000000 0.996837
0.996736 1.000000 0.996837
0.996737 1.000000 0.996837
0.996737 1.000000 0.996837
0.996738 1.000000 0.996837
0.996738 1.000000 0.996837
0.996740 1.000000 0.996837
0.996742 1.000000 0.996837
0.996744 1.000000 0.996836
0.996749 1.000000 0.996836
0.996755 1.000000 0.996835
0.996765 1.000000 0.996835
0.996780 1.000000 0.996833
0.996802 1.000000 0.996832
0.996836 1.000000 0.996829
0.996903 1.000000 0.996844
0.997041 1.000000 0.996903
0.997240 1.000000 0.996987
0.997528 1.000000 0.997110
0.997934 1.000000 0.997282
0.998494 1.000000 0.997514
