StdX_ACES-Global/Looks/OpenDRT-toon__FLlinWS-filmlight-egamut2-tloge_to_p3-display.cube
TITLE "Generated by Foundry::LUT"
LUT_3D_SIZE 5
DOMAIN_MIN 0.000000 0.000000 0.000000
DOMAIN_MAX 0.903226 0.903226 0.903226
0.002078 0.002078 0.002078
0.140826 0.008233 0.000000
0.597481 0.065749 0.000000
1.000000 0.895221 0.831565
1.000000 1.000000 0.998509
0.000000 0.114655 0.000000
0.140622 0.125489 0.000000
0.605678 0.107596 0.000000
1.000000 0.895832 0.831439
1.000000 1.000000 0.998508
0.000000 0.523513 0.000000
0.000000 0.532012 0.000000
0.613505 0.584841 0.000000
1.000000 0.905933 0.830489
1.000000 1.000000 0.998512
0.894593 0.991222 0.883004
0.894973 0.991264 0.882992
0.902940 0.991223 0.885280
0.993796 0.998184 0.947647
1.000000 1.000000 0.998582
0.999902 1.000000 0.999321
0.999903 1.000000 0.999321
0.999919 1.000000 0.999320
1.000000 1.000000 0.999510
1.000000 1.000000 1.000000
0.000000 0.000000 0.114604
0.140350 0.000000 0.131897
0.606043 0.060949 0.000000
1.000000 0.895297 0.832599
1.000000 1.000000 0.998511
0.000000 0.115960 0.135230
0.136744 0.136744 0.136744
0.615199 0.101698 0.000000
1.000000 0.895906 0.832475
1.000000 1.000000 0.998511
0.000000 0.536339 0.000000
0.000000 0.543643 0.000000
0.616446 0.590883 0.000000
1.000000 0.905985 0.831540
1.000000 1.000000 0.998514
0.894503 0.991353 0.883345
0.894884 0.991393 0.883332
0.902958 0.991298 0.885729
0.993693 0.998000 0.948218
1.000000 1.000000 0.998584
0.999901 1.000000 0.999322
0.999902 1.000000 0.999322
0.999919 1.000000 0.999321
1.000000 1.000000 0.999512
1.000000 1.000000 1.000000
0.000000 0.030800 0.556235
0.000000 0.026879 0.564562
0.607909 0.035186 0.581317
1.000000 0.897182 0.849465
1.000000 1.000000 0.998547
0.000000 0.071541 0.569747
0.000000 0.065387 0.577567
0.615083 0.066898 0.588745
1.000000 0.897763 0.849369
1.000000 1.000000 0.998547
0.000000 0.551067 0.577610
0.000000 0.554381 0.577693
0.582054 0.582054 0.582054
1.000000 0.907555 0.848690
1.000000 1.000000 0.998550
0.893619 0.993212 0.889603
0.894205 0.993166 0.889800
0.903073 0.992554 0.892747
0.992138 0.995296 0.956565
1.000000 1.000000 0.998621
0.999896 1.000000 0.999336
0.999897 1.000000 0.999335
0.999914 1.000000 0.999335
1.000000 1.000000 0.999534
1.000000 1.000000 1.000000
0.886387 0.943711 1.000000
0.887105 0.943694 1.000000
0.898454 0.943539 1.000000
0.993187 0.978476 0.991256
1.000000 1.000000 0.999152
0.886376 0.943999 1.000000
0.887093 0.943982 1.000000
0.898452 0.943829 1.000000
0.993158 0.978608 0.991243
1.000000 1.000000 0.999152
0.886542 0.948581 1.000000
0.887251 0.948560 1.000000
0.899061 0.948538 0.999766
0.992723 0.980553 0.991040
1.000000 1.000000 0.999155
0.940997 0.996456 0.989159
0.941536 0.996352 0.989142
0.950168 0.994622 0.988799
0.992036 0.992036 0.992036
1.000000 1.000000 0.999232
0.999857 1.000000 0.999633
0.999859 1.000000 0.999634
0.999891 1.000000 0.999649
1.000000 1.000000 0.999896
1.000000 1.000000 1.000000
0.999157 1.000000 1.000000
0.999160 1.000000 1.000000
0.999198 1.000000 1.000000
0.999826 1.000000 1.000000
1.000000 1.000000 1.000000
0.999157 1.000000 1.000000
0.999160 1.000000 1.000000
0.999198 1.000000 1.000000
0.999826 1.000000 1.000000
1.000000 1.000000 1.000000
0.999160 1.000000 1.000000
0.999162 1.000000 1.000000
0.999201 1.000000 1.000000
0.999829 1.000000 1.000000
1.000000 1.000000 1.000000
0.999212 1.000000 1.000000
0.999214 1.000000 1.000000
0.999252 1.000000 1.000000
0.999904 1.000000 1.000000
1.000000 1.000000 1.000000
1.000000 1.000000 1.000000
1.000000 1.000000 1.000000
1.000000 1.000000 1.000000
1.000000 1.000000 1.000000
1.000000 1.000000 1.000000
