StdX_ACES-Global/Looks/OpenDRT-toon__FLlinWS-filmlight-egamut2-tloge_to_p3-display.cube
TITLE "Generated by Foundry::LUT"
LUT_3D_SIZE 8
DOMAIN_MIN 0.000000 0.000000 0.000000
DOMAIN_MAX 0.903226 0.903226 0.903226
0.002078 0.002078 0.002078
0.055045 0.004300 0.000000
0.182699 0.010555 0.000000
0.430723 0.032063 0.000000
0.765990 0.160677 0.000000
0.993150 0.800693 0.683727
1.000000 0.987749 0.977626
1.000000 1.000000 0.998509
0.000000 0.042521 0.000000
0.055176 0.049277 0.000000
0.185065 0.060448 0.000000
0.434786 0.048108 0.000000
0.767310 0.168876 0.000000
0.993245 0.801171 0.683598
1.000000 0.987758 0.977626
1.000000 1.000000 0.998509
0.000000 0.150819 0.000000
0.008895 0.158181 0.000000
0.182619 0.163232 0.000000
0.441361 0.146139 0.000000
0.770656 0.203781 0.000000
0.993642 0.803169 0.683089
1.000000 0.987798 0.977626
1.000000 1.000000 0.998508
0.000000 0.368852 0.000000
0.000000 0.371387 0.000000
0.029876 0.392467 0.000000
0.438232 0.402912 0.000000
0.782477 0.362974 0.000000
0.994678 0.813213 0.681256
1.000000 0.987996 0.977628
1.000000 1.000000 0.998510
0.003225 0.700874 0.000000
0.004659 0.702782 0.000000
0.011638 0.711447 0.000000
0.208607 0.748424 0.000000
0.787402 0.786897 0.000000
1.000000 0.868986 0.687816
1.000000 0.988983 0.977693
1.000000 1.000000 0.998515
0.797548 0.971179 0.777160
0.797862 0.971210 0.777147
0.799166 0.971342 0.777094
0.807308 0.971472 0.778892
0.845224 0.973373 0.788235
0.981037 0.989167 0.889536
1.000000 0.994283 0.979117
1.000000 1.000000 0.998553
0.985422 1.000000 0.982966
0.985428 1.000000 0.982966
0.985455 1.000000 0.982965
0.985591 1.000000 0.982957
0.986607 1.000000 0.983340
0.991287 1.000000 0.985336
1.000000 1.000000 0.994711
1.000000 1.000000 0.998908
0.999902 1.000000 0.999321
0.999902 1.000000 0.999321
0.999903 1.000000 0.999321
0.999910 1.000000 0.999321
0.999941 1.000000 0.999318
1.000000 1.000000 0.999426
1.000000 1.000000 0.999991
1.000000 1.000000 1.000000
0.000000 0.000495 0.043620
0.057479 0.000000 0.053843
0.184179 0.007087 0.059219
0.434269 0.030217 0.000000
0.767634 0.159552 0.000000
0.993175 0.800717 0.684563
1.000000 0.987751 0.977641
1.000000 1.000000 0.998509
0.000000 0.045820 0.053255
0.056046 0.056046 0.056046
0.188589 0.050411 0.052206
0.438692 0.045501 0.000000
0.768955 0.167764 0.000000
0.993270 0.801195 0.684435
1.000000 0.987760 0.977641
1.000000 1.000000 0.998509
0.000000 0.153503 0.062745
0.002707 0.161622 0.053545
0.184574 0.169067 0.004881
0.444996 0.143692 0.000000
0.772334 0.202793 0.000000
0.993665 0.803191 0.683929
1.000000 0.987800 0.977641
1.000000 1.000000 0.998509
0.000000 0.374307 0.000000
0.000000 0.376552 0.000000
0.024172 0.396428 0.000000
0.439180 0.405739 0.000000
0.783916 0.362855 0.000000
0.994702 0.813228 0.682104
1.000000 0.987998 0.977643
1.000000 1.000000 0.998510
0.002778 0.702883 0.000000
0.004271 0.704765 0.000000
0.011127 0.713347 0.000000
0.206455 0.750387 0.000000
0.788235 0.787775 0.000000
1.000000 0.868952 0.688660
1.000000 0.988985 0.977709
1.000000 1.000000 0.998516
0.797471 0.971275 0.777443
0.797787 0.971306 0.777431
0.799092 0.971436 0.777378
0.807298 0.971540 0.779245
0.845240 0.973396 0.788597
0.980958 0.989027 0.890013
1.000000 0.994283 0.979132
1.000000 1.000000 0.998554
0.985420 1.000000 0.982972
0.985426 1.000000 0.982971
0.985453 1.000000 0.982970
0.985588 1.000000 0.982963
0.986607 1.000000 0.983348
0.991288 1.000000 0.985344
1.000000 1.000000 0.994722
1.000000 1.000000 0.998909
0.999902 1.000000 0.999322
0.999902 1.000000 0.999321
0.999903 1.000000 0.999321
0.999910 1.000000 0.999321
0.999941 1.000000 0.999319
1.000000 1.000000 0.999427
1.000000 1.000000 0.999991
1.000000 1.000000 1.000000
0.000000 0.000000 0.150408
0.041585 0.000000 0.161337
0.180712 0.000000 0.170043
0.437874 0.023166 0.133347
0.774777 0.155058 0.000000
0.993280 0.800835 0.688039
1.000000 0.987760 0.977704
1.000000 1.000000 0.998512
0.000000 0.035706 0.162028
0.028250 0.035585 0.172290
0.187028 0.015846 0.174737
0.442688 0.035627 0.131851
0.776106 0.163324 0.000000
0.993374 0.801311 0.687914
1.000000 0.987769 0.977704
1.000000 1.000000 0.998512
0.000000 0.150782 0.175349
0.000000 0.157299 0.174588
0.176209 0.176209 0.176209
0.451656 0.130378 0.121680
0.780724 0.198917 0.000000
0.993763 0.803300 0.687420
1.000000 0.987808 0.977704
1.000000 1.000000 0.998512
0.000000 0.382158 0.146870
0.000000 0.385100 0.142115
0.010335 0.405588 0.125723
0.443834 0.418613 0.023350
0.790223 0.362780 0.000000
0.994799 0.813309 0.685626
1.000000 0.988006 0.977706
1.000000 1.000000 0.998513
0.000000 0.711695 0.000000
0.002512 0.713509 0.000000
0.009137 0.721673 0.000000
0.197167 0.758969 0.000000
0.789837 0.789566 0.019508
1.000000 0.868821 0.692168
1.000000 0.988993 0.977773
1.000000 1.000000 0.998518
0.797152 0.971673 0.778622
0.797468 0.971703 0.778610
0.798780 0.971829 0.778560
0.807255 0.971821 0.780707
0.845304 0.973492 0.790092
0.980631 0.988450 0.891968
1.000000 0.994284 0.979195
1.000000 1.000000 0.998556
0.985412 1.000000 0.982995
0.985418 1.000000 0.982994
0.985445 1.000000 0.982993
0.985581 1.000000 0.982986
0.986610 1.000000 0.983383
0.991294 1.000000 0.985380
1.000000 1.000000 0.994764
1.000000 1.000000 0.998911
0.999901 1.000000 0.999322
0.999902 1.000000 0.999322
0.999903 1.000000 0.999322
0.999909 1.000000 0.999322
0.999941 1.000000 0.999320
1.000000 1.000000 0.999428
1.000000 1.000000 0.999993
1.000000 1.000000 1.000000
0.000000 0.004849 0.377911
0.000000 0.003627 0.382379
0.093192 0.000000 0.406182
0.429330 0.000000 0.407875
0.794176 0.134803 0.236558
0.993797 0.801860 0.705606
1.000000 0.987804 0.978022
1.000000 1.000000 0.998526
0.000000 0.014741 0.384959
0.000000 0.013936 0.389101
0.087839 0.010840 0.412788
0.432861 0.009471 0.411198
0.795707 0.143421 0.236571
0.993883 0.802326 0.705495
1.000000 0.987813 0.978022
1.000000 1.000000 0.998526
0.000000 0.110882 0.404283
0.000000 0.110617 0.407314
0.055483 0.109067 0.430848
0.446005 0.064307 0.423904
0.800965 0.181909 0.236659
0.994243 0.804273 0.705060
1.000000 0.987852 0.978022
1.000000 1.000000 0.998526
0.000000 0.376330 0.416841
0.000000 0.378491 0.416411
0.000000 0.390515 0.418118
0.418364 0.418364 0.418364
0.804238 0.366439 0.239318
0.996056 0.814354 0.703432
1.000000 0.988049 0.978025
1.000000 1.000000 0.998527
0.000000 0.738168 0.243289
0.000000 0.739751 0.242519
0.000000 0.746954 0.239487
0.159964 0.778683 0.239923
0.773534 0.774353 0.391242
1.000000 0.868701 0.710775
1.000000 0.989031 0.978093
1.000000 1.000000 0.998533
0.795768 0.973592 0.784940
0.796213 0.973576 0.785061
0.798043 0.973512 0.785561
0.806932 0.973263 0.787962
0.845559 0.974030 0.797451
0.979043 0.985687 0.901244
1.000000 0.994289 0.979512
1.000000 1.000000 0.998571
0.985373 1.000000 0.983111
0.985379 1.000000 0.983110
0.985407 1.000000 0.983110
0.985543 1.000000 0.983103
0.986624 1.000000 0.983556
0.991319 1.000000 0.985558
1.000000 1.000000 0.994975
1.000000 1.000000 0.998925
0.999900 1.000000 0.999328
0.999900 1.000000 0.999328
0.999901 1.000000 0.999328
0.999907 1.000000 0.999327
0.999939 1.000000 0.999325
1.000000 1.000000 0.999438
1.000000 1.000000 1.000000
1.000000 1.000000 1.000000
0.000000 0.219889 0.762099
0.000000 0.217962 0.763388
0.000000 0.209845 0.769560
0.167486 0.202197 0.814619
0.781170 0.371637 0.754200
0.995173 0.819031 0.794432
1.000000 0.988054 0.979620
1.000000 1.000000 0.998595
0.000000 0.229628 0.762316
0.000000 0.227785 0.763597
0.000000 0.220016 0.769730
0.166253 0.214719 0.813918
0.780813 0.378655 0.753988
0.995198 0.819503 0.794479
1.000000 0.988064 0.979620
1.000000 1.000000 0.998595
0.000000 0.267687 0.762698
0.000000 0.266194 0.763919
0.000000 0.259938 0.769790
0.161663 0.264161 0.810976
0.779268 0.406166 0.753064
0.995295 0.821477 0.794701
1.000000 0.988102 0.979621
1.000000 1.000000 0.998596
0.000000 0.410598 0.761472
0.000000 0.410371 0.762255
0.000000 0.410807 0.765974
0.150400 0.438564 0.796401
0.770767 0.514520 0.748098
0.995670 0.831722 0.796506
1.000000 0.988293 0.979627
1.000000 1.000000 0.998597
0.000000 0.744623 0.725411
0.000000 0.745237 0.726144
0.000000 0.748409 0.729855
0.246132 0.760673 0.745729
0.741918 0.741918 0.741918
0.994590 0.884708 0.819864
1.000000 0.989276 0.979704
1.000000 1.000000 0.998602
0.795131 0.981823 0.824618
0.795618 0.981777 0.824723
0.797625 0.981587 0.825157
0.807341 0.980688 0.827255
0.854866 0.974140 0.843241
0.972910 0.975459 0.935928
1.000000 0.994361 0.981180
1.000000 1.000000 0.998640
0.985228 1.000000 0.983770
0.985240 1.000000 0.983776
0.985287 1.000000 0.983796
0.985526 1.000000 0.983902
0.986677 1.000000 0.984409
0.991436 1.000000 0.986426
1.000000 1.000000 0.995966
1.000000 1.000000 0.998995
0.999889 1.000000 0.999354
0.999889 1.000000 0.999354
0.999891 1.000000 0.999354
0.999897 1.000000 0.999353
0.999929 1.000000 0.999352
1.000000 1.000000 0.999480
1.000000 1.000000 1.000000
1.000000 1.000000 1.000000
0.776316 0.885398 0.991312
0.776899 0.885372 0.991300
0.779314 0.885267 0.991255
0.791322 0.884802 0.991037
0.861230 0.892127 0.984205
0.980760 0.950013 0.976825
1.000000 0.990082 0.987517
1.000000 1.000000 0.998941
0.776289 0.885629 0.991281
0.776872 0.885603 0.991270
0.779287 0.885499 0.991223
0.791292 0.885033 0.991004
0.861313 0.892392 0.984116
0.980736 0.950128 0.976813
1.000000 0.990092 0.987520
1.000000 1.000000 0.998941
0.776189 0.886589 0.991153
0.776771 0.886563 0.991141
0.779184 0.886458 0.991094
0.791176 0.885991 0.990867
0.861668 0.893487 0.983746
0.980635 0.950600 0.976763
1.000000 0.990129 0.987531
1.000000 1.000000 0.998941
0.775927 0.891400 0.990510
0.776506 0.891374 0.990496
0.778903 0.891268 0.990441
0.790829 0.890796 0.990175
0.863635 0.898859 0.981888
0.980144 0.952859 0.976522
1.000000 0.990320 0.987589
1.000000 1.000000 0.998943
0.780811 0.914899 0.987265
0.781423 0.914881 0.987226
0.784049 0.914820 0.987040
0.798827 0.914891 0.985608
0.876574 0.921857 0.973479
0.978124 0.961553 0.975609
1.000000 0.991294 0.987932
1.000000 1.000000 0.998949
0.878148 0.985405 0.972006
0.878590 0.985329 0.971994
0.880431 0.985008 0.971941
0.889750 0.983330 0.971625
0.929305 0.975378 0.969648
0.978402 0.978402 0.978402
1.000000 0.996048 0.990661
1.000000 1.000000 0.998989
0.985412 1.000000 0.988211
0.985425 1.000000 0.988215
0.985477 1.000000 0.988234
0.985738 1.000000 0.988327
0.986989 1.000000 0.988777
0.992699 1.000000 0.991400
1.000000 1.000000 0.999411
1.000000 1.000000 0.999356
0.999854 1.000000 0.999508
0.999854 1.000000 0.999508
0.999857 1.000000 0.999509
0.999869 1.000000 0.999515
0.999929 1.000000 0.999545
1.000000 1.000000 0.999688
1.000000 1.000000 1.000000
1.000000 1.000000 1.000000
0.982608 0.994665 1.000000
0.982622 0.994665 1.000000
0.982680 0.994665 1.000000
0.982974 0.994664 1.000000
0.984418 0.994666 1.000000
0.992295 0.995634 1.000000
1.000000 0.999844 1.000000
1.000000 1.000000 1.000000
0.982609 0.994671 1.000000
0.982622 0.994670 1.000000
0.982681 0.994670 1.000000
0.982974 0.994670 1.000000
0.984419 0.994672 1.000000
0.992298 0.995640 1.000000
1.000000 0.999847 1.000000
1.000000 1.000000 1.000000
0.982610 0.994694 1.000000
0.982625 0.994694 1.000000
0.982683 0.994693 1.000000
0.982976 0.994693 1.000000
0.984420 0.994695 1.000000
0.992309 0.995665 1.000000
1.000000 0.999858 1.000000
1.000000 1.000000 1.000000
0.982622 0.994809 1.000000
0.982636 0.994809 1.000000
0.982694 0.994809 1.000000
0.982987 0.994808 1.000000
0.984430 0.994809 1.000000
0.992366 0.995790 1.000000
1.000000 0.999912 1.000000
1.000000 1.000000 1.000000
0.982695 0.995382 1.000000
0.982709 0.995382 1.000000
0.982767 0.995382 1.000000
0.983059 0.995380 1.000000
0.984497 0.995376 1.000000
0.992663 0.996392 1.000000
1.000000 1.000000 1.000000
1.000000 1.000000 1.000000
0.983491 0.998026 1.000000
0.983506 0.998026 1.000000
0.983567 0.998025 1.000000
0.983887 0.998023 1.000000
0.985638 0.998053 1.000000
0.994262 0.998804 1.000000
1.000000 1.000000 1.000000
1.000000 1.000000 1.000000
0.991072 1.000000 1.000000
0.991084 1.000000 1.000000
0.991135 1.000000 1.000000
0.991391 1.000000 1.000000
0.992673 1.000000 1.000000
0.997840 1.000000 1.000000
1.000000 1.000000 1.000000
1.000000 1.000000 1.000000
0.999907 1.000000 1.000000
0.999908 1.000000 1.000000
0.999911 1.000000 1.000000
0.999924 1.000000 1.000000
0.999990 1.000000 1.000000
1.000000 1.000000 1.000000
1.000000 1.000000 1.000000
1.000000 1.000000 1.000000
0.999157 1.000000 1.000000
0.999158 1.000000 1.000000
0.999162 1.000000 1.000000
0.999176 1.000000 1.000000
0.999249 1.000000 1.000000
0.999608 1.000000 1.000000
1.000000 1.000000 1.000000
1.000000 1.000000 1.000000
0.999157 1.000000 1.000000
0.999158 1.000000 1.000000
0.999162 1.000000 1.000000
0.999176 1.000000 1.000000
0.999249 1.000000 1.000000
0.999608 1.000000 1.000000
1.000000 1.000000 1.000000
1.000000 1.000000 1.000000
0.999157 1.000000 1.000000
0.999158 1.000000 1.000000
0.999162 1.000000 1.000000
0.999176 1.000000 1.000000
0.999250 1.000000 1.000000
0.999609 1.000000 1.000000
1.000000 1.000000 1.000000
1.000000 1.000000 1.000000
0.999158 1.000000 1.000000
0.999159 1.000000 1.000000
0.999162 1.000000 1.000000
0.999177 1.000000 1.000000
0.999250 1.000000 1.000000
0.999610 1.000000 1.000000
1.000000 1.000000 1.000000
1.000000 1.000000 1.000000
0.999163 1.000000 1.000000
0.999164 1.000000 1.000000
0.999167 1.000000 1.000000
0.999182 1.000000 1.000000
0.999255 1.000000 1.000000
0.999614 1.000000 1.000000
1.000000 1.000000 1.000000
1.000000 1.000000 1.000000
0.999192 1.000000 1.000000
0.999193 1.000000 1.000000
0.999196 1.000000 1.000000
0.999210 1.000000 1.000000
0.999283 1.000000 1.000000
0.999641 1.000000 1.000000
1.000000 1.000000 1.000000
1.000000 1.000000 1.000000
0.999408 1.000000 1.000000
0.999408 1.000000 1.000000
0.999411 1.000000 1.000000
0.999427 1.000000 1.000000
0.999507 1.000000 1.000000
0.999938 1.000000 1.000000
1.000000 1.000000 1.000000
1.000000 1.000000 1.000000
1.000000 1.000000 1.000000
1.000000 1.000000 1.000000
1.000000 1.000000 1.000000
1.000000 1.000000 1.000000
1.000000 1.000000 1.000000
1.000000 1.000000 1.000000
1.000000 1.000000 1.000000
1.000000 1.000000 1.000000
