StdX_ACES-Global/Looks/OpenDRT-toon__FLlinWS-filmlight-egamut2-tloge_to_srgb-display.cube
TITLE "Generated by Foundry::LUT"
LUT_3D_SIZE 5
DOMAIN_MIN 0.000000 0.000000 0.000000
DOMAIN_MAX 0.903226 0.903226 0.903226
0.002078 0.002078 0.002078
0.153240 0.003207 0.000000
0.649508 0.037553 0.000000
1.000000 0.890388 0.822504
1.000000 1.000000 0.998231
0.000000 0.114372 0.000000
0.142341 0.123567 0.000000
0.656206 0.068098 0.000000
1.000000 0.891023 0.822308
1.000000 1.000000 0.998231
0.000000 0.514904 0.000000
0.000000 0.516038 0.000000
0.612720 0.576993 0.000000
1.000000 0.901538 0.820322
1.000000 1.000000 0.998232
0.871068 0.995041 0.873574
0.871537 0.995071 0.873549
0.881607 0.994731 0.875936
0.992806 0.998368 0.942597
1.000000 1.000000 0.998278
0.998811 1.000000 0.998883
0.998813 1.000000 0.998883
0.998833 1.000000 0.998881
0.999381 1.000000 0.999085
1.000000 1.000000 1.000000
0.000000 0.000000 0.122340
0.157247 0.000000 0.137697
0.658104 0.034152 0.000000
1.000000 0.890466 0.823647
1.000000 1.000000 0.998234
0.000000 0.119659 0.138395
0.136744 0.136744 0.136744
0.665476 0.063050 0.000000
1.000000 0.891099 0.823453
1.000000 1.000000 0.998234
0.000000 0.527510 0.000000
0.000000 0.527847 0.000000
0.613436 0.581636 0.000000
1.000000 0.901591 0.821489
1.000000 1.000000 0.998235
0.870920 0.995180 0.873942
0.871391 0.995208 0.873917
0.881611 0.994808 0.876428
0.992721 0.998181 0.943245
1.000000 1.000000 0.998280
0.998811 1.000000 0.998884
0.998812 1.000000 0.998884
0.998832 1.000000 0.998882
0.999381 1.000000 0.999086
1.000000 1.000000 1.000000
0.000000 0.034462 0.589655
0.000000 0.028502 0.597097
0.671629 0.019089 0.601599
1.000000 0.892424 0.842216
1.000000 1.000000 0.998273
0.000000 0.081018 0.600332
0.000000 0.070990 0.606548
0.675337 0.042922 0.607260
1.000000 0.893028 0.842057
1.000000 1.000000 0.998273
0.000000 0.567165 0.586979
0.000000 0.567726 0.584558
0.582054 0.582054 0.582054
1.000000 0.903205 0.840420
1.000000 1.000000 0.998274
0.869311 0.997141 0.880750
0.870066 0.997071 0.880961
0.881431 0.996107 0.884115
0.991426 0.995428 0.952722
1.000000 1.000000 0.998320
0.998803 1.000000 0.998898
0.998804 1.000000 0.998898
0.998824 1.000000 0.998897
0.999384 1.000000 0.999110
1.000000 1.000000 1.000000
0.872866 0.946031 1.000000
0.873766 0.945986 1.000000
0.887932 0.945378 1.000000
0.996460 0.977851 0.992215
1.000000 1.000000 0.998928
0.872781 0.946331 1.000000
0.873680 0.946285 1.000000
0.887860 0.945680 1.000000
0.996396 0.977990 0.992191
1.000000 1.000000 0.998929
0.871853 0.951084 1.000000
0.872744 0.951036 1.000000
0.887473 0.950552 1.000000
0.995436 0.980037 0.991826
1.000000 1.000000 0.998930
0.927971 0.998707 0.989501
0.928668 0.998579 0.989480
0.939820 0.996440 0.989080
0.992036 0.992036 0.992036
1.000000 1.000000 0.998984
0.998737 1.000000 0.999219
0.998739 1.000000 0.999220
0.998780 1.000000 0.999237
0.999423 1.000000 0.999505
1.000000 1.000000 1.000000
0.998524 1.000000 1.000000
0.998527 1.000000 1.000000
0.998574 1.000000 1.000000
0.999340 1.000000 1.000000
1.000000 1.000000 1.000000
0.998524 1.000000 1.000000
0.998527 1.000000 1.000000
0.998574 1.000000 1.000000
0.999340 1.000000 1.000000
1.000000 1.000000 1.000000
0.998524 1.000000 1.000000
0.998527 1.000000 1.000000
0.998574 1.000000 1.000000
0.999341 1.000000 1.000000
1.000000 1.000000 1.000000
0.998533 1.000000 1.000000
0.998536 1.000000 1.000000
0.998582 1.000000 1.000000
0.999378 1.000000 1.000000
1.000000 1.000000 1.000000
1.000000 1.000000 1.000000
1.000000 1.000000 1.000000
1.000000 1.000000 1.000000
1.000000 1.000000 1.000000
1.000000 1.000000 1.000000
