software/Premiere/LUTS/ARRI/Premiere_ARRI-LogC3_to_ACES-Rec709-LowCon-1Stop.cube
TITLE "Generated by Foundry::LUT"
LUT_3D_SIZE 33
0.000213 0.000213 0.000213
0.000213 0.000213 0.000213
0.000213 0.000213 0.000213
0.000213 0.000213 0.000213
0.066003 0.000000 0.000000
0.131396 0.000000 0.000000
0.177162 0.000000 0.000000
0.227350 0.000000 0.000000
0.282120 0.000000 0.000000
0.338801 0.000000 0.000000
0.403347 0.000000 0.000000
0.477907 0.000000 0.000000
0.560237 0.000000 0.000000
0.645377 0.000000 0.000000
0.732144 0.000000 0.000000
0.818891 0.000000 0.000000
0.899488 0.000000 0.000000
0.965205 0.000000 0.000000
1.000000 0.000000 0.000000
1.000000 0.000000 0.000000
1.000000 0.225943 0.000000
1.000000 0.353598 0.000000
1.000000 0.458759 0.000000
1.000000 0.554138 0.110209
1.000000 0.642896 0.200164
1.000000 0.719611 0.283675
1.000000 0.780154 0.372002
1.000000 0.827360 0.459224
1.000000 0.865110 0.544604
1.000000 0.894170 0.627950
1.000000 0.918010 0.704989
1.000000 0.937347 0.767959
1.000000 0.952887 0.816898
0.000213 0.000213 0.000213
0.000213 0.000213 0.000213
0.000213 0.000213 0.000213
0.000213 0.000213 0.000213
0.081935 0.000000 0.000000
0.139161 0.000000 0.000000
0.186807 0.000000 0.000000
0.237420 0.000000 0.000000
0.291300 0.000000 0.000000
0.347236 0.000000 0.000000
0.410647 0.000000 0.000000
0.482932 0.000000 0.000000
0.563302 0.000000 0.000000
0.647719 0.000000 0.000000
0.733736 0.000000 0.000000
0.819764 0.000000 0.000000
0.899241 0.000000 0.000000
0.964182 0.000000 0.000000
1.000000 0.000000 0.000000
1.000000 0.089093 0.000000
1.000000 0.262187 0.000000
1.000000 0.373798 0.000000
1.000000 0.471984 0.000000
1.000000 0.563366 0.100583
1.000000 0.649215 0.196497
1.000000 0.723446 0.281741
1.000000 0.782342 0.370901
1.000000 0.828694 0.458540
1.000000 0.865890 0.544164
1.000000 0.894633 0.627657
1.000000 0.918297 0.704808
1.000000 0.937519 0.767853
1.000000 0.952993 0.816835
0.000213 0.000213 0.000213
0.000213 0.000213 0.000213
0.000213 0.000213 0.000213
0.000213 0.000213 0.000213
0.093598 0.000000 0.000000
0.147781 0.000000 0.000000
0.196161 0.000000 0.000000
0.246625 0.000000 0.000000
0.298545 0.000000 0.000000
0.353045 0.000000 0.000000
0.415245 0.000000 0.000000
0.487109 0.000000 0.000000
0.566882 0.000000 0.000000
0.650478 0.000000 0.000000
0.735469 0.000000 0.000000
0.820440 0.000000 0.000000
0.898893 0.000000 0.000000
0.963104 0.000000 0.000000
1.000000 0.000000 0.000000
1.000000 0.169948 0.000000
1.000000 0.292404 0.000000
1.000000 0.392361 0.000000
1.000000 0.484534 0.000000
1.000000 0.572253 0.089545
1.000000 0.655307 0.192780
1.000000 0.727169 0.279808
1.000000 0.784477 0.369801
1.000000 0.830007 0.457856
1.000000 0.866659 0.543725
1.000000 0.895093 0.627365
1.000000 0.918581 0.704627
1.000000 0.937690 0.767748
1.000000 0.953098 0.816773
0.000000 0.050203 0.000000
0.000000 0.055910 0.000000
0.000000 0.061489 0.000000
0.000000 0.065977 0.000000
0.090962 0.064937 0.000000
0.146517 0.060240 0.000000
0.197032 0.050685 0.000000
0.249726 0.025895 0.000000
0.302045 0.000000 0.000000
0.357860 0.000000 0.000000
0.420633 0.000000 0.000000
0.492362 0.000000 0.000000
0.571053 0.000000 0.000000
0.653243 0.000000 0.000000
0.737018 0.000000 0.000000
0.821040 0.000000 0.000000
0.898502 0.000000 0.000000
0.961978 0.000000 0.000000
1.000000 0.070186 0.000000
1.000000 0.217530 0.000000
1.000000 0.318591 0.000000
1.000000 0.409553 0.000000
1.000000 0.496484 0.000000
1.000000 0.580831 0.076280
1.000000 0.661185 0.189006
1.000000 0.730783 0.277876
1.000000 0.786571 0.368702
1.000000 0.831302 0.457173
1.000000 0.867419 0.543285
1.000000 0.895549 0.627072
1.000000 0.918864 0.704445
1.000000 0.937860 0.767642
1.000000 0.953203 0.816711
0.000000 0.116870 0.000000
0.000000 0.120537 0.000000
0.000000 0.124138 0.000000
0.000000 0.126212 0.000000
0.061301 0.126408 0.000000
0.134802 0.125308 0.000000
0.190754 0.122899 0.000000
0.246082 0.118026 0.000000
0.301731 0.110392 0.000000
0.360551 0.099400 0.000000
0.424889 0.081638 0.000000
0.496883 0.040079 0.000000
0.574834 0.000000 0.000000
0.655824 0.000000 0.000000
0.738517 0.000000 0.000000
0.821626 0.000000 0.000000
0.898087 0.000000 0.000000
0.960797 0.000000 0.000000
1.000000 0.160975 0.000000
1.000000 0.254532 0.000000
1.000000 0.341866 0.000000
1.000000 0.425590 0.000000
1.000000 0.507891 0.000000
1.000000 0.589117 0.058731
1.000000 0.666863 0.185170
1.000000 0.734294 0.275944
1.000000 0.788623 0.367603
1.000000 0.832573 0.456490
1.000000 0.868168 0.542846
1.000000 0.896001 0.626779
1.000000 0.919145 0.704264
1.000000 0.938029 0.767537
1.000000 0.953308 0.816649
0.000000 0.163158 0.000000
0.000000 0.166166 0.000000
0.000000 0.168636 0.000000
0.000000 0.170182 0.000000
0.000000 0.170562 0.000000
0.115215 0.170146 0.000000
0.179415 0.168161 0.000000
0.238525 0.164792 0.000000
0.297927 0.160111 0.000000
0.360258 0.153703 0.000000
0.427366 0.144790 0.000000
0.500479 0.131972 0.000000
0.578238 0.115380 0.000000
0.658305 0.093209 0.000000
0.740004 0.063542 0.000000
0.822204 0.026829 0.000000
0.897629 0.070303 0.000000
0.959555 0.138168 0.000000
1.000000 0.210090 0.000000
1.000000 0.285744 0.000000
1.000000 0.363040 0.000000
1.000000 0.440732 0.000000
1.000000 0.518871 0.000000
1.000000 0.597184 0.024876
1.000000 0.672384 0.181241
1.000000 0.737729 0.273998
1.000000 0.790650 0.366497
1.000000 0.833833 0.455803
1.000000 0.868912 0.542404
1.000000 0.896453 0.626485
1.000000 0.919426 0.704081
1.000000 0.938198 0.767431
1.000000 0.953412 0.816586
0.000000 0.209006 0.000000
0.000000 0.211511 0.000000
0.000000 0.212966 0.000000
0.000000 0.213786 0.000000
0.000000 0.213348 0.000000
0.071079 0.212473 0.000000
0.160435 0.211020 0.000000
0.226666 0.208742 0.000000
0.290564 0.205442 0.000000
0.356918 0.200802 0.000000
0.427789 0.194413 0.000000
0.503697 0.186072 0.000000
0.581744 0.177097 0.000000
0.661101 0.167559 0.000000
0.741757 0.159159 0.000000
0.822855 0.155994 0.000000
0.897004 0.168415 0.000000
0.957963 0.202909 0.000000
1.000000 0.255275 0.000000
1.000000 0.318281 0.000000
1.000000 0.386588 0.000000
1.000000 0.458094 0.000000
1.000000 0.531709 0.000000
1.000000 0.606719 0.000000
1.000000 0.678902 0.176321
1.000000 0.741808 0.271611
1.000000 0.793082 0.365141
1.000000 0.835350 0.454961
1.000000 0.869811 0.541863
1.000000 0.897002 0.626123
1.000000 0.919768 0.703856
1.000000 0.938405 0.767300
1.000000 0.953540 0.816509
0.000000 0.256438 0.000000
0.000000 0.257678 0.000000
0.000000 0.258453 0.000000
0.000000 0.258959 0.000000
0.000000 0.258764 0.000000
0.000000 0.258251 0.000000
0.125958 0.257317 0.000000
0.207527 0.255788 0.000000
0.278051 0.253457 0.000000
0.349384 0.250004 0.000000
0.424887 0.245094 0.000000
0.505027 0.239096 0.000000
0.584852 0.233072 0.000000
0.664139 0.227667 0.000000
0.743804 0.224094 0.000000
0.823553 0.224639 0.000000
0.896043 0.235397 0.000000
0.955718 0.261604 0.000000
1.000000 0.303341 0.000000
1.000000 0.355239 0.000000
1.000000 0.414779 0.000000
1.000000 0.479553 0.000000
1.000000 0.547915 0.000000
1.000000 0.618918 0.000000
1.000000 0.687214 0.169535
1.000000 0.747051 0.268414
1.000000 0.796251 0.363326
1.000000 0.837335 0.453836
1.000000 0.870992 0.541138
1.000000 0.897727 0.625639
1.000000 0.920222 0.703556
1.000000 0.938678 0.767126
1.000000 0.953711 0.816406
0.000000 0.307940 0.000000
0.000000 0.308667 0.000000
0.000000 0.309382 0.000000
0.000000 0.309765 0.000000
0.000000 0.309713 0.000000
0.000000 0.309430 0.000000
0.000000 0.308856 0.000000
0.174419 0.307871 0.000000
0.257641 0.306300 0.000000
0.335861 0.303834 0.000000
0.417187 0.300293 0.000000
0.502307 0.296051 0.000000
0.585469 0.291662 0.000000
0.666367 0.288193 0.000000
0.745709 0.286848 0.000000
0.824050 0.289189 0.000000
0.894499 0.299438 0.000000
0.952544 0.321177 0.000000
0.998287 0.354180 0.000000
1.000000 0.396832 0.000000
1.000000 0.448012 0.000000
1.000000 0.505624 0.000000
1.000000 0.568067 0.000000
1.000000 0.634294 0.000000
1.000000 0.697657 0.160026
1.000000 0.753696 0.264122
1.000000 0.800337 0.360895
1.000000 0.839913 0.452331
1.000000 0.872533 0.540169
1.000000 0.898684 0.624991
1.000000 0.920821 0.703153
1.000000 0.939041 0.766892
1.000000 0.953938 0.816268
0.000000 0.366560 0.000000
0.000000 0.367216 0.000000
0.000000 0.367843 0.000000
0.000000 0.368117 0.000000
0.000000 0.368142 0.000000
0.000000 0.368000 0.000000
0.000000 0.367670 0.000000
0.096105 0.367065 0.000000
0.222663 0.366046 0.000000
0.313657 0.364745 0.000000
0.402945 0.362592 0.000000
0.493441 0.359483 0.000000
0.581063 0.356226 0.000000
0.665389 0.353765 0.000000
0.746237 0.353361 0.000000
0.823727 0.356237 0.000000
0.892092 0.365066 0.000000
0.948387 0.382121 0.000000
0.993256 0.408246 0.000000
1.000000 0.443120 0.000000
1.000000 0.486447 0.000000
1.000000 0.536707 0.000000
1.000000 0.592675 0.000000
1.000000 0.652944 0.000000
1.000000 0.710535 0.146317
1.000000 0.761981 0.258353
1.000000 0.805551 0.357638
1.000000 0.843229 0.450318
1.000000 0.874526 0.538874
1.000000 0.899937 0.624122
1.000000 0.921610 0.702614
1.000000 0.939520 0.766579
1.000000 0.954239 0.816084
0.000000 0.433787 0.000000
0.000000 0.434434 0.000000
0.000000 0.434995 0.000000
0.000000 0.435299 0.000000
0.000000 0.435450 0.000000
0.000000 0.435482 0.000000
0.000000 0.435419 0.000000
0.000000 0.435208 0.000000
0.151593 0.434745 0.000000
0.277074 0.433833 0.000000
0.379084 0.432188 0.000000
0.476563 0.429757 0.000000
0.569752 0.426992 0.000000
0.658894 0.424560 0.000000
0.743450 0.423453 0.000000
0.821919 0.425082 0.000000
0.888713 0.431788 0.000000
0.943080 0.445110 0.000000
0.986931 0.465783 0.000000
1.000000 0.494018 0.000000
1.000000 0.530037 0.000000
1.000000 0.573023 0.000000
1.000000 0.622137 0.000000
1.000000 0.675066 0.000000
1.000000 0.726046 0.125351
1.000000 0.772094 0.250560
1.000000 0.812109 0.353265
1.000000 0.847441 0.447624
1.000000 0.877078 0.537140
1.000000 0.901568 0.622959
1.000000 0.922643 0.701891
1.000000 0.940150 0.766159
1.000000 0.954636 0.815837
0.000000 0.506844 0.000000
0.000000 0.507327 0.000000
0.000000 0.507603 0.000000
0.000000 0.507737 0.000000
0.000000 0.507767 0.000000
0.000000 0.507726 0.000000
0.000000 0.507610 0.000000
0.000000 0.507363 0.000000
0.000000 0.506889 0.000000
0.216545 0.506028 0.000000
0.344758 0.504547 0.000000
0.452077 0.502452 0.000000
0.551599 0.499927 0.000000
0.646230 0.497373 0.000000
0.735631 0.495559 0.000000
0.816839 0.495838 0.000000
0.883565 0.500390 0.000000
0.936323 0.510515 0.000000
0.979122 0.526604 0.000000
1.000000 0.549116 0.000000
1.000000 0.578542 0.000000
1.000000 0.614504 0.000000
1.000000 0.656296 0.000000
1.000000 0.700499 0.000000
1.000000 0.744200 0.087571
1.000000 0.784098 0.239940
1.000000 0.820210 0.347375
1.000000 0.852711 0.444016
1.000000 0.880300 0.534819
1.000000 0.903673 0.621397
1.000000 0.923985 0.700920
1.000000 0.940973 0.765596
1.000000 0.955159 0.815505
0.000000 0.581621 0.000000
0.000000 0.581827 0.000000
0.000000 0.581906 0.000000
0.000000 0.581899 0.000000
0.000000 0.581833 0.000000
0.000000 0.581725 0.000000
0.000000 0.581546 0.000000
0.000000 0.581239 0.000000
0.000000 0.580712 0.000000
0.051079 0.579830 0.000000
0.295626 0.578412 0.000000
0.419589 0.576500 0.000000
0.526868 0.574169 0.000000
0.627124 0.571598 0.000000
0.721793 0.569274 0.000000
0.806623 0.568412 0.000000
0.875006 0.570925 0.000000
0.927507 0.578100 0.000000
0.969561 0.590271 0.000000
1.000000 0.607867 0.000000
1.000000 0.631399 0.000000
1.000000 0.660432 0.000000
1.000000 0.693394 0.000000
1.000000 0.728759 0.000000
1.000000 0.764660 0.000000
1.000000 0.798125 0.225126
1.000000 0.829988 0.339393
1.000000 0.859169 0.439171
1.000000 0.884334 0.531702
1.000000 0.906362 0.619300
1.000000 0.925715 0.699616
1.000000 0.942046 0.764840
1.000000 0.955845 0.815062
0.000000 0.656751 0.000000
0.000000 0.656755 0.000000
0.000000 0.656691 0.000000
0.000000 0.656583 0.000000
0.000000 0.656442 0.000000
0.000000 0.656273 0.000000
0.000000 0.656033 0.000000
0.000000 0.655656 0.000000
0.000000 0.655062 0.000000
0.000000 0.654130 0.000000
0.220230 0.652739 0.000000
0.377666 0.650929 0.000000
0.496193 0.648713 0.000000
0.602438 0.646198 0.000000
0.702030 0.643624 0.000000
0.790553 0.641976 0.000000
0.861479 0.642853 0.000000
0.915325 0.647418 0.000000
0.957726 0.656064 0.000000
0.990834 0.669000 0.000000
1.000000 0.686234 0.000000
1.000000 0.707330 0.000000
1.000000 0.731808 0.000000
1.000000 0.758708 0.000000
1.000000 0.786515 0.000000
1.000000 0.814262 0.203543
1.000000 0.841465 0.328458
1.000000 0.866886 0.432634
1.000000 0.889342 0.527497
1.000000 0.909748 0.616478
1.000000 0.927917 0.697860
1.000000 0.943432 0.763823
1.000000 0.956736 0.814466
0.000000 0.730399 0.000000
0.000000 0.730260 0.000000
0.000000 0.730091 0.000000
0.000000 0.729899 0.000000
0.000000 0.729685 0.000000
0.000000 0.729449 0.000000
0.000000 0.729133 0.000000
0.000000 0.728667 0.000000
0.000000 0.727974 0.000000
0.000000 0.726944 0.000000
0.000000 0.725528 0.000000
0.325590 0.723706 0.000000
0.460852 0.721456 0.000000
0.574470 0.718828 0.000000
0.678457 0.715951 0.000000
0.769791 0.713553 0.000000
0.843428 0.712782 0.000000
0.899655 0.714537 0.000000
0.943964 0.719126 0.000000
0.977772 0.727011 0.000000
1.000000 0.738264 0.000000
1.000000 0.752546 0.000000
1.000000 0.769575 0.000000
1.000000 0.788730 0.000000
1.000000 0.809675 0.000000
1.000000 0.832159 0.169332
1.000000 0.854488 0.313196
1.000000 0.875816 0.423750
1.000000 0.895437 0.521795
1.000000 0.913937 0.612667
1.000000 0.930679 0.695488
1.000000 0.945203 0.762451
1.000000 0.957887 0.813665
0.000000 0.794555 0.000000
0.000000 0.794312 0.000000
0.000000 0.794050 0.000000
0.000000 0.793771 0.000000
0.000000 0.793475 0.000000
0.000000 0.793161 0.000000
0.000000 0.792755 0.000000
0.000000 0.792180 0.000000
0.000000 0.791357 0.000000
0.000000 0.790220 0.000000
0.000000 0.788725 0.000000
0.277043 0.786808 0.000000
0.430633 0.784425 0.000000
0.550659 0.781580 0.000000
0.657660 0.778353 0.000000
0.749702 0.775362 0.000000
0.824605 0.773371 0.000000
0.882959 0.773020 0.000000
0.929457 0.774571 0.000000
0.964759 0.778476 0.000000
0.991610 0.784879 0.000000
1.000000 0.793591 0.000000
1.000000 0.804720 0.000000
1.000000 0.818249 0.000000
1.000000 0.833832 0.000000
1.000000 0.851002 0.166243
1.000000 0.868675 0.291108
1.000000 0.885802 0.411478
1.000000 0.902673 0.513995
1.000000 0.919008 0.607492
1.000000 0.934078 0.692269
1.000000 0.947436 0.760596
1.000000 0.959355 0.812587
0.000000 0.845608 0.000000
0.000000 0.845284 0.000000
0.000000 0.844947 0.000000
0.000000 0.844596 0.000000
0.000000 0.844232 0.000000
0.000000 0.843855 0.000000
0.000000 0.843376 0.000000
0.000000 0.842713 0.000000
0.000000 0.841824 0.000000
0.000000 0.840649 0.000000
0.000000 0.839118 0.000000
0.257021 0.837159 0.000000
0.416969 0.834718 0.000000
0.538198 0.831767 0.000000
0.644656 0.828378 0.000000
0.734885 0.825098 0.000000
0.808624 0.822472 0.000000
0.867605 0.820895 0.000000
0.915619 0.820563 0.000000
0.952334 0.821932 0.000000
0.980693 0.825174 0.000000
1.000000 0.830381 0.000000
1.000000 0.837633 0.000000
1.000000 0.846830 0.000000
1.000000 0.857760 0.000000
1.000000 0.870099 0.176210
1.000000 0.883365 0.263876
1.000000 0.896943 0.393982
1.000000 0.911012 0.503173
1.000000 0.924987 0.600407
1.000000 0.938166 0.687872
1.000000 0.950202 0.758069
1.000000 0.961200 0.811131
0.000000 0.886091 0.000000
0.000000 0.885711 0.000000
0.000000 0.885320 0.000000
0.000000 0.884919 0.000000
0.000000 0.884512 0.000000
0.000000 0.884103 0.000000
0.000000 0.883603 0.000000
0.000000 0.882939 0.000000
0.000000 0.882061 0.000000
0.000000 0.880910 0.000000
0.000000 0.879418 0.000000
0.279763 0.877518 0.000000
0.424686 0.875145 0.000000
0.539796 0.872256 0.000000
0.640701 0.868971 0.000000
0.726252 0.865731 0.000000
0.796738 0.862942 0.000000
0.854535 0.860839 0.000000
0.902666 0.859546 0.000000
0.940253 0.859432 0.000000
0.970031 0.860606 0.000000
0.993801 0.863201 0.000000
1.000000 0.867379 0.000000
1.000000 0.873091 0.000000
1.000000 0.880183 0.057622
1.000000 0.888524 0.192363
1.000000 0.898225 0.275787
1.000000 0.909032 0.367753
1.000000 0.920306 0.487816
1.000000 0.931814 0.590572
1.000000 0.942950 0.681797
1.000000 0.953560 0.754606
1.000000 0.963476 0.809157
0.000000 0.917771 0.000000
0.000000 0.917365 0.000000
0.000000 0.916961 0.000000
0.000000 0.916559 0.000000
0.000000 0.916160 0.000000
0.000000 0.915761 0.000000
0.000000 0.915276 0.000000
0.000000 0.914635 0.000000
0.000000 0.913791 0.000000
0.000000 0.912690 0.000000
0.164020 0.911270 0.000000
0.338521 0.909461 0.000000
0.455158 0.907197 0.000000
0.557042 0.904436 0.000000
0.646973 0.901382 0.000000
0.724888 0.898311 0.000000
0.790125 0.895537 0.000000
0.845488 0.893170 0.000000
0.892197 0.891348 0.000000
0.929627 0.890320 0.000000
0.960340 0.890118 0.000000
0.985182 0.890890 0.000000
1.000000 0.892848 0.000000
1.000000 0.896068 0.000000
1.000000 0.900577 0.117635
1.000000 0.906369 0.214796
1.000000 0.913382 0.292213
1.000000 0.921490 0.365493
1.000000 0.930268 0.465122
1.000000 0.939333 0.576625
1.000000 0.948457 0.673251
1.000000 0.957530 0.749803
1.000000 0.966225 0.806459
0.000000 0.941481 0.000000
0.000000 0.941096 0.000000
0.000000 0.940715 0.000000
0.000000 0.940337 0.000000
0.000000 0.939963 0.000000
0.000000 0.939590 0.000000
0.000000 0.939138 0.000000
0.000000 0.938542 0.000000
0.000000 0.937760 0.000000
0.199517 0.936742 0.000000
0.321501 0.935429 0.000000
0.417268 0.933755 0.000000
0.505484 0.931656 0.000000
0.587958 0.929183 0.000000
0.663561 0.926479 0.000000
0.731210 0.923725 0.000000
0.789575 0.921153 0.000000
0.841084 0.918795 0.000000
0.885181 0.916827 0.000000
0.921216 0.915442 0.000000
0.951859 0.914607 0.000000
0.977213 0.914465 0.000000
0.997175 0.915196 0.000000
1.000000 0.916875 0.000000
1.000000 0.919593 0.165533
1.000000 0.923373 0.243450
1.000000 0.928164 0.313628
1.000000 0.933880 0.381774
1.000000 0.940412 0.450486
1.000000 0.947336 0.556089
1.000000 0.954620 0.660918
1.000000 0.962092 0.743013
1.000000 0.969454 0.802731
0.000000 0.960194 0.000000
0.000000 0.959847 0.000000
0.000000 0.959502 0.000000
0.000000 0.959162 0.000000
0.000000 0.958825 0.000000
0.152152 0.958490 0.000000
0.214719 0.958083 0.000000
0.270539 0.957547 0.000000
0.325450 0.956844 0.000000
0.381769 0.955930 0.000000
0.440662 0.954748 0.000000
0.502394 0.953249 0.000000
0.565065 0.951444 0.000000
0.627373 0.949360 0.000000
0.687573 0.947072 0.000000
0.743392 0.944721 0.000000
0.794162 0.942418 0.000000
0.840605 0.940204 0.000000
0.881085 0.938261 0.000000
0.915053 0.936730 0.000000
0.944717 0.935560 0.000000
0.969883 0.934861 0.000000
0.990237 0.934770 0.000000
1.000000 0.935352 0.129607
1.000000 0.936709 0.211720
1.000000 0.938912 0.277918
1.000000 0.941941 0.340317
1.000000 0.945743 0.402705
1.000000 0.950336 0.466913
1.000000 0.955680 0.533280
1.000000 0.961277 0.642362
1.000000 0.967151 0.733168
1.000000 0.973130 0.797501
0.332311 0.974259 0.000000
0.352056 0.973957 0.000000
0.370169 0.973657 0.000000
0.386956 0.973360 0.000000
0.402631 0.973066 0.000000
0.417451 0.972773 0.000000
0.434481 0.972418 0.000000
0.455543 0.971951 0.000000
0.480937 0.971346 0.000000
0.510930 0.970572 0.000000
0.545539 0.969598 0.000000
0.584450 0.968397 0.000000
0.626923 0.966954 0.000000
0.671687 0.965284 0.000000
0.716954 0.963441 0.000000
0.760961 0.961507 0.000000
0.803934 0.959490 0.000000
0.844287 0.957499 0.000000
0.880233 0.955686 0.000000
0.911583 0.954128 0.000000
0.939702 0.952804 0.000000
0.963916 0.951808 0.000000
0.984085 0.951229 0.120581
1.000000 0.951110 0.196924
1.000000 0.951555 0.258565
1.000000 0.952655 0.316092
1.000000 0.954446 0.371890
1.000000 0.956930 0.428536
1.000000 0.960090 0.487678
1.000000 0.963883 0.549672
1.000000 0.968185 0.614203
1.000000 0.972551 0.718247
1.000000 0.977160 0.789982
0.522975 0.984540 0.000000
0.531476 0.984304 0.000000
0.539648 0.984072 0.000000
0.547515 0.983844 0.000000
0.555095 0.983620 0.000000
0.562458 0.983398 0.000000
0.571132 0.983131 0.000000
0.582184 0.982783 0.000000
0.596069 0.982333 0.000000
0.613201 0.981757 0.000000
0.633891 0.981032 0.000000
0.658232 0.980136 0.000000
0.685995 0.979058 0.000000
0.716459 0.977806 0.000000
0.748927 0.976394 0.000000
0.783232 0.974815 0.000000
0.818036 0.973128 0.000000
0.851636 0.971427 0.000000
0.882371 0.969832 0.000000
0.910743 0.968347 0.072116
0.936728 0.967010 0.120255
0.959540 0.965913 0.158704
0.978924 0.965106 0.208042
0.995470 0.964610 0.257303
1.000000 0.964511 0.306834
1.000000 0.964895 0.356666
1.000000 0.965798 0.407238
1.000000 0.967257 0.459062
1.000000 0.969278 0.513109
1.000000 0.971826 0.570257
1.000000 0.974791 0.630441
1.000000 0.978084 0.693770
1.000000 0.981421 0.778663
0.644390 0.992465 0.165592
0.648781 0.992304 0.165933
0.653059 0.992146 0.166274
0.657226 0.991991 0.166615
0.661288 0.991838 0.166955
0.665275 0.991687 0.167296
0.670027 0.991505 0.167713
0.676166 0.991268 0.168272
0.684002 0.990960 0.169017
0.693854 0.990567 0.170008
0.706022 0.990070 0.171327
0.720747 0.989453 0.173076
0.738421 0.988690 0.175384
0.759118 0.987765 0.178413
0.782594 0.986675 0.182364
0.808251 0.985435 0.187480
0.835072 0.984086 0.194041
0.861744 0.982699 0.202362
0.887380 0.981330 0.212780
0.912339 0.979972 0.225628
0.935711 0.978698 0.241282
0.956635 0.977586 0.260127
0.974994 0.976676 0.282310
0.990889 0.975974 0.317393
1.000000 0.975547 0.357040
1.000000 0.975459 0.399982
1.000000 0.975739 0.445593
1.000000 0.976435 0.493325
1.000000 0.977577 0.543034
1.000000 0.979146 0.595310
1.000000 0.981054 0.650456
1.000000 0.983307 0.704556
1.000000 0.985845 0.759832
0.728705 0.998560 0.287805
0.731095 0.998457 0.287984
0.733446 0.998355 0.288162
0.735761 0.998254 0.288340
0.738036 0.998155 0.288518
0.740290 0.998056 0.288697
0.743005 0.997936 0.288916
0.746561 0.997779 0.289210
0.751175 0.997573 0.289600
0.757109 0.997305 0.290122
0.764656 0.996961 0.290818
0.774109 0.996523 0.291745
0.785721 0.995975 0.292977
0.799639 0.995304 0.294612
0.815836 0.994504 0.296775
0.834026 0.993580 0.299622
0.853607 0.992558 0.303354
0.873915 0.991469 0.308211
0.895051 0.990308 0.314469
0.916274 0.989116 0.322453
0.936655 0.987957 0.332537
0.955347 0.986898 0.345124
0.972322 0.985959 0.360631
0.987398 0.985173 0.379500
1.000000 0.984572 0.410455
1.000000 0.984205 0.446753
1.000000 0.984091 0.487069
1.000000 0.984278 0.530575
1.000000 0.984807 0.576547
1.000000 0.985681 0.624624
1.000000 0.986853 0.673834
1.000000 0.988318 0.721481
1.000000 0.990066 0.765684
0.792089 1.000000 0.384651
0.793485 1.000000 0.384769
0.794863 1.000000 0.384888
0.796224 1.000000 0.385007
0.797567 1.000000 0.385125
0.798903 1.000000 0.385245
0.800518 1.000000 0.385391
0.802641 1.000000 0.385587
0.805414 1.000000 0.385848
0.809010 1.000000 0.386196
0.813626 1.000000 0.386661
0.819476 1.000000 0.387282
0.826771 1.000000 0.388108
0.835674 1.000000 0.389208
0.846254 1.000000 0.390667
0.858444 0.999758 0.392599
0.872400 0.999003 0.395145
0.888003 0.998141 0.398477
0.904814 0.997193 0.402821
0.922182 0.996194 0.408440
0.939332 0.995192 0.415654
0.955599 0.994234 0.424828
0.970904 0.993336 0.436367
0.984773 0.992539 0.450721
0.996776 0.991888 0.468340
1.000000 0.991390 0.497518
1.000000 0.991064 0.532109
1.000000 0.990949 0.570839
1.000000 0.991083 0.612826
1.000000 0.991465 0.656780
1.000000 0.992079 0.699789
1.000000 0.992934 0.740884
1.000000 0.994019 0.779079
0.839847 1.000000 0.473329
0.840634 1.000000 0.473414
0.841413 1.000000 0.473499
0.842185 1.000000 0.473584
0.842948 1.000000 0.473669
0.843708 1.000000 0.473755
0.844630 1.000000 0.473859
0.845846 1.000000 0.473999
0.847440 1.000000 0.474187
0.849522 1.000000 0.474437
0.852234 1.000000 0.474770
0.855738 1.000000 0.475215
0.860218 1.000000 0.475808
0.865869 1.000000 0.476597
0.872876 1.000000 0.477645
0.881387 1.000000 0.479033
0.891460 1.000000 0.480868
0.903029 1.000000 0.483284
0.915845 1.000000 0.486450
0.929478 1.000000 0.490576
0.943349 1.000000 0.495917
0.957192 0.999953 0.502780
0.970606 0.999132 0.511514
0.983041 0.998372 0.522523
0.994023 0.997713 0.536246
1.000000 0.997173 0.553144
1.000000 0.996737 0.581195
1.000000 0.996444 0.614541
1.000000 0.996327 0.651610
