software/Premiere/LUTS/ARRI/Premiere_ARRI-LogC3_to_ACES-Rec709-LowCon-1Stop.cube
TITLE "Generated by Foundry::LUT"
LUT_3D_SIZE 9
0.000213 0.000213 0.000213
0.066003 0.000000 0.000000
0.282120 0.000000 0.000000
0.560237 0.000000 0.000000
0.899488 0.000000 0.000000
1.000000 0.225943 0.000000
1.000000 0.642896 0.200164
1.000000 0.865110 0.544604
1.000000 0.952887 0.816898
0.000000 0.116870 0.000000
0.061301 0.126408 0.000000
0.301731 0.110392 0.000000
0.574834 0.000000 0.000000
0.898087 0.000000 0.000000
1.000000 0.341866 0.000000
1.000000 0.666863 0.185170
1.000000 0.868168 0.542846
1.000000 0.953308 0.816649
0.000000 0.307940 0.000000
0.000000 0.309713 0.000000
0.257641 0.306300 0.000000
0.585469 0.291662 0.000000
0.894499 0.299438 0.000000
1.000000 0.448012 0.000000
1.000000 0.697657 0.160026
1.000000 0.872533 0.540169
1.000000 0.953938 0.816268
0.000000 0.581621 0.000000
0.000000 0.581833 0.000000
0.000000 0.580712 0.000000
0.526868 0.574169 0.000000
0.875006 0.570925 0.000000
1.000000 0.631399 0.000000
1.000000 0.764660 0.000000
1.000000 0.884334 0.531702
1.000000 0.955845 0.815062
0.000000 0.845608 0.000000
0.000000 0.844232 0.000000
0.000000 0.841824 0.000000
0.416969 0.834718 0.000000
0.808624 0.822472 0.000000
0.980693 0.825174 0.000000
1.000000 0.857760 0.000000
1.000000 0.911012 0.503173
1.000000 0.961200 0.811131
0.000000 0.960194 0.000000
0.000000 0.958825 0.000000
0.325450 0.956844 0.000000
0.565065 0.951444 0.000000
0.794162 0.942418 0.000000
0.944717 0.935560 0.000000
1.000000 0.936709 0.211720
1.000000 0.950336 0.466913
1.000000 0.973130 0.797501
0.728705 0.998560 0.287805
0.738036 0.998155 0.288518
0.751175 0.997573 0.289600
0.785721 0.995975 0.292977
0.853607 0.992558 0.303354
0.936655 0.987957 0.332537
1.000000 0.984572 0.410455
1.000000 0.984807 0.576547
1.000000 0.990066 0.765684
0.904453 1.000000 0.639691
0.905620 1.000000 0.639868
0.907356 1.000000 0.640137
0.912521 1.000000 0.640981
0.926345 1.000000 0.643636
0.954582 1.000000 0.651675
0.990564 1.000000 0.673899
1.000000 1.000000 0.730724
1.000000 1.000000 0.828398
0.969336 1.000000 0.857196
0.969496 1.000000 0.857220
0.969739 1.000000 0.857257
0.970490 1.000000 0.857371
0.972758 1.000000 0.857735
0.978853 1.000000 0.858877
0.991072 1.000000 0.862314
1.000000 1.000000 0.871617
1.000000 1.000000 0.894541
0.000000 0.000000 0.104513
0.034152 0.000000 0.105292
0.291460 0.000000 0.105515
0.561091 0.000000 0.108543
0.900335 0.000000 0.128454
1.000000 0.196720 0.179897
1.000000 0.637609 0.311359
1.000000 0.864377 0.578167
1.000000 0.952775 0.822415
0.000000 0.079604 0.089329
0.087178 0.087178 0.087178
0.296456 0.064712 0.090670
0.566305 0.000000 0.091682
0.896455 0.000000 0.103942
1.000000 0.327523 0.158460
1.000000 0.662280 0.303407
1.000000 0.867467 0.576642
1.000000 0.953197 0.822181
0.000000 0.295525 0.000000
0.000000 0.297613 0.000000
0.272611 0.293568 0.000000
0.582742 0.278971 0.000000
0.891475 0.286783 0.000000
1.000000 0.439843 0.115763
1.000000 0.693912 0.291476
1.000000 0.871878 0.574327
1.000000 0.953829 0.821823
0.000000 0.577788 0.000000
0.000000 0.577867 0.000000
0.000000 0.576616 0.000000
0.537035 0.569949 0.000000
0.875587 0.567507 0.000000
1.000000 0.628696 0.000000
1.000000 0.762513 0.254374
1.000000 0.883788 0.567052
1.000000 0.955741 0.820689
0.000000 0.844838 0.000000
0.000000 0.843415 0.000000
0.000000 0.840967 0.000000
0.428579 0.833863 0.000000
0.811023 0.821779 0.000000
0.980868 0.824752 0.000000
1.000000 0.857615 0.040372
1.000000 0.910635 0.543075
1.000000 0.961108 0.817004
0.000000 0.959899 0.000000
0.127950 0.958534 0.000000
0.340303 0.956559 0.000000
0.570909 0.951196 0.000000
0.795847 0.942273 0.000000
0.945102 0.935482 0.000000
1.000000 0.936672 0.211680
1.000000 0.950348 0.466756
1.000000 0.973061 0.804333
0.730774 0.998465 0.287895
0.739990 0.998064 0.288608
0.752973 0.997487 0.289692
0.787135 0.995902 0.293071
0.854355 0.992513 0.303452
0.936922 0.987937 0.332632
1.000000 0.984564 0.410589
1.000000 0.984805 0.576557
1.000000 0.990069 0.765654
0.904776 1.000000 0.639735
0.905938 1.000000 0.639912
0.907666 1.000000 0.640181
0.912806 1.000000 0.641025
0.926569 1.000000 0.643679
0.954712 1.000000 0.651718
0.990608 1.000000 0.673939
1.000000 1.000000 0.730766
1.000000 1.000000 0.828403
0.969391 1.000000 0.857206
0.969551 1.000000 0.857229
0.969793 1.000000 0.857266
0.970543 1.000000 0.857380
0.972806 1.000000 0.857744
0.978892 1.000000 0.858887
0.991093 1.000000 0.862322
1.000000 1.000000 0.871625
1.000000 1.000000 0.894549
0.000000 0.000000 0.285444
0.000000 0.000000 0.285543
0.268411 0.000000 0.283430
0.586702 0.000000 0.283263
0.901102 0.000000 0.293678
1.000000 0.115033 0.328470
1.000000 0.629177 0.420062
1.000000 0.863256 0.621570
1.000000 0.952607 0.830181
0.000000 0.000000 0.280353
0.000000 0.000000 0.280767
0.294426 0.000000 0.278617
0.580719 0.000000 0.278208
0.898679 0.000000 0.287470
1.000000 0.296034 0.319483
1.000000 0.654986 0.414870
1.000000 0.866397 0.620293
1.000000 0.953031 0.829967
0.000000 0.263795 0.262694
0.000000 0.267028 0.263228
0.262646 0.262646 0.262646
0.561657 0.251191 0.264714
0.888179 0.252886 0.273061
1.000000 0.421396 0.305228
1.000000 0.687962 0.407295
1.000000 0.870879 0.618361
1.000000 0.953665 0.829640
0.000000 0.566221 0.190876
0.000000 0.566549 0.192484
0.000000 0.565393 0.194456
0.533764 0.558663 0.199442
0.870627 0.557429 0.213847
1.000000 0.620575 0.258710
1.000000 0.759075 0.385453
1.000000 0.882962 0.612341
1.000000 0.955585 0.828604
0.000000 0.843326 0.000000
0.000000 0.841869 0.000000
0.000000 0.839388 0.000000
0.435435 0.832265 0.000000
0.812326 0.820262 0.000000
0.980034 0.823482 0.000000
1.000000 0.856381 0.321496
1.000000 0.910070 0.592964
1.000000 0.960972 0.825247
0.000000 0.959451 0.000000
0.192217 0.958091 0.000000
0.361212 0.956125 0.000000
0.579543 0.950822 0.000000
0.798380 0.942054 0.000000
0.945685 0.935363 0.000000
1.000000 0.936616 0.211596
1.000000 0.950123 0.518730
1.000000 0.972959 0.813830
0.733880 0.998322 0.288032
0.742924 0.997926 0.288746
0.755674 0.997356 0.289831
0.789261 0.995792 0.293214
0.855484 0.992444 0.303600
0.937327 0.987905 0.332776
1.000000 0.984551 0.410794
1.000000 0.984802 0.576570
1.000000 0.990072 0.765607
0.905266 1.000000 0.639801
0.906419 1.000000 0.639978
0.908135 1.000000 0.640247
0.913239 1.000000 0.641091
0.926910 1.000000 0.643746
0.954910 1.000000 0.651783
0.990673 1.000000 0.673999
1.000000 1.000000 0.730832
1.000000 1.000000 0.828412
0.969475 1.000000 0.857220
0.969635 1.000000 0.857243
0.969876 1.000000 0.857279
0.970623 1.000000 0.857394
0.972881 1.000000 0.857758
0.978951 1.000000 0.858900
0.991125 1.000000 0.862336
1.000000 1.000000 0.871636
1.000000 1.000000 0.894560
0.000000 0.000000 0.551688
0.000000 0.000000 0.551957
0.139438 0.000000 0.551557
0.567197 0.000000 0.548867
0.922438 0.000000 0.551955
1.000000 0.000000 0.568714
1.000000 0.600010 0.608681
1.000000 0.859691 0.717362
1.000000 0.952092 0.850557
0.000000 0.000000 0.549582
0.000000 0.000000 0.549854
0.201201 0.000000 0.549063
0.580940 0.000000 0.546594
0.920381 0.000000 0.549663
1.000000 0.121012 0.564891
1.000000 0.629573 0.605659
1.000000 0.863002 0.716555
1.000000 0.952521 0.850389
0.000000 0.130010 0.544789
0.000000 0.137682 0.544889
0.213528 0.131637 0.544180
0.582839 0.000000 0.542425
0.904600 0.000000 0.544770
1.000000 0.348476 0.558479
1.000000 0.667420 0.601327
1.000000 0.867719 0.715344
1.000000 0.953164 0.850133
0.000000 0.525137 0.516675
0.000000 0.526416 0.517066
0.000000 0.525690 0.517646
0.518874 0.518874 0.518874
0.853549 0.521899 0.522771
1.000000 0.591748 0.539116
1.000000 0.747430 0.589705
1.000000 0.880385 0.711653
1.000000 0.955108 0.849325
0.000000 0.836297 0.455476
0.000000 0.834940 0.456178
0.000000 0.832520 0.457147
0.399073 0.825295 0.460011
0.804348 0.813028 0.469261
0.973726 0.817426 0.496226
1.000000 0.852366 0.562602
1.000000 0.908351 0.700362
1.000000 0.960560 0.846738
0.000000 0.958324 0.288073
0.205785 0.956958 0.289437
0.367046 0.954987 0.291493
0.581457 0.949708 0.297859
0.797127 0.941036 0.317481
0.942877 0.934383 0.370688
1.000000 0.935647 0.482501
1.000000 0.949209 0.662265
1.000000 0.972661 0.838200
0.743299 0.997883 0.288465
0.751838 0.997503 0.289183
0.763890 0.996956 0.290272
0.795749 0.995453 0.293666
0.858948 0.992233 0.304069
0.938587 0.987806 0.333233
1.000000 0.984512 0.411440
1.000000 0.984792 0.576595
1.000000 0.989849 0.802510
0.906789 1.000000 0.640010
0.907917 1.000000 0.640187
0.909595 1.000000 0.640456
0.914586 1.000000 0.641301
0.927971 1.000000 0.643955
0.955528 1.000000 0.651990
0.990880 1.000000 0.674189
1.000000 1.000000 0.731037
1.000000 1.000000 0.828437
0.969739 1.000000 0.857263
0.969897 1.000000 0.857287
0.970135 1.000000 0.857323
0.970877 1.000000 0.857438
0.973115 1.000000 0.857802
0.979136 1.000000 0.858944
0.991225 1.000000 0.862378
1.000000 1.000000 0.871673
1.000000 1.000000 0.894596
0.000000 0.000000 0.832105
0.000000 0.000000 0.832164
0.000000 0.000000 0.832253
0.431993 0.000000 0.828485
0.906326 0.000000 0.823225
1.000000 0.000000 0.825736
1.000000 0.474597 0.826939
1.000000 0.847618 0.840864
1.000000 0.950523 0.890408
0.000000 0.000000 0.831662
0.000000 0.000000 0.831721
0.000000 0.000000 0.831811
0.458119 0.000000 0.827705
0.911519 0.000000 0.822746
1.000000 0.000000 0.825259
1.000000 0.522107 0.824884
1.000000 0.851565 0.840425
1.000000 0.950973 0.890309
0.000000 0.000000 0.830982
0.000000 0.000000 0.831042
0.000000 0.000000 0.831110
0.492835 0.000000 0.826560
0.914421 0.000000 0.821985
1.000000 0.000000 0.823954
1.000000 0.580330 0.821981
1.000000 0.857165 0.839785
1.000000 0.951645 0.890160
0.000000 0.332625 0.820942
0.000000 0.336033 0.820857
0.000000 0.339495 0.820532
0.484509 0.329295 0.817835
0.892322 0.320087 0.814021
1.000000 0.458247 0.812516
1.000000 0.700396 0.814489
1.000000 0.872069 0.837946
1.000000 0.953675 0.889693
0.000000 0.809172 0.786538
0.000000 0.808332 0.786574
0.000000 0.806402 0.786541
0.263315 0.799127 0.786300
0.786501 0.786501 0.786501
0.961105 0.796017 0.789793
1.000000 0.838609 0.801575
1.000000 0.903247 0.833174
1.000000 0.959348 0.888245
0.000000 0.955820 0.754191
0.000000 0.954369 0.754257
0.084501 0.952279 0.754366
0.510296 0.946577 0.754770
0.770585 0.937103 0.756682
0.928806 0.930227 0.763832
1.000000 0.932218 0.782430
1.000000 0.947027 0.821434
1.000000 0.971849 0.883855
0.737514 0.996465 0.646735
0.745910 0.996094 0.647068
0.757759 0.995561 0.647576
0.789051 0.994099 0.649175
0.851084 0.990969 0.654218
0.929979 0.986615 0.669254
0.991593 0.983352 0.708285
1.000000 0.983767 0.781235
1.000000 0.989325 0.868998
0.911437 1.000000 0.640679
0.912486 1.000000 0.640856
0.914049 1.000000 0.641126
0.918703 1.000000 0.641970
0.931226 1.000000 0.644625
0.957454 1.000000 0.652649
0.991531 1.000000 0.674797
1.000000 1.000000 0.731693
1.000000 1.000000 0.828507
0.970567 1.000000 0.857404
0.970720 1.000000 0.857428
0.970952 1.000000 0.857464
0.971673 1.000000 0.857579
0.973851 1.000000 0.857942
0.979719 1.000000 0.859083
0.991542 1.000000 0.862512
1.000000 1.000000 0.871792
1.000000 1.000000 0.894712
0.000000 0.000000 0.969941
0.000000 0.000000 0.969949
0.000000 0.000000 0.969961
0.000000 0.000000 0.969999
0.796332 0.000000 0.960447
1.000000 0.000000 0.956542
1.000000 0.000000 0.956943
1.000000 0.791051 0.937499
1.000000 0.945420 0.941855
0.000000 0.000000 0.969884
0.000000 0.000000 0.969892
0.000000 0.000000 0.969904
0.000000 0.000000 0.969942
0.805211 0.000000 0.960250
1.000000 0.000000 0.956478
1.000000 0.000000 0.956880
1.000000 0.798654 0.936998
1.000000 0.945943 0.941797
0.000000 0.000000 0.969797
0.000000 0.000000 0.969805
0.000000 0.000000 0.969817
0.000000 0.000000 0.969855
0.818108 0.000000 0.959961
1.000000 0.000000 0.956380
1.000000 0.000000 0.956784
1.000000 0.809189 0.936292
1.000000 0.946726 0.941709
0.000000 0.000000 0.969521
0.000000 0.000000 0.969529
0.000000 0.000000 0.969541
0.000000 0.000000 0.968743
0.854300 0.000000 0.959119
1.000000 0.000000 0.956062
1.000000 0.234779 0.951925
1.000000 0.835987 0.934421
1.000000 0.949079 0.941440
0.000000 0.625200 0.946426
0.000000 0.626469 0.946358
0.000000 0.628392 0.946255
0.000000 0.628089 0.945135
0.788620 0.615625 0.941162
1.000000 0.654860 0.937148
1.000000 0.770308 0.932088
1.000000 0.884706 0.930673
1.000000 0.955584 0.940652
0.000000 0.950386 0.920521
0.000000 0.948711 0.920375
0.000000 0.946191 0.920157
0.175323 0.939201 0.919578
0.724609 0.926433 0.918662
0.918566 0.918565 0.918565
0.996092 0.922876 0.919953
1.000000 0.941136 0.925089
1.000000 0.969584 0.938606
0.673853 0.995712 0.905611
0.685566 0.995256 0.905598
0.701874 0.994603 0.905581
0.743743 0.992830 0.905552
0.822583 0.989123 0.905617
0.913310 0.984376 0.906344
0.980825 0.981127 0.909259
1.000000 0.982059 0.917063
1.000000 0.988347 0.933747
0.903683 1.000000 0.863111
0.904693 1.000000 0.863154
0.906197 1.000000 0.863219
0.910685 1.000000 0.863424
0.922801 1.000000 0.864079
0.948522 1.000000 0.866135
0.982462 1.000000 0.872196
1.000000 1.000000 0.887481
1.000000 1.000000 0.916977
0.973064 1.000000 0.857854
0.973205 1.000000 0.857877
0.973418 1.000000 0.857913
0.974078 1.000000 0.858027
0.976078 1.000000 0.858390
0.981493 1.000000 0.859528
0.992514 1.000000 0.862942
1.000000 1.000000 0.872170
1.000000 1.000000 0.895082
0.000000 0.000000 1.000000
0.000000 0.000000 1.000000
0.000000 0.000000 1.000000
0.000000 0.000000 1.000000
0.000000 0.000000 1.000000
1.000000 0.000000 1.000000
1.000000 0.000000 1.000000
1.000000 0.000000 1.000000
1.000000 0.922273 0.984431
0.000000 0.000000 1.000000
0.000000 0.000000 1.000000
0.000000 0.000000 1.000000
0.000000 0.000000 1.000000
0.000000 0.000000 1.000000
1.000000 0.000000 1.000000
1.000000 0.000000 1.000000
1.000000 0.000000 1.000000
1.000000 0.923275 0.984357
0.000000 0.000000 1.000000
0.000000 0.000000 1.000000
0.000000 0.000000 1.000000
0.000000 0.000000 1.000000
0.000000 0.000000 1.000000
1.000000 0.000000 1.000000
1.000000 0.000000 1.000000
1.000000 0.000000 1.000000
1.000000 0.924754 0.984246
0.000000 0.000000 1.000000
0.000000 0.000000 1.000000
0.000000 0.000000 1.000000
0.000000 0.000000 1.000000
0.000000 0.000000 1.000000
1.000000 0.000000 1.000000
1.000000 0.000000 1.000000
1.000000 0.000000 1.000000
1.000000 0.929084 0.983920
0.000000 0.000000 1.000000
0.000000 0.000000 1.000000
0.000000 0.000000 1.000000
0.000000 0.000000 1.000000
0.356105 0.000000 1.000000
1.000000 0.000000 1.000000
1.000000 0.000000 1.000000
1.000000 0.655792 0.997538
1.000000 0.940164 0.983068
0.000000 0.872205 0.991585
0.000000 0.872417 0.991570
0.000000 0.872740 0.991548
0.000000 0.873750 0.991478
0.446968 0.858615 0.989433
0.923052 0.846264 0.986805
1.000000 0.866139 0.984721
1.000000 0.912527 0.982211
1.000000 0.961306 0.981345
0.000000 1.000000 0.977806
0.231662 1.000000 0.977698
0.368753 0.998303 0.977548
0.555986 0.994012 0.977181
0.751578 0.986778 0.976595
0.894863 0.979740 0.976102
0.976046 0.976046 0.976046
1.000000 0.978032 0.976665
1.000000 0.985818 0.978894
0.879930 1.000000 0.970572
0.881279 1.000000 0.970570
0.883282 1.000000 0.970567
0.889213 1.000000 0.970557
0.904877 1.000000 0.970540
0.935954 1.000000 0.970562
0.974678 1.000000 0.970878
1.000000 1.000000 0.972178
1.000000 1.000000 0.975578
0.969637 1.000000 0.951379
0.969768 1.000000 0.951384
0.969967 1.000000 0.951393
0.970585 1.000000 0.951421
0.972457 1.000000 0.951510
0.977548 1.000000 0.951795
0.988027 1.000000 0.952694
1.000000 1.000000 0.955378
1.000000 1.000000 0.962289
0.000000 0.073769 1.000000
0.000000 0.073771 1.000000
0.000000 0.073774 1.000000
0.000000 0.073783 1.000000
0.000000 0.073813 1.000000
0.000000 0.073910 1.000000
1.000000 0.000000 1.000000
1.000000 0.163142 1.000000
1.000000 0.580227 1.000000
0.000000 0.073756 1.000000
0.000000 0.073758 1.000000
0.000000 0.073761 1.000000
0.000000 0.073771 1.000000
0.000000 0.073801 1.000000
0.000000 0.073898 1.000000
1.000000 0.000000 1.000000
1.000000 0.163773 1.000000
1.000000 0.580175 1.000000
0.000000 0.073737 1.000000
0.000000 0.073739 1.000000
0.000000 0.073742 1.000000
0.000000 0.073751 1.000000
0.000000 0.073782 1.000000
0.000000 0.073878 1.000000
1.000000 0.000000 1.000000
1.000000 0.164726 1.000000
1.000000 0.580094 1.000000
0.000000 0.073676 1.000000
0.000000 0.073678 1.000000
0.000000 0.073681 1.000000
0.000000 0.073690 1.000000
0.000000 0.073721 1.000000
0.000000 0.073818 1.000000
1.000000 0.000000 1.000000
1.000000 0.167691 1.000000
1.000000 0.579836 1.000000
0.000000 0.073480 1.000000
0.000000 0.073482 1.000000
0.000000 0.073485 1.000000
0.000000 0.073494 1.000000
0.000000 0.073525 1.000000
0.000000 0.073622 1.000000
1.000000 0.000000 1.000000
1.000000 0.176743 1.000000
1.000000 0.578976 1.000000
0.000000 0.072848 1.000000
0.000000 0.072850 1.000000
0.000000 0.072853 1.000000
0.000000 0.072862 1.000000
0.000000 0.072893 1.000000
0.678307 0.000000 1.000000
1.000000 0.000000 1.000000
1.000000 0.196879 1.000000
1.000000 0.868129 1.000000
0.000000 0.978772 1.000000
0.000000 0.978799 1.000000
0.000000 0.978840 1.000000
0.000000 0.978971 1.000000
0.000000 0.979385 1.000000
0.799297 0.950297 1.000000
0.978518 0.944126 1.000000
1.000000 0.952875 1.000000
1.000000 0.973608 1.000000
0.758032 1.000000 1.000000
0.763719 1.000000 1.000000
0.771827 1.000000 1.000000
0.793677 1.000000 1.000000
0.840019 1.000000 1.000000
0.907753 1.000000 1.000000
0.966865 1.000000 1.000000
0.999970 0.999970 0.999970
1.000000 1.000000 1.000000
0.959925 1.000000 0.997658
0.960098 1.000000 0.997658
0.960359 1.000000 0.997657
0.961166 1.000000 0.997655
0.963592 1.000000 0.997650
0.970061 1.000000 0.997638
0.982850 1.000000 0.997635
0.997700 1.000000 0.997743
1.000000 1.000000 0.998179
0.000000 0.245758 1.000000
0.000000 0.245758 1.000000
0.000000 0.245758 1.000000
0.000000 0.245756 1.000000
0.000000 0.245750 1.000000
0.000000 0.245766 1.000000
0.000000 0.245853 1.000000
1.000000 0.204125 1.000000
1.000000 0.610962 1.000000
0.000000 0.245755 1.000000
0.000000 0.245754 1.000000
0.000000 0.245754 1.000000
0.000000 0.245752 1.000000
0.000000 0.245746 1.000000
0.000000 0.245763 1.000000
0.000000 0.245849 1.000000
1.000000 0.204575 1.000000
1.000000 0.611047 1.000000
0.000000 0.245749 1.000000
0.000000 0.245749 1.000000
0.000000 0.245748 1.000000
0.000000 0.245747 1.000000
0.000000 0.245741 1.000000
0.000000 0.245758 1.000000
0.000000 0.245844 1.000000
1.000000 0.205258 1.000000
1.000000 0.611176 1.000000
0.000000 0.245732 1.000000
0.000000 0.245732 1.000000
0.000000 0.245731 1.000000
0.000000 0.245729 1.000000
0.000000 0.245724 1.000000
0.000000 0.245743 1.000000
0.000000 0.245828 1.000000
1.000000 0.207393 1.000000
1.000000 0.611583 1.000000
0.000000 0.245677 1.000000
0.000000 0.245676 1.000000
0.000000 0.245676 1.000000
0.000000 0.245674 1.000000
0.000000 0.245668 1.000000
0.000000 0.245692 1.000000
0.000000 0.245778 1.000000
1.000000 0.214056 1.000000
1.000000 0.612885 1.000000
0.000000 0.245499 1.000000
0.000000 0.245499 1.000000
0.000000 0.245498 1.000000
0.000000 0.245496 1.000000
0.000000 0.245504 1.000000
0.000000 0.245531 1.000000
0.000000 0.245617 1.000000
1.000000 0.233796 1.000000
1.000000 0.617011 1.000000
0.000000 0.244973 1.000000
0.000000 0.244974 1.000000
0.000000 0.244974 1.000000
0.000000 0.244977 1.000000
0.000000 0.244986 1.000000
0.000000 0.245013 1.000000
0.894413 0.000000 1.000000
1.000000 0.285972 1.000000
1.000000 0.628758 1.000000
0.000000 1.000000 1.000000
0.000000 1.000000 1.000000
0.000000 1.000000 1.000000
0.000000 1.000000 1.000000
0.000000 1.000000 1.000000
0.000000 1.000000 1.000000
0.925092 0.989927 1.000000
1.000000 0.987098 1.000000
1.000000 0.990693 1.000000
0.910521 1.000000 1.000000
0.911201 1.000000 1.000000
0.912221 1.000000 1.000000
0.915307 1.000000 1.000000
0.923988 1.000000 1.000000
0.943485 1.000000 1.000000
0.971529 1.000000 1.000000
0.994741 1.000000 1.000000
1.000000 1.000000 1.000000
