software/Premiere/LUTS/ARRI/Premiere_ARRI-LogC3_to_ACES-Rec709-LowCon-1Stop.cube
TITLE "Generated by Foundry::LUT"
LUT_3D_SIZE 5
0.000213 0.000213 0.000213
0.282120 0.000000 0.000000
0.899488 0.000000 0.000000
1.000000 0.642896 0.200164
1.000000 0.952887 0.816898
0.000000 0.307940 0.000000
0.257641 0.306300 0.000000
0.894499 0.299438 0.000000
1.000000 0.697657 0.160026
1.000000 0.953938 0.816268
0.000000 0.845608 0.000000
0.000000 0.841824 0.000000
0.808624 0.822472 0.000000
1.000000 0.857760 0.000000
1.000000 0.961200 0.811131
0.728705 0.998560 0.287805
0.751175 0.997573 0.289600
0.853607 0.992558 0.303354
1.000000 0.984572 0.410455
1.000000 0.990066 0.765684
0.969336 1.000000 0.857196
0.969739 1.000000 0.857257
0.972758 1.000000 0.857735
0.991072 1.000000 0.862314
1.000000 1.000000 0.894541
0.000000 0.000000 0.285444
0.268411 0.000000 0.283430
0.901102 0.000000 0.293678
1.000000 0.629177 0.420062
1.000000 0.952607 0.830181
0.000000 0.263795 0.262694
0.262646 0.262646 0.262646
0.888179 0.252886 0.273061
1.000000 0.687962 0.407295
1.000000 0.953665 0.829640
0.000000 0.843326 0.000000
0.000000 0.839388 0.000000
0.812326 0.820262 0.000000
1.000000 0.856381 0.321496
1.000000 0.960972 0.825247
0.733880 0.998322 0.288032
0.755674 0.997356 0.289831
0.855484 0.992444 0.303600
1.000000 0.984551 0.410794
1.000000 0.990072 0.765607
0.969475 1.000000 0.857220
0.969876 1.000000 0.857279
0.972881 1.000000 0.857758
0.991125 1.000000 0.862336
1.000000 1.000000 0.894560
0.000000 0.000000 0.832105
0.000000 0.000000 0.832253
0.906326 0.000000 0.823225
1.000000 0.474597 0.826939
1.000000 0.950523 0.890408
0.000000 0.000000 0.830982
0.000000 0.000000 0.831110
0.914421 0.000000 0.821985
1.000000 0.580330 0.821981
1.000000 0.951645 0.890160
0.000000 0.809172 0.786538
0.000000 0.806402 0.786541
0.786501 0.786501 0.786501
1.000000 0.838609 0.801575
1.000000 0.959348 0.888245
0.737514 0.996465 0.646735
0.757759 0.995561 0.647576
0.851084 0.990969 0.654218
0.991593 0.983352 0.708285
1.000000 0.989325 0.868998
0.970567 1.000000 0.857404
0.970952 1.000000 0.857464
0.973851 1.000000 0.857942
0.991542 1.000000 0.862512
1.000000 1.000000 0.894712
0.000000 0.000000 1.000000
0.000000 0.000000 1.000000
0.000000 0.000000 1.000000
1.000000 0.000000 1.000000
1.000000 0.922273 0.984431
0.000000 0.000000 1.000000
0.000000 0.000000 1.000000
0.000000 0.000000 1.000000
1.000000 0.000000 1.000000
1.000000 0.924754 0.984246
0.000000 0.000000 1.000000
0.000000 0.000000 1.000000
0.356105 0.000000 1.000000
1.000000 0.000000 1.000000
1.000000 0.940164 0.983068
0.000000 1.000000 0.977806
0.368753 0.998303 0.977548
0.751578 0.986778 0.976595
0.976046 0.976046 0.976046
1.000000 0.985818 0.978894
0.969637 1.000000 0.951379
0.969967 1.000000 0.951393
0.972457 1.000000 0.951510
0.988027 1.000000 0.952694
1.000000 1.000000 0.962289
0.000000 0.245758 1.000000
0.000000 0.245758 1.000000
0.000000 0.245750 1.000000
0.000000 0.245853 1.000000
1.000000 0.610962 1.000000
0.000000 0.245749 1.000000
0.000000 0.245748 1.000000
0.000000 0.245741 1.000000
0.000000 0.245844 1.000000
1.000000 0.611176 1.000000
0.000000 0.245677 1.000000
0.000000 0.245676 1.000000
0.000000 0.245668 1.000000
0.000000 0.245778 1.000000
1.000000 0.612885 1.000000
0.000000 0.244973 1.000000
0.000000 0.244974 1.000000
0.000000 0.244986 1.000000
0.894413 0.000000 1.000000
1.000000 0.628758 1.000000
0.910521 1.000000 1.000000
0.912221 1.000000 1.000000
0.923988 1.000000 1.000000
0.971529 1.000000 1.000000
1.000000 1.000000 1.000000
